tools/luts_backup/Kodak Vision3 50D 5203 (NEG)_CIN.cube
# (C) 2014 VisionColor & Patchflyer [www.vision-color.com]
# Generator: VC Patchmatch v.2.1.1 [64/53]
# All work and no play makes Jack a dull boy.
# LUT generated from: Kodak Vision3 50D 5203 (NEG)_Cineon
LUT_3D_SIZE 17
0.076951 0.076951 0.076951
0.143206 0.081392 0.076967
0.197330 0.082338 0.082780
0.245060 0.086946 0.090257
0.288243 0.095644 0.098039
0.331136 0.102602 0.104067
0.371008 0.108034 0.109041
0.405417 0.111971 0.112551
0.434394 0.115343 0.115023
0.459541 0.119127 0.116793
0.483742 0.124514 0.119234
0.507698 0.132494 0.123705
0.529717 0.144015 0.130404
0.548852 0.156451 0.136965
0.565332 0.164523 0.142046
0.578317 0.161700 0.144442
0.588434 0.150271 0.150408
0.112810 0.125063 0.090379
0.167529 0.131289 0.071000
0.222538 0.143618 0.074678
0.265400 0.152209 0.085191
0.304677 0.158755 0.094118
0.341955 0.164584 0.102144
0.377615 0.170001 0.109316
0.410407 0.176364 0.114443
0.438773 0.181201 0.117113
0.463539 0.183902 0.119112
0.487892 0.188785 0.122805
0.512154 0.198993 0.128954
0.534066 0.213031 0.136233
0.553338 0.227207 0.143740
0.570306 0.236530 0.150042
0.583963 0.232410 0.154574
0.595087 0.207965 0.158465
0.121477 0.197223 0.116045
0.163699 0.201328 0.108873
0.227039 0.211521 0.092775
0.278645 0.217731 0.089006
0.316640 0.224857 0.096330
0.351156 0.230030 0.104067
0.384497 0.235508 0.111513
0.415961 0.241093 0.116518
0.443900 0.244953 0.118761
0.468162 0.246021 0.120409
0.491661 0.248768 0.123766
0.515679 0.257313 0.130205
0.538079 0.271031 0.138720
0.557733 0.287816 0.147448
0.574960 0.303792 0.155032
0.589258 0.312276 0.161624
0.600717 0.305562 0.167300
0.134539 0.261723 0.141787
0.167956 0.265614 0.130770
0.212665 0.271626 0.122820
0.273396 0.280110 0.112993
0.321386 0.284764 0.106279
0.356039 0.286168 0.106386
0.387045 0.288518 0.111391
0.419318 0.294896 0.117235
0.450233 0.301366 0.120699
0.476341 0.303853 0.123415
0.499779 0.306203 0.127672
0.522881 0.314107 0.134386
0.544854 0.327138 0.143313
0.565072 0.344244 0.153521
0.583032 0.362860 0.163577
0.598108 0.379370 0.173480
0.610544 0.388388 0.183276
0.142046 0.318593 0.157824
0.177264 0.322652 0.145663
0.213489 0.326375 0.137240
0.257786 0.330938 0.132113
0.312139 0.336263 0.123934
0.354757 0.339025 0.118563
0.386038 0.335302 0.113924
0.417441 0.337484 0.117479
0.452598 0.347402 0.123110
0.483711 0.355825 0.128527
0.509453 0.361639 0.134966
0.532830 0.370001 0.143130
0.554238 0.381781 0.152743
0.573816 0.396597 0.163577
0.591516 0.414008 0.176196
0.606668 0.432441 0.190234
0.619410 0.448524 0.205005
0.143328 0.365652 0.165545
0.181903 0.371405 0.152804
0.221500 0.375906 0.144518
0.259144 0.378882 0.139208
0.300908 0.381384 0.135714
0.347463 0.383948 0.129824
0.384955 0.384131 0.126467
0.416068 0.380606 0.123247
0.452064 0.387366 0.128115
0.487465 0.399130 0.135775
0.516381 0.408957 0.144259
0.540948 0.418662 0.154086
0.562707 0.429328 0.165164
0.581842 0.441184 0.177249
0.598703 0.455619 0.191379
0.613489 0.472786 0.208042
0.626047 0.489952 0.226627
0.145724 0.406302 0.170672
0.184039 0.412619 0.159228
0.226093 0.417304 0.150561
0.263508 0.420371 0.145281
0.300206 0.422370 0.142565
0.340734 0.424155 0.140475
0.383032 0.426673 0.136965
0.418067 0.426368 0.136538
0.452888 0.428626 0.139315
0.488731 0.437278 0.145388
0.519646 0.447349 0.154788
0.545266 0.456703 0.165362
0.567361 0.465965 0.176730
0.586618 0.475563 0.188968
0.603250 0.486778 0.202838
0.617319 0.500664 0.219608
0.630213 0.516747 0.241108
0.151507 0.442191 0.179614
0.184375 0.447944 0.171359
0.223438 0.452018 0.162875
0.260899 0.455314 0.156100
0.297200 0.457496 0.152819
0.336599 0.459480 0.150668
0.378882 0.462089 0.147738
0.419135 0.464912 0.146105
0.454032 0.466682 0.150347
0.489189 0.472450 0.158282
0.519112 0.478691 0.164828
0.545129 0.485390 0.174075
0.567605 0.491722 0.183856
0.587152 0.499016 0.194476
0.604181 0.507515 0.206699
0.618265 0.517586 0.222492
0.631113 0.530190 0.243580
0.158587 0.473625 0.193668
0.181903 0.477974 0.188464
0.214069 0.481834 0.183154
0.249363 0.485817 0.176486
0.285527 0.488121 0.171054
0.325124 0.489647 0.167254
0.368811 0.491661 0.162249
0.411948 0.494240 0.157641
0.450874 0.496773 0.157244
0.485466 0.499962 0.165545
0.517006 0.505043 0.176013
0.541375 0.507912 0.181125
0.563531 0.510277 0.186969
0.583566 0.513726 0.194507
0.601160 0.519112 0.203403
0.616434 0.525948 0.216724
0.629572 0.534554 0.235630
0.164843 0.501381 0.210315
0.182559 0.504479 0.206394
0.205356 0.507759 0.203525
0.234119 0.511742 0.200946
0.270222 0.515343 0.196750
0.308629 0.516869 0.192508
0.351705 0.517891 0.186694
0.397284 0.519097 0.177569
0.438346 0.520638 0.171176
0.475883 0.522652 0.169833
0.508400 0.525231 0.179080
0.536187 0.528084 0.189792
0.556695 0.527138 0.190738
0.576715 0.526070 0.193103
0.595514 0.527596 0.198810
0.613062 0.532326 0.209827
0.628321 0.540078 0.228321
0.169726 0.525582 0.227558
0.185306 0.527703 0.223911
0.202274 0.530114 0.221027
0.224445 0.533028 0.220432
0.256550 0.536767 0.220691
0.297841 0.540002 0.220371
0.339605 0.541451 0.216846
0.382864 0.542092 0.208057
0.425910 0.542321 0.195865
0.463554 0.542916 0.187213
0.496330 0.543664 0.185107
0.525765 0.544915 0.192966
0.549981 0.544732 0.198734
0.569436 0.541375 0.197269
0.589853 0.540063 0.199939
0.610544 0.544152 0.211017
0.629160 0.553292 0.231388
0.174792 0.546151 0.244053
0.189410 0.547799 0.240650
0.205112 0.549508 0.238346
0.223621 0.551446 0.238514
0.250889 0.553994 0.242405
0.291356 0.557595 0.247242
0.335943 0.560510 0.247486
0.377234 0.561776 0.240940
0.417136 0.562097 0.227619
0.456016 0.561837 0.212970
0.489128 0.561975 0.205509
0.517754 0.561975 0.205356
0.543618 0.561349 0.208606
0.566598 0.559884 0.211383
0.587366 0.557809 0.211963
0.610025 0.561288 0.222385
0.631220 0.570703 0.244831
0.182834 0.564294 0.260197
0.196765 0.565454 0.256794
0.212589 0.566781 0.255772
0.232990 0.568475 0.259953
0.259373 0.570413 0.268193
0.296254 0.573068 0.277180
0.341390 0.576257 0.279515
0.383734 0.578317 0.272435
0.422187 0.579248 0.258305
0.458274 0.579446 0.241978
0.492134 0.579950 0.233433
0.521645 0.580606 0.233997
0.547158 0.580270 0.235050
0.569650 0.578790 0.233921
0.591516 0.578485 0.236805
0.612711 0.580438 0.243763
0.633204 0.587320 0.264134
0.193744 0.580209 0.277562
0.207645 0.580911 0.274098
0.224964 0.582147 0.274281
0.250080 0.583749 0.282826
0.282872 0.585977 0.298314
0.321340 0.588434 0.312764
0.365469 0.591226 0.315877
0.409262 0.593820 0.305364
0.447059 0.595514 0.288197
0.479164 0.596536 0.273701
0.509041 0.597681 0.268971
0.537408 0.598932 0.271992
0.561837 0.599161 0.273747
0.582315 0.598383 0.272221
0.600702 0.597803 0.270329
0.618967 0.599207 0.274510
0.634974 0.602045 0.284077
0.204944 0.593179 0.296483
0.219669 0.593942 0.294026
0.240467 0.595224 0.295354
0.269917 0.596796 0.304555
0.311315 0.599329 0.323980
0.359503 0.602686 0.344198
0.407187 0.605997 0.350500
0.451637 0.609140 0.341558
0.486595 0.611994 0.326696
0.512444 0.613886 0.317220
0.536385 0.614969 0.314336
0.559625 0.615473 0.315175
0.579904 0.615488 0.315099
0.597238 0.615091 0.313207
0.612009 0.614603 0.310033
0.625498 0.614420 0.306508
0.636759 0.614710 0.304204
0.211704 0.603311 0.311864
0.229328 0.604471 0.311574
0.256550 0.606531 0.315877
0.292485 0.608454 0.325048
0.338079 0.611048 0.340368
0.394156 0.615290 0.358099
0.448829 0.619730 0.366125
0.492836 0.623514 0.367407
0.522393 0.626917 0.364004
0.542779 0.628977 0.358679
0.562295 0.629526 0.356634
0.580316 0.629801 0.356527
0.595926 0.629740 0.355505
0.609064 0.629282 0.350866
0.620859 0.628748 0.344869
0.630991 0.628016 0.338491
0.639109 0.626307 0.328527
0.214939 0.611872 0.323293
0.236332 0.613504 0.324407
0.270024 0.616068 0.330892
0.311681 0.618433 0.339605
0.361166 0.621683 0.351095
0.415671 0.626169 0.360235
0.467628 0.630289 0.364065
0.506691 0.633921 0.366293
0.533837 0.636698 0.370474
0.554986 0.638224 0.376135
0.573251 0.639033 0.379721
0.589197 0.639460 0.380957
0.602426 0.639292 0.379431
0.613581 0.638697 0.374899
0.624140 0.638209 0.367666
0.634089 0.638209 0.362158
0.642695 0.638331 0.359823
0.086702 0.065812 0.087526
0.135409 0.077043 0.097200
0.191577 0.078920 0.106859
0.237415 0.083650 0.116106
0.278767 0.091356 0.121462
0.320302 0.097597 0.126116
0.361166 0.103441 0.131487
0.397696 0.107561 0.135302
0.428641 0.109865 0.136660
0.455726 0.114565 0.137301
0.480629 0.121035 0.138842
0.504601 0.126421 0.142611
0.527184 0.132601 0.148074
0.546838 0.139666 0.153582
0.564248 0.146990 0.159823
0.578180 0.150851 0.164111
0.589273 0.152636 0.166491
0.103044 0.112856 0.118105
0.128878 0.124346 0.123033
0.220310 0.119570 0.104631
0.274022 0.113924 0.107347
0.315114 0.116808 0.115984
0.354559 0.120897 0.120775
0.389838 0.124178 0.123751
0.420203 0.127047 0.125780
0.447181 0.131594 0.128359
0.472282 0.138064 0.131655
0.496132 0.146365 0.135714
0.518288 0.157290 0.141299
0.538262 0.168002 0.147616
0.555627 0.175479 0.154040
0.570062 0.176547 0.159335
0.581979 0.175479 0.164355
0.593744 0.194217 0.168200
0.115755 0.184497 0.150683
0.150912 0.219791 0.149157
0.239521 0.231846 0.123690
0.296681 0.219608 0.110140
0.333303 0.213535 0.115984
0.367407 0.211246 0.122698
0.399268 0.211414 0.127169
0.427512 0.211368 0.129458
0.452766 0.211704 0.131655
0.477653 0.215503 0.135775
0.502007 0.223377 0.141207
0.524163 0.234806 0.148013
0.543923 0.247120 0.155673
0.560952 0.254780 0.162112
0.575250 0.254124 0.167193
0.587381 0.246998 0.171252
0.597757 0.258732 0.174197
0.127367 0.251301 0.175235
0.156405 0.293828 0.170367
0.210575 0.299977 0.151797
0.288472 0.308202 0.135149
0.341375 0.295430 0.121294
0.373602 0.287892 0.123751
0.405844 0.286473 0.129198
0.435294 0.285588 0.132128
0.460426 0.283818 0.134188
0.484169 0.285176 0.138140
0.507836 0.291493 0.144198
0.529809 0.301961 0.151751
0.550042 0.315938 0.160876
0.568170 0.329992 0.169589
0.582605 0.337545 0.176059
0.593698 0.335012 0.180102
0.601984 0.327398 0.180301
0.135912 0.310552 0.196216
0.159472 0.346899 0.179370
0.206577 0.353155 0.163577
0.264714 0.359442 0.152255
0.329473 0.364004 0.142260
0.373816 0.353460 0.133425
0.407599 0.346914 0.132815
0.441184 0.348028 0.136492
0.470573 0.349630 0.140276
0.495781 0.352209 0.145144
0.519051 0.357595 0.152209
0.540749 0.366827 0.161166
0.560754 0.380148 0.171557
0.578729 0.395529 0.182498
0.593393 0.407630 0.192081
0.603815 0.408652 0.196445
0.608698 0.387686 0.190631
0.139788 0.360403 0.208606
0.164218 0.387793 0.181430
0.211139 0.394446 0.168582
0.262501 0.400275 0.159762
0.313085 0.405829 0.155795
0.367590 0.410346 0.151034
0.407248 0.402884 0.147036
0.442817 0.399695 0.145541
0.476326 0.403296 0.150271
0.504921 0.408438 0.156939
0.529549 0.414969 0.165057
0.551461 0.423453 0.175296
0.571191 0.434684 0.187320
0.588434 0.447776 0.200412
0.602762 0.459968 0.212665
0.612833 0.462318 0.218082
0.615778 0.436759 0.205234
0.143252 0.405234 0.209995
0.171435 0.422126 0.184863
0.214069 0.427756 0.174838
0.261860 0.433097 0.166415
0.305608 0.437644 0.163272
0.353353 0.443778 0.162234
0.402869 0.449165 0.159701
0.441688 0.446067 0.160678
0.477150 0.446952 0.163592
0.508324 0.451637 0.170718
0.534936 0.457908 0.179553
0.557702 0.465370 0.189685
0.577539 0.474571 0.202060
0.594629 0.484764 0.215366
0.608515 0.494682 0.228214
0.618494 0.497490 0.235447
0.620920 0.472923 0.218677
0.149676 0.445289 0.209369
0.177844 0.452125 0.192569
0.213947 0.456657 0.184283
0.255909 0.461189 0.175723
0.298711 0.464851 0.171618
0.341451 0.469917 0.171115
0.387625 0.476158 0.169650
0.433646 0.481651 0.168521
0.473152 0.483162 0.175952
0.505989 0.485451 0.183261
0.533288 0.488594 0.189624
0.557397 0.493294 0.197696
0.578012 0.499428 0.208057
0.595758 0.507134 0.220325
0.610147 0.514580 0.232731
0.620539 0.516869 0.241642
0.623148 0.495491 0.224811
0.158114 0.476707 0.215824
0.181903 0.479622 0.205951
0.209995 0.483360 0.200183
0.246784 0.487648 0.192859
0.288182 0.490776 0.186435
0.330251 0.493477 0.183398
0.373541 0.498299 0.182193
0.418082 0.503838 0.180194
0.460243 0.508721 0.179919
0.497612 0.511513 0.189853
0.527291 0.512871 0.198474
0.551202 0.513100 0.201648
0.573236 0.514916 0.207355
0.592172 0.518639 0.216434
0.607645 0.523049 0.226780
0.618723 0.523400 0.234333
0.621424 0.503655 0.219379
0.165057 0.502266 0.228809
0.184039 0.505379 0.223224
0.204486 0.508568 0.219257
0.234455 0.512581 0.215564
0.274220 0.516503 0.210758
0.316579 0.518273 0.205936
0.359457 0.519799 0.201114
0.402884 0.522881 0.196323
0.444053 0.526879 0.193988
0.482979 0.530755 0.194110
0.516564 0.532403 0.202838
0.543801 0.532082 0.209751
0.565698 0.529656 0.209430
0.586542 0.529488 0.214054
0.604074 0.531121 0.221973
0.616495 0.529427 0.227039
0.617838 0.506920 0.210193
0.169894 0.525536 0.244511
0.186267 0.528298 0.240955
0.203342 0.530877 0.237919
0.225681 0.533837 0.235874
0.260670 0.537774 0.236088
0.306554 0.541253 0.235157
0.349554 0.542489 0.229877
0.390646 0.543023 0.221378
0.431571 0.544244 0.211902
0.470375 0.547082 0.208927
0.506035 0.550149 0.213352
0.536385 0.550698 0.221012
0.560891 0.548623 0.222919
0.582147 0.546014 0.222141
0.602365 0.546838 0.228687
0.617563 0.546075 0.234455
0.619196 0.524285 0.214618
0.175189 0.546151 0.260975
0.190326 0.548211 0.258000
0.206302 0.550042 0.256031
0.225910 0.552026 0.256794
0.254704 0.554696 0.259770
0.298497 0.558480 0.264500
0.346029 0.561532 0.262318
0.385840 0.562402 0.253178
0.423850 0.562478 0.239689
0.462333 0.562997 0.227543
0.500557 0.566018 0.231281
0.534539 0.569131 0.243168
0.561395 0.569116 0.247120
0.583139 0.567010 0.245136
0.603128 0.566903 0.247776
0.620478 0.568063 0.254963
0.625620 0.554452 0.237736
0.183505 0.564370 0.277165
0.197589 0.565698 0.274159
0.213840 0.567117 0.273762
0.235157 0.568826 0.279149
0.262608 0.570825 0.287373
0.300679 0.573419 0.295430
0.348272 0.576776 0.295995
0.391531 0.578805 0.285725
0.428031 0.579431 0.270146
0.463279 0.579721 0.255070
0.498726 0.581155 0.251896
0.536065 0.585214 0.267155
0.566598 0.587366 0.277165
0.589853 0.587732 0.279454
0.607813 0.586923 0.276692
0.623713 0.587915 0.280919
0.631632 0.581476 0.270863
0.194812 0.580331 0.295079
0.208423 0.581018 0.291676
0.225895 0.582223 0.292180
0.251286 0.583917 0.301183
0.284459 0.586145 0.317220
0.321187 0.587991 0.330495
0.365301 0.590784 0.333089
0.411048 0.593744 0.320470
0.449592 0.595529 0.302007
0.481895 0.596674 0.288594
0.512093 0.598001 0.285832
0.542901 0.600229 0.293950
0.572854 0.602701 0.305806
0.596338 0.603952 0.311269
0.614420 0.604471 0.311879
0.627497 0.604120 0.308782
0.635935 0.601297 0.303975
0.206241 0.593378 0.314336
0.220783 0.594095 0.311879
0.241535 0.595346 0.313588
0.271336 0.596994 0.323354
0.312322 0.599390 0.342657
0.358053 0.602045 0.361990
0.404959 0.605280 0.368475
0.450248 0.608774 0.357748
0.486595 0.611872 0.341131
0.513512 0.613825 0.331762
0.537789 0.614908 0.329992
0.561349 0.615656 0.332479
0.583383 0.616495 0.336553
0.603067 0.617426 0.340734
0.619013 0.618128 0.342535
0.631373 0.617746 0.339040
0.639170 0.616419 0.333364
0.213718 0.603708 0.330816
0.231327 0.604898 0.330617
0.258244 0.606821 0.335012
0.294194 0.608774 0.344320
0.337972 0.610788 0.358480
0.392355 0.614664 0.375525
0.445869 0.619074 0.383032
0.489647 0.622812 0.382361
0.520989 0.626368 0.377554
0.542977 0.628641 0.372290
0.562814 0.629328 0.371710
0.580789 0.629725 0.372671
0.596582 0.629801 0.372717
0.610651 0.629908 0.371283
0.623392 0.630045 0.369589
0.634104 0.629908 0.366888
0.642283 0.628779 0.361166
0.217014 0.612253 0.342214
0.238361 0.613901 0.343374
0.271916 0.616480 0.350378
0.313695 0.618891 0.359579
0.359945 0.621317 0.368597
0.413581 0.625666 0.377432
0.463981 0.629664 0.379629
0.503441 0.633204 0.380438
0.532601 0.636179 0.384497
0.554879 0.637888 0.390631
0.573297 0.638773 0.394705
0.589258 0.639292 0.396353
0.602472 0.639216 0.395026
0.613901 0.638758 0.391791
0.624964 0.638651 0.387869
0.634989 0.638880 0.384314
0.643641 0.639109 0.383612
0.085695 0.061784 0.147692
0.137133 0.069337 0.146502
0.184146 0.075639 0.145739
0.231159 0.081224 0.154406
0.270741 0.087221 0.160281
0.311208 0.093309 0.164462
0.352926 0.099947 0.169909
0.391867 0.105562 0.173663
0.425223 0.109499 0.174533
0.453544 0.113237 0.172961
0.478645 0.118685 0.170657
0.502739 0.124468 0.170245
0.525765 0.129839 0.172259
0.545617 0.135012 0.174838
0.562921 0.140597 0.179034
0.577249 0.144671 0.183383
0.589624 0.150027 0.187503
0.092027 0.106157 0.168963
0.116030 0.089250 0.179736
0.196765 0.102480 0.169986
0.258000 0.106264 0.160464
0.301686 0.110842 0.158465
0.343221 0.115145 0.158465
0.381201 0.118761 0.158511
0.414130 0.121645 0.157443
0.442939 0.126650 0.156054
0.468681 0.132235 0.155673
0.493065 0.137377 0.157107
0.515999 0.143847 0.160754
0.536446 0.151034 0.165988
0.554116 0.157870 0.171771
0.568948 0.163119 0.176883
0.581201 0.167636 0.181750
0.591852 0.173404 0.184497
0.111467 0.165728 0.184024
0.137423 0.188525 0.208545
0.195178 0.177783 0.177020
0.287709 0.165881 0.134844
0.334554 0.151812 0.133608
0.371084 0.145907 0.138186
0.404532 0.144793 0.140093
0.432975 0.146029 0.140978
0.459083 0.151171 0.143389
0.484169 0.160479 0.148272
0.507134 0.170123 0.153918
0.527459 0.179370 0.159716
0.545388 0.187259 0.165652
0.560876 0.190982 0.171298
0.574365 0.194049 0.176684
0.585504 0.202335 0.180301
0.595224 0.208057 0.182330
0.122805 0.243412 0.214954
0.146044 0.277516 0.227802
0.187518 0.280659 0.201007
0.290059 0.294347 0.171603
0.352041 0.276997 0.143145
0.386206 0.263844 0.143130
0.416297 0.254948 0.144579
0.443076 0.248890 0.145724
0.468284 0.247822 0.148806
0.492485 0.253239 0.154284
0.515160 0.262623 0.161349
0.535363 0.272633 0.168582
0.552865 0.280598 0.175555
0.567605 0.282521 0.181003
0.579828 0.278752 0.184848
0.590265 0.275212 0.187259
0.599222 0.271107 0.188785
0.130785 0.303975 0.234257
0.151049 0.337331 0.235508
0.188144 0.355261 0.200061
0.265675 0.365637 0.181201
0.340551 0.370474 0.169665
0.392218 0.354742 0.152438
0.426093 0.345144 0.151232
0.455802 0.338674 0.152697
0.481071 0.334554 0.155993
0.504021 0.336065 0.162112
0.525811 0.343542 0.169726
0.545800 0.353994 0.178027
0.563165 0.364187 0.186328
0.577478 0.369894 0.192767
0.588129 0.365713 0.195926
0.595575 0.350881 0.194736
0.602762 0.330358 0.193744
0.134646 0.354574 0.247929
0.155978 0.387610 0.232166
0.196262 0.404944 0.198169
0.260441 0.413489 0.185168
0.324300 0.420844 0.178790
0.382910 0.425269 0.175036
0.428199 0.414710 0.168841
0.463966 0.409476 0.167254
0.493416 0.407767 0.171054
0.517754 0.408942 0.177325
0.539376 0.414481 0.185626
0.558877 0.423255 0.195514
0.575952 0.432929 0.205936
0.589578 0.439399 0.213855
0.599283 0.436240 0.216129
0.604212 0.415366 0.209232
0.607355 0.383871 0.200870
0.139147 0.401343 0.253712
0.164111 0.430396 0.227344
0.201404 0.438880 0.203800
0.254246 0.445655 0.192706
0.314290 0.451881 0.186038
0.365591 0.459358 0.185687
0.417426 0.465034 0.183444
0.460792 0.460563 0.185809
0.495949 0.459098 0.188037
0.524163 0.460609 0.195117
0.547524 0.464866 0.203983
0.567712 0.472099 0.214618
0.584833 0.480507 0.226276
0.598337 0.486061 0.235584
0.607645 0.483665 0.237690
0.611933 0.463905 0.227085
0.613443 0.430488 0.211902
0.146151 0.443641 0.253941
0.172595 0.463218 0.230518
0.203220 0.466514 0.215610
0.246067 0.471763 0.205890
0.302068 0.477226 0.197879
0.351690 0.482521 0.195453
0.398764 0.489540 0.195514
0.445869 0.495064 0.194232
0.487465 0.494484 0.201282
0.520119 0.494072 0.207355
0.546441 0.495766 0.213947
0.568475 0.500252 0.222919
0.586786 0.506447 0.233814
0.601236 0.511330 0.244068
0.611170 0.509529 0.247608
0.616022 0.493736 0.237919
0.617884 0.465049 0.221134
0.156344 0.479637 0.255909
0.179263 0.488869 0.240574
0.204410 0.490959 0.229496
0.238361 0.495308 0.222339
0.287709 0.500252 0.215122
0.338552 0.503456 0.209827
0.383627 0.508721 0.208988
0.427390 0.514214 0.208179
0.470039 0.518776 0.207523
0.508034 0.518868 0.214725
0.537774 0.517220 0.220386
0.561990 0.517128 0.223499
0.582559 0.519402 0.230274
0.598642 0.521630 0.238636
0.609766 0.519158 0.242161
0.615366 0.505928 0.234867
0.618906 0.485512 0.222385
0.166125 0.508797 0.263676
0.183917 0.511330 0.252995
0.204807 0.513039 0.243931
0.231586 0.516564 0.239704
0.274388 0.521126 0.236103
0.324666 0.524117 0.230091
0.370642 0.526589 0.225788
0.413367 0.530938 0.224140
0.455177 0.535241 0.222919
0.495247 0.539239 0.226520
0.527962 0.538552 0.231693
0.554284 0.535561 0.232517
0.576837 0.533715 0.232212
0.595102 0.532418 0.236103
0.607111 0.526833 0.236393
0.612360 0.511940 0.226673
0.616739 0.496651 0.217029
0.173358 0.531533 0.274861
0.187732 0.531579 0.265461
0.205066 0.532784 0.258564
0.228092 0.535622 0.256718
0.264134 0.539437 0.256596
0.313283 0.543160 0.255009
0.360281 0.545144 0.248310
0.402640 0.547280 0.243427
0.444785 0.550439 0.239460
0.486122 0.554574 0.242664
0.524300 0.558755 0.255375
0.552209 0.557870 0.257435
0.574624 0.554452 0.251789
0.594400 0.551919 0.249699
0.608454 0.546502 0.247730
0.613718 0.530495 0.233112
0.615290 0.511055 0.215900
0.179370 0.549447 0.286687
0.191821 0.549508 0.278050
0.207767 0.550622 0.274464
0.228565 0.552682 0.275853
0.258625 0.555383 0.278767
0.303136 0.558877 0.282643
0.353277 0.562097 0.278325
0.396918 0.563882 0.268803
0.440299 0.566171 0.261738
0.482277 0.569360 0.261357
0.522271 0.574136 0.276631
0.555871 0.577661 0.290547
0.579370 0.577173 0.289021
0.597223 0.574243 0.279774
0.612299 0.571069 0.275349
0.619852 0.560449 0.261021
0.619486 0.538781 0.232334
0.186572 0.565774 0.298909
0.198917 0.566018 0.292500
0.215061 0.567346 0.292119
0.237034 0.569131 0.298024
0.265324 0.571145 0.307027
0.302266 0.573297 0.314290
0.349996 0.576608 0.314107
0.397681 0.579431 0.301885
0.442695 0.581842 0.290013
0.486702 0.585016 0.288457
0.525246 0.588876 0.300801
0.559518 0.592676 0.317342
0.585718 0.594766 0.324224
0.604227 0.594751 0.321050
0.617243 0.592218 0.311055
0.625910 0.586862 0.299077
0.627085 0.571145 0.269215
0.196521 0.580728 0.313924
0.210056 0.581384 0.310369
0.227207 0.582422 0.310674
0.253193 0.584192 0.320165
0.287053 0.586465 0.336782
0.323156 0.588052 0.350057
0.365240 0.590265 0.351858
0.412558 0.593622 0.337545
0.457435 0.596689 0.320424
0.499077 0.600214 0.319463
0.535622 0.603830 0.331777
0.566232 0.606653 0.344320
0.590860 0.608591 0.352270
0.609461 0.609705 0.354864
0.622431 0.609018 0.349050
0.630732 0.606043 0.337377
0.634104 0.597498 0.314580
0.208667 0.593927 0.334051
0.223102 0.594629 0.331640
0.243626 0.595758 0.333074
0.273518 0.597345 0.342779
0.314870 0.599817 0.362341
0.358633 0.601938 0.380972
0.403525 0.604715 0.387152
0.448539 0.608301 0.375387
0.487541 0.611948 0.358221
0.520424 0.614969 0.354498
0.550271 0.617502 0.363882
0.575845 0.619440 0.373938
0.596628 0.620783 0.379690
0.612879 0.621546 0.381033
0.625544 0.621805 0.379553
0.634684 0.620554 0.372717
0.639460 0.616724 0.358618
0.216587 0.604334 0.350744
0.233875 0.605417 0.350561
0.260670 0.607309 0.355062
0.296620 0.609247 0.364477
0.339864 0.611170 0.378119
0.390341 0.614084 0.393744
0.443336 0.618433 0.401221
0.486961 0.622141 0.397940
0.519677 0.625788 0.392157
0.544305 0.628458 0.388861
0.565957 0.629618 0.394202
0.585153 0.630564 0.400580
0.601587 0.631174 0.404273
0.615351 0.631571 0.403708
0.627085 0.631861 0.401526
0.636622 0.631815 0.398688
0.643412 0.630350 0.393393
0.220676 0.613077 0.362722
0.241413 0.614603 0.363882
0.274403 0.617014 0.370886
0.315801 0.619318 0.379828
0.359823 0.621241 0.387289
0.410727 0.625025 0.395087
0.460792 0.628962 0.396353
0.500099 0.632441 0.395529
0.530007 0.635554 0.398810
0.554284 0.637507 0.405646
0.573678 0.638529 0.412314
0.590143 0.639231 0.417365
0.603937 0.639414 0.419394
0.615915 0.639414 0.419486
0.626978 0.639704 0.417899
0.636759 0.639979 0.414771
0.645182 0.640238 0.413123
0.085237 0.064683 0.200992
0.129595 0.066133 0.195392
0.176623 0.072038 0.195224
0.221149 0.077333 0.195819
0.262684 0.083177 0.201648
0.302571 0.088869 0.205753
0.345571 0.096208 0.211597
0.385901 0.101717 0.215946
0.421195 0.106096 0.217029
0.451377 0.111528 0.216129
0.477226 0.116976 0.212146
0.501381 0.122469 0.207599
0.524819 0.128069 0.205005
