tools/luts_backup/Kodak Ultramax 400_VS.cube
# (C) 2014 VisionColor & Patchflyer [www.vision-color.com]
# Generator: VC Patchmatch v.2.1.1 [64/53]
# All work and no play makes Jack a dull boy.
# LUT generated from: Kodak Ultramax 400_VisionSpace
LUT_3D_SIZE 17
0.025971 0.030152 0.025971
0.042420 0.026368 0.029572
0.065583 0.026886 0.029664
0.085725 0.030426 0.031128
0.108614 0.034455 0.035554
0.140475 0.038483 0.041688
0.171389 0.041718 0.046357
0.203189 0.045991 0.052796
0.240787 0.050660 0.060456
0.277806 0.053620 0.065095
0.312444 0.057099 0.068513
0.350652 0.061341 0.073701
0.389410 0.064973 0.079561
0.423987 0.068910 0.084565
0.456947 0.073030 0.091310
0.493233 0.078126 0.097871
0.525628 0.081819 0.103212
0.035309 0.050111 0.028809
0.052735 0.043030 0.027955
0.079774 0.046723 0.034394
0.102663 0.052369 0.037934
0.136233 0.061738 0.044526
0.170748 0.067384 0.049928
0.203983 0.071687 0.054627
0.238193 0.078340 0.060395
0.274266 0.084016 0.066194
0.308141 0.087068 0.071473
0.340520 0.091066 0.077058
0.375891 0.094881 0.082277
0.413855 0.096742 0.087465
0.450813 0.097047 0.092744
0.484230 0.094728 0.098604
0.510979 0.092775 0.102480
0.537224 0.087587 0.104036
0.049744 0.073274 0.034180
0.070588 0.074098 0.038331
0.099489 0.078431 0.042420
0.130404 0.085115 0.047395
0.165896 0.096529 0.052705
0.206638 0.107485 0.060304
0.244572 0.117006 0.067353
0.279637 0.125277 0.073182
0.314061 0.131350 0.077668
0.345403 0.132906 0.081361
0.377783 0.136965 0.087709
0.414282 0.142336 0.095094
0.447944 0.141817 0.099672
0.478676 0.139132 0.103914
0.509331 0.133852 0.109316
0.534966 0.123903 0.111788
0.558648 0.107820 0.112612
0.063172 0.094850 0.042267
0.090120 0.105684 0.047547
0.123537 0.115999 0.052430
0.160494 0.126955 0.057771
0.195987 0.138155 0.062379
0.238773 0.151461 0.069856
0.279973 0.164309 0.078645
0.315984 0.175418 0.085542
0.350591 0.185061 0.091615
0.385199 0.189700 0.097322
0.417090 0.189670 0.102388
0.448432 0.190555 0.108125
0.476478 0.189792 0.113008
0.506615 0.188846 0.118044
0.534142 0.184451 0.123018
0.558434 0.177035 0.127718
0.579828 0.161471 0.126864
0.089448 0.129549 0.053010
0.118654 0.144076 0.058259
0.154910 0.162387 0.064363
0.191104 0.173312 0.068696
0.228031 0.182559 0.073854
0.269139 0.197360 0.080262
0.310887 0.209842 0.088899
0.349279 0.223270 0.098390
0.387854 0.235843 0.106386
0.424170 0.245518 0.114382
0.454383 0.246067 0.119387
0.480781 0.244327 0.123903
0.507195 0.244144 0.129397
0.534752 0.246189 0.136294
0.560723 0.244358 0.142611
0.581903 0.242832 0.148501
0.596551 0.231632 0.146731
0.136843 0.184604 0.067964
0.161654 0.196963 0.071687
0.192416 0.214633 0.077302
0.228824 0.231388 0.084321
0.265843 0.241154 0.090150
0.299657 0.246250 0.094972
0.343694 0.260563 0.102449
0.387640 0.275761 0.113222
0.425422 0.287144 0.122225
0.461128 0.297734 0.129976
0.489174 0.302586 0.135958
0.513878 0.301305 0.140230
0.537011 0.300755 0.146578
0.561212 0.303227 0.154849
0.584283 0.304234 0.163790
0.602228 0.300328 0.168582
0.608759 0.288579 0.164096
0.195712 0.250034 0.085328
0.215305 0.260807 0.090364
0.242008 0.276677 0.095583
0.269688 0.291081 0.102022
0.304967 0.303197 0.109438
0.336431 0.306004 0.113069
0.372534 0.314061 0.120516
0.421057 0.331609 0.130648
0.461219 0.344976 0.140566
0.493233 0.352300 0.147768
0.521324 0.360204 0.154208
0.543938 0.360052 0.158419
0.562676 0.356542 0.162844
0.581353 0.353948 0.168948
0.601923 0.354620 0.178042
0.614954 0.347051 0.181857
0.616419 0.326574 0.174838
0.250645 0.311406 0.102571
0.264805 0.322515 0.109163
0.288975 0.336767 0.115755
0.313298 0.352178 0.122835
0.341527 0.361761 0.129213
0.372229 0.368170 0.134615
0.408392 0.371801 0.140627
0.445167 0.384344 0.149599
0.488746 0.399451 0.159274
0.516503 0.407904 0.165103
0.547387 0.419104 0.174502
0.570397 0.421302 0.179568
0.586419 0.412970 0.180819
0.599481 0.405097 0.182986
0.614191 0.396887 0.186618
0.624201 0.387549 0.188693
0.624079 0.365393 0.184360
0.297154 0.364050 0.119081
0.308782 0.376593 0.126741
0.327825 0.390082 0.134951
0.350164 0.406134 0.144045
0.375494 0.416846 0.151461
0.406653 0.425177 0.157687
0.442756 0.433326 0.164675
0.477485 0.439582 0.170230
0.512078 0.454475 0.180484
0.542229 0.463264 0.186862
0.567498 0.469642 0.191623
0.592889 0.476478 0.199222
0.607813 0.468757 0.199863
0.618280 0.458289 0.200015
0.625055 0.442115 0.198337
0.630793 0.426856 0.196017
0.628412 0.403723 0.190616
0.335180 0.409979 0.135012
0.345892 0.427131 0.144961
0.361089 0.441566 0.154086
0.382757 0.454322 0.163394
0.407599 0.467262 0.172549
0.439307 0.477424 0.180545
0.473152 0.484535 0.185916
0.507195 0.493568 0.192447
0.533318 0.501762 0.197910
0.565026 0.515343 0.209232
0.590051 0.522057 0.215518
0.613245 0.523888 0.218784
0.628260 0.519799 0.220676
0.635309 0.509819 0.219028
0.639094 0.492805 0.215335
0.639918 0.474617 0.210025
0.633478 0.442969 0.199100
0.365576 0.452125 0.148196
0.375006 0.471290 0.159274
0.387274 0.488167 0.169955
0.410132 0.501884 0.181277
0.437293 0.512657 0.189609
0.464790 0.520470 0.196475
0.496498 0.525902 0.201297
0.525444 0.531304 0.205661
0.556115 0.540795 0.214359
0.582361 0.550561 0.222751
0.606836 0.558618 0.231662
0.627527 0.560754 0.236667
0.644800 0.559686 0.239597
0.648890 0.548516 0.236271
0.653468 0.539300 0.233921
0.651911 0.522026 0.227298
0.643397 0.486213 0.213870
0.391455 0.495949 0.164157
0.401221 0.509575 0.172976
0.411597 0.524163 0.182010
0.432441 0.539300 0.193362
0.461189 0.548699 0.202914
0.486946 0.553918 0.208499
0.513909 0.557488 0.213260
0.543694 0.565118 0.218997
0.573571 0.571893 0.227512
0.601526 0.580835 0.237034
0.624475 0.590082 0.245487
0.642023 0.592645 0.251164
0.655940 0.590875 0.254398
0.660945 0.579828 0.251530
0.664454 0.572137 0.249454
0.662043 0.559747 0.244053
0.653620 0.527489 0.229679
0.405615 0.535576 0.178866
0.417060 0.545892 0.186740
0.432227 0.558984 0.195743
0.453376 0.571557 0.204440
0.478920 0.580194 0.212863
0.509850 0.586816 0.221378
0.535851 0.590204 0.226352
0.563256 0.597253 0.233494
0.592981 0.604089 0.242222
0.617395 0.608515 0.250645
0.639185 0.614923 0.258824
0.654780 0.617975 0.264744
0.667536 0.616846 0.267918
0.672633 0.613397 0.267979
0.673793 0.603784 0.264561
0.672053 0.596765 0.261143
0.666346 0.575372 0.251255
0.413092 0.577111 0.192691
0.425879 0.583886 0.198154
0.442573 0.594415 0.206516
0.466835 0.602502 0.215213
0.491829 0.608698 0.222782
0.523644 0.615473 0.232731
0.555627 0.620417 0.240696
0.584070 0.626520 0.248966
0.610620 0.632074 0.257572
0.631525 0.634882 0.264622
0.652033 0.637415 0.271397
0.665461 0.637903 0.275731
0.672419 0.634180 0.276432
0.682429 0.636744 0.280430
0.682582 0.632593 0.278782
0.681270 0.627680 0.276371
0.678676 0.619013 0.272129
0.420630 0.614923 0.207370
0.435187 0.618189 0.211337
0.447395 0.625208 0.216190
0.471107 0.632441 0.223575
0.503685 0.638880 0.233158
0.534783 0.643366 0.242222
0.564660 0.646662 0.250980
0.596063 0.651850 0.261112
0.624292 0.657160 0.271183
0.641901 0.658961 0.276951
0.657313 0.659175 0.281773
0.671199 0.655818 0.284642
0.676173 0.653315 0.285161
0.684688 0.653742 0.288060
0.689448 0.655207 0.290257
0.689082 0.653925 0.289586
0.688594 0.652216 0.288731
0.417853 0.641230 0.215152
0.433814 0.642573 0.219028
0.453925 0.652277 0.226505
0.474678 0.657588 0.232944
0.507530 0.662684 0.242405
0.541527 0.666133 0.252201
0.569299 0.669154 0.260288
0.594385 0.671992 0.268498
0.623377 0.674800 0.277745
0.646693 0.676844 0.285679
0.661494 0.678553 0.290837
0.670954 0.677638 0.293706
0.678401 0.672877 0.294194
0.685695 0.670375 0.295445
0.690944 0.670527 0.297185
0.696071 0.675135 0.300877
0.694575 0.670527 0.298436
0.383124 0.657526 0.213413
0.410437 0.659907 0.219760
0.442115 0.665980 0.228489
0.466804 0.668574 0.234897
0.500999 0.674769 0.245151
0.538598 0.679225 0.256107
0.565454 0.681300 0.263981
0.589685 0.683436 0.271427
0.620935 0.686061 0.281376
0.641138 0.685603 0.287419
0.652979 0.683955 0.290501
0.665919 0.685206 0.295018
0.675776 0.686305 0.298833
0.682612 0.684413 0.300450
0.689052 0.677760 0.299657
0.694942 0.682612 0.303655
0.698756 0.683284 0.305211
0.026612 0.026856 0.052796
0.040131 0.029877 0.056336
0.058747 0.028656 0.053803
0.083864 0.032380 0.056641
0.113863 0.036408 0.061158
0.146273 0.040162 0.068025
0.178195 0.043061 0.072938
0.210788 0.047364 0.080476
0.243107 0.051606 0.088197
0.274449 0.054170 0.092073
0.308080 0.057557 0.097230
0.344518 0.061738 0.104372
0.380987 0.064912 0.110231
0.418128 0.068849 0.116060
0.455756 0.074342 0.123049
0.491310 0.079622 0.130159
0.518791 0.082887 0.133700
0.032074 0.048646 0.055085
0.055421 0.055390 0.060212
0.091554 0.038911 0.041077
0.109590 0.036103 0.038331
0.138735 0.038575 0.041321
0.168673 0.041474 0.045808
0.200809 0.045624 0.051881
0.237003 0.049866 0.057527
0.275029 0.053437 0.062776
0.312444 0.057252 0.068757
0.348638 0.061067 0.074006
0.384863 0.064271 0.077760
0.422675 0.068238 0.084047
0.458961 0.073243 0.091737
0.495277 0.078462 0.098665
0.520897 0.084871 0.108675
0.532616 0.103212 0.140047
0.044434 0.085451 0.055329
0.068055 0.095186 0.045533
0.137453 0.111818 0.059419
0.165164 0.097719 0.054383
0.193179 0.093263 0.056611
0.223148 0.092958 0.060853
0.253574 0.095277 0.064637
0.284092 0.097597 0.069154
0.315404 0.099092 0.073121
0.349371 0.101717 0.078492
0.383795 0.104097 0.084810
0.419928 0.104250 0.089509
0.455665 0.101961 0.094423
0.487404 0.098756 0.099641
0.512474 0.095491 0.103761
0.535973 0.094911 0.110658
0.556481 0.125063 0.145846
0.061219 0.120699 0.055787
0.091737 0.130831 0.054414
0.151980 0.160098 0.065126
0.221775 0.178866 0.074342
0.245731 0.163333 0.073121
0.275822 0.161074 0.077333
0.306035 0.162539 0.081819
0.335363 0.163210 0.086213
0.364080 0.161837 0.090059
0.393042 0.160098 0.093996
0.425483 0.160433 0.099580
0.456703 0.160128 0.104494
0.488716 0.155886 0.109071
0.516808 0.148165 0.113283
0.541527 0.138216 0.116304
0.561608 0.132967 0.122133
0.585260 0.177432 0.160708
0.095369 0.157259 0.071778
0.135714 0.182986 0.067811
0.180606 0.207004 0.075410
0.236545 0.231296 0.084810
0.298711 0.245121 0.094148
0.324193 0.232120 0.093843
0.355505 0.231785 0.099947
0.387640 0.235019 0.105806
0.417212 0.234318 0.110079
0.442298 0.229191 0.113375
0.466468 0.223758 0.117250
0.493904 0.221408 0.122560
0.521324 0.219089 0.128023
0.547387 0.215793 0.133394
0.567834 0.206943 0.136446
0.583856 0.200320 0.140047
0.599908 0.240787 0.178866
0.143282 0.208713 0.091615
0.190463 0.244541 0.084199
0.225528 0.266331 0.093080
0.267857 0.288365 0.101015
0.318608 0.303685 0.110750
0.372259 0.313176 0.119417
0.405341 0.306310 0.121798
0.435889 0.305028 0.127474
0.464210 0.304906 0.132082
0.488350 0.301671 0.135561
0.508507 0.293889 0.137636
0.530358 0.288579 0.142184
0.553826 0.285893 0.149355
0.576013 0.284520 0.156619
0.593500 0.278996 0.161013
0.602472 0.271000 0.162570
0.612360 0.295933 0.195651
0.194858 0.265538 0.109926
0.246525 0.307561 0.101228
0.269749 0.323705 0.110689
0.304631 0.346746 0.120882
0.343999 0.359960 0.129091
0.394568 0.372717 0.140200
0.446265 0.387488 0.149935
0.475227 0.375677 0.150546
0.501793 0.373999 0.154757
0.525261 0.369757 0.156832
0.543755 0.361791 0.158785
0.560998 0.353826 0.161532
0.579828 0.349523 0.167575
0.597314 0.343267 0.173861
0.609949 0.333532 0.177707
0.614771 0.323369 0.180514
0.622309 0.341253 0.210605
0.244175 0.319432 0.127932
0.295567 0.362676 0.118624
0.312627 0.378851 0.129152
0.339971 0.399817 0.140414
0.374945 0.415595 0.151583
0.418769 0.427344 0.160372
0.467140 0.439796 0.169162
0.511833 0.457954 0.181704
0.533440 0.444709 0.179995
0.555505 0.440360 0.181888
0.575128 0.434150 0.183169
0.588769 0.420920 0.183169
0.600977 0.408728 0.184268
0.613947 0.397772 0.186770
0.621149 0.380346 0.186984
0.623285 0.366735 0.191012
0.630152 0.381628 0.222171
0.291508 0.374884 0.147280
0.333410 0.408606 0.134340
0.347723 0.429145 0.146395
0.371191 0.448798 0.158724
0.404425 0.465766 0.170901
0.443702 0.477821 0.180880
0.487007 0.488930 0.188052
0.527062 0.500694 0.196780
0.563897 0.515221 0.209171
0.583703 0.507225 0.208072
0.601373 0.499397 0.208591
0.614557 0.490120 0.208194
0.620630 0.469352 0.203342
0.628138 0.452888 0.201022
0.630518 0.431189 0.197421
0.630274 0.411109 0.199283
0.637690 0.423163 0.232151
0.327520 0.424414 0.162631
0.364752 0.452064 0.148257
0.377172 0.472541 0.160922
0.398993 0.494270 0.175204
0.428565 0.508324 0.186282
0.462898 0.518334 0.194705
0.504326 0.528069 0.203128
0.541192 0.535790 0.209964
0.575647 0.547845 0.221195
0.606104 0.555840 0.230167
0.624872 0.551476 0.231571
0.635370 0.541741 0.230289
0.641474 0.528435 0.227024
0.643946 0.509819 0.221347
0.642054 0.485390 0.214450
0.637842 0.456794 0.210452
0.645258 0.463233 0.241459
0.349035 0.459663 0.170138
0.389960 0.496437 0.164279
0.402258 0.511131 0.174655
0.421210 0.531640 0.187564
0.449378 0.542748 0.197757
0.482002 0.551751 0.206363
0.519127 0.560876 0.215122
0.555901 0.568200 0.223423
0.588952 0.576074 0.232425
0.619165 0.588067 0.244724
0.640742 0.589654 0.249912
0.653651 0.584344 0.251499
0.656886 0.570703 0.246891
0.659449 0.558801 0.243046
0.655726 0.537530 0.235264
0.649470 0.505364 0.226780
0.656062 0.508537 0.255650
0.364141 0.495613 0.175051
0.403876 0.536309 0.178805
0.417548 0.546624 0.187198
0.437537 0.565423 0.199283
0.464942 0.576257 0.208103
0.500450 0.584253 0.218479
0.537316 0.592645 0.228092
0.571862 0.600061 0.237125
0.602747 0.605463 0.246159
0.630335 0.611566 0.255406
0.650629 0.615778 0.262730
0.666102 0.617548 0.267826
0.671046 0.609522 0.265965
0.670100 0.595819 0.260258
0.667842 0.580926 0.254337
0.662287 0.555230 0.246525
0.667781 0.554772 0.271214
0.373175 0.531731 0.178958
0.412207 0.576867 0.192691
0.427375 0.584009 0.199619
0.448829 0.596643 0.209537
0.477363 0.606683 0.218479
0.511528 0.613855 0.228702
0.550652 0.620172 0.239750
0.586572 0.627558 0.250462
0.616419 0.632410 0.259373
0.639948 0.634485 0.266819
0.657526 0.635370 0.272312
0.670100 0.634974 0.276097
0.681880 0.638880 0.281071
0.681025 0.629145 0.276921
0.678920 0.619226 0.272770
0.676417 0.606317 0.270085
0.678889 0.595697 0.285191
0.378180 0.570092 0.186282
0.417060 0.612940 0.205875
0.433814 0.617700 0.210941
0.453712 0.625238 0.217746
0.484504 0.633356 0.227115
0.520073 0.640467 0.237919
0.558587 0.646204 0.249424
0.593652 0.651301 0.260380
0.625299 0.656580 0.271305
0.647334 0.658442 0.278416
0.663264 0.657526 0.282994
0.674647 0.654902 0.285374
0.682582 0.653437 0.287266
0.689296 0.655421 0.290318
0.687984 0.649897 0.287968
0.687587 0.644465 0.288396
0.689570 0.633631 0.301793
0.384497 0.607263 0.198245
0.412543 0.639765 0.213626
0.434119 0.643366 0.219364
0.456580 0.650477 0.226658
0.487312 0.657465 0.236301
0.525780 0.661891 0.247135
0.563348 0.666407 0.258274
0.594049 0.670130 0.268254
0.625574 0.673579 0.278508
0.648859 0.675441 0.286290
0.662928 0.675380 0.290562
0.674372 0.672145 0.293095
0.682216 0.667872 0.293584
0.690028 0.669276 0.296635
0.695521 0.673457 0.300603
0.694972 0.669459 0.300999
0.696193 0.661402 0.312413
0.388617 0.634638 0.207309
0.389441 0.655116 0.213901
0.420294 0.658564 0.221530
0.452705 0.666041 0.231907
0.486885 0.672541 0.243229
0.526757 0.677241 0.255619
0.563592 0.680201 0.266880
0.592493 0.682918 0.276219
0.621973 0.685359 0.285557
0.644892 0.685847 0.292851
0.659358 0.685512 0.296849
0.670161 0.686000 0.300389
0.680446 0.684443 0.302708
0.688716 0.680903 0.303136
0.695308 0.682795 0.306065
0.700069 0.687160 0.311131
0.701778 0.681849 0.321416
0.370245 0.656886 0.210666
0.387854 0.657984 0.214603
0.419623 0.662135 0.223178
0.458656 0.673579 0.239078
0.499794 0.680598 0.257664
0.542168 0.686244 0.277195
0.578515 0.688960 0.292271
0.604486 0.690791 0.302495
0.627985 0.693111 0.310674
0.646235 0.694575 0.316716
0.659480 0.695247 0.320684
0.669520 0.694453 0.322362
0.678370 0.692348 0.322026
0.687129 0.691402 0.320714
0.691432 0.688411 0.317968
0.697871 0.692653 0.321172
0.701106 0.689937 0.321141
0.028809 0.028809 0.081239
0.038148 0.029816 0.080720
0.053651 0.031220 0.078920
0.082765 0.033326 0.081514
0.117830 0.037629 0.088716
0.150881 0.041321 0.095216
0.184329 0.044282 0.102388
0.218967 0.048859 0.110933
0.251164 0.053101 0.117769
0.278264 0.055299 0.121584
0.306737 0.057893 0.126284
0.341772 0.061891 0.133516
0.379492 0.065888 0.140963
0.416327 0.069917 0.146883
0.450935 0.075166 0.151217
0.485115 0.080293 0.155459
0.511101 0.083558 0.158236
0.036072 0.051942 0.083192
0.038758 0.038972 0.106386
0.081392 0.042390 0.100771
0.115541 0.038727 0.087617
0.148135 0.040894 0.085359
0.179904 0.043885 0.087770
0.212772 0.048219 0.093812
0.245121 0.051789 0.098238
0.276158 0.054627 0.101411
0.308659 0.057984 0.104402
0.345342 0.061891 0.109285
0.381537 0.065248 0.115206
0.418128 0.069276 0.120638
0.454047 0.074250 0.125978
0.488289 0.079500 0.132753
0.514061 0.086122 0.140414
0.527184 0.107149 0.168643
0.046937 0.085023 0.086610
0.064759 0.118074 0.113710
0.110170 0.102113 0.105440
0.166476 0.071901 0.076478
0.176364 0.058686 0.063996
0.203647 0.051545 0.058106
0.237613 0.050996 0.059632
0.273442 0.053437 0.063203
0.309483 0.057038 0.067933
0.347997 0.060914 0.073457
0.387121 0.064698 0.078889
0.424872 0.068696 0.084443
0.460945 0.073304 0.091279
0.492836 0.078492 0.098878
0.516320 0.086732 0.111879
0.533043 0.105867 0.141115
0.550988 0.142489 0.183444
0.064912 0.135622 0.091798
0.082704 0.183017 0.084382
0.127657 0.162570 0.082704
0.211368 0.183169 0.103243
0.251926 0.158724 0.089967
0.283940 0.141665 0.081300
0.309453 0.129732 0.078157
0.334478 0.122621 0.079225
0.364782 0.120974 0.083803
0.396674 0.120424 0.088594
0.430396 0.117403 0.093141
0.459846 0.112642 0.096895
0.491096 0.106691 0.100832
0.518730 0.101808 0.106630
0.540612 0.105165 0.118257
0.560784 0.134340 0.149386
0.594293 0.191775 0.197177
0.082582 0.186069 0.084779
0.140475 0.224430 0.102571
0.173800 0.223636 0.093080
0.239322 0.254612 0.108766
0.326329 0.278569 0.124697
0.360754 0.252262 0.111177
0.384436 0.232700 0.106538
0.402380 0.216831 0.105135
0.423926 0.203555 0.105928
0.449470 0.195224 0.108858
0.474342 0.187625 0.112459
0.500999 0.180423 0.116335
0.526177 0.171908 0.119997
0.549371 0.161288 0.123537
0.569207 0.161257 0.133852
0.588556 0.195132 0.165316
0.611078 0.254246 0.213107
0.134554 0.234958 0.105562
0.189517 0.270237 0.119966
0.236545 0.296666 0.103456
0.282780 0.325597 0.118929
0.346990 0.348852 0.132418
0.430823 0.373754 0.150637
0.450965 0.336980 0.137942
0.468757 0.314855 0.134859
0.485115 0.299107 0.134005
0.502312 0.283162 0.134310
0.520562 0.270115 0.136538
0.541436 0.261784 0.141604
0.563409 0.254154 0.146578
0.580530 0.245701 0.149996
0.593713 0.243687 0.158419
0.605249 0.265385 0.185428
0.623194 0.310277 0.229953
0.189731 0.284947 0.132876
0.235111 0.319738 0.135775
0.291203 0.358282 0.118410
0.324529 0.386267 0.135195
0.371252 0.409003 0.149844
0.438636 0.428809 0.164126
0.504692 0.449439 0.178378
0.517418 0.411627 0.167178
0.535454 0.393835 0.165408
0.547845 0.374197 0.163302
0.560906 0.354757 0.162783
0.576867 0.341070 0.165682
0.592096 0.330541 0.170382
0.604303 0.319890 0.173922
0.611719 0.314244 0.181277
0.618738 0.325322 0.204654
0.633082 0.357031 0.245182
0.233951 0.333227 0.151339
0.282261 0.372442 0.153567
0.332525 0.408362 0.134249
0.354803 0.436377 0.151064
0.395331 0.459052 0.166903
0.449775 0.476417 0.180636
0.508659 0.492042 0.191959
0.560998 0.511467 0.206394
0.571313 0.481117 0.197818
0.586236 0.462852 0.194278
0.595941 0.436393 0.189303
0.603235 0.412924 0.186038
0.612573 0.395087 0.186648
0.619410 0.378790 0.188449
0.622675 0.365393 0.194675
0.628656 0.372045 0.219333
0.642664 0.400641 0.259373
0.274235 0.379126 0.168002
0.320165 0.418097 0.166598
0.365118 0.452216 0.148318
0.383917 0.480903 0.165530
0.417639 0.503441 0.182193
0.462013 0.517235 0.194125
0.515465 0.529595 0.204929
0.564111 0.542290 0.216373
0.606653 0.556420 0.230442
0.618189 0.539376 0.226444
0.624262 0.516396 0.219394
0.627405 0.488243 0.211063
0.629480 0.461082 0.204318
0.631373 0.436759 0.201144
0.631678 0.416938 0.205051
0.637293 0.418311 0.231113
0.650507 0.442603 0.271122
0.309697 0.427497 0.185031
0.344427 0.456550 0.173526
0.388647 0.495552 0.163851
0.407355 0.518791 0.178805
0.436286 0.537835 0.193790
0.476997 0.551019 0.205570
0.523613 0.561547 0.216098
0.569909 0.571374 0.227024
0.608637 0.582147 0.239384
0.640681 0.589807 0.250095
0.647425 0.572778 0.245335
0.648280 0.550896 0.237034
0.648219 0.527123 0.228489
0.645014 0.497902 0.219852
0.642267 0.472541 0.218875
0.646448 0.468086 0.243015
0.657649 0.482918 0.281193
0.330877 0.467933 0.194736
0.360327 0.495979 0.178103
0.402838 0.536736 0.178775
0.422827 0.551873 0.190829
0.450385 0.570489 0.203586
0.488624 0.581750 0.215122
0.536034 0.592340 0.227451
0.579919 0.600702 0.239048
0.614557 0.606470 0.249302
0.644831 0.613855 0.260563
0.664576 0.616724 0.267063
0.666773 0.599115 0.260502
0.664820 0.579278 0.252415
0.661494 0.557458 0.244388
0.656703 0.530358 0.239841
0.658839 0.520500 0.258610
0.667353 0.527428 0.294499
0.340154 0.498573 0.194827
0.367803 0.531792 0.181399
0.410925 0.576745 0.192599
0.431281 0.585657 0.201144
0.459907 0.600275 0.212802
0.498482 0.609522 0.224063
0.545312 0.619867 0.238132
0.589654 0.628656 0.251499
0.623194 0.633936 0.261967
0.650355 0.635401 0.270176
0.668208 0.637049 0.276341
0.680781 0.639094 0.280858
0.679164 0.623926 0.274296
0.675715 0.608484 0.268345
0.671534 0.585260 0.263340
0.671382 0.569116 0.275731
0.677577 0.572320 0.309453
0.344640 0.528191 0.190555
0.373816 0.568719 0.187747
0.413428 0.610712 0.204379
0.436408 0.618463 0.211917
0.465034 0.628901 0.221775
0.504601 0.635615 0.232639
0.550713 0.643977 0.247166
0.592828 0.652308 0.260960
0.628840 0.657282 0.272709
0.653437 0.659358 0.280674
0.670619 0.654719 0.284092
0.680354 0.653071 0.286442
0.689967 0.658473 0.291875
0.686854 0.645533 0.286412
0.685603 0.633997 0.286778
0.684413 0.615564 0.294621
0.686305 0.609766 0.321263
0.344793 0.561944 0.187869
0.379705 0.605005 0.196872
0.408026 0.637293 0.211887
0.436072 0.643091 0.219760
0.465858 0.651240 0.229282
0.506218 0.657588 0.241215
0.551385 0.663050 0.254887
0.590631 0.668666 0.267643
0.627283 0.673152 0.279789
0.652338 0.675593 0.288365
0.666865 0.673793 0.292119
0.679042 0.667720 0.293095
0.689418 0.668818 0.296696
0.696010 0.674403 0.301335
0.693599 0.663386 0.300084
0.695125 0.653162 0.311925
0.694148 0.637537 0.331090
0.351598 0.600366 0.194553
0.380011 0.634058 0.205478
0.395148 0.654688 0.215183
0.429847 0.659846 0.224552
0.465950 0.666407 0.236393
0.508293 0.673732 0.251316
0.553979 0.678370 0.266423
0.590021 0.681849 0.278050
0.623346 0.684504 0.288762
0.650385 0.686671 0.298466
0.665156 0.687037 0.302708
0.674922 0.684169 0.303807
0.685298 0.681666 0.304570
0.694606 0.681605 0.306798
0.699825 0.684657 0.310155
0.699611 0.675410 0.319677
0.699641 0.660700 0.338933
0.356207 0.631067 0.200290
0.371710 0.653864 0.210239
0.391730 0.661067 0.217868
0.431037 0.668605 0.231052
0.473610 0.676722 0.248020
0.519188 0.683772 0.268406
0.565759 0.687709 0.287480
0.596674 0.689937 0.299474
0.623072 0.692439 0.308965
0.645533 0.694057 0.316747
0.661860 0.694484 0.320958
0.672450 0.693202 0.322087
0.682368 0.690791 0.321569
0.690028 0.687709 0.318456
0.696254 0.688869 0.319371
0.701167 0.690730 0.322759
0.703517 0.681422 0.344060
0.352392 0.655879 0.207095
0.372534 0.658625 0.212528
0.404486 0.668330 0.226810
0.445594 0.674556 0.244877
0.491127 0.681147 0.268040
0.531884 0.685695 0.289952
0.573205 0.690669 0.310887
0.600366 0.692866 0.323674
0.625849 0.696773 0.334508
0.646754 0.698756 0.342870
0.660365 0.698329 0.345708
0.668238 0.696620 0.344640
0.672541 0.691615 0.339849
0.678523 0.687404 0.333806
0.684474 0.683436 0.328893
0.692622 0.688502 0.331365
0.700008 0.692897 0.340246
0.031281 0.031281 0.103975
0.040101 0.031830 0.102296
0.054902 0.032868 0.102083
0.082338 0.034974 0.104768
0.119692 0.038605 0.111971
0.154696 0.042206 0.118715
0.188663 0.045228 0.127260
0.223514 0.049836 0.135531
0.255131 0.054139 0.142611
0.282719 0.056306 0.146944
0.309697 0.058930 0.151827
0.341772 0.062593 0.159426
0.379339 0.066926 0.168154
