tools/luts_backup/Kodak Elite Chrome 200_FC.cube
# (C) 2014 VisionColor & Patchflyer [www.vision-color.com]
# Generator: VC Patchmatch v.2.1.1 [64/53]
# All work and no play makes Jack a dull boy.
# LUT generated from: Kodak Elite Chrome 200_FC01
LUT_3D_SIZE 17
0.025147 0.025147 0.025147
0.059159 0.021759 0.021820
0.094057 0.022263 0.024872
0.125078 0.021851 0.026734
0.154162 0.022324 0.028107
0.182193 0.024170 0.028840
0.204868 0.024994 0.028794
0.232410 0.026337 0.028031
0.266590 0.028809 0.028824
0.301991 0.030213 0.030915
0.342733 0.033417 0.034318
0.390570 0.039658 0.039734
0.444358 0.042741 0.042756
0.492149 0.045197 0.045243
0.530312 0.046342 0.046387
0.556191 0.046372 0.046418
0.591379 0.046342 0.046372
0.025666 0.053971 0.015106
0.055543 0.055543 0.017380
0.092103 0.056077 0.021530
0.123598 0.054490 0.024857
0.156619 0.051026 0.027054
0.191196 0.050446 0.030106
0.220172 0.051301 0.031693
0.248325 0.052461 0.033646
0.283055 0.053285 0.035126
0.320348 0.054734 0.035401
0.356466 0.057633 0.037507
0.401083 0.059663 0.041260
0.448569 0.060533 0.043610
0.487266 0.063661 0.046082
0.527565 0.066239 0.047837
0.553002 0.070893 0.048798
0.588617 0.070726 0.049653
0.023911 0.082033 0.013077
0.051835 0.085130 0.016220
0.086549 0.086732 0.019120
0.119280 0.086900 0.022629
0.155596 0.085847 0.026886
0.192813 0.081651 0.031785
0.229633 0.080934 0.034714
0.262470 0.081605 0.037049
0.299687 0.082292 0.040146
0.338476 0.082185 0.041718
0.372045 0.083040 0.043336
0.413596 0.084779 0.046235
0.455177 0.084733 0.046952
0.492226 0.084901 0.047089
0.526024 0.086702 0.048081
0.553140 0.091752 0.049195
0.590753 0.098558 0.053193
0.026108 0.112673 0.014557
0.050263 0.115343 0.016709
0.081514 0.116915 0.020172
0.114000 0.118929 0.022889
0.152041 0.120989 0.028641
0.193332 0.124086 0.034272
0.235416 0.122530 0.039933
0.275074 0.120958 0.043366
0.316732 0.119753 0.046174
0.361654 0.119127 0.049256
0.398779 0.118456 0.051820
0.433356 0.118608 0.053758
0.470588 0.118257 0.054017
0.505959 0.116655 0.052995
0.535531 0.115404 0.052232
0.562585 0.118242 0.054414
0.602274 0.129793 0.060243
0.027604 0.143008 0.016648
0.048966 0.145464 0.018265
0.076387 0.150790 0.021042
0.106355 0.153353 0.023896
0.145480 0.158221 0.030381
0.197208 0.163516 0.039368
0.247318 0.167010 0.045548
0.293050 0.164843 0.051301
0.340230 0.159380 0.054704
0.389609 0.155810 0.057252
0.429404 0.153887 0.060533
0.463798 0.154009 0.064240
0.496498 0.154589 0.065705
0.529625 0.153765 0.064958
0.556298 0.149340 0.061051
0.575586 0.145876 0.059434
0.608911 0.153857 0.065354
0.029358 0.171710 0.018540
0.047837 0.175860 0.019486
0.070603 0.183108 0.023377
0.095903 0.187747 0.026734
0.127932 0.194598 0.031922
0.183307 0.204013 0.040238
0.249943 0.212573 0.050645
0.311742 0.213825 0.059129
0.369299 0.212924 0.065888
0.422995 0.209857 0.070970
0.467796 0.204166 0.073381
0.503716 0.201923 0.077104
0.538079 0.204456 0.080964
0.571283 0.203738 0.081819
0.599069 0.198230 0.079805
0.611383 0.188998 0.075929
0.637324 0.184894 0.077012
0.030579 0.205310 0.021378
0.047684 0.214466 0.023407
0.067506 0.222034 0.026749
0.087510 0.228992 0.028946
0.109117 0.233722 0.031342
0.155215 0.243381 0.039521
0.232578 0.262409 0.051896
0.321477 0.279911 0.067185
0.394965 0.280232 0.076936
0.463081 0.285435 0.085664
0.515038 0.287755 0.091691
0.553719 0.280354 0.094392
0.593851 0.281132 0.101762
0.631708 0.282460 0.106645
0.661875 0.277882 0.106905
0.676905 0.263722 0.104005
0.692531 0.244373 0.098466
0.032807 0.245029 0.025986
0.048890 0.261707 0.027665
0.067597 0.271168 0.030823
0.084398 0.283497 0.033066
0.104509 0.285069 0.034028
0.133364 0.289921 0.037949
0.206027 0.312230 0.052308
0.305730 0.345861 0.070207
0.405035 0.362844 0.086702
0.489616 0.366033 0.100114
0.557000 0.376043 0.111360
0.608133 0.377676 0.116655
0.653712 0.373404 0.123919
0.697932 0.376257 0.134371
0.724681 0.371191 0.136995
0.742977 0.356970 0.136431
0.761227 0.345785 0.132143
0.034485 0.293431 0.028275
0.051621 0.316594 0.031312
0.068742 0.329747 0.034882
0.085786 0.349828 0.038361
0.105684 0.354833 0.040070
0.131212 0.354604 0.041367
0.188128 0.367437 0.052415
0.294286 0.403891 0.072496
0.404059 0.436271 0.093599
0.493111 0.441047 0.108629
0.582162 0.451713 0.125261
0.647990 0.463600 0.136339
0.704784 0.466804 0.145525
0.749874 0.472648 0.157382
0.776318 0.466667 0.162646
0.794049 0.451514 0.161868
0.820172 0.448829 0.161639
0.036332 0.356130 0.031678
0.055131 0.382132 0.037324
0.072984 0.395102 0.040620
0.092638 0.411109 0.045350
0.112856 0.421210 0.048112
0.136873 0.423545 0.050248
0.185504 0.430930 0.056367
0.280308 0.454627 0.073030
0.401526 0.492988 0.097520
0.507652 0.513954 0.122148
0.593759 0.515572 0.134066
0.670115 0.532341 0.150240
0.736645 0.545464 0.165850
0.786297 0.556344 0.180804
0.819745 0.555138 0.188434
0.836408 0.542550 0.186450
0.848234 0.523964 0.181537
0.043320 0.424689 0.039704
0.060853 0.447288 0.045762
0.078279 0.461524 0.048844
0.099504 0.472007 0.052842
0.120836 0.477378 0.055283
0.145739 0.483238 0.058976
0.194308 0.488975 0.066041
0.274571 0.506218 0.077089
0.394629 0.537820 0.100801
0.511666 0.571466 0.130373
0.613748 0.585580 0.150423
0.683574 0.590295 0.162951
0.750027 0.610498 0.180911
0.806531 0.624491 0.196780
0.852399 0.633402 0.210254
0.868406 0.624689 0.210712
0.865980 0.591546 0.199390
0.052186 0.495079 0.048524
0.067033 0.507958 0.051804
0.083055 0.519448 0.055314
0.102678 0.531975 0.057984
0.122591 0.534707 0.060868
0.147570 0.540429 0.064515
0.199893 0.545327 0.073503
0.282338 0.555886 0.086427
0.395254 0.587915 0.107790
0.522103 0.620600 0.137713
0.628016 0.644236 0.162554
0.702846 0.651133 0.177111
0.760525 0.655818 0.191165
0.819074 0.681544 0.209216
0.865370 0.694911 0.225803
0.883421 0.702800 0.234653
0.890059 0.669215 0.230594
0.056687 0.561181 0.053849
0.070939 0.568444 0.056123
0.088914 0.575250 0.061204
0.107790 0.584131 0.064363
0.126558 0.586984 0.067399
0.150484 0.592004 0.070832
0.200641 0.599008 0.079179
0.287572 0.609155 0.095689
0.406302 0.636286 0.118029
0.532296 0.672129 0.145617
0.639307 0.693568 0.172976
0.720470 0.709041 0.189899
0.774655 0.711086 0.201999
0.830549 0.723369 0.218860
0.870924 0.741466 0.238071
0.894438 0.748592 0.253651
0.917311 0.753994 0.269169
0.062165 0.618814 0.060182
0.075288 0.621241 0.062531
0.092424 0.630289 0.066300
0.112734 0.635126 0.070375
0.131930 0.636042 0.073503
0.158434 0.639658 0.076997
0.210849 0.646006 0.087343
0.297658 0.659464 0.105089
0.418723 0.685481 0.128069
0.553903 0.718029 0.156222
0.657694 0.737881 0.183429
0.737163 0.754177 0.201099
0.793774 0.766476 0.216342
0.846448 0.770779 0.229038
0.873030 0.780453 0.246479
0.900725 0.794461 0.263386
0.928496 0.808576 0.287999
0.068132 0.662867 0.065141
0.081239 0.666621 0.068345
0.096086 0.677455 0.070283
0.119478 0.677943 0.073564
0.145556 0.680919 0.078218
0.174914 0.690852 0.085039
0.232090 0.697063 0.097505
0.321126 0.707469 0.115312
0.432425 0.727123 0.137133
0.569848 0.756756 0.166934
0.682918 0.785641 0.196017
0.749310 0.800473 0.214343
0.807675 0.818311 0.226215
0.851408 0.827802 0.240650
0.877607 0.829633 0.254047
0.900252 0.836362 0.269932
0.928634 0.848600 0.291676
0.070756 0.713008 0.068040
0.088380 0.705608 0.070970
0.105089 0.719615 0.073350
0.130510 0.724010 0.077089
0.164782 0.726253 0.083696
0.206073 0.732525 0.093751
0.269795 0.735775 0.108476
0.360800 0.744717 0.127947
0.467002 0.764721 0.148943
0.591302 0.797650 0.178897
0.698848 0.833753 0.205966
0.764080 0.853132 0.225162
0.821714 0.861677 0.240482
0.860182 0.867124 0.254902
0.880186 0.870848 0.265599
0.899855 0.871061 0.278492
0.928344 0.871443 0.294392
0.078126 0.752148 0.072328
0.091524 0.746975 0.072923
0.105608 0.745327 0.074800
0.137697 0.753323 0.082322
0.179034 0.757259 0.092180
0.231937 0.764660 0.103059
0.302922 0.771221 0.116655
0.393042 0.776867 0.137453
0.490211 0.792615 0.159655
0.597955 0.828489 0.182925
0.699733 0.865049 0.208255
0.774807 0.881056 0.231693
0.840970 0.891691 0.254902
0.869276 0.898497 0.271717
0.888914 0.900206 0.289204
0.908354 0.906996 0.300099
0.927947 0.908415 0.315785
0.029023 0.024674 0.061051
0.058091 0.021073 0.051270
0.094316 0.023041 0.049302
0.123995 0.023178 0.049104
0.153079 0.025330 0.048173
0.182055 0.026352 0.048051
0.209277 0.027329 0.048524
0.236637 0.029114 0.048417
0.270176 0.030137 0.048692
0.306783 0.031067 0.049531
0.345937 0.034424 0.052964
0.393454 0.040116 0.058946
0.446586 0.044602 0.061936
0.494270 0.047715 0.064210
0.530587 0.047425 0.064439
0.558907 0.049699 0.064332
0.585214 0.049760 0.065827
0.022507 0.051545 0.044739
0.055238 0.052735 0.048447
0.111208 0.032898 0.032715
0.152621 0.025238 0.030182
0.179675 0.023926 0.029496
0.203525 0.026337 0.028428
0.229953 0.027543 0.027893
0.263569 0.028687 0.028977
0.302007 0.030137 0.030930
0.342336 0.033600 0.034424
0.386694 0.038911 0.039063
0.436225 0.043168 0.042985
0.486686 0.046189 0.045884
0.524193 0.046983 0.046220
0.553399 0.049088 0.046510
0.585092 0.049973 0.049683
0.598795 0.067857 0.067857
0.022827 0.082811 0.041550
0.033982 0.101198 0.023499
0.104875 0.105837 0.030213
0.153002 0.084382 0.028733
0.192691 0.070008 0.030640
0.223896 0.065110 0.032853
0.254353 0.063859 0.035004
0.287739 0.061891 0.035096
0.321706 0.061067 0.035966
0.360265 0.061006 0.038712
0.400244 0.062699 0.040909
0.446464 0.064759 0.043503
0.489540 0.066133 0.046632
0.525048 0.068147 0.046937
0.553506 0.072282 0.049256
0.582483 0.076936 0.052659
0.598321 0.096010 0.071778
0.024109 0.112810 0.039445
0.031235 0.140261 0.019028
0.073945 0.146349 0.021439
0.143618 0.155383 0.031357
0.195010 0.132982 0.036683
0.235248 0.119280 0.039384
0.271962 0.111406 0.041901
0.309407 0.104692 0.043320
0.348028 0.099596 0.044190
0.384604 0.098924 0.047028
0.422370 0.098940 0.049470
0.457923 0.097581 0.048707
0.493507 0.095949 0.048356
0.527230 0.095384 0.049149
0.556725 0.098909 0.051804
0.590097 0.106538 0.057176
0.602396 0.123644 0.075456
0.025834 0.146426 0.040940
0.030228 0.171908 0.018708
0.061585 0.179355 0.021302
0.103532 0.190082 0.028473
0.182712 0.204944 0.040192
0.249226 0.185931 0.048280
0.295598 0.171115 0.051575
0.341329 0.160052 0.054688
0.385901 0.151171 0.057649
0.421607 0.144976 0.058808
0.454154 0.142458 0.060517
0.487053 0.139422 0.060929
0.515526 0.134752 0.058259
0.542046 0.131579 0.056443
0.568154 0.131395 0.057343
0.593606 0.136217 0.063478
0.603784 0.142977 0.076890
0.025956 0.179171 0.041215
0.031144 0.204303 0.021454
0.056733 0.218158 0.023957
0.087572 0.230716 0.029648
0.130632 0.238148 0.035477
0.234318 0.265721 0.053635
0.319020 0.250874 0.065080
0.377813 0.235157 0.069886
0.427741 0.221408 0.073167
0.467201 0.206607 0.074937
0.497307 0.197269 0.076097
0.527871 0.193347 0.077836
0.556451 0.186130 0.076341
0.579675 0.177798 0.072450
0.600412 0.170687 0.070726
0.612604 0.164996 0.072099
0.610651 0.166995 0.083482
0.026734 0.211597 0.041947
0.033021 0.246296 0.025895
0.054765 0.263951 0.028122
0.081056 0.282338 0.032013
0.110979 0.287587 0.036500
0.176577 0.303655 0.047669
0.309087 0.348363 0.072496
0.397910 0.326940 0.083131
0.470466 0.311986 0.090684
0.522377 0.300557 0.094804
0.557122 0.286168 0.097108
0.589746 0.279850 0.101472
0.623774 0.272343 0.104311
0.648875 0.255970 0.100160
0.665660 0.239841 0.096208
0.671397 0.226612 0.094499
0.657313 0.223758 0.103685
0.028977 0.250965 0.043076
0.035737 0.298817 0.029648
0.055833 0.320577 0.033478
0.079408 0.343069 0.036622
0.107027 0.352697 0.040009
0.147814 0.358892 0.045609
0.258412 0.389410 0.066163
0.403372 0.434043 0.095750
0.492454 0.413748 0.106172
0.566003 0.408423 0.117052
0.621012 0.401312 0.123964
0.661112 0.390997 0.128740
0.697643 0.383566 0.135012
0.723888 0.368200 0.136812
0.736126 0.348165 0.133806
0.745556 0.332479 0.130480
0.732677 0.320256 0.136538
0.032059 0.299916 0.045930
0.037873 0.358251 0.033661
0.060365 0.384558 0.039399
0.083909 0.405493 0.044511
0.110780 0.417914 0.047883
0.144488 0.421225 0.051667
0.220981 0.443320 0.062959
0.361898 0.480552 0.090440
0.510063 0.515221 0.123140
0.590539 0.500557 0.132967
0.658106 0.501320 0.145388
0.716396 0.501442 0.155444
0.757656 0.495155 0.163088
0.787045 0.485405 0.168673
0.801999 0.464591 0.167102
0.810666 0.446952 0.163775
0.809262 0.430732 0.171130
0.035370 0.362295 0.049851
0.041444 0.424994 0.038849
0.065751 0.446494 0.045808
0.090501 0.469276 0.051606
0.114641 0.477317 0.055222
0.145937 0.480949 0.059144
0.211963 0.496101 0.069444
0.331426 0.523598 0.088869
0.485496 0.560632 0.123674
0.615778 0.592462 0.149416
0.676661 0.576730 0.160296
0.739544 0.584466 0.175814
0.794049 0.589624 0.188205
0.829862 0.582635 0.195499
0.846387 0.560143 0.192752
0.847105 0.535515 0.187411
0.854765 0.514748 0.196353
0.040726 0.428748 0.054734
0.049485 0.494499 0.046937
0.070069 0.508492 0.052033
0.093584 0.527871 0.056580
0.116732 0.533913 0.060380
0.144259 0.538033 0.064286
0.206638 0.547509 0.074937
0.318761 0.567010 0.093675
0.466606 0.606302 0.124102
0.605570 0.637079 0.157443
0.701350 0.654856 0.176394
0.750820 0.648783 0.188998
0.809873 0.660319 0.205341
0.859953 0.665232 0.217853
0.873152 0.648432 0.220020
0.871321 0.620615 0.212116
0.872602 0.588205 0.220401
0.049317 0.495354 0.061997
0.056138 0.555886 0.053758
0.073625 0.568978 0.057237
0.095155 0.579629 0.062470
0.119646 0.586206 0.066529
0.146136 0.588937 0.069688
0.203449 0.598581 0.079454
0.313191 0.613947 0.099809
0.457618 0.647761 0.127703
0.603037 0.688060 0.162493
0.704173 0.706477 0.186648
0.773983 0.711192 0.201419
0.822385 0.712077 0.218189
0.866926 0.727214 0.233341
0.890471 0.732280 0.246342
0.900252 0.717433 0.249012
0.892653 0.672801 0.254444
0.055528 0.557916 0.068360
0.061692 0.610269 0.059449
0.078569 0.622339 0.062852
0.100023 0.630518 0.068345
0.124849 0.638086 0.072313
0.152117 0.642267 0.075303
0.206561 0.647242 0.085710
0.312505 0.660380 0.106554
0.457664 0.690272 0.136187
0.603311 0.726787 0.169085
0.711528 0.751797 0.195407
0.781674 0.765652 0.212329
0.838300 0.771023 0.228824
0.872404 0.772305 0.244053
0.896849 0.786633 0.262470
0.921904 0.784207 0.281300
0.917220 0.755199 0.290837
0.061707 0.613031 0.074434
0.068009 0.663569 0.065156
0.084138 0.667720 0.067521
0.105074 0.676555 0.071901
0.132387 0.682048 0.076493
0.164630 0.689540 0.082490
0.218128 0.696345 0.094652
0.321996 0.707027 0.114900
0.463493 0.732265 0.142763
0.606058 0.768231 0.177981
0.715526 0.797345 0.205356
0.788464 0.814435 0.222660
0.843870 0.823758 0.237736
0.875517 0.827756 0.254505
0.899596 0.827756 0.268544
0.923308 0.834043 0.289830
0.928405 0.810666 0.311467
0.067247 0.660517 0.079728
0.073167 0.708003 0.070527
0.090654 0.706462 0.071473
0.111131 0.714763 0.075029
0.142794 0.722057 0.081315
0.187228 0.726879 0.091829
0.247639 0.734035 0.105226
0.344167 0.743664 0.125704
0.478355 0.770336 0.150820
0.614466 0.808087 0.183505
0.725750 0.843076 0.213367
0.797147 0.857221 0.232181
0.850324 0.862806 0.247532
0.877638 0.868055 0.264363
0.899702 0.871443 0.279255
0.922850 0.866636 0.293645
0.928557 0.854307 0.314015
0.072587 0.708675 0.086351
0.080446 0.746914 0.076829
0.096025 0.741588 0.077638
0.117571 0.742794 0.081025
0.155077 0.750011 0.089143
0.208865 0.753201 0.101350
0.279744 0.757870 0.116487
0.374350 0.768414 0.137194
0.489769 0.798810 0.162188
0.609247 0.838209 0.189166
0.717647 0.867323 0.219364
0.801572 0.882628 0.243580
0.854017 0.891783 0.263859
0.876539 0.893172 0.280674
0.897093 0.895109 0.295674
0.922621 0.901732 0.310903
0.928405 0.871519 0.316121
0.077821 0.761776 0.087129
0.098894 0.754849 0.094835
0.117205 0.750942 0.096559
0.144808 0.755261 0.100969
0.188907 0.758450 0.111086
0.240070 0.763012 0.121859
0.311696 0.768032 0.135927
0.399405 0.782147 0.154314
0.496254 0.810025 0.176822
0.604776 0.844862 0.201892
0.706050 0.871290 0.229969
0.779019 0.885115 0.256001
0.836698 0.892790 0.276905
0.868360 0.898726 0.293019
0.889311 0.899229 0.304860
0.909636 0.901350 0.316823
0.928176 0.907286 0.331899
0.029129 0.024781 0.105715
0.057328 0.023499 0.095735
0.090990 0.023316 0.084550
0.123171 0.024094 0.079423
0.154116 0.026932 0.076936
0.184894 0.029740 0.074479
0.213123 0.030762 0.074434
0.243290 0.031525 0.073747
0.278813 0.032929 0.073304
0.317342 0.034089 0.073823
0.355871 0.037629 0.075959
0.402243 0.042756 0.081209
0.452369 0.046250 0.084932
0.500389 0.049928 0.086946
0.541146 0.050813 0.086946
0.564965 0.051698 0.087098
0.598077 0.051667 0.087251
0.025254 0.049332 0.092302
0.039811 0.035660 0.121965
0.109056 0.032975 0.103990
0.150240 0.027802 0.077165
0.183795 0.028321 0.065904
0.211307 0.029633 0.062135
0.240360 0.030213 0.058534
0.274281 0.031128 0.056397
0.312047 0.032181 0.055329
0.349828 0.035355 0.057206
0.395850 0.040742 0.060883
0.446067 0.044099 0.063645
0.493523 0.047379 0.066300
0.532464 0.049622 0.068193
0.559625 0.050355 0.068437
0.587640 0.052857 0.071427
0.597421 0.068254 0.085771
0.022858 0.079301 0.074708
0.033555 0.095094 0.098253
0.092699 0.083680 0.083558
0.154177 0.058701 0.057954
0.201587 0.041444 0.043549
0.230503 0.032547 0.033539
0.263493 0.030564 0.030549
0.300160 0.030869 0.030900
0.340703 0.033463 0.033524
0.388632 0.037888 0.038178
0.438102 0.043122 0.043183
0.482902 0.046464 0.045457
0.523735 0.047868 0.046174
0.553964 0.047501 0.047410
0.577279 0.052720 0.052094
0.591669 0.067552 0.066819
0.592874 0.088746 0.087068
0.022904 0.111910 0.074739
0.024735 0.140124 0.071473
0.059434 0.139284 0.050141
0.147631 0.145998 0.055848
0.214191 0.118883 0.048844
0.261326 0.096574 0.043015
0.297810 0.083116 0.040024
0.332799 0.075380 0.039765
0.368017 0.073182 0.041077
0.405051 0.072404 0.042878
0.447623 0.071107 0.044053
0.485283 0.071290 0.045274
0.522408 0.072984 0.047913
0.554879 0.076997 0.049912
0.581399 0.083558 0.055116
0.595972 0.096483 0.071336
0.594461 0.114290 0.091218
0.024399 0.144930 0.073335
0.026047 0.177417 0.060090
0.042908 0.189807 0.033661
0.093233 0.203830 0.038117
0.205280 0.224002 0.055650
0.292165 0.189532 0.057237
0.340444 0.158801 0.055360
0.373999 0.138857 0.054185
0.406043 0.127871 0.053895
0.435431 0.122606 0.054154
0.469520 0.117510 0.053407
0.503182 0.112596 0.052186
0.531212 0.108675 0.052140
0.560006 0.110323 0.054536
0.586633 0.118181 0.060990
0.597833 0.126635 0.075227
0.588983 0.131609 0.091905
0.025223 0.177981 0.073701
0.026230 0.212207 0.054948
0.035294 0.238193 0.027802
0.075410 0.267491 0.033600
0.126757 0.278325 0.040879
0.299947 0.332555 0.072343
0.386481 0.275914 0.076310
0.435904 0.238010 0.076677
0.466941 0.205661 0.074296
0.489891 0.187381 0.073442
0.513817 0.175051 0.071763
0.539544 0.166018 0.069123
0.561532 0.157382 0.065812
0.579568 0.149294 0.063310
0.594537 0.149172 0.067094
0.597299 0.150713 0.077241
0.590829 0.149691 0.090730
0.025025 0.212848 0.069993
0.028153 0.252232 0.053147
0.034760 0.292088 0.029786
0.069581 0.329000 0.035386
0.108705 0.346136 0.040894
0.190372 0.366064 0.054658
0.397421 0.430228 0.094469
0.481910 0.369146 0.100053
0.535500 0.335058 0.102434
0.565240 0.299397 0.100664
0.588540 0.275029 0.100069
0.609751 0.256016 0.098222
0.627161 0.239582 0.094163
0.640604 0.219760 0.088411
0.645624 0.203815 0.086656
0.636164 0.197101 0.091722
0.623301 0.195575 0.102983
0.026642 0.255222 0.067964
0.031601 0.301503 0.053452
0.037934 0.360143 0.034485
0.069612 0.392050 0.041382
0.105089 0.411399 0.046479
0.158816 0.422950 0.054871
0.296071 0.458015 0.078309
0.506706 0.514305 0.123537
0.578775 0.465827 0.127489
0.638590 0.441138 0.132433
0.673457 0.415900 0.134203
0.698741 0.388754 0.135561
0.714290 0.363775 0.134218
0.725582 0.340993 0.129610
0.728985 0.312840 0.124910
0.719432 0.294926 0.127840
0.700175 0.282292 0.132708
0.029740 0.307210 0.068803
0.035096 0.360723 0.053925
0.044694 0.427497 0.040192
0.072786 0.457420 0.048264
0.104540 0.474388 0.053101
0.145739 0.481590 0.058671
0.246845 0.501289 0.074586
0.431266 0.546868 0.110643
0.612802 0.586160 0.150378
0.672480 0.554116 0.153704
0.729793 0.541360 0.164675
0.770840 0.521523 0.170459
0.795331 0.497520 0.170321
0.802716 0.473655 0.167544
0.805463 0.443458 0.164233
0.803250 0.422690 0.168460
0.782925 0.396979 0.169528
0.034974 0.368795 0.073320
0.040177 0.424811 0.057633
0.050523 0.492271 0.047272
0.075196 0.514549 0.053223
0.106233 0.532097 0.058946
0.138476 0.537789 0.063371
0.218311 0.547036 0.076356
0.380880 0.584192 0.106401
0.560265 0.626566 0.145296
0.701564 0.651576 0.175799
0.748455 0.630579 0.184161
0.802747 0.627253 0.198611
0.840909 0.611902 0.202731
0.851606 0.586892 0.198535
0.853513 0.547646 0.193210
0.854612 0.522805 0.197986
0.847974 0.506111 0.207523
0.040589 0.432776 0.077150
0.048081 0.493797 0.064088
0.055222 0.555291 0.053849
0.077012 0.568231 0.057740
0.107118 0.582681 0.064179
0.135637 0.588327 0.068238
0.204181 0.599741 0.080415
0.343969 0.624552 0.106935
0.526604 0.667048 0.144579
0.677058 0.698375 0.180270
0.775525 0.711803 0.201373
0.816770 0.702663 0.215213
0.861082 0.702388 0.228870
0.879026 0.688350 0.232761
0.879728 0.645762 0.226200
0.875059 0.611246 0.226444
0.878340 0.591897 0.239689
0.047211 0.497002 0.080507
0.054047 0.556115 0.069551
0.061753 0.611337 0.059846
0.080293 0.621149 0.063386
0.109926 0.631708 0.069078
0.140566 0.638086 0.073808
0.200748 0.647837 0.086107
0.326848 0.667170 0.111147
0.500954 0.702449 0.145922
0.656626 0.740795 0.183658
0.768933 0.761395 0.209537
0.836942 0.766735 0.227512
0.867811 0.763729 0.240375
0.894423 0.765011 0.258244
0.906615 0.747372 0.267674
0.900587 0.710369 0.268376
0.895949 0.672084 0.275731
0.053208 0.560555 0.086549
0.060075 0.612634 0.074998
0.067979 0.664591 0.064912
0.085817 0.667903 0.068162
0.115206 0.674434 0.073335
0.152926 0.681270 0.079667
0.208530 0.689876 0.091798
0.322591 0.706416 0.116106
0.489555 0.736614 0.148943
0.648310 0.776959 0.187472
0.760479 0.806256 0.215457
0.835950 0.820600 0.235264
0.873426 0.826429 0.252216
0.898436 0.818280 0.266758
0.918547 0.814740 0.287755
0.923369 0.787076 0.301701
0.918059 0.749798 0.311086
0.060105 0.612772 0.092332
0.066712 0.665156 0.081331
0.073457 0.706676 0.070436
0.091920 0.705531 0.072526
0.121981 0.714595 0.077424
0.166629 0.721431 0.087037
0.226474 0.727779 0.100252
0.332982 0.739361 0.123095
0.484962 0.769055 0.152743
0.636332 0.809644 0.189670
0.752865 0.847822 0.222995
0.829236 0.862013 0.243061
0.871336 0.866560 0.262760
0.898650 0.870771 0.279500
0.919066 0.858213 0.291432
0.928100 0.842634 0.313832
0.930480 0.810330 0.332677
0.066117 0.662638 0.096818
0.072480 0.706798 0.087266
0.082506 0.742672 0.077485
0.101076 0.738003 0.080507
0.132677 0.742504 0.086122
0.183261 0.747570 0.096269
0.252811 0.754772 0.111650
0.352377 0.764111 0.132921
0.489982 0.795483 0.161685
0.631159 0.837034 0.195041
0.745281 0.868849 0.228290
0.820066 0.883528 0.252796
0.866957 0.888319 0.275120
0.893629 0.891737 0.291035
0.918868 0.896849 0.304234
0.928038 0.870909 0.316716
0.930755 0.857618 0.338369
0.071733 0.708751 0.102190
0.079484 0.747051 0.093416
0.099306 0.754559 0.094209
0.120455 0.750668 0.097429
0.155764 0.752850 0.103655
0.208469 0.756344 0.115068
0.279667 0.763775 0.129839
0.372320 0.774365 0.147402
0.491081 0.804379 0.175631
0.620081 0.846357 0.208453
0.725231 0.872312 0.238132
0.801648 0.887739 0.266423
0.854871 0.898207 0.287572
0.880735 0.899504 0.302785
0.902342 0.901503 0.316365
0.928344 0.905715 0.331533
0.931411 0.873915 0.340291
0.076036 0.752621 0.099733
0.101808 0.754391 0.111009
0.121874 0.757382 0.111818
0.150118 0.753841 0.117617
0.192142 0.756634 0.127275
0.250599 0.762707 0.138552
0.313710 0.769329 0.150881
0.399939 0.782208 0.169238
0.504631 0.810544 0.194644
0.618463 0.847303 0.226246
0.722164 0.874266 0.256626
0.791043 0.889921 0.282521
0.837369 0.896483 0.300465
0.870512 0.904311 0.316091
0.896208 0.906889 0.330205
0.913069 0.907210 0.340749
0.935149 0.908568 0.350744
0.030274 0.026078 0.148287
0.055543 0.024979 0.136278
0.085954 0.024155 0.122164
0.120745 0.024613 0.114031
0.150805 0.027222 0.108537
0.184939 0.030945 0.104631
0.214725 0.032609 0.102495
0.247517 0.034073 0.100282
0.285267 0.035874 0.099809
0.325887 0.038270 0.100877
0.367544 0.041657 0.102754
0.412116 0.045884 0.106081
0.460227 0.048203 0.107393
0.509117 0.051240 0.108904
