tools/luts_backup/Kodak Vision3 500T 5219 (NEG)_CIN.cube
# (C) 2014 VisionColor & Patchflyer [www.vision-color.com]
# Generator: VC Patchmatch v.2.1.1 [64/53]
# All work and no play makes Jack a dull boy.
# LUT generated from: BMD Film to Kodak Vision3 500T 5219 (NEG)_Cineon
LUT_3D_SIZE 5
0.098039 0.098039 0.098039
0.403922 0.094118 0.003922
0.588235 0.188235 0.003922
0.670588 0.082353 0.000000
0.670588 0.043137 0.000000
0.078431 0.321569 0.000000
0.388235 0.301961 0.000000
0.596078 0.325490 0.000000
0.674510 0.262745 0.000000
0.674510 0.231373 0.000000
0.164721 0.545098 0.117647
0.439216 0.552956 0.000000
0.631373 0.517662 0.000000
0.670588 0.521584 0.000000
0.674510 0.498039 0.000000
0.262745 0.666667 0.192157
0.509804 0.670588 0.058824
0.670588 0.674510 0.000000
0.670588 0.670588 0.000000
0.674510 0.666667 0.000000
0.270588 0.674510 0.078431
0.533333 0.674510 0.027451
0.670588 0.670588 0.000000
0.674510 0.674510 0.000000
0.674510 0.674510 0.000000
0.003922 0.000000 0.352941
0.266667 0.000000 0.345098
0.537255 0.027466 0.407843
0.607843 0.000000 0.337255
0.639216 0.000000 0.298039
0.000000 0.286275 0.333333
0.317647 0.305882 0.309804
0.549020 0.317647 0.317647
0.647059 0.219608 0.337255
0.658824 0.035294 0.278431
0.003922 0.517647 0.384314
0.372549 0.533349 0.294118
0.600000 0.537255 0.133333
0.674510 0.509819 0.023529
0.670588 0.482353 0.035294
0.109804 0.662745 0.403922
0.454902 0.670588 0.356863
0.639216 0.670588 0.007843
0.674510 0.674510 0.000000
0.674510 0.666667 0.000000
0.172549 0.670588 0.356863
0.486275 0.674510 0.376471
0.662745 0.674510 0.125490
0.670588 0.670588 0.003922
0.674510 0.674510 0.000000
0.000000 0.000000 0.443137
0.000000 0.000000 0.427451
0.466667 0.086275 0.435294
0.486275 0.000000 0.364706
0.517647 0.000000 0.309804
0.000000 0.101961 0.431373
0.019608 0.145098 0.427451
0.419608 0.023529 0.411765
0.494118 0.000000 0.360784
0.537255 0.000000 0.360784
0.000000 0.474510 0.509804
0.027451 0.482353 0.501961
0.501961 0.501961 0.498039
0.607843 0.470603 0.439231
0.619608 0.435309 0.352956
0.000000 0.627451 0.580392
0.117632 0.635294 0.560784
0.549020 0.658824 0.490196
0.658824 0.647059 0.435309
0.674510 0.631373 0.384329
0.000000 0.670588 0.611765
0.298039 0.670588 0.568627
0.572549 0.674510 0.466682
0.670588 0.670588 0.427466
0.670588 0.670588 0.372564
0.000000 0.000000 0.454902
0.000000 0.000000 0.450980
0.003922 0.000000 0.400000
0.368627 0.000000 0.376471
0.407843 0.000000 0.239216
0.000000 0.000000 0.474510
0.000000 0.000000 0.415686
0.031403 0.000000 0.349020
0.372549 0.000000 0.356863
0.494118 0.000000 0.431373
0.007843 0.439216 0.568627
0.015702 0.423545 0.549020
0.384329 0.439216 0.576471
0.517647 0.403937 0.521569
0.564706 0.360800 0.490196
0.000000 0.592157 0.643137
0.094118 0.584314 0.658824
0.439231 0.607843 0.658824
0.607843 0.611765 0.607843
0.658824 0.607843 0.584314
0.000000 0.650980 0.674510
0.003922 0.658824 0.670588
0.454917 0.666667 0.666667
0.635294 0.670588 0.631373
0.670588 0.670588 0.600000
0.000000 0.000000 0.411765
0.000000 0.000000 0.407843
0.000000 0.000000 0.407843
0.078431 0.000000 0.356863
0.341176 0.000000 0.262745
0.000000 0.000000 0.470588
0.000000 0.000000 0.474510
0.000000 0.000000 0.447059
0.223514 0.000000 0.411765
0.447059 0.000000 0.443137
0.000000 0.388251 0.592157
0.000000 0.388235 0.596078
0.247074 0.396094 0.607843
0.447059 0.341192 0.572549
0.533333 0.317662 0.529412
0.000000 0.564706 0.666667
0.000000 0.572549 0.666667
0.368627 0.576471 0.674510
0.572549 0.592157 0.654902
0.639216 0.588235 0.635294
0.000000 0.627451 0.670588
0.000000 0.647059 0.670588
0.403922 0.650980 0.674510
0.592157 0.654902 0.666667
0.658824 0.658824 0.654902
