tools/luts_backup/Kodak Vision3 250D 5207 (NEG)_FPE.cube
# (C) 2014 VisionColor & Patchflyer [www.vision-color.com]
# Generator: VC Patchmatch v.2.1.1 [64/53]
# All work and no play makes Jack a dull boy.
# LUT generated from: Kodak Vision3 250D 5207 (NEG)_FPE
LUT_3D_SIZE 9
0.032898 0.036500 0.036622
0.089662 0.042969 0.034623
0.135988 0.047837 0.036408
0.153597 0.046860 0.036149
0.182025 0.045350 0.035737
0.193484 0.044984 0.035981
0.257694 0.042267 0.038224
0.375265 0.044617 0.044038
0.403357 0.046006 0.045686
0.031968 0.054597 0.039460
0.093599 0.074495 0.038346
0.202945 0.081407 0.036942
0.284276 0.070909 0.038285
0.253956 0.046769 0.037644
0.254643 0.042466 0.038117
0.297185 0.041962 0.039918
0.375204 0.044648 0.044114
0.407568 0.046250 0.045945
0.047303 0.134432 0.049866
0.077424 0.153231 0.049561
0.217350 0.182956 0.052018
0.375433 0.181292 0.045106
0.432074 0.130526 0.045884
0.401053 0.061570 0.043885
0.381460 0.045579 0.044450
0.506706 0.051957 0.050614
0.416999 0.046601 0.046387
0.199084 0.265095 0.069490
0.203479 0.268849 0.068269
0.178515 0.273167 0.066743
0.335027 0.305669 0.066438
0.554177 0.286397 0.056809
0.617838 0.207309 0.056443
0.534646 0.081331 0.051179
0.446845 0.047654 0.047639
0.546075 0.058412 0.052491
0.466773 0.422263 0.073182
0.462272 0.422217 0.075395
0.413108 0.420539 0.074693
0.374762 0.410788 0.070848
0.631464 0.450980 0.085679
0.792920 0.398520 0.086656
0.722972 0.240848 0.064317
0.524804 0.063630 0.050538
0.777356 0.253132 0.069078
0.758144 0.589258 0.117433
0.728527 0.581918 0.108965
0.725155 0.585306 0.110765
0.583398 0.542000 0.093736
0.607736 0.530663 0.095659
0.847288 0.521691 0.117144
0.926452 0.533837 0.129458
0.905135 0.451987 0.108782
0.911681 0.438331 0.107286
0.929717 0.701473 0.164004
0.920729 0.692287 0.159655
0.899413 0.680674 0.154025
0.828183 0.654887 0.140520
0.730831 0.621530 0.123217
0.832166 0.642100 0.140978
0.919371 0.638407 0.154345
0.949386 0.630365 0.163165
0.950881 0.601465 0.158114
0.950011 0.749615 0.182559
0.949615 0.747616 0.181781
0.948333 0.744244 0.180606
0.938109 0.737957 0.176822
0.901473 0.715358 0.164019
0.913832 0.718456 0.171511
0.943877 0.724407 0.186419
0.955413 0.721004 0.201846
0.957610 0.710933 0.213550
0.956359 0.780743 0.198199
0.956237 0.779187 0.197040
0.956161 0.777981 0.196353
0.954421 0.778729 0.197391
0.946990 0.772091 0.192538
0.943282 0.772107 0.199054
0.954971 0.783078 0.227878
0.959930 0.785916 0.258610
0.961456 0.782345 0.274495
0.028870 0.035492 0.062318
0.075959 0.043275 0.077806
0.148913 0.045670 0.080735
0.156054 0.045792 0.059922
0.158618 0.046418 0.039078
0.178592 0.045457 0.035782
0.222309 0.043748 0.036820
0.341833 0.043320 0.042313
0.396201 0.045594 0.045243
0.028595 0.056123 0.078141
0.054002 0.066743 0.070909
0.233616 0.082338 0.047059
0.331136 0.071412 0.042725
0.284596 0.056718 0.039292
0.262226 0.045930 0.038148
0.286381 0.041718 0.039414
0.343587 0.043381 0.042405
0.417166 0.046632 0.046418
0.032776 0.140169 0.087633
0.054688 0.136584 0.071534
0.253269 0.197711 0.059236
0.474067 0.201358 0.050919
0.511330 0.135485 0.050202
0.490043 0.087877 0.049104
0.424491 0.048264 0.046479
0.391333 0.045380 0.045136
0.502586 0.051484 0.050492
0.166064 0.277974 0.059892
0.143130 0.269627 0.063203
0.271122 0.315557 0.056443
0.468086 0.356710 0.065507
0.642069 0.301183 0.063584
0.619501 0.184009 0.056077
0.600229 0.128832 0.055131
0.535927 0.063188 0.051469
0.605020 0.093202 0.055650
0.496727 0.457893 0.067323
0.450965 0.441932 0.063157
0.492271 0.461402 0.068315
0.489754 0.454673 0.068910
0.680476 0.477607 0.092729
0.799863 0.421668 0.091493
0.808576 0.338247 0.080186
0.742489 0.237629 0.065675
0.731838 0.215549 0.063966
0.752880 0.594476 0.114336
0.752590 0.595926 0.114382
0.735500 0.584970 0.110384
0.647135 0.561502 0.096757
0.727031 0.579355 0.116411
0.876799 0.588129 0.136263
0.919707 0.540032 0.130373
0.901045 0.439033 0.105669
0.883635 0.381186 0.093950
0.937865 0.704799 0.164065
0.928847 0.701122 0.160998
0.917327 0.693935 0.157076
0.866804 0.667338 0.143450
0.834089 0.655543 0.139757
0.915465 0.677913 0.163104
0.948943 0.689723 0.181827
0.950622 0.634913 0.166598
0.950149 0.590280 0.152987
0.950988 0.746807 0.179919
0.950332 0.745861 0.179767
0.949493 0.739940 0.176761
0.939422 0.730266 0.171740
0.903181 0.710842 0.160876
0.909010 0.714290 0.167803
0.942519 0.730800 0.187869
0.954635 0.723491 0.196307
0.957015 0.710719 0.209277
0.956161 0.777173 0.195636
0.956069 0.776867 0.195575
0.956161 0.777523 0.196002
0.954696 0.777035 0.195956
0.948562 0.771130 0.191791
0.935683 0.757946 0.184741
0.947295 0.770794 0.205371
0.957336 0.771252 0.226932
0.959869 0.774197 0.256657
0.029389 0.034546 0.089433
0.044877 0.036179 0.117525
0.110033 0.040192 0.135180
0.151965 0.039673 0.145281
0.180056 0.040238 0.132677
0.205127 0.043290 0.087480
0.211490 0.044999 0.042390
0.311116 0.042161 0.040635
0.378668 0.044785 0.044221
0.032563 0.058106 0.146715
0.034089 0.054261 0.133623
0.169528 0.066926 0.150057
0.254459 0.050278 0.139773
0.258747 0.043839 0.111391
0.264668 0.044297 0.061860
0.253574 0.042451 0.038422
0.303838 0.042145 0.040253
0.373236 0.044511 0.043931
0.033371 0.142184 0.197833
0.037293 0.154589 0.194705
0.181033 0.168383 0.170169
0.347112 0.157290 0.121111
0.458091 0.125216 0.069627
0.468513 0.088441 0.050202
0.429908 0.053254 0.045838
0.364462 0.044114 0.043610
0.386969 0.045090 0.044602
0.042588 0.268116 0.192584
0.056565 0.270680 0.173816
0.252277 0.304799 0.158968
0.454780 0.350607 0.110018
0.631403 0.298695 0.073884
0.661906 0.204456 0.059968
0.641871 0.142763 0.057298
0.583856 0.088731 0.054231
0.509834 0.052140 0.050843
0.313985 0.450431 0.116396
0.308171 0.437781 0.103365
0.409674 0.457969 0.122332
0.545815 0.485023 0.093935
0.720867 0.493980 0.096376
0.840955 0.433722 0.096941
0.808011 0.320256 0.077134
0.761547 0.258396 0.067842
0.726833 0.205951 0.063233
0.619028 0.590707 0.107759
0.630610 0.589944 0.106462
0.637049 0.588235 0.109895
0.700954 0.593317 0.113970
0.787198 0.597650 0.119783
0.901976 0.591318 0.134951
0.938323 0.558053 0.134035
0.925963 0.486030 0.117891
0.897765 0.408530 0.100328
0.883894 0.715938 0.161166
0.871809 0.699977 0.153338
0.887846 0.692500 0.151812
0.892424 0.685313 0.150942
0.890181 0.676966 0.148272
0.935927 0.689570 0.161685
0.949279 0.690471 0.170932
0.952407 0.654231 0.167529
0.948531 0.566003 0.142947
0.951431 0.763180 0.183169
0.951308 0.760327 0.182040
0.947997 0.751308 0.177935
0.942473 0.738277 0.171954
0.941558 0.725658 0.168338
0.946929 0.733181 0.173571
0.954345 0.747158 0.187381
0.955886 0.739330 0.203555
0.955627 0.680079 0.183795
0.956359 0.779217 0.191638
0.956359 0.777432 0.191241
0.956359 0.776791 0.191135
0.955383 0.773098 0.188998
0.952148 0.762448 0.183078
0.948394 0.759091 0.180835
0.950698 0.770092 0.192218
0.955016 0.768002 0.217929
0.958328 0.765728 0.238727
0.030182 0.033066 0.118502
0.030732 0.033219 0.120180
0.051865 0.035279 0.136095
0.106142 0.037690 0.153109
0.142550 0.038285 0.155520
0.190936 0.038071 0.159701
0.233021 0.039796 0.145464
0.341878 0.043061 0.055314
0.391226 0.045075 0.044831
0.030442 0.036454 0.133440
0.030503 0.036606 0.133745
0.088838 0.043473 0.175113
0.180011 0.041993 0.182330
0.233829 0.038163 0.181216
0.262303 0.039536 0.163943
0.279225 0.040726 0.125765
0.302113 0.041932 0.041489
0.363195 0.043992 0.043381
0.039002 0.152514 0.282246
0.044038 0.152377 0.277180
0.092699 0.134569 0.233692
0.288975 0.128344 0.238193
0.386847 0.085573 0.193362
0.387655 0.050706 0.153735
0.390143 0.045502 0.091310
0.363378 0.042405 0.042252
0.366308 0.044144 0.043534
0.041001 0.284794 0.340612
0.045289 0.301732 0.355657
0.127275 0.319738 0.331716
0.353384 0.319600 0.305455
0.551568 0.287678 0.237903
0.592599 0.195254 0.153002
0.567041 0.110628 0.073259
0.541558 0.062943 0.051392
0.458839 0.048173 0.048127
0.069200 0.428580 0.336095
0.101762 0.419684 0.297795
0.229236 0.444144 0.287465
0.437079 0.469429 0.275456
0.648112 0.508095 0.218921
0.809552 0.457893 0.162936
0.797009 0.329686 0.099107
0.777813 0.245777 0.069917
0.745388 0.207385 0.064454
0.347951 0.566934 0.259602
0.367498 0.569863 0.254414
0.446540 0.577707 0.226276
0.562600 0.599008 0.223331
0.755413 0.638788 0.194156
0.897231 0.640833 0.168307
0.940200 0.584970 0.147173
0.916884 0.460243 0.112215
0.866911 0.354070 0.087526
0.694499 0.700420 0.232059
0.695598 0.690150 0.205676
0.723400 0.689219 0.185733
0.760342 0.694652 0.192996
0.836042 0.707057 0.192569
0.928832 0.722454 0.178073
0.953017 0.715633 0.176730
0.955428 0.663035 0.166033
0.954452 0.601694 0.150835
0.914549 0.792386 0.266789
0.906340 0.776806 0.233631
0.918502 0.766979 0.201495
0.926192 0.759854 0.189303
0.932509 0.757595 0.183276
0.945907 0.752636 0.178225
0.955932 0.749798 0.183932
0.956268 0.736034 0.184710
0.956847 0.711009 0.182452
0.951598 0.818677 0.254322
0.953841 0.815167 0.237797
0.953506 0.811109 0.228275
0.949966 0.802029 0.218891
0.950042 0.794705 0.206516
0.952682 0.778454 0.188190
0.956512 0.775265 0.191669
0.957107 0.767483 0.194598
0.957748 0.752941 0.207141
0.031510 0.032547 0.143572
0.031083 0.032654 0.134234
0.035187 0.033234 0.155856
0.070146 0.034836 0.182345
0.099855 0.035492 0.180728
0.140063 0.037140 0.170718
0.213718 0.036591 0.183505
0.357549 0.043305 0.156008
0.444968 0.046708 0.067460
0.031815 0.032837 0.151522
0.031571 0.032654 0.144625
0.042939 0.034379 0.173175
0.106966 0.036347 0.203906
0.148318 0.036332 0.198215
0.196384 0.036118 0.203037
0.236072 0.036820 0.191135
0.308217 0.041505 0.118090
0.358938 0.043259 0.042802
0.041215 0.124071 0.323384
0.039490 0.098650 0.298436
0.045563 0.084627 0.263996
0.186191 0.083986 0.276127
0.305882 0.050401 0.263294
0.327947 0.040528 0.230945
0.330709 0.041932 0.182040
0.368643 0.043885 0.119707
0.384833 0.042939 0.043000
0.048020 0.271321 0.449104
0.046357 0.260197 0.438315
0.056184 0.262638 0.411292
0.181430 0.271565 0.391745
0.434562 0.262592 0.377188
0.515679 0.186221 0.315923
0.502815 0.082551 0.216388
0.487404 0.049134 0.095338
0.458213 0.047318 0.048127
0.055467 0.438285 0.540413
0.067018 0.458152 0.530327
0.109728 0.472862 0.515587
0.260655 0.498573 0.497261
0.521798 0.495659 0.478508
0.708431 0.451286 0.407843
0.734524 0.336202 0.303975
0.702586 0.204028 0.147951
0.700496 0.150484 0.063615
0.115648 0.559670 0.499077
0.134051 0.563592 0.488670
0.207309 0.569497 0.447440
0.337118 0.583246 0.422675
0.576745 0.625299 0.435492
0.805035 0.672038 0.421515
0.914275 0.642954 0.371099
0.905486 0.509804 0.249241
0.867384 0.376562 0.127504
0.426841 0.668818 0.441138
0.420020 0.662333 0.423728
0.453452 0.673274 0.429099
0.545190 0.682536 0.372824
0.683818 0.714504 0.386130
0.856565 0.756100 0.389700
0.944945 0.761746 0.350164
0.957366 0.710445 0.267735
0.951110 0.612619 0.190570
0.778637 0.797070 0.461051
0.791318 0.775464 0.359884
0.785946 0.768795 0.342016
0.795285 0.766262 0.322148
0.838987 0.777493 0.337560
0.903883 0.796323 0.346029
0.951522 0.809171 0.332113
0.958221 0.768399 0.226108
0.957137 0.722805 0.188846
0.898756 0.837736 0.453285
0.916182 0.837247 0.422019
0.921981 0.828412 0.367941
0.922698 0.820096 0.336614
0.927016 0.814603 0.302693
0.940246 0.813596 0.280171
0.952743 0.799939 0.213138
0.957137 0.777462 0.196765
0.957382 0.770367 0.197162
0.032837 0.033021 0.179278
0.032258 0.032578 0.162539
0.032227 0.032609 0.163302
0.037919 0.033951 0.189288
0.060700 0.035264 0.196887
0.067460 0.034928 0.190753
0.141649 0.035966 0.197498
0.414786 0.043839 0.272389
0.494484 0.050309 0.227909
0.032944 0.033143 0.181994
0.032792 0.032975 0.178225
0.034455 0.033860 0.191043
0.055879 0.036500 0.219501
0.104189 0.036912 0.238346
0.116930 0.035889 0.228275
0.150988 0.036011 0.220096
0.261875 0.037491 0.199374
0.437842 0.046891 0.110231
0.041474 0.083604 0.328496
0.039307 0.048478 0.276432
0.037537 0.041978 0.257252
0.092256 0.041306 0.287007
0.183566 0.040330 0.297841
0.202701 0.038132 0.271550
0.248157 0.037324 0.256214
0.358129 0.042435 0.229953
0.421195 0.046204 0.098100
0.047517 0.249027 0.485817
0.047929 0.219821 0.468589
0.046601 0.208377 0.452445
0.068208 0.211048 0.434775
0.293004 0.210437 0.434195
0.396689 0.134203 0.398795
0.441123 0.060227 0.348348
0.471199 0.048371 0.245029
0.496635 0.050248 0.135103
0.056031 0.391440 0.592813
0.055177 0.387335 0.580835
0.060975 0.406607 0.575875
0.095888 0.418677 0.563684
0.316640 0.441093 0.556527
0.556252 0.429496 0.538354
0.659388 0.353094 0.487999
0.689265 0.222736 0.351553
0.679530 0.131029 0.173175
0.082414 0.553964 0.652567
0.092073 0.565530 0.652293
0.132738 0.591623 0.643137
0.211704 0.616297 0.637095
0.412192 0.646830 0.635264
0.690196 0.665614 0.643900
0.824094 0.643381 0.609613
0.851484 0.537820 0.494636
0.855589 0.417502 0.333684
0.220203 0.672450 0.614542
0.189746 0.660075 0.629862
0.222950 0.663340 0.601312
0.302602 0.673732 0.579293
0.445731 0.694194 0.571054
0.713878 0.744778 0.604166
0.884947 0.784421 0.615030
0.945769 0.764050 0.566857
0.951919 0.697627 0.474022
0.591226 0.778897 0.625269
0.546258 0.750225 0.565911
0.525277 0.741665 0.558679
0.555245 0.740551 0.535866
0.638788 0.757946 0.520745
0.783932 0.797116 0.539422
0.908415 0.826047 0.549737
0.964950 0.820172 0.512963
0.966613 0.800900 0.452537
0.784268 0.838880 0.629892
0.811078 0.842115 0.605615
0.811902 0.824277 0.529305
0.814939 0.820294 0.506325
0.829267 0.818326 0.474159
0.867842 0.826001 0.445441
0.913817 0.832593 0.447547
0.953780 0.833463 0.386160
0.965530 0.830030 0.366964
0.034958 0.034989 0.222889
0.034409 0.034455 0.210742
0.034089 0.034134 0.204562
0.034455 0.034516 0.209064
0.037675 0.036851 0.222065
0.040192 0.036759 0.224353
0.123293 0.039353 0.292271
0.384237 0.043900 0.352422
0.510414 0.050996 0.351232
0.034073 0.034134 0.204532
0.034073 0.034119 0.204257
0.034073 0.034119 0.204852
0.039612 0.037613 0.236606
0.071305 0.037903 0.267536
0.085252 0.038651 0.268162
0.075059 0.037766 0.245106
0.196841 0.038788 0.282429
0.514839 0.051026 0.335119
0.040818 0.049760 0.304494
0.038727 0.042557 0.283635
0.035767 0.036103 0.248981
0.043961 0.038666 0.285008
0.124575 0.040208 0.326650
0.162142 0.040360 0.324376
0.157122 0.039689 0.297612
0.288411 0.040314 0.308248
0.455390 0.046799 0.279179
0.048051 0.217899 0.480766
0.046845 0.193057 0.462074
0.046311 0.173938 0.452369
0.046662 0.150881 0.438392
0.141772 0.154559 0.439124
0.280369 0.099748 0.437675
0.305241 0.047578 0.388373
0.420050 0.046052 0.376822
0.518395 0.051087 0.306203
0.055711 0.363516 0.604852
0.055344 0.356069 0.598230
0.054047 0.351537 0.586603
0.058091 0.355459 0.580011
0.147311 0.393805 0.586221
0.383734 0.379355 0.569696
0.501030 0.331304 0.554192
0.650217 0.245655 0.528832
0.684169 0.112551 0.358160
0.066224 0.492927 0.665919
0.071534 0.512505 0.675105
0.082551 0.532540 0.671489
0.117510 0.561898 0.670771
0.248875 0.598581 0.677363
0.542199 0.629297 0.685740
0.684916 0.613046 0.674220
0.782696 0.562524 0.650843
0.824842 0.453483 0.552193
0.125917 0.644053 0.710231
0.159152 0.659236 0.721599
0.174014 0.665339 0.714717
0.228138 0.680751 0.708949
0.370794 0.715480 0.718730
0.623636 0.756100 0.740017
0.809064 0.778012 0.758938
0.890517 0.764172 0.740520
0.912657 0.718822 0.686778
0.384497 0.762631 0.720546
0.306249 0.736339 0.713710
0.280354 0.722530 0.697780
0.316869 0.729305 0.686748
0.412375 0.747738 0.684474
0.614664 0.785794 0.701457
0.800565 0.818173 0.721416
0.924834 0.849836 0.744747
0.954772 0.843061 0.724392
0.639719 0.828519 0.741070
0.668803 0.827558 0.715709
0.575189 0.792218 0.673503
0.585550 0.799054 0.685206
0.631968 0.801465 0.662242
0.700420 0.809598 0.632319
0.811841 0.838865 0.632685
0.926421 0.863478 0.645930
0.968521 0.877897 0.680354
0.035767 0.035767 0.236515
0.035752 0.035752 0.235996
0.035752 0.035752 0.235477
0.036011 0.036011 0.242313
0.036088 0.036103 0.249531
0.036301 0.036225 0.254414
0.097597 0.040146 0.318517
0.278187 0.044434 0.373266
0.462776 0.047654 0.403510
0.035630 0.035630 0.232654
0.034974 0.035004 0.223087
0.035035 0.035065 0.223972
0.036011 0.036027 0.243137
0.053788 0.038544 0.291707
0.069871 0.039216 0.306401
0.103563 0.040177 0.319341
0.181704 0.040681 0.323400
0.507912 0.049332 0.408118
0.036057 0.036606 0.270863
0.036088 0.036728 0.272541
0.035935 0.036133 0.262150
0.037781 0.037827 0.274754
0.062531 0.040497 0.324544
0.118608 0.041642 0.341909
0.139498 0.040818 0.335210
0.203555 0.041657 0.336614
0.468345 0.047181 0.391012
0.047776 0.190738 0.473945
0.047227 0.181537 0.465553
0.046174 0.155673 0.446281
0.045045 0.103151 0.413458
0.051957 0.121477 0.434531
0.163485 0.102678 0.444266
0.248737 0.052583 0.427878
0.328801 0.046204 0.414740
0.502815 0.048966 0.418463
0.054276 0.344472 0.594873
0.054398 0.337545 0.593301
0.053986 0.319142 0.582834
0.052567 0.287587 0.558709
0.068666 0.333120 0.576730
0.239094 0.373297 0.593927
0.404654 0.344808 0.587839
0.512947 0.286137 0.575448
0.658793 0.116884 0.528374
0.062638 0.449805 0.673411
0.068650 0.498299 0.688899
0.069841 0.497734 0.682979
0.096086 0.541283 0.688365
0.185534 0.570016 0.690867
0.458488 0.616709 0.709392
0.600412 0.603662 0.697444
0.667506 0.570123 0.687068
0.783291 0.499321 0.670359
0.097810 0.606943 0.728405
0.161898 0.658824 0.740429
0.147372 0.646479 0.734813
0.228412 0.679454 0.739391
0.386709 0.714061 0.754208
0.580789 0.741054 0.770001
0.746792 0.758618 0.784237
0.802426 0.754711 0.778912
0.866865 0.739590 0.771160
0.267689 0.738643 0.765301
0.271077 0.735439 0.760464
0.294224 0.738247 0.762341
0.331365 0.746410 0.762676
0.470054 0.777111 0.778103
0.637232 0.807752 0.798718
0.772595 0.829114 0.816251
0.878965 0.843778 0.828855
0.917311 0.840589 0.824704
0.510887 0.814557 0.791379
0.538079 0.819303 0.785000
0.417350 0.781430 0.752514
0.410834 0.779858 0.760388
0.546944 0.814038 0.783276
0.621622 0.825345 0.787045
0.711070 0.836515 0.775876
0.854231 0.861921 0.791562
0.937041 0.885237 0.829877
0.036240 0.036240 0.243198
0.036210 0.036225 0.242893
0.036194 0.036210 0.242725
0.036851 0.036866 0.252583
0.036316 0.036332 0.262470
0.036454 0.036378 0.264134
0.060883 0.039445 0.307286
0.178820 0.042374 0.357946
0.349325 0.045304 0.398230
0.036820 0.036835 0.250095
0.036896 0.036912 0.250629
0.037491 0.037507 0.256489
0.047776 0.040604 0.312673
0.062181 0.040482 0.321950
0.051057 0.039551 0.302998
0.150530 0.042100 0.352117
0.297871 0.044968 0.387167
0.413413 0.046571 0.406561
0.042786 0.064027 0.369482
0.037095 0.037110 0.254978
0.036011 0.036027 0.246143
0.037278 0.037308 0.259220
0.048554 0.041489 0.329244
0.064515 0.041489 0.340871
0.116350 0.042649 0.353979
0.267628 0.044770 0.386633
0.433722 0.047669 0.415641
0.050401 0.226352 0.512535
0.044816 0.117693 0.420447
0.044572 0.112703 0.416022
0.045975 0.111818 0.432929
0.048600 0.109926 0.442252
0.118135 0.119966 0.457832
0.210239 0.088167 0.459922
0.293919 0.056840 0.455360
0.482994 0.051606 0.477913
0.054841 0.349310 0.605325
0.053986 0.325002 0.586297
0.053925 0.308476 0.579950
0.053559 0.282185 0.566781
0.054475 0.292287 0.568826
0.211109 0.380728 0.613214
0.346471 0.361929 0.604074
0.457343 0.338918 0.606592
0.582238 0.279271 0.597208
0.062196 0.448737 0.687327
0.074922 0.525612 0.709422
0.071427 0.501183 0.694591
0.082460 0.516045 0.691508
0.113436 0.521752 0.683894
0.430228 0.610986 0.719951
0.565499 0.615122 0.719936
0.647074 0.606836 0.715282
0.707958 0.578134 0.708064
0.082704 0.569406 0.732540
0.110552 0.616648 0.739025
0.274830 0.701488 0.765255
0.382300 0.723857 0.775158
0.474464 0.731441 0.778164
0.626749 0.748913 0.790280
0.743084 0.762646 0.800351
0.790387 0.767208 0.799710
0.820325 0.763455 0.794781
0.181292 0.697810 0.770642
0.210193 0.711818 0.772625
0.425666 0.776776 0.798032
0.430106 0.770047 0.794202
0.603433 0.804318 0.815503
0.683040 0.811093 0.823178
0.784009 0.825727 0.835737
0.863706 0.839628 0.844617
0.893614 0.849165 0.847669
0.380880 0.786603 0.803449
0.411795 0.794217 0.802060
0.503594 0.815900 0.816037
0.580499 0.826825 0.823224
0.570306 0.821744 0.818952
0.606149 0.823209 0.818280
0.726009 0.843397 0.836606
0.862348 0.871244 0.860899
0.919264 0.882277 0.872343
