tools/luts_backup/Kodak Vision3 500T 5219 (NEG)_FC.cube
# (C) 2014 VisionColor & Patchflyer [www.vision-color.com]
# Generator: VC Patchmatch v.2.1.1 [64/53]
# All work and no play makes Jack a dull boy.
# LUT generated from: BMD Film to Kodak Vision3 500T 5219 (NEG)_FC01
LUT_3D_SIZE 5
0.027451 0.027451 0.027451
0.211765 0.050980 0.031373
0.572549 0.121569 0.082353
0.690196 0.101961 0.086275
0.690196 0.086275 0.082353
0.062745 0.152941 0.047059
0.219608 0.152941 0.058824
0.611780 0.219608 0.109804
0.717647 0.184314 0.109804
0.709804 0.160784 0.101961
0.211765 0.658839 0.200000
0.419623 0.603952 0.207858
0.764721 0.552956 0.239231
0.811780 0.564736 0.250996
0.800000 0.509819 0.227466
0.305882 0.894118 0.282353
0.647059 0.901961 0.372549
0.937255 0.937255 0.498039
0.937255 0.937255 0.494118
0.933333 0.929412 0.490196
0.349020 0.886275 0.294118
0.694133 0.901961 0.388235
0.941176 0.941176 0.501961
0.933333 0.933333 0.494118
0.933333 0.933333 0.494118
0.007843 0.007843 0.137255
0.090196 0.015686 0.133333
0.490227 0.066667 0.262760
0.588235 0.070588 0.188235
0.647059 0.078431 0.172549
0.043137 0.129412 0.156863
0.168627 0.152941 0.156863
0.654917 0.168627 0.168627
0.796078 0.137255 0.219608
0.690196 0.086275 0.168627
0.152941 0.486290 0.305898
0.254917 0.596109 0.180392
0.749035 0.611780 0.258839
0.811765 0.541192 0.243153
0.792157 0.470603 0.211780
0.305882 0.882353 0.439216
0.450980 0.937255 0.329412
0.905882 0.933333 0.478431
0.933333 0.933333 0.494118
0.933333 0.929412 0.490196
0.294118 0.894118 0.380392
0.517647 0.941176 0.356863
0.937255 0.945098 0.498039
0.937255 0.937255 0.494118
0.941176 0.941176 0.498039
0.007843 0.007843 0.223529
0.011765 0.011765 0.211765
0.407843 0.066667 0.341176
0.321553 0.039216 0.180392
0.376471 0.047059 0.145098
0.019608 0.035294 0.223529
0.023529 0.054902 0.286275
0.254902 0.039216 0.250980
0.329412 0.043137 0.176471
0.431357 0.054902 0.188235
0.129412 0.392157 0.447074
0.137255 0.415702 0.450996
0.494118 0.494133 0.482368
0.819608 0.419623 0.352956
0.827466 0.349035 0.239231
0.317647 0.807828 0.717647
0.349020 0.866651 0.721584
0.678431 0.937255 0.552956
0.933333 0.921569 0.545113
0.929412 0.878416 0.482353
0.368627 0.866667 0.788251
0.368627 0.901961 0.713741
0.749035 0.941176 0.521599
0.952941 0.952941 0.568643
0.956863 0.956863 0.537270
0.011765 0.011765 0.243137
0.007843 0.007843 0.231373
0.007843 0.007843 0.176471
0.160784 0.027451 0.168627
0.196078 0.023529 0.082353
0.011765 0.011765 0.270588
0.007843 0.007843 0.184314
0.011765 0.007843 0.129412
0.164706 0.023529 0.152941
0.341176 0.047059 0.247059
0.113725 0.329427 0.552956
0.105882 0.305898 0.517678
0.247074 0.341192 0.733333
0.525505 0.274525 0.552956
0.670604 0.231388 0.454917
0.270588 0.698039 0.780392
0.305882 0.745083 0.831373
0.458839 0.800000 0.878431
0.854902 0.862745 0.843137
0.921569 0.843122 0.792142
0.360784 0.831373 0.847059
0.376471 0.850980 0.854902
0.560800 0.921569 0.913725
0.937255 0.964706 0.925490
0.964706 0.964706 0.882353
0.007843 0.007843 0.188235
0.007843 0.007843 0.184314
0.007843 0.007843 0.188235
0.023529 0.007843 0.141176
0.137255 0.019608 0.094118
0.011765 0.011765 0.274510
0.011765 0.011765 0.278431
0.007843 0.007843 0.231373
0.070588 0.015686 0.200000
0.262745 0.039216 0.254902
0.094118 0.254917 0.576486
0.090196 0.250996 0.588251
0.141192 0.282368 0.768643
0.360784 0.196094 0.698054
0.564721 0.188251 0.549035
0.231373 0.615686 0.780392
0.250980 0.647044 0.796078
0.345098 0.690196 0.870588
0.733318 0.772549 0.878431
0.866667 0.780377 0.854902
0.337255 0.792157 0.835294
0.364706 0.835294 0.850980
0.486275 0.890196 0.909804
0.847059 0.933333 0.945098
0.956863 0.956863 0.949020
