tools/luts_backup/Kodak Vision3 200T 5213 (NEG)_FC.cube
# (C) 2014 VisionColor & Patchflyer [www.vision-color.com]
# Generator: VC Patchmatch v.2.1.1 [64/53]
# All work and no play makes Jack a dull boy.
# LUT generated from: Kodak Vision3 200T 5213 (NEG)_FC01
LUT_3D_SIZE 17
0.029297 0.029297 0.029297
0.037339 0.020829 0.026886
0.048569 0.013062 0.018448
0.063096 0.005280 0.006867
0.075105 0.003265 0.003281
0.091035 0.002472 0.002457
0.105104 0.001816 0.001816
0.127794 0.001053 0.001053
0.144961 0.000702 0.000702
0.156008 0.000504 0.000504
0.158282 0.000488 0.000488
0.167315 0.000381 0.000381
0.222477 0.000092 0.000092
0.323827 0.000046 0.000046
0.392660 0.000031 0.000031
0.424857 0.000031 0.000031
0.457923 0.000031 0.000031
0.024109 0.069703 0.022812
0.046403 0.068742 0.017227
0.073564 0.041306 0.008530
0.082567 0.023499 0.007523
0.096956 0.010834 0.003464
0.110048 0.004868 0.001648
0.123552 0.002304 0.001099
0.138964 0.001099 0.000809
0.157397 0.000519 0.000504
0.172290 0.000290 0.000290
0.188403 0.000183 0.000183
0.207950 0.000107 0.000107
0.250629 0.000061 0.000061
0.330175 0.000046 0.000046
0.393530 0.000031 0.000031
0.429450 0.000031 0.000031
0.465019 0.000031 0.000031
0.026322 0.106172 0.003067
0.038224 0.105501 0.003647
0.055604 0.100191 0.003326
0.110567 0.070008 0.003204
0.132967 0.045396 0.001236
0.141527 0.023133 0.000549
0.157000 0.010101 0.000534
0.169757 0.004089 0.000366
0.183185 0.001266 0.000214
0.197940 0.000397 0.000153
0.215503 0.000137 0.000092
0.236194 0.000076 0.000061
0.267613 0.000076 0.000061
0.328939 0.000259 0.000046
0.402136 0.000458 0.000031
0.438422 0.000076 0.000031
0.469261 0.000031 0.000031
0.027466 0.135973 0.001785
0.035904 0.136294 0.002914
0.043153 0.138262 0.003967
0.065324 0.134569 0.007126
0.150256 0.107988 0.008698
0.210971 0.087129 0.001999
0.241169 0.066651 0.000168
0.264317 0.045686 0.000046
0.278538 0.026307 0.000031
0.277699 0.013001 0.000046
0.276692 0.006332 0.000061
0.287358 0.002899 0.000046
0.319356 0.002228 0.000046
0.405753 0.006973 0.000031
0.533379 0.014755 0.000015
0.518898 0.005951 0.000015
0.475868 0.000046 0.000031
0.033890 0.180102 0.010956
0.042206 0.181827 0.012833
0.047517 0.191440 0.015015
0.049668 0.200183 0.015976
0.106737 0.183474 0.025711
0.221057 0.166613 0.025284
0.323079 0.147173 0.011276
0.386221 0.125414 0.002274
0.391638 0.095933 0.000076
0.406271 0.066941 0.000015
0.411170 0.044343 0.000015
0.405035 0.027787 0.000015
0.417166 0.017975 0.000015
0.502785 0.025025 0.000015
0.680949 0.050965 0.000000
0.674525 0.035660 0.000000
0.508339 0.002167 0.000015
0.060990 0.241291 0.028809
0.066285 0.243183 0.029877
0.069337 0.258518 0.031434
0.065721 0.272953 0.032441
0.068528 0.274250 0.033249
0.154513 0.252430 0.044572
0.294011 0.246220 0.046204
0.424094 0.216617 0.029862
0.546761 0.183902 0.007752
0.549447 0.142214 0.000595
0.533135 0.102617 0.000000
0.539986 0.073472 0.000000
0.536141 0.053254 0.000000
0.563806 0.042039 0.000000
0.672038 0.051408 0.000000
0.743236 0.058915 0.000000
0.620737 0.021454 0.000000
0.115267 0.322301 0.049210
0.114214 0.319310 0.048753
0.112840 0.331060 0.049042
0.102815 0.348959 0.047608
0.085328 0.362081 0.043503
0.091585 0.361059 0.042359
0.197299 0.348669 0.056840
0.377676 0.335882 0.063661
0.546868 0.290242 0.047150
0.717693 0.238987 0.018784
0.738399 0.184543 0.002152
0.659770 0.129641 0.000000
0.640726 0.088991 0.000000
0.601022 0.052934 0.000000
0.599420 0.032547 0.000000
0.752773 0.066407 0.000000
0.789075 0.074495 0.000000
0.183276 0.422187 0.066056
0.180133 0.417273 0.065919
0.175525 0.424277 0.066148
0.160479 0.438697 0.064454
0.136385 0.451255 0.059266
0.120668 0.458289 0.054093
0.149966 0.456931 0.056382
0.299825 0.451392 0.075425
0.520287 0.422721 0.081926
0.706355 0.361273 0.064530
0.869612 0.286946 0.031128
0.891432 0.213519 0.004257
0.766094 0.140932 0.000015
0.666941 0.077775 0.000000
0.565301 0.028809 0.000015
0.753445 0.073991 0.000015
0.948577 0.146654 0.001160
0.260441 0.528893 0.077317
0.259525 0.526467 0.077974
0.255619 0.531182 0.078248
0.240314 0.543053 0.078904
0.209552 0.553643 0.075731
0.177172 0.556924 0.070008
0.182559 0.556756 0.068757
0.255634 0.554742 0.076661
0.472892 0.546502 0.099977
0.691890 0.499107 0.103685
0.854566 0.426062 0.084810
0.951263 0.323186 0.044587
0.964370 0.233387 0.008652
0.892531 0.155200 0.001938
0.782330 0.087831 0.001022
0.891340 0.117815 0.001755
0.994247 0.234119 0.020829
0.360479 0.641779 0.089921
0.353902 0.641764 0.085893
0.349203 0.647959 0.083177
0.346090 0.657511 0.087816
0.316732 0.665019 0.090517
0.265278 0.662394 0.086259
0.234028 0.650950 0.081086
0.268864 0.642618 0.084306
0.387289 0.641459 0.098802
0.650080 0.608087 0.124178
0.848173 0.568383 0.133761
0.934920 0.502632 0.117113
0.974289 0.383581 0.071183
0.986862 0.300969 0.037705
0.989715 0.257374 0.027909
0.992752 0.256489 0.029862
0.995834 0.342565 0.072374
0.500847 0.754406 0.114931
0.481651 0.753262 0.102876
0.462715 0.760952 0.089525
0.469978 0.764767 0.094179
0.449104 0.765789 0.102907
0.390570 0.760235 0.104891
0.322484 0.742824 0.098619
0.302586 0.722042 0.094896
0.359411 0.712352 0.101778
0.508263 0.706523 0.120211
0.769497 0.646571 0.144183
0.920836 0.648722 0.172595
0.956130 0.603647 0.161898
0.968597 0.508873 0.125338
0.982605 0.481041 0.119417
0.990997 0.471077 0.121309
0.994797 0.467094 0.126482
0.643977 0.850904 0.145022
0.622629 0.845258 0.134051
0.595224 0.848173 0.115038
0.590784 0.843778 0.116030
0.569329 0.836805 0.122820
0.515557 0.827970 0.125734
0.440894 0.813840 0.120821
0.378073 0.794079 0.112078
0.381933 0.777737 0.111879
0.460868 0.769482 0.123003
0.604715 0.758648 0.141085
0.819852 0.712093 0.166171
0.935439 0.726040 0.205203
0.955993 0.686397 0.199802
0.977325 0.638590 0.188754
0.989731 0.616983 0.188067
0.993332 0.585504 0.179416
0.753597 0.898299 0.171633
0.740856 0.894453 0.166537
0.722805 0.891798 0.155138
0.706767 0.886427 0.153246
0.677043 0.880140 0.153841
0.627588 0.874296 0.151858
0.562951 0.869337 0.145510
0.491783 0.861234 0.136294
0.459648 0.849210 0.131594
0.497063 0.838834 0.137575
0.587091 0.830716 0.150942
0.707744 0.821958 0.170916
0.863279 0.795239 0.200000
0.942794 0.781994 0.229343
0.974380 0.745388 0.234043
0.989044 0.715496 0.233204
0.993225 0.685603 0.228214
0.839658 0.933333 0.196399
0.833753 0.931182 0.194598
0.825254 0.928008 0.191608
0.811612 0.923323 0.188998
0.784054 0.917403 0.186755
0.738003 0.910796 0.183062
0.681346 0.904662 0.175692
0.614054 0.898833 0.164034
0.565591 0.895064 0.155413
0.575647 0.889204 0.159487
0.639551 0.882612 0.174731
0.731823 0.876768 0.194171
0.841550 0.870588 0.218631
0.927672 0.853254 0.244907
0.975174 0.830732 0.263844
0.988907 0.805600 0.267567
0.992432 0.777371 0.266865
0.884596 0.948653 0.219654
0.882445 0.948013 0.218418
0.880217 0.947280 0.217182
0.876753 0.946197 0.215686
0.867643 0.944381 0.214099
0.843839 0.941573 0.211429
0.790616 0.938445 0.205356
0.722820 0.935210 0.195117
0.667720 0.929641 0.185824
0.657771 0.923949 0.186831
0.702358 0.918669 0.200809
0.781033 0.914183 0.223484
0.867353 0.909773 0.247669
0.932357 0.899931 0.271168
0.977569 0.882185 0.288060
0.989517 0.869795 0.295079
0.992538 0.852461 0.299031
0.924849 0.962631 0.245487
0.922545 0.961807 0.243931
0.920943 0.961151 0.242496
0.919860 0.960739 0.241840
0.916014 0.959930 0.241566
0.901946 0.958083 0.240757
0.874006 0.955261 0.236667
0.825727 0.952026 0.226963
0.759670 0.949081 0.215152
0.730404 0.946181 0.213519
0.763012 0.943557 0.228717
0.832547 0.940856 0.253223
0.895354 0.938766 0.279850
0.946975 0.934981 0.299626
0.982742 0.923827 0.312093
0.989731 0.912474 0.323140
0.991714 0.896239 0.335775
0.949447 0.974823 0.271534
0.948592 0.974350 0.270680
0.946563 0.973358 0.268910
0.945006 0.972610 0.267506
0.943969 0.972457 0.267216
0.940276 0.972137 0.267262
0.926314 0.970550 0.265949
0.890150 0.967742 0.259205
0.845716 0.964645 0.246555
0.808911 0.962036 0.242344
0.824750 0.959640 0.256580
0.872084 0.957992 0.281834
0.927687 0.956695 0.308202
0.966217 0.953796 0.330907
0.985931 0.947463 0.340352
0.990219 0.940368 0.346670
0.990997 0.926223 0.359747
0.012741 0.015625 0.044038
0.063355 0.013230 0.077256
0.091966 0.005707 0.065614
0.095918 0.001343 0.045518
0.095903 0.001221 0.023316
0.092515 0.002060 0.009064
0.096406 0.002182 0.003555
0.113451 0.001465 0.001602
0.132311 0.000977 0.000977
0.144457 0.000717 0.000717
0.156405 0.000504 0.000504
0.171298 0.000320 0.000320
0.215579 0.000092 0.000092
0.298161 0.000046 0.000046
0.374228 0.000031 0.000031
0.419837 0.000031 0.000031
0.460777 0.000031 0.000031
0.010575 0.078325 0.071061
0.053696 0.055436 0.057176
0.093843 0.028153 0.046677
0.117449 0.011597 0.031052
0.121675 0.006287 0.011521
0.123873 0.002777 0.003433
0.132631 0.001205 0.001221
0.135622 0.000961 0.000961
0.146029 0.000687 0.000687
0.161959 0.000443 0.000443
0.178759 0.000229 0.000229
0.198322 0.000137 0.000137
0.225742 0.000076 0.000076
0.279973 0.000061 0.000061
0.361105 0.000046 0.000046
0.429450 0.000031 0.000031
0.471794 0.000046 0.000031
0.014557 0.119081 0.032105
0.044160 0.102922 0.030259
0.070726 0.102281 0.023133
0.129885 0.073213 0.016709
0.173358 0.051118 0.005097
0.190906 0.028855 0.002274
0.197543 0.011902 0.000717
0.206149 0.005646 0.000214
0.217990 0.003357 0.000107
0.225620 0.001892 0.000076
0.232898 0.000626 0.000076
0.246296 0.000137 0.000061
0.272099 0.000061 0.000061
0.317784 0.000046 0.000046
0.391226 0.000244 0.000031
0.486549 0.003922 0.000031
0.514412 0.003891 0.000015
0.022370 0.155383 0.013169
0.045380 0.142061 0.016083
0.058778 0.142672 0.015808
0.084230 0.141588 0.018448
0.172763 0.115007 0.020096
0.256199 0.091630 0.006577
0.302983 0.070329 0.001556
0.311284 0.052659 0.000076
0.329366 0.039796 0.000031
0.334936 0.027390 0.000031
0.323537 0.012848 0.000046
0.314748 0.004944 0.000046
0.324804 0.001465 0.000046
0.355047 0.000702 0.000046
0.420264 0.002396 0.000031
0.505592 0.007034 0.000015
0.528023 0.005554 0.000015
0.032914 0.204593 0.013794
0.048493 0.189334 0.016175
0.063600 0.193561 0.017350
0.075410 0.200916 0.018402
0.108019 0.200916 0.025757
0.228000 0.177584 0.032609
0.359594 0.149371 0.018067
0.451301 0.125460 0.004013
0.445075 0.103807 0.000290
0.435538 0.082689 0.000015
0.448524 0.057939 0.000015
0.443473 0.035279 0.000015
0.431327 0.018997 0.000015
0.442069 0.012543 0.000031
0.520165 0.020752 0.000015
0.641428 0.039170 0.000015
0.645029 0.029938 0.000015
0.056443 0.264576 0.024552
0.064195 0.251652 0.024155
0.080278 0.258427 0.025986
0.088624 0.269566 0.028641
0.093019 0.277043 0.032395
0.154849 0.271519 0.044480
0.312566 0.258183 0.051316
0.480125 0.217136 0.034012
0.603143 0.178790 0.010025
0.597696 0.148791 0.001205
0.555825 0.113924 0.000015
0.569665 0.085527 0.000000
0.569467 0.062959 0.000000
0.570962 0.047898 0.000000
0.629221 0.051774 0.000015
0.765011 0.078614 0.000000
0.785412 0.075395 0.000000
0.110231 0.344839 0.041260
0.104799 0.324010 0.039597
0.117021 0.332616 0.038849
0.120592 0.348592 0.039948
0.115877 0.360708 0.042725
0.130938 0.367910 0.049928
0.221515 0.361608 0.064668
0.413046 0.349310 0.070741
0.590616 0.290196 0.049454
0.743236 0.237079 0.021195
0.774807 0.195972 0.004074
0.719707 0.151949 0.000183
0.694881 0.116152 0.000000
0.688121 0.090242 0.000000
0.709667 0.078965 0.000000
0.802502 0.097795 0.000000
0.862745 0.116625 0.000000
0.184649 0.445075 0.059312
0.174166 0.425376 0.057877
0.177493 0.426535 0.055970
0.173266 0.438727 0.054627
0.155276 0.448371 0.056077
0.150820 0.459571 0.058854
0.187411 0.465904 0.066636
0.317723 0.461219 0.081697
0.526665 0.438239 0.087098
0.701885 0.373449 0.069917
0.850278 0.308934 0.042206
0.927382 0.250324 0.014450
0.899763 0.196979 0.003098
0.839719 0.145922 0.000168
0.788006 0.111879 0.000000
0.846922 0.122286 0.000015
0.952529 0.164828 0.001038
0.270237 0.548608 0.075242
0.263005 0.539544 0.073808
0.259876 0.534768 0.073640
0.247349 0.542092 0.072557
0.219532 0.549813 0.072190
0.192462 0.556435 0.070741
0.206439 0.562249 0.073716
0.278157 0.564462 0.082536
0.464118 0.561288 0.103304
0.664683 0.521538 0.108400
0.817121 0.457969 0.094087
0.925750 0.379690 0.067857
0.975097 0.299611 0.034577
0.974548 0.229114 0.009293
0.933989 0.168856 0.002274
0.952911 0.172076 0.003052
0.992905 0.237278 0.019623
0.373434 0.657084 0.089525
0.363561 0.657191 0.083391
0.360189 0.653330 0.084092
0.348043 0.654124 0.086046
0.317891 0.657298 0.087800
0.272114 0.658381 0.085451
0.254414 0.657832 0.084260
0.303029 0.656092 0.091493
0.415061 0.656107 0.106004
0.632517 0.644419 0.131350
0.803052 0.597345 0.137469
0.906294 0.528725 0.124132
0.960128 0.439338 0.093950
0.983429 0.345388 0.057786
0.992126 0.273610 0.028840
0.994369 0.271366 0.031006
0.995071 0.345327 0.071794
0.506371 0.764294 0.110674
0.487434 0.770565 0.094163
0.480186 0.775830 0.091264
0.475273 0.774334 0.093248
0.449699 0.766918 0.097322
0.391669 0.758938 0.100359
0.339544 0.747967 0.099855
0.349126 0.736584 0.103548
0.426520 0.729259 0.114122
0.571389 0.727321 0.134325
0.784558 0.707057 0.163241
0.904631 0.662760 0.173465
0.954314 0.592630 0.157504
0.972641 0.508217 0.127916
0.985870 0.439216 0.101411
0.991485 0.430716 0.102037
0.994400 0.475975 0.129122
0.644251 0.857267 0.138079
0.622278 0.861128 0.119448
0.607355 0.871214 0.109361
0.600137 0.876005 0.106279
0.588937 0.867201 0.105669
0.529763 0.848661 0.111833
0.455161 0.827985 0.115496
0.417578 0.806256 0.117418
0.448218 0.787289 0.123720
0.538872 0.778897 0.137041
0.698650 0.784924 0.163394
0.881346 0.765377 0.200183
0.952804 0.718563 0.210269
0.974166 0.656107 0.193668
0.982986 0.613001 0.178378
0.989303 0.593103 0.175128
0.992935 0.597726 0.184497
0.752773 0.900603 0.164950
0.740261 0.899382 0.155520
0.728313 0.905623 0.142977
0.715557 0.911894 0.133501
0.699413 0.902739 0.131502
0.648524 0.890745 0.135195
0.574487 0.880491 0.136950
0.507073 0.870436 0.135149
0.491142 0.854032 0.135912
0.536828 0.839918 0.143679
0.635874 0.836591 0.161395
0.780285 0.842557 0.192447
0.912154 0.826200 0.230213
0.963745 0.773831 0.236942
0.980117 0.736584 0.232212
0.988006 0.717327 0.231617
0.992615 0.698299 0.232563
0.837476 0.933440 0.192386
0.832242 0.931731 0.190707
0.825605 0.931533 0.183566
0.814923 0.932082 0.173465
0.790265 0.924834 0.172412
0.744030 0.915648 0.172732
0.685847 0.907774 0.169619
0.618067 0.900313 0.161501
0.569436 0.895430 0.154498
0.576776 0.888853 0.158404
0.638117 0.882460 0.173495
0.730526 0.878538 0.194461
0.845106 0.875639 0.221958
0.929290 0.860990 0.251301
0.971008 0.831952 0.263111
0.987411 0.810880 0.266407
0.991775 0.786511 0.267826
0.881132 0.947753 0.216663
0.880293 0.947433 0.216480
0.878828 0.946975 0.215137
0.875685 0.946105 0.212238
0.866606 0.944167 0.210620
0.843336 0.941176 0.208515
0.792599 0.937819 0.203372
0.726680 0.934066 0.194232
0.667140 0.928130 0.183948
0.644984 0.922103 0.181827
0.678477 0.916716 0.192645
0.748012 0.911986 0.212696
0.838788 0.908080 0.236881
0.907195 0.901427 0.262303
0.960967 0.883543 0.281514
0.987381 0.870390 0.290532
0.992157 0.856641 0.294392
0.920775 0.961105 0.241947
0.919783 0.960693 0.241352
0.919020 0.960464 0.240909
0.918318 0.960189 0.240589
0.914794 0.959426 0.240146
0.902052 0.957397 0.238956
0.876173 0.954376 0.234989
0.832135 0.950927 0.225971
0.762768 0.947814 0.213336
0.716899 0.944869 0.206561
0.729198 0.941848 0.215381
0.788296 0.938949 0.236179
0.861280 0.936217 0.262013
0.920699 0.933867 0.285496
0.962570 0.923827 0.300694
0.987152 0.911345 0.313222
0.991684 0.899992 0.325048
0.946273 0.973220 0.268559
0.945144 0.972702 0.267689
0.944198 0.972320 0.266835
0.943969 0.972183 0.266590
0.944060 0.972320 0.266880
0.941741 0.972091 0.266926
0.931243 0.970428 0.265553
0.897459 0.967285 0.259602
0.853651 0.963409 0.246143
0.800381 0.959991 0.235187
0.792706 0.956786 0.240070
0.834302 0.953948 0.261006
0.885634 0.951995 0.285786
0.939513 0.950011 0.309865
0.974853 0.944579 0.327031
0.987655 0.938155 0.336309
0.990951 0.929763 0.349096
0.005814 0.006424 0.055024
0.040375 0.005783 0.096742
0.083299 0.003967 0.106950
0.097856 0.000900 0.093126
0.106600 0.000381 0.084199
0.111925 0.000381 0.068238
0.112856 0.000610 0.044862
0.112963 0.000961 0.020279
0.122591 0.000977 0.007660
0.133776 0.000900 0.002625
0.144411 0.000702 0.000885
0.159945 0.000458 0.000458
0.185382 0.000198 0.000198
0.239078 0.000076 0.000076
0.326650 0.000046 0.000046
0.393317 0.000031 0.000031
0.437842 0.000031 0.000031
0.005081 0.037476 0.088853
0.039307 0.017945 0.107576
0.117327 0.013184 0.123323
0.145892 0.005585 0.110628
0.150088 0.001389 0.090059
0.152178 0.000473 0.065187
0.143374 0.000488 0.033783
0.133867 0.000793 0.010971
0.135668 0.000870 0.003235
0.146136 0.000671 0.001038
0.162631 0.000427 0.000458
0.183978 0.000198 0.000198
0.211398 0.000092 0.000092
0.251926 0.000061 0.000061
0.323354 0.000046 0.000046
0.391806 0.000031 0.000031
0.446906 0.000031 0.000031
0.003037 0.131334 0.117739
0.026825 0.109361 0.110735
0.075792 0.079835 0.096483
0.147402 0.055543 0.081529
0.207828 0.031220 0.063844
0.263828 0.012360 0.039124
0.253483 0.005509 0.011048
0.225025 0.002029 0.001678
0.210788 0.001633 0.000183
0.219196 0.000870 0.000076
0.224994 0.000320 0.000076
0.233036 0.000107 0.000076
0.248890 0.000061 0.000061
0.281437 0.000061 0.000061
0.335088 0.000046 0.000046
0.427726 0.000305 0.000031
0.502739 0.001511 0.000015
0.009842 0.179232 0.080049
0.027070 0.157214 0.066300
0.064881 0.131380 0.061524
0.106676 0.135821 0.051240
0.194980 0.109667 0.043046
0.287205 0.090623 0.025040
0.371984 0.071427 0.007172
0.389075 0.054231 0.001953
0.377783 0.041184 0.000198
0.371786 0.032334 0.000031
0.365255 0.021576 0.000031
0.349783 0.010773 0.000031
0.338460 0.003494 0.000046
0.345876 0.000610 0.000046
0.386923 0.000565 0.000031
0.546120 0.018921 0.000015
0.706081 0.054490 0.000000
0.020233 0.231220 0.047883
0.038621 0.205066 0.043107
0.073060 0.184176 0.044236
0.097078 0.192813 0.039368
0.142733 0.196048 0.039857
0.263142 0.169482 0.038636
0.394766 0.141802 0.022919
0.494926 0.118334 0.006531
0.511940 0.099062 0.001160
0.499260 0.082933 0.000031
0.508675 0.066560 0.000015
0.506447 0.049302 0.000015
0.478935 0.028809 0.000015
0.447395 0.012161 0.000031
0.452735 0.006607 0.000015
0.550195 0.019196 0.000015
0.698863 0.051179 0.000000
0.046326 0.290913 0.036927
0.058595 0.273655 0.037552
0.086717 0.254093 0.041291
0.110384 0.263218 0.038941
0.128679 0.272740 0.037415
0.189807 0.278279 0.043076
0.349203 0.251911 0.046235
0.513146 0.210391 0.031098
0.641276 0.169375 0.009125
0.622705 0.136767 0.000626
0.588129 0.108812 0.000000
0.616678 0.091615 0.000000
0.624659 0.074998 0.000000
0.599557 0.053254 0.000000
0.582025 0.037354 0.000000
0.639048 0.045396 0.000015
0.774273 0.074800 0.000000
0.096025 0.371176 0.040406
0.096376 0.360861 0.040894
0.115312 0.339132 0.045121
0.137850 0.350179 0.043809
0.149554 0.365911 0.041794
0.169345 0.374777 0.044816
0.264820 0.376379 0.059358
0.459968 0.351675 0.063035
0.645777 0.289296 0.043214
0.784756 0.221439 0.013504
0.743984 0.169177 0.000916
0.707546 0.141161 0.000015
0.729580 0.125521 0.000000
0.726162 0.103593 0.000000
0.714229 0.083055 0.000000
0.750256 0.081971 0.000000
0.842863 0.107912 0.000000
0.169940 0.477470 0.052201
0.162539 0.464530 0.050828
0.167346 0.443961 0.054124
0.190646 0.447776 0.057160
0.200565 0.468910 0.053742
0.200793 0.479454 0.053834
0.233677 0.479210 0.062837
0.375463 0.481086 0.081376
0.583963 0.449470 0.083604
0.755428 0.369162 0.061387
0.897505 0.282353 0.026261
0.923659 0.232090 0.007904
0.921172 0.206165 0.004257
0.905394 0.173434 0.001648
0.874510 0.141054 0.000198
0.867597 0.130327 0.000015
0.918059 0.151537 0.000046
0.258503 0.589471 0.063996
0.251606 0.578058 0.062791
0.248707 0.560342 0.064393
0.266285 0.554894 0.069535
0.273503 0.575143 0.069169
0.255940 0.587579 0.065278
0.259632 0.582055 0.070176
0.318151 0.572259 0.082521
0.508644 0.578592 0.105898
0.694133 0.536385 0.108431
0.833875 0.462440 0.091005
0.931945 0.380987 0.064652
0.973739 0.324483 0.044099
0.984970 0.273533 0.024887
0.983886 0.224445 0.009827
0.974899 0.198123 0.005432
0.989059 0.208133 0.007797
0.356863 0.691402 0.075196
0.353216 0.691096 0.074998
0.349828 0.679728 0.074311
0.356298 0.668833 0.077287
0.353140 0.676905 0.079179
0.326558 0.685023 0.077516
0.304402 0.679637 0.079210
0.338491 0.667201 0.090211
0.433173 0.658961 0.108324
0.643442 0.660075 0.134890
0.796521 0.615259 0.139315
0.898039 0.554406 0.129503
0.951247 0.483909 0.109010
0.977951 0.407736 0.084260
0.989578 0.330663 0.055055
0.994766 0.281590 0.036942
0.995636 0.281895 0.042527
0.480064 0.788144 0.088289
0.464103 0.797635 0.093904
0.473121 0.790402 0.084611
0.472450 0.779309 0.085374
0.461234 0.773297 0.086671
0.420905 0.770962 0.087480
0.378912 0.764630 0.090394
0.393317 0.754360 0.101869
0.474159 0.745007 0.120989
0.597894 0.740001 0.142214
0.776532 0.728283 0.167636
0.886885 0.686397 0.175189
0.942351 0.627344 0.166918
0.968536 0.556344 0.146715
0.985275 0.473732 0.117479
0.992126 0.402670 0.092058
0.994400 0.386862 0.090166
0.625437 0.875395 0.110124
0.570260 0.881193 0.128664
0.602258 0.879606 0.100267
0.597406 0.876554 0.098024
0.585290 0.869917 0.096376
0.544182 0.859464 0.096529
0.484657 0.845075 0.101045
0.468284 0.828717 0.112566
0.525597 0.815595 0.132799
0.627024 0.810819 0.154589
0.755871 0.812146 0.182956
0.885161 0.794247 0.209842
0.943816 0.748150 0.216297
0.968582 0.687037 0.203525
0.986511 0.622446 0.183719
0.989960 0.557000 0.159197
0.993057 0.524147 0.149386
0.753979 0.918685 0.137026
0.701015 0.922789 0.151034
0.724910 0.918517 0.126024
0.714015 0.920638 0.119677
0.694957 0.916228 0.113909
0.660334 0.905821 0.109926
0.593973 0.894636 0.113283
0.546563 0.883314 0.123049
0.566415 0.870970 0.140261
0.640925 0.862806 0.162417
0.747845 0.862837 0.191165
0.866880 0.865690 0.226535
0.944091 0.854536 0.254292
0.973281 0.806912 0.252781
0.984115 0.748592 0.238254
0.989990 0.695109 0.222965
0.992874 0.663569 0.214969
0.845533 0.941375 0.164446
0.831205 0.942687 0.165560
0.828916 0.939361 0.160220
0.815030 0.940948 0.150744
0.784085 0.939941 0.139422
0.744595 0.930663 0.135927
0.688945 0.919158 0.137987
0.628183 0.908675 0.141527
0.602991 0.899702 0.148898
0.637476 0.892378 0.166049
0.717754 0.890547 0.191409
0.824582 0.894408 0.224689
0.905440 0.896010 0.258183
0.959350 0.881056 0.278904
0.979141 0.848707 0.273136
0.987396 0.807904 0.264973
0.991547 0.773510 0.261677
0.885267 0.952193 0.196399
0.884199 0.951736 0.197955
0.881666 0.950393 0.199344
0.876585 0.949645 0.193683
0.861494 0.947829 0.181140
0.833631 0.944015 0.178515
0.785412 0.940078 0.178866
0.724483 0.935775 0.176516
0.671321 0.929107 0.172992
0.656428 0.922881 0.177218
0.695796 0.918914 0.193179
0.772030 0.918105 0.218494
0.859617 0.918120 0.247623
0.917998 0.914427 0.274235
0.958831 0.893156 0.284901
0.985168 0.872877 0.288243
0.991196 0.857313 0.291371
0.921538 0.963180 0.227604
0.920546 0.962478 0.229679
0.919936 0.961929 0.232136
0.918547 0.961273 0.232990
0.911864 0.959747 0.230365
0.898650 0.957427 0.228656
0.874846 0.954330 0.226184
0.833921 0.950652 0.219593
0.766308 0.947311 0.208972
0.714534 0.944320 0.201572
0.716793 0.941543 0.207980
0.767132 0.938689 0.226963
0.839872 0.935897 0.251682
0.898390 0.933791 0.277043
0.946715 0.926452 0.293767
0.983322 0.912032 0.305562
0.990677 0.902251 0.316274
0.944335 0.973083 0.261143
0.943679 0.972610 0.261402
0.943450 0.972320 0.262196
0.943679 0.972412 0.263249
0.943725 0.972503 0.264408
0.941451 0.971939 0.264622
0.931624 0.969909 0.263325
0.899443 0.966476 0.257481
0.856901 0.962219 0.244678
0.798123 0.958373 0.231205
0.773007 0.954879 0.230060
0.802350 0.951476 0.245655
0.856916 0.948867 0.269841
0.908705 0.946914 0.293217
0.953841 0.943206 0.313878
0.983642 0.936492 0.325048
0.990143 0.930968 0.336782
0.002502 0.001892 0.056413
0.027893 0.001099 0.093019
0.061204 0.001175 0.108095
0.081941 0.000549 0.108034
0.098589 0.000320 0.111330
0.109651 0.000290 0.110887
0.119158 0.000259 0.102785
0.129839 0.000198 0.084947
0.140429 0.000229 0.062089
0.148775 0.000305 0.036454
0.148455 0.000458 0.013779
0.152743 0.000504 0.003830
0.168383 0.000351 0.000824
