tools/luts_backup/Kodak Vision3 500T 5219 (NEG)_FPE.cube
# (C) 2014 VisionColor & Patchflyer [www.vision-color.com]
# Generator: VC Patchmatch v.2.1.1 [64/53]
# All work and no play makes Jack a dull boy.
# LUT generated from: Kodak Vision3 500T 5219 (NEG)_FPE
LUT_3D_SIZE 9
0.034241 0.038163 0.038697
0.091066 0.039658 0.032242
0.252979 0.049470 0.038300
0.415122 0.066819 0.044999
0.519387 0.061616 0.051194
0.554589 0.054429 0.053193
0.531304 0.050538 0.050538
0.527153 0.050034 0.050034
0.514290 0.049500 0.049500
0.056962 0.062211 0.032792
0.106874 0.062272 0.032364
0.275502 0.067002 0.037842
0.428153 0.079011 0.045563
0.538109 0.073533 0.051987
0.572641 0.057572 0.052766
0.557137 0.054261 0.053834
0.568719 0.055558 0.054063
0.584848 0.057923 0.053483
0.031266 0.114153 0.035447
0.089143 0.149050 0.033783
0.312154 0.164508 0.040665
0.486671 0.168093 0.049638
0.621195 0.178698 0.056107
0.678248 0.152819 0.059159
0.651469 0.100526 0.057679
0.631769 0.082948 0.055940
0.625193 0.077592 0.055299
0.030823 0.173861 0.033326
0.044053 0.213825 0.035889
0.403418 0.337636 0.046998
0.570031 0.324239 0.059037
0.733776 0.333974 0.070497
0.811002 0.341268 0.078798
0.793591 0.299962 0.073030
0.769955 0.262608 0.068208
0.742718 0.228290 0.064607
0.040864 0.322972 0.041291
0.102358 0.392905 0.045090
0.464073 0.477073 0.062501
0.645914 0.471962 0.078157
0.846464 0.481590 0.104387
0.893751 0.490929 0.112062
0.891279 0.484352 0.110338
0.889403 0.470420 0.107271
0.875227 0.442771 0.100542
0.049683 0.427527 0.062608
0.145006 0.509544 0.061814
0.598169 0.597208 0.093523
0.858701 0.657862 0.138567
0.938704 0.682246 0.161700
0.944900 0.662043 0.158190
0.943053 0.646189 0.153872
0.944427 0.635462 0.151507
0.942901 0.624796 0.148623
0.054459 0.452720 0.055390
0.184680 0.539818 0.066758
0.694591 0.654444 0.114870
0.900984 0.682368 0.150454
0.948211 0.704036 0.168582
0.950378 0.705180 0.169619
0.947540 0.700648 0.167941
0.947540 0.700648 0.167941
0.949859 0.695735 0.167285
0.055039 0.449104 0.049989
0.233799 0.551904 0.067948
0.738720 0.667369 0.122667
0.919112 0.693370 0.157366
0.950378 0.705180 0.169619
0.947540 0.700648 0.167941
0.950378 0.705180 0.169619
0.950378 0.705180 0.169619
0.950378 0.705180 0.169619
0.071107 0.464347 0.050889
0.280369 0.557137 0.070085
0.736751 0.655787 0.120226
0.926848 0.691020 0.158968
0.947540 0.700648 0.167941
0.947540 0.700648 0.167941
0.950378 0.705180 0.169619
0.950378 0.705180 0.169619
0.950378 0.705180 0.169619
0.032074 0.030304 0.057877
0.062852 0.035355 0.062867
0.203586 0.039261 0.071321
0.353567 0.043061 0.067262
0.487404 0.049271 0.071824
0.510414 0.050675 0.061326
0.509377 0.048463 0.061265
0.514412 0.048768 0.052689
0.516747 0.048707 0.056031
0.030900 0.052049 0.062348
0.068238 0.070146 0.063752
0.251911 0.076448 0.048508
0.418967 0.081346 0.051072
0.558297 0.079667 0.054978
0.594461 0.059693 0.055528
0.552163 0.052613 0.054444
0.516014 0.049470 0.049760
0.518563 0.049577 0.050294
0.029725 0.111620 0.060990
0.048890 0.136339 0.043503
0.317723 0.185245 0.040894
0.505714 0.184619 0.050431
0.628794 0.184253 0.056733
0.679896 0.156741 0.059251
0.644785 0.097093 0.057328
0.621897 0.074907 0.054978
0.609827 0.067567 0.054215
0.033875 0.177905 0.054963
0.036469 0.214725 0.045045
0.392325 0.364569 0.048432
0.578943 0.346197 0.061631
0.726802 0.341756 0.071015
0.807202 0.341634 0.078431
0.793912 0.306676 0.073442
0.773907 0.268849 0.069017
0.750500 0.233646 0.065324
0.040467 0.316899 0.079042
0.050156 0.364858 0.050538
0.440330 0.472206 0.061006
0.683024 0.518822 0.089403
0.850904 0.501122 0.108827
0.898695 0.504143 0.115511
0.893767 0.490974 0.112062
0.891279 0.484352 0.110338
0.878752 0.449622 0.102220
0.045930 0.421180 0.104646
0.077638 0.480690 0.088136
0.545281 0.591775 0.088838
0.806241 0.645228 0.128191
0.936110 0.682414 0.161166
0.947494 0.661875 0.158709
0.946273 0.651316 0.155840
0.943053 0.646189 0.153872
0.944427 0.635462 0.151507
0.048051 0.442466 0.087816
0.113466 0.527504 0.098650
0.631662 0.674540 0.114748
0.914717 0.717983 0.159091
0.946014 0.702892 0.167529
0.950378 0.705180 0.169619
0.950378 0.705180 0.169619
0.950118 0.700481 0.168460
0.950118 0.700481 0.168460
0.049973 0.446540 0.069581
0.140963 0.543954 0.087999
0.695811 0.693614 0.125277
0.935729 0.723598 0.165957
0.948211 0.704036 0.168582
0.947540 0.700648 0.167941
0.947540 0.700648 0.167941
0.950378 0.705180 0.169619
0.947540 0.700648 0.167941
0.052445 0.447257 0.050935
0.182437 0.555901 0.077363
0.732555 0.693721 0.128084
0.920943 0.702846 0.160082
0.947540 0.700648 0.167941
0.947540 0.700648 0.167941
0.950378 0.705180 0.169619
0.947540 0.700648 0.167941
0.950378 0.705180 0.169619
0.032074 0.032074 0.137331
0.031952 0.031952 0.135882
0.099596 0.032151 0.154849
0.280064 0.040742 0.170504
0.427268 0.046967 0.219974
0.556313 0.053162 0.241489
0.477256 0.049241 0.142306
0.499245 0.050034 0.114946
0.502007 0.049973 0.108232
0.030991 0.032425 0.142855
0.030961 0.033570 0.144213
0.137911 0.041062 0.158816
0.329107 0.042039 0.167834
0.442985 0.047074 0.189822
0.554223 0.052934 0.217319
0.491936 0.050004 0.167102
0.509133 0.050477 0.114336
0.514092 0.050416 0.104067
0.033280 0.109117 0.185946
0.033173 0.116075 0.187839
0.175097 0.170626 0.170474
0.401709 0.183658 0.155413
0.560815 0.170367 0.143542
0.630701 0.114916 0.132509
0.617502 0.062791 0.136584
0.545937 0.053208 0.117433
0.532128 0.051606 0.088777
0.034241 0.192706 0.216541
0.035233 0.206592 0.207095
0.183612 0.327443 0.178775
0.518853 0.363027 0.096757
0.722118 0.341009 0.074815
0.804623 0.303197 0.076280
0.789532 0.239063 0.069795
0.727047 0.150134 0.061936
0.711192 0.136584 0.061341
0.039475 0.295995 0.269078
0.041337 0.310826 0.236805
0.233875 0.468421 0.138964
0.680125 0.583795 0.104677
0.881498 0.562524 0.125383
0.915831 0.518074 0.120623
0.894865 0.474189 0.109148
0.892760 0.463035 0.106966
0.871031 0.425422 0.097459
0.042573 0.369284 0.290166
0.045472 0.405234 0.247349
0.329580 0.582345 0.093767
0.756466 0.662974 0.124575
0.911238 0.675349 0.153384
0.944350 0.660685 0.157931
0.942443 0.640925 0.152438
0.941222 0.630365 0.149554
0.940078 0.613352 0.145541
0.045960 0.415381 0.312459
0.052918 0.477378 0.278843
0.430304 0.677119 0.231662
0.802060 0.685344 0.134569
0.927275 0.694697 0.160143
0.947540 0.702373 0.168521
0.950378 0.705180 0.169619
0.950118 0.700481 0.168460
0.949859 0.695735 0.167285
0.047242 0.430640 0.293843
0.055894 0.490791 0.271702
0.491707 0.704692 0.273167
0.881407 0.740764 0.158206
0.940002 0.708385 0.167285
0.955428 0.767452 0.188006
0.947540 0.700648 0.167941
0.950378 0.705180 0.169619
0.950378 0.705180 0.169619
0.046677 0.428748 0.239857
0.055756 0.486610 0.228534
0.531731 0.718349 0.273243
0.897749 0.766598 0.176150
0.953490 0.754986 0.183703
0.954574 0.753811 0.185077
0.947540 0.702373 0.168521
0.947540 0.700648 0.167941
0.950378 0.705180 0.169619
0.034363 0.034363 0.183902
0.034363 0.034363 0.183902
0.033280 0.033280 0.177890
0.171832 0.034165 0.200839
0.354772 0.042222 0.262226
0.409354 0.045686 0.224887
0.415412 0.046784 0.166888
0.442756 0.047669 0.143938
0.453849 0.047974 0.132952
0.033997 0.033997 0.182757
0.033936 0.033936 0.181125
0.034653 0.034180 0.183948
0.203342 0.035950 0.205478
0.346929 0.043168 0.235767
0.425116 0.046876 0.233799
0.433188 0.047807 0.181109
0.467170 0.048997 0.156664
0.473777 0.049088 0.145937
0.036530 0.076799 0.232624
0.036500 0.081376 0.232013
0.042283 0.112779 0.243702
0.294972 0.137163 0.266590
0.413794 0.057053 0.245869
0.464073 0.047730 0.233036
0.453361 0.048707 0.197620
0.455940 0.048569 0.157198
0.481575 0.049516 0.149050
0.038209 0.190021 0.299458
0.038376 0.193454 0.304448
0.040848 0.242969 0.325933
0.366842 0.346868 0.325826
0.561318 0.338399 0.301137
0.675242 0.287160 0.265232
0.702251 0.220920 0.214710
0.661265 0.146609 0.153124
0.588052 0.087526 0.085771
0.041581 0.287312 0.378775
0.041276 0.289708 0.364416
0.044724 0.368994 0.378515
0.420188 0.538689 0.358541
0.721630 0.561318 0.290669
0.857511 0.518334 0.218265
0.886473 0.460456 0.147097
0.878462 0.412573 0.110033
0.851514 0.357931 0.088945
0.043717 0.362081 0.401251
0.042176 0.361578 0.380240
0.050843 0.456550 0.331670
0.477348 0.674357 0.330266
0.864469 0.750622 0.222339
0.943801 0.728969 0.194308
0.950774 0.695354 0.173449
0.951919 0.664302 0.163394
0.951095 0.628550 0.154971
0.046967 0.403662 0.436255
0.047532 0.422889 0.435370
0.100221 0.571237 0.330800
0.550301 0.700465 0.205966
0.913451 0.765301 0.175860
0.954269 0.772168 0.186877
0.954849 0.759213 0.184802
0.954803 0.749874 0.183246
0.953582 0.732769 0.179736
0.047822 0.413596 0.445487
0.048127 0.444862 0.443732
0.208331 0.656947 0.408728
0.655665 0.708370 0.144884
0.936690 0.744915 0.170504
0.954879 0.774029 0.187732
0.954604 0.756420 0.185748
0.954543 0.749889 0.184085
0.953536 0.739544 0.181109
0.047669 0.416358 0.436240
0.050095 0.459876 0.437644
0.212406 0.665690 0.431006
0.699199 0.727810 0.164981
0.945113 0.747707 0.174182
0.955154 0.766445 0.187228
0.955276 0.765682 0.187762
0.954589 0.755123 0.185412
0.951125 0.724956 0.176287
0.034745 0.034745 0.193103
0.034638 0.034638 0.190784
0.034363 0.034363 0.183902
0.085420 0.035187 0.190845
0.368750 0.042512 0.264805
0.290044 0.041199 0.190692
0.345846 0.043977 0.173693
0.373251 0.044877 0.147829
0.380270 0.044663 0.123613
0.034745 0.034745 0.193103
0.034546 0.034546 0.188495
0.034165 0.034165 0.179294
0.080674 0.034974 0.186938
0.299001 0.040024 0.230442
0.304997 0.041917 0.197101
0.365805 0.044923 0.187640
0.402365 0.046296 0.171557
0.410452 0.046479 0.159686
0.035203 0.036957 0.206699
0.035355 0.037385 0.207767
0.035554 0.041642 0.218540
0.066636 0.037690 0.216205
0.275669 0.038499 0.226673
0.330510 0.043244 0.197299
0.355718 0.044388 0.170138
0.363439 0.044511 0.144930
0.406561 0.046418 0.167452
0.039582 0.161517 0.313054
0.039628 0.158251 0.311406
0.039979 0.165240 0.317418
0.150225 0.257191 0.350973
0.421042 0.263630 0.351583
0.523995 0.165454 0.316091
0.520500 0.074571 0.250126
0.463004 0.048981 0.174640
0.403113 0.045060 0.116533
0.042756 0.269886 0.411566
0.042649 0.265995 0.409995
0.044022 0.291096 0.423774
0.165576 0.446479 0.467430
0.547112 0.519661 0.488258
0.709194 0.491844 0.431220
0.765530 0.443366 0.354833
0.793698 0.413840 0.287510
0.772992 0.360433 0.194308
0.047959 0.344518 0.486717
0.048447 0.332143 0.494759
0.049851 0.359869 0.507240
0.157656 0.588083 0.531182
0.620157 0.704753 0.526757
0.844388 0.721447 0.503471
0.914061 0.680934 0.415229
0.927337 0.631846 0.321569
0.923476 0.568551 0.205844
0.050462 0.400626 0.524193
0.050782 0.405264 0.524330
0.052644 0.438117 0.539269
0.199268 0.661891 0.496437
0.695476 0.794568 0.530571
0.909300 0.834104 0.503136
0.951782 0.817609 0.428122
0.958450 0.794354 0.365164
0.958755 0.769543 0.299413
0.052033 0.420722 0.544839
0.051728 0.422217 0.537484
0.061021 0.508186 0.550866
0.306447 0.695857 0.457053
0.738140 0.811994 0.501778
0.931212 0.853895 0.486458
0.959747 0.850309 0.414939
0.961105 0.842924 0.367590
0.958221 0.827970 0.314153
0.052461 0.425284 0.557153
0.052125 0.426337 0.544717
0.068940 0.546639 0.566217
0.350301 0.708782 0.454551
0.777859 0.821912 0.487694
0.942931 0.856779 0.487816
0.959747 0.850309 0.414939
0.960754 0.845426 0.351156
0.958007 0.828351 0.292103
0.034928 0.034928 0.197696
0.034836 0.034836 0.195392
0.034638 0.034638 0.190784
0.033295 0.033295 0.177356
0.108446 0.034760 0.198764
0.237598 0.037140 0.206210
0.285191 0.041016 0.167086
0.308202 0.042237 0.127749
0.300008 0.041901 0.100206
0.034928 0.034928 0.197696
0.034745 0.034745 0.193103
0.034272 0.034272 0.181582
0.033112 0.033112 0.162493
0.147326 0.033036 0.183505
0.247074 0.038453 0.192142
0.304936 0.041993 0.190234
0.335790 0.043503 0.170214
0.344884 0.043870 0.152926
0.035019 0.035019 0.204150
0.034470 0.034470 0.196521
0.033722 0.033722 0.176287
0.033356 0.033356 0.166278
0.102861 0.033310 0.176913
0.241642 0.038651 0.175250
0.231800 0.038560 0.151995
0.345785 0.044022 0.197498
0.391348 0.046128 0.212634
0.040650 0.117540 0.310277
0.040238 0.114855 0.302083
0.039338 0.106798 0.284245
0.041123 0.138018 0.325795
0.199008 0.141146 0.312398
0.363378 0.061067 0.288548
0.349035 0.042008 0.229007
0.318486 0.041871 0.184283
0.287007 0.040635 0.155077
0.044739 0.257084 0.440940
0.046845 0.269657 0.457832
0.043778 0.245121 0.424262
0.049653 0.299275 0.475654
0.351583 0.429511 0.514443
0.566949 0.447761 0.500343
0.634775 0.382712 0.427878
0.680949 0.346593 0.388327
0.686946 0.314199 0.356802
0.049516 0.323690 0.511345
0.049500 0.303349 0.510430
0.049332 0.287236 0.508995
0.059770 0.448112 0.600656
0.381933 0.611078 0.638315
0.691341 0.670893 0.634501
0.811246 0.649378 0.583764
0.861616 0.616938 0.521599
0.880125 0.593378 0.491203
0.051423 0.392340 0.568414
0.051423 0.392340 0.568414
0.055406 0.401968 0.622202
0.073701 0.537652 0.672358
0.430182 0.742184 0.703899
0.758221 0.800916 0.695094
0.899107 0.818219 0.671244
0.938216 0.787976 0.597375
0.945510 0.758495 0.548348
0.054078 0.416617 0.599741
0.053910 0.418585 0.596414
0.060014 0.458335 0.643244
0.086412 0.591012 0.682841
0.481651 0.791363 0.707240
0.799802 0.854444 0.728267
0.933333 0.878538 0.705821
0.956115 0.872023 0.658305
0.963577 0.860258 0.619074
0.054963 0.426703 0.607004
0.054963 0.426703 0.607004
0.060075 0.461707 0.642588
0.114656 0.649943 0.689235
0.513115 0.803616 0.714168
0.830213 0.872953 0.750759
0.943191 0.893095 0.726864
0.965957 0.892790 0.680919
0.965347 0.884031 0.660838
0.035080 0.035080 0.200153
0.035080 0.035080 0.200153
0.034928 0.034928 0.197696
0.034272 0.034272 0.181582
0.033494 0.033494 0.167437
0.053056 0.033829 0.169238
0.199908 0.036072 0.185290
0.246906 0.039445 0.109133
0.240635 0.039078 0.079912
0.035233 0.035233 0.202640
0.035386 0.035386 0.205112
0.034928 0.034928 0.197696
0.033936 0.033936 0.174456
0.032944 0.032944 0.155642
0.110796 0.032319 0.166873
0.228687 0.037613 0.200549
0.280018 0.040757 0.160708
0.294575 0.041535 0.138109
0.035859 0.035859 0.212589
0.035386 0.035386 0.205112
0.034058 0.034058 0.176867
0.032868 0.032868 0.152316
0.031952 0.031952 0.136553
0.133776 0.034043 0.134173
0.204898 0.036576 0.168521
0.320943 0.041978 0.225040
0.357900 0.044282 0.233097
0.039307 0.056596 0.288746
0.039078 0.055238 0.281331
0.037613 0.053452 0.246387
0.039231 0.070069 0.279347
0.038422 0.039704 0.238560
0.208484 0.038087 0.264836
0.272663 0.038010 0.234913
0.245167 0.038056 0.200824
0.315679 0.041352 0.224506
0.045975 0.239994 0.453361
0.047135 0.255726 0.478920
0.045136 0.226841 0.433082
0.047105 0.233845 0.463004
0.187884 0.356023 0.532204
0.383871 0.331579 0.490303
0.557580 0.340368 0.478935
0.594491 0.263493 0.422904
0.626108 0.251774 0.406821
0.051102 0.328130 0.533303
0.051637 0.331685 0.542214
0.054429 0.346319 0.587961
0.054765 0.349371 0.591455
0.205356 0.514504 0.653315
0.546395 0.586664 0.659388
0.724727 0.598550 0.644297
0.801022 0.583947 0.613687
0.827054 0.569390 0.587289
0.053513 0.383825 0.584955
0.053513 0.383825 0.584955
0.057099 0.407752 0.637140
0.062715 0.453483 0.671977
0.246769 0.657633 0.739590
0.607523 0.742061 0.760204
0.808972 0.776287 0.751476
0.895659 0.780148 0.734569
0.910750 0.770916 0.718822
0.054871 0.410239 0.612634
0.054871 0.410239 0.612634
0.055421 0.420920 0.618952
0.068910 0.509926 0.696452
0.266407 0.724910 0.771908
0.647013 0.819043 0.807935
0.861662 0.859327 0.807950
0.922377 0.864118 0.791928
0.939422 0.848859 0.754635
0.055573 0.421927 0.621530
0.055344 0.421714 0.617960
0.055680 0.426673 0.619638
0.072160 0.531258 0.702754
0.293736 0.752682 0.781628
0.681544 0.852369 0.828443
0.881163 0.885939 0.831464
0.936370 0.896513 0.818738
0.951080 0.898405 0.803510
0.034638 0.034638 0.190784
0.034546 0.034546 0.188495
0.034546 0.034546 0.188495
0.034455 0.034455 0.186191
0.034165 0.034165 0.179294
0.033402 0.033402 0.167697
0.093751 0.033387 0.172793
0.200137 0.036957 0.145586
0.191379 0.038666 0.072999
0.034928 0.034928 0.197696
0.035080 0.035080 0.200153
0.034836 0.034836 0.195392
0.034546 0.034546 0.188495
0.034363 0.034363 0.183902
0.033295 0.033280 0.178424
0.128084 0.033646 0.194125
0.237446 0.038331 0.186069
0.249241 0.039414 0.132815
0.036011 0.036011 0.215061
0.036011 0.036011 0.215061
0.034745 0.034745 0.193103
0.033936 0.033936 0.174456
0.033371 0.033371 0.162341
0.031861 0.031830 0.135134
0.105592 0.032074 0.158190
0.271366 0.038743 0.230289
0.326116 0.041718 0.235416
0.038682 0.040375 0.279026
0.038285 0.039643 0.273777
0.036439 0.038148 0.238468
0.038056 0.051026 0.255695
0.034470 0.034485 0.211154
0.062593 0.036088 0.215824
0.157809 0.034333 0.213275
0.209796 0.036179 0.210666
0.328649 0.040742 0.254597
0.046494 0.204883 0.442145
0.046510 0.208530 0.444083
0.045747 0.200855 0.430182
0.045624 0.199664 0.436774
0.076051 0.282567 0.523629
0.246265 0.257588 0.490257
0.455238 0.265888 0.491417
0.554284 0.241306 0.457649
0.597147 0.215427 0.433448
0.051484 0.307790 0.537911
0.051667 0.312093 0.540322
0.051514 0.296101 0.552163
0.052613 0.310811 0.567468
0.097230 0.425803 0.636591
0.444938 0.529564 0.671672
0.614572 0.545541 0.662516
0.748501 0.558038 0.650690
0.795850 0.536019 0.625132
0.054643 0.373037 0.593423
0.054658 0.376211 0.594995
0.055085 0.379080 0.602228
0.055818 0.392599 0.632441
0.139895 0.585977 0.721874
0.514656 0.697124 0.766690
0.755642 0.751156 0.780896
0.840925 0.748455 0.767514
0.886076 0.748837 0.763684
0.055024 0.403220 0.614649
0.055055 0.405631 0.615167
0.055100 0.410437 0.616205
0.062867 0.463783 0.679850
0.170397 0.664729 0.757427
0.555306 0.783276 0.809934
0.797711 0.834211 0.834272
0.891447 0.856794 0.835874
0.922591 0.850416 0.824155
0.055131 0.412833 0.616709
0.055421 0.417838 0.621271
0.055344 0.421714 0.617960
0.064912 0.486717 0.681682
0.183246 0.693843 0.763638
0.570809 0.817014 0.828061
0.813153 0.867872 0.858351
0.907774 0.888197 0.859968
0.933791 0.886442 0.848356
0.033936 0.033936 0.174456
0.033829 0.033829 0.172030
0.033829 0.033829 0.172030
0.033936 0.033936 0.174456
0.033829 0.033829 0.172030
0.033249 0.033249 0.159930
0.032792 0.032197 0.144106
0.116518 0.033463 0.131411
0.170947 0.038041 0.097734
0.034455 0.034455 0.186191
0.034836 0.034836 0.195392
0.034455 0.034455 0.186191
0.034546 0.034546 0.188495
0.034363 0.034363 0.183902
0.034058 0.034058 0.176867
0.045823 0.034012 0.180194
0.157900 0.033417 0.181598
0.227176 0.038209 0.155383
0.035691 0.035691 0.210086
0.036011 0.036011 0.215061
0.035859 0.035859 0.212589
0.035080 0.035080 0.200153
0.034836 0.034836 0.195392
0.033707 0.033707 0.169619
0.064729 0.035584 0.194324
0.208042 0.037156 0.234424
0.295491 0.039216 0.242435
0.037980 0.038437 0.269703
0.037980 0.038437 0.269703
0.036881 0.037675 0.257237
0.038758 0.054398 0.268330
0.034119 0.034119 0.199298
0.034913 0.034592 0.201709
0.081819 0.036057 0.202625
0.175967 0.034638 0.219333
0.273793 0.038987 0.249500
0.046906 0.190311 0.443336
0.046815 0.186679 0.441276
0.047074 0.190280 0.446265
0.045823 0.187091 0.429038
0.051255 0.226825 0.503365
0.142321 0.188678 0.454215
0.367651 0.216007 0.489982
0.499565 0.210559 0.473884
0.557061 0.189639 0.449012
0.050477 0.289891 0.533257
0.050874 0.294163 0.538735
0.050294 0.284871 0.540673
0.050233 0.275212 0.537865
0.066346 0.373373 0.618448
0.373419 0.500755 0.679133
0.506889 0.489021 0.661921
0.680812 0.521752 0.665049
0.765133 0.531655 0.654994
0.055009 0.363394 0.594354
0.055100 0.369863 0.597726
0.055100 0.369863 0.597726
0.055024 0.372503 0.611856
0.097353 0.538460 0.707378
0.420157 0.648692 0.756039
0.692851 0.717205 0.781323
0.783841 0.715679 0.776364
0.859251 0.734386 0.781201
0.055268 0.395850 0.616053
0.055222 0.398550 0.617105
0.055283 0.405829 0.618708
0.057267 0.427924 0.650172
0.119295 0.617792 0.740200
0.481132 0.748394 0.797009
0.745785 0.802274 0.834394
0.854749 0.828565 0.840970
0.897856 0.835203 0.839094
0.055070 0.408026 0.615686
0.055100 0.410437 0.616205
0.055253 0.419806 0.617960
0.062409 0.465782 0.673274
0.151705 0.669184 0.759670
0.510704 0.798062 0.820981
0.767590 0.848310 0.855772
0.881071 0.874006 0.871595
0.916838 0.880186 0.868254
