tools/luts_backup/Kodak Elite Chrome 200_FPE.cube
# (C) 2014 VisionColor & Patchflyer [www.vision-color.com]
# Generator: VC Patchmatch v.2.1.1 [64/53]
# All work and no play makes Jack a dull boy.
# LUT generated from: Kodak Elite Chrome 200_FPE
LUT_3D_SIZE 9
0.033509 0.036683 0.037079
0.061967 0.039170 0.035111
0.103426 0.044617 0.038315
0.139269 0.049119 0.039460
0.181430 0.052354 0.039445
0.233860 0.054047 0.041016
0.300877 0.056947 0.045487
0.349584 0.055589 0.047318
0.379248 0.053529 0.047791
0.031296 0.058228 0.037903
0.086091 0.082521 0.041276
0.150759 0.091997 0.042893
0.209155 0.093080 0.046098
0.265263 0.096757 0.048402
0.316823 0.097871 0.049546
0.367910 0.096010 0.051469
0.407538 0.093629 0.052110
0.454078 0.103044 0.054887
0.032059 0.097002 0.044984
0.077348 0.128832 0.046845
0.172686 0.160769 0.050919
0.286503 0.185840 0.058412
0.360555 0.182239 0.060945
0.419928 0.176440 0.062028
0.460258 0.176059 0.064347
0.489830 0.167132 0.060197
0.521385 0.169970 0.062928
0.033646 0.135119 0.050965
0.060044 0.172946 0.053880
0.121080 0.204791 0.054612
0.304524 0.276020 0.066606
0.470893 0.313405 0.082979
0.559121 0.324605 0.091432
0.604654 0.318669 0.096666
0.638788 0.314183 0.099413
0.632197 0.276524 0.087602
0.035767 0.184451 0.057740
0.057481 0.235172 0.060563
0.106798 0.278462 0.061311
0.245258 0.332860 0.067552
0.528069 0.443809 0.107729
0.667079 0.469764 0.138186
0.743008 0.482261 0.158923
0.778317 0.483101 0.176547
0.790967 0.467536 0.170840
0.039948 0.250980 0.067445
0.059480 0.305882 0.071687
0.115770 0.351415 0.073991
0.251072 0.403037 0.077745
0.530739 0.503548 0.114565
0.736431 0.574685 0.183185
0.818921 0.593439 0.215991
0.865141 0.609476 0.248463
0.860273 0.577996 0.228275
0.042588 0.315022 0.079118
0.062989 0.358968 0.083558
0.109163 0.401297 0.087388
0.249287 0.456168 0.092439
0.545403 0.555367 0.135576
0.769055 0.638148 0.215351
0.855680 0.660624 0.250553
0.898421 0.681651 0.294759
0.919295 0.690471 0.329595
0.045212 0.359915 0.090135
0.064759 0.396933 0.093309
0.131655 0.447898 0.098314
0.296407 0.510491 0.112993
0.572473 0.600961 0.162112
0.804150 0.686473 0.244633
0.883192 0.723293 0.289326
0.912215 0.732921 0.321889
0.936370 0.746136 0.363745
0.049577 0.394751 0.097230
0.072663 0.424430 0.097230
0.186465 0.495842 0.112566
0.405280 0.568994 0.134707
0.631312 0.643015 0.192523
0.817990 0.722515 0.259617
0.897353 0.766201 0.325322
0.919173 0.784054 0.369284
0.937819 0.794491 0.399069
0.030182 0.036225 0.062425
0.063371 0.041871 0.062638
0.109651 0.047608 0.061585
0.156130 0.053681 0.063188
0.203601 0.056306 0.063035
0.259586 0.058335 0.064073
0.321324 0.061387 0.069200
0.370214 0.060822 0.068528
0.397986 0.059220 0.067353
0.028580 0.062272 0.071229
0.079667 0.084947 0.085328
0.149981 0.058671 0.047105
0.181262 0.053315 0.040040
0.232410 0.054063 0.040818
0.298070 0.057511 0.045670
0.349096 0.056764 0.047395
0.381430 0.058473 0.050141
0.434012 0.092073 0.073289
0.030488 0.104479 0.086183
0.037369 0.135073 0.059083
0.259251 0.235874 0.072114
0.360052 0.181628 0.061494
0.382162 0.146731 0.057496
0.412451 0.133913 0.056275
0.436561 0.119799 0.055024
0.473518 0.127489 0.059266
0.483009 0.143908 0.081437
0.031815 0.145693 0.093874
0.035706 0.183825 0.058900
0.111925 0.275792 0.062135
0.519905 0.438834 0.108461
0.592920 0.369284 0.105119
0.598718 0.312612 0.094713
0.597452 0.273594 0.085618
0.578592 0.228580 0.077699
0.558221 0.220233 0.093111
0.034531 0.197589 0.100435
0.040620 0.253727 0.067643
0.088762 0.337591 0.073365
0.337575 0.433661 0.085344
0.736065 0.575082 0.183261
0.785550 0.542855 0.189425
0.799435 0.507637 0.187839
0.781567 0.464012 0.174289
0.749905 0.426810 0.178027
0.038743 0.261097 0.114855
0.042039 0.311177 0.079545
0.080079 0.381262 0.085283
0.255711 0.458457 0.093523
0.671748 0.600351 0.174395
0.856413 0.660929 0.249638
0.884764 0.656413 0.280156
0.879286 0.618036 0.268376
0.861006 0.582406 0.282872
0.041718 0.320775 0.126116
0.045167 0.360204 0.089860
0.086458 0.416602 0.095338
0.252888 0.494881 0.108186
0.633738 0.621347 0.178607
0.858564 0.710277 0.273610
0.909911 0.731121 0.319966
0.927077 0.727337 0.357809
0.914717 0.693843 0.382757
0.044572 0.366323 0.136568
0.051026 0.397360 0.103410
0.103319 0.452705 0.109163
0.322499 0.540825 0.130816
0.630182 0.644358 0.195193
0.847730 0.736126 0.288960
0.908812 0.771893 0.351934
0.932952 0.784543 0.385534
0.935027 0.758373 0.421286
0.047578 0.398825 0.137438
0.077577 0.444221 0.143999
0.191745 0.508904 0.161807
0.404364 0.580316 0.184833
0.633310 0.659449 0.240330
0.821836 0.740826 0.326299
0.887007 0.775189 0.382910
0.919799 0.794156 0.418463
0.940612 0.798535 0.438697
0.030976 0.038163 0.095171
0.056001 0.042954 0.100710
0.109224 0.048981 0.102724
0.165820 0.057038 0.101442
0.217197 0.060838 0.099535
0.279149 0.062730 0.102037
0.339773 0.064683 0.105486
0.387579 0.063920 0.104234
0.403265 0.061616 0.101534
0.032334 0.064485 0.118349
0.034714 0.047181 0.124590
0.162600 0.066056 0.145769
0.216526 0.060975 0.099687
0.274311 0.062150 0.089799
0.330999 0.063600 0.085115
0.377096 0.062516 0.081315
0.402640 0.064714 0.082109
0.436942 0.091783 0.109285
0.032807 0.101396 0.134951
0.038575 0.148348 0.192782
0.181018 0.182956 0.186252
0.291737 0.119478 0.096513
0.305043 0.074083 0.056641
0.346059 0.057694 0.048142
0.383734 0.061372 0.051575
0.428672 0.089647 0.072313
0.464363 0.135927 0.114870
0.035279 0.166461 0.166735
0.035752 0.224262 0.180102
0.056825 0.237308 0.113039
0.493843 0.417884 0.160876
0.567422 0.306554 0.109117
0.528572 0.205814 0.071733
0.510552 0.166339 0.065431
0.503517 0.163455 0.081743
0.547097 0.212375 0.130358
0.035645 0.225788 0.180987
0.039170 0.279057 0.166857
0.045533 0.308873 0.096849
0.253758 0.434104 0.106874
0.791608 0.618570 0.237888
0.829862 0.561791 0.217823
0.773144 0.453834 0.170108
0.714427 0.384710 0.158022
0.707134 0.383658 0.195193
0.039963 0.294972 0.205646
0.042359 0.330816 0.168688
0.045380 0.359564 0.092317
0.171145 0.465034 0.105379
0.722057 0.653529 0.212757
0.906325 0.726513 0.320241
0.910811 0.683589 0.323598
0.870649 0.603800 0.297032
0.850492 0.571542 0.315847
0.043870 0.350240 0.222232
0.045411 0.374533 0.169146
0.052659 0.397635 0.104311
0.196445 0.497887 0.122271
0.623224 0.642908 0.198138
0.880140 0.753552 0.322316
0.930648 0.780163 0.382773
0.931105 0.735988 0.412009
0.906905 0.686519 0.401556
0.047257 0.394156 0.233799
0.052216 0.414115 0.177462
0.079484 0.446830 0.146670
0.276539 0.539406 0.168475
0.592447 0.645869 0.228153
0.842344 0.750271 0.339574
0.908110 0.787289 0.404852
0.939956 0.797757 0.440406
0.937682 0.766720 0.465461
0.057542 0.444923 0.261997
0.078889 0.467384 0.236133
0.167163 0.509636 0.201511
0.426947 0.599084 0.242542
0.635752 0.674571 0.301625
0.827893 0.758587 0.393896
0.893156 0.790784 0.431983
0.922194 0.806134 0.465950
0.942321 0.811948 0.493751
0.030655 0.037644 0.116716
0.053407 0.041718 0.129564
0.100008 0.048081 0.141115
0.169909 0.057527 0.146578
0.230777 0.063142 0.143694
0.287312 0.063798 0.139788
0.348577 0.065919 0.146120
0.388800 0.063890 0.140856
0.402548 0.059403 0.133761
0.034409 0.070481 0.155276
0.030823 0.038239 0.138293
0.094926 0.046784 0.176364
0.242741 0.065248 0.194324
0.294591 0.065064 0.157565
0.345663 0.065339 0.143740
0.388006 0.064317 0.133730
0.405798 0.064591 0.127474
0.432670 0.091432 0.147204
0.035721 0.108309 0.181521
0.038087 0.117357 0.226444
0.073091 0.112367 0.230854
0.323430 0.151263 0.265599
0.356222 0.088075 0.157397
0.383734 0.065934 0.116045
0.408499 0.067018 0.108049
0.433097 0.090288 0.123064
0.461540 0.130404 0.153246
0.037476 0.156558 0.208728
0.042435 0.235920 0.304494
0.070314 0.278843 0.324025
0.346426 0.343374 0.327871
0.460319 0.211887 0.173205
0.415885 0.117998 0.095094
0.426184 0.091524 0.074403
0.468742 0.136339 0.115541
0.551568 0.212680 0.183444
0.042008 0.256031 0.272435
0.050446 0.345983 0.342809
0.056550 0.382254 0.321584
0.104662 0.360525 0.183810
0.678904 0.562844 0.318029
0.710124 0.435172 0.207233
0.633417 0.293660 0.121370
0.622202 0.286900 0.155840
0.710231 0.378180 0.256367
0.047761 0.342138 0.321920
0.053498 0.402396 0.345541
0.052705 0.416251 0.283970
0.067247 0.402823 0.154299
0.571450 0.600717 0.231586
0.880903 0.708629 0.365072
0.893217 0.654887 0.341909
0.849287 0.569482 0.316304
0.851850 0.573068 0.378836
0.054200 0.404822 0.351049
0.057435 0.441901 0.345647
0.058701 0.444327 0.268559
0.081147 0.446845 0.149599
0.480964 0.604654 0.204105
0.868818 0.762509 0.364202
0.937316 0.794202 0.440360
0.925994 0.726925 0.438224
0.914977 0.694270 0.466545
0.060487 0.455879 0.374273
0.068818 0.482017 0.360861
0.079683 0.480705 0.280690
0.169009 0.510765 0.205905
0.539879 0.636500 0.267506
0.824689 0.755673 0.388403
0.909407 0.800320 0.450599
0.941360 0.810819 0.495903
0.933822 0.766781 0.515251
0.075776 0.505852 0.412284
0.092363 0.510765 0.365377
0.121508 0.507912 0.275578
0.349004 0.595422 0.299535
0.626871 0.687785 0.371099
0.810559 0.770199 0.458717
0.897581 0.813809 0.489250
0.922667 0.813123 0.503670
0.937881 0.814298 0.542870
0.030930 0.037888 0.136934
0.051225 0.041047 0.158175
0.093187 0.045960 0.175341
0.156161 0.053422 0.186892
0.242618 0.064408 0.193759
0.307881 0.066957 0.192386
0.357565 0.066987 0.188388
0.393942 0.063920 0.182544
0.407660 0.060578 0.176043
0.036332 0.077531 0.196353
0.032166 0.036957 0.158221
0.077287 0.044984 0.207080
0.178576 0.055146 0.236683
0.317281 0.067338 0.244495
0.367086 0.067765 0.215167
0.393118 0.063874 0.190555
0.410117 0.064897 0.180804
0.434714 0.093034 0.193530
0.038087 0.118181 0.228138
0.040589 0.123796 0.275990
0.040665 0.062150 0.223056
0.175128 0.088258 0.294713
0.409827 0.116655 0.317372
0.401663 0.067338 0.218235
0.411170 0.066773 0.181094
0.435065 0.093111 0.181933
0.481849 0.144289 0.216480
0.038437 0.160739 0.252567
0.041306 0.192569 0.314092
0.048615 0.216052 0.353017
0.151308 0.230243 0.365774
0.504433 0.292592 0.407614
0.466575 0.145113 0.236378
0.435477 0.094789 0.163668
0.475044 0.136614 0.183291
0.555901 0.204700 0.241443
0.042527 0.237858 0.306798
0.051118 0.325765 0.402502
0.071199 0.392081 0.459266
0.171862 0.439338 0.464057
0.541863 0.521187 0.485023
0.619837 0.340230 0.288533
0.503410 0.176593 0.149508
0.553399 0.213260 0.186419
0.676341 0.349355 0.313634
0.054170 0.350866 0.381109
0.074540 0.443244 0.460441
0.108019 0.521691 0.511482
0.124117 0.511025 0.445411
0.273945 0.504158 0.287800
0.806668 0.673030 0.454582
0.834165 0.569833 0.345678
0.803983 0.505776 0.333883
0.834974 0.566583 0.450523
0.069154 0.436728 0.434256
0.095186 0.511421 0.485893
0.115480 0.553689 0.497536
0.103563 0.524041 0.393988
0.193622 0.516213 0.231205
0.803754 0.740017 0.406073
0.927718 0.782498 0.480751
0.921386 0.718837 0.483955
0.910094 0.709453 0.544289
0.088121 0.505272 0.473045
0.117723 0.559274 0.505028
0.128283 0.560479 0.461372
0.124681 0.529595 0.346639
0.339239 0.592935 0.295689
0.743420 0.742168 0.426535
0.907042 0.815274 0.492485
0.938369 0.815396 0.539788
0.926162 0.774304 0.576791
0.119966 0.565606 0.512657
0.147890 0.580148 0.488853
0.147204 0.560357 0.421225
0.222248 0.583413 0.380240
0.461524 0.656703 0.414099
0.725689 0.756619 0.523278
0.871977 0.812009 0.549340
0.923552 0.827237 0.538506
0.936660 0.815045 0.570993
0.032136 0.036927 0.158206
0.052415 0.042573 0.192416
0.094194 0.047120 0.215259
0.152285 0.052445 0.231662
0.232578 0.059373 0.244800
0.321355 0.068376 0.245777
0.381079 0.069459 0.246113
0.407172 0.065553 0.237842
0.411658 0.059403 0.216144
0.038376 0.090593 0.243565
0.033845 0.036606 0.182834
0.069352 0.045136 0.233967
0.147341 0.052476 0.274464
0.278279 0.065919 0.298405
0.386892 0.071168 0.299306
0.412879 0.065690 0.267247
0.422248 0.064210 0.238773
0.457649 0.102708 0.255863
0.041169 0.138994 0.289509
0.043061 0.139864 0.322560
0.036561 0.038666 0.210880
0.108232 0.055665 0.290990
0.293019 0.075578 0.342443
0.428275 0.075624 0.332036
0.435813 0.071077 0.276860
0.464836 0.104540 0.271641
0.527672 0.178775 0.309712
0.040879 0.176928 0.306554
0.044785 0.209079 0.368688
0.047639 0.210864 0.400458
0.075868 0.164828 0.355627
0.326009 0.215351 0.438239
0.546517 0.214679 0.429725
0.484154 0.117647 0.308507
0.529061 0.175769 0.309239
0.617761 0.265476 0.365362
0.042649 0.228122 0.333837
0.047715 0.283757 0.407050
0.054841 0.321416 0.459617
0.086198 0.349584 0.468101
0.309255 0.401221 0.506477
0.661204 0.460472 0.552438
0.585916 0.241215 0.356283
0.600122 0.248249 0.326040
0.715099 0.398291 0.433249
0.051591 0.326467 0.403021
0.071397 0.426093 0.499458
0.117937 0.527703 0.589899
0.167468 0.538735 0.581735
0.405371 0.595178 0.599374
0.691920 0.645319 0.621729
0.737713 0.479271 0.428656
0.678325 0.350286 0.315801
0.818860 0.569436 0.533013
0.076280 0.446967 0.485359
0.127596 0.548760 0.568902
0.207095 0.632074 0.626398
0.267567 0.659068 0.631708
0.310811 0.644572 0.575326
0.523125 0.640253 0.453925
0.880964 0.756039 0.568612
0.906691 0.706706 0.542123
0.898390 0.717861 0.627375
0.120928 0.540719 0.544625
0.191287 0.624033 0.599573
0.246677 0.653605 0.608896
0.278706 0.659434 0.585641
0.312062 0.650431 0.523919
0.481331 0.666957 0.426520
0.866819 0.809613 0.553429
0.936400 0.816220 0.575753
0.920714 0.795758 0.659525
0.178683 0.618326 0.587198
0.236851 0.648951 0.595026
0.275166 0.658106 0.584573
0.365042 0.685008 0.591287
0.475532 0.701869 0.562417
0.665995 0.757610 0.599161
0.815534 0.811902 0.636027
0.908202 0.843168 0.639277
0.935195 0.841413 0.652720
0.033875 0.036454 0.182727
0.052293 0.041733 0.217227
0.090852 0.048096 0.250523
0.147768 0.052094 0.275532
0.234165 0.061158 0.293935
0.320989 0.069810 0.303838
0.390158 0.073350 0.303349
0.415183 0.065080 0.286030
0.418372 0.060090 0.258686
0.040543 0.109010 0.292378
0.034852 0.036500 0.204074
0.064744 0.044511 0.252033
0.127962 0.052277 0.298360
0.241550 0.064439 0.331975
0.365911 0.074098 0.340993
0.421881 0.069612 0.327382
0.438575 0.067872 0.303365
0.481117 0.112642 0.321691
0.044953 0.172564 0.350118
0.044495 0.147616 0.355413
0.037278 0.045121 0.241291
0.095308 0.061494 0.309285
0.231861 0.084276 0.372122
0.402014 0.095171 0.382620
0.459342 0.077684 0.355398
0.500160 0.124819 0.356222
0.561196 0.198947 0.392309
0.044800 0.211215 0.369574
0.047807 0.232746 0.416938
0.049577 0.218280 0.426093
0.058579 0.127947 0.353460
0.202426 0.169100 0.422354
0.466255 0.189578 0.462333
0.531350 0.148913 0.413642
0.576272 0.211521 0.420539
0.659754 0.315557 0.463783
0.046052 0.255009 0.390311
0.050950 0.293873 0.445777
0.057343 0.319371 0.484092
0.072679 0.325032 0.492683
0.143175 0.307698 0.483024
0.530648 0.393561 0.577371
0.661952 0.335546 0.530144
0.668025 0.330358 0.489494
0.756405 0.476310 0.555077
0.051316 0.322423 0.431510
0.062089 0.388998 0.503578
0.074571 0.436973 0.552163
0.097932 0.450721 0.560937
0.227222 0.503349 0.592355
0.529335 0.559579 0.629480
0.773663 0.584695 0.665858
0.756161 0.475990 0.552087
0.835264 0.613443 0.638193
0.070329 0.423713 0.498619
0.120760 0.535180 0.597925
0.207095 0.625574 0.674403
0.301839 0.668849 0.701793
0.387610 0.669322 0.691920
0.624979 0.716533 0.716625
0.796338 0.734096 0.721065
0.840681 0.631037 0.600900
0.880735 0.719188 0.705715
0.130678 0.553185 0.585290
0.228794 0.648936 0.661692
0.308980 0.683909 0.680430
0.383032 0.704112 0.690745
0.498726 0.738430 0.706737
0.592798 0.759838 0.698817
0.710063 0.772305 0.642527
0.921447 0.832059 0.685405
0.911910 0.801389 0.744854
0.222538 0.652766 0.644602
0.293553 0.674693 0.654826
0.357259 0.694347 0.665339
0.479728 0.731151 0.686992
0.596033 0.763409 0.706081
0.696483 0.792142 0.716854
0.781537 0.819776 0.722759
0.877531 0.852155 0.745235
0.928252 0.863005 0.759182
0.034836 0.036347 0.203143
0.051606 0.040955 0.235813
0.088136 0.048997 0.274556
0.141436 0.053559 0.306676
0.221103 0.061311 0.328359
0.326192 0.074128 0.345373
0.390936 0.072633 0.337743
0.422660 0.070771 0.328603
0.430488 0.061448 0.309682
0.041657 0.115572 0.325795
0.037171 0.040604 0.233707
0.067857 0.051942 0.281102
0.122286 0.061051 0.328481
0.225452 0.076707 0.367681
0.361028 0.092775 0.387442
0.416693 0.079240 0.362890
0.453086 0.073472 0.351171
0.512978 0.134279 0.375952
0.046723 0.194278 0.394141
0.045869 0.159869 0.384146
0.056504 0.118807 0.345724
0.113771 0.139086 0.376333
0.253697 0.172107 0.439109
0.425879 0.185046 0.465736
0.497414 0.158328 0.429282
0.525841 0.140719 0.408347
0.592691 0.223651 0.441901
0.048371 0.243580 0.422827
0.051865 0.259144 0.454536
0.063737 0.258747 0.456336
0.093965 0.241321 0.443824
0.252476 0.281682 0.493355
0.483024 0.320775 0.552728
0.597726 0.285283 0.518715
0.612131 0.248798 0.480491
0.690867 0.363058 0.535134
0.050324 0.285283 0.442985
0.056794 0.319295 0.485466
0.072770 0.348287 0.508675
0.123842 0.377615 0.531655
0.216617 0.380621 0.544091
0.486854 0.442634 0.612665
0.670665 0.436728 0.612284
0.709590 0.394339 0.575830
0.781170 0.521584 0.632425
0.056138 0.342535 0.473610
0.065141 0.392615 0.527352
0.082841 0.416068 0.542336
0.146654 0.466316 0.575219
0.307362 0.527657 0.628000
0.453101 0.525429 0.642939
0.706386 0.568719 0.689815
0.790005 0.536400 0.662974
0.838788 0.638849 0.697581
0.069917 0.423865 0.525444
0.097383 0.495506 0.590784
0.138582 0.528984 0.611612
0.216266 0.568414 0.637720
0.379187 0.625727 0.681422
0.557641 0.667353 0.718486
0.695369 0.672740 0.729381
0.847837 0.680583 0.743221
0.881544 0.731701 0.753033
0.122179 0.536599 0.596887
0.211994 0.632303 0.681239
0.308049 0.677180 0.709575
0.390753 0.702327 0.725383
0.501091 0.730297 0.746792
0.636469 0.778424 0.787137
0.751827 0.806348 0.806012
0.868223 0.814908 0.801633
0.908049 0.813596 0.802731
0.246967 0.663935 0.686427
0.317952 0.687251 0.696956
0.388830 0.706844 0.709667
0.515267 0.746075 0.735805
0.639826 0.785275 0.766583
0.733959 0.813428 0.781552
0.790921 0.833295 0.788708
0.869551 0.862715 0.815900
0.922881 0.872801 0.829465
0.035554 0.036423 0.219608
0.051301 0.041245 0.253529
0.085023 0.049226 0.292760
0.130999 0.054383 0.331762
0.213123 0.063828 0.358068
0.316182 0.077913 0.377707
0.386130 0.073869 0.369757
0.411734 0.062715 0.347143
0.439277 0.062516 0.340246
0.043091 0.121431 0.351080
0.057588 0.125551 0.351843
0.092927 0.137438 0.366064
0.153948 0.151019 0.398001
0.278828 0.176333 0.448035
0.403769 0.184939 0.469139
0.477089 0.175296 0.447715
0.504250 0.150988 0.419684
0.527443 0.144228 0.409354
0.048035 0.210758 0.427008
0.060700 0.226810 0.434607
0.090379 0.241794 0.443656
0.171511 0.263920 0.470024
0.334462 0.304906 0.527047
0.485985 0.325567 0.556329
0.579141 0.303853 0.538262
0.613336 0.273381 0.508064
0.614008 0.247272 0.481071
0.051423 0.270939 0.466392
0.067552 0.300603 0.481285
0.113832 0.343923 0.510689
0.215930 0.382635 0.545541
0.387396 0.421637 0.583215
0.546349 0.457771 0.626612
0.651972 0.449592 0.620615
0.701442 0.417777 0.596429
0.710262 0.398001 0.579675
0.054902 0.315404 0.486473
0.072786 0.357015 0.511818
0.132845 0.410819 0.547707
0.272282 0.483207 0.607507
0.456535 0.526177 0.646571
0.603998 0.559686 0.677897
0.705348 0.564019 0.688869
0.765072 0.556573 0.684962
0.791989 0.542840 0.668086
0.060426 0.370687 0.517220
0.077607 0.401648 0.534432
0.140658 0.461906 0.572671
0.322377 0.547417 0.639155
0.517113 0.607431 0.688792
0.654078 0.648020 0.719921
0.738781 0.658854 0.737026
0.809873 0.664591 0.744869
0.844877 0.650248 0.730770
0.075517 0.449699 0.568765
0.105058 0.471641 0.575204
0.174014 0.522148 0.607126
0.361990 0.605249 0.670817
0.558541 0.667948 0.719585
0.677638 0.710918 0.755703
0.766857 0.730236 0.777081
0.832944 0.740490 0.789044
0.886503 0.742550 0.785840
0.116213 0.533867 0.618921
0.167514 0.566003 0.636591
0.270146 0.618601 0.672770
0.423529 0.669108 0.708812
0.588602 0.719219 0.749981
0.708064 0.762448 0.785733
0.789288 0.798611 0.817838
0.857847 0.813214 0.836316
0.905684 0.819425 0.839658
0.229694 0.641382 0.690883
0.306249 0.676677 0.709484
0.393210 0.703120 0.726833
0.502663 0.733608 0.747616
0.633600 0.779370 0.784726
0.737331 0.812589 0.820554
0.802029 0.839780 0.842145
0.865919 0.867109 0.863569
0.922637 0.887495 0.880308
