tools/luts_backup/Kodak Elite Color 200_FPE.cube
# (C) 2014 VisionColor & Patchflyer [www.vision-color.com]
# Generator: VC Patchmatch v.2.1.1 [64/53]
# All work and no play makes Jack a dull boy.
# LUT generated from: Kodak Elite Color 200_FPE
LUT_3D_SIZE 5
0.033112 0.035843 0.036179
0.065660 0.041855 0.036698
0.132845 0.052094 0.039353
0.204791 0.058610 0.039719
0.282445 0.061006 0.041321
0.036866 0.082490 0.044327
0.135286 0.113008 0.063249
0.297047 0.153384 0.067811
0.402869 0.168612 0.063798
0.493523 0.176989 0.063249
0.030152 0.130404 0.044816
0.256214 0.259510 0.067338
0.443748 0.330861 0.142153
0.648524 0.409171 0.181415
0.774075 0.449485 0.216968
0.035157 0.196658 0.044678
0.398993 0.401495 0.064378
0.658335 0.523415 0.212741
0.773281 0.562524 0.240543
0.894697 0.664729 0.383490
0.038361 0.248783 0.043809
0.594858 0.589776 0.160250
0.821668 0.722713 0.365774
0.889418 0.748501 0.411276
0.932418 0.775402 0.454566
0.029374 0.037598 0.060700
0.067765 0.044160 0.063493
0.147326 0.054429 0.064240
0.232242 0.064561 0.062608
0.305745 0.067445 0.062928
0.038788 0.101061 0.123201
0.159487 0.167346 0.165606
0.261936 0.076036 0.046845
0.277302 0.061463 0.041260
0.370047 0.092729 0.053407
0.041855 0.238224 0.231815
0.035233 0.201984 0.051270
0.656657 0.480323 0.206851
0.753689 0.433631 0.205371
0.726848 0.362615 0.153613
0.048249 0.336706 0.286229
0.039216 0.257694 0.044205
0.808148 0.697520 0.312871
0.927321 0.760830 0.426734
0.899565 0.667521 0.390906
0.086793 0.449912 0.322118
0.121324 0.386984 0.055879
0.788159 0.693111 0.223850
0.894102 0.756039 0.398779
0.935744 0.784375 0.467384
0.030655 0.041032 0.106538
0.057313 0.044297 0.112505
0.154910 0.055634 0.123278
0.244450 0.065812 0.120500
0.317311 0.068086 0.119951
0.036942 0.112108 0.192325
0.038178 0.100175 0.237949
0.304341 0.104707 0.228656
0.313481 0.068879 0.124559
0.411124 0.111513 0.175784
0.044419 0.230396 0.296620
0.061997 0.338384 0.412848
0.544579 0.517617 0.484321
0.521859 0.184527 0.112612
0.726589 0.399786 0.324880
0.121950 0.442023 0.448569
0.296696 0.617243 0.555001
0.200748 0.400900 0.105745
0.910964 0.714504 0.364599
0.901167 0.678187 0.473381
0.333043 0.639277 0.572900
0.298375 0.616449 0.491936
0.505882 0.609964 0.389487
0.887144 0.775280 0.455711
0.940108 0.766644 0.424155
0.031159 0.042618 0.149599
0.048646 0.041733 0.145983
0.133700 0.053056 0.174670
0.250828 0.066926 0.186252
0.338277 0.070512 0.191821
0.038575 0.123125 0.255314
0.036957 0.073701 0.240177
0.142031 0.075776 0.241764
0.338125 0.078401 0.249027
0.449348 0.161959 0.322652
0.041276 0.225498 0.342779
0.044511 0.246860 0.404730
0.116518 0.332906 0.455253
0.586419 0.312627 0.453483
0.729778 0.475975 0.541939
0.106645 0.415030 0.471046
0.333730 0.634424 0.654459
0.515908 0.695949 0.699321
0.796933 0.750134 0.725902
0.867475 0.730007 0.699413
0.361685 0.668605 0.646738
0.476967 0.727749 0.702129
0.682673 0.787869 0.736248
0.774487 0.801434 0.696223
0.918486 0.833753 0.708446
0.035920 0.060746 0.224613
0.043488 0.048386 0.195880
0.130510 0.064363 0.231281
0.247486 0.073518 0.246555
0.346792 0.080491 0.253773
0.041093 0.155550 0.329656
0.044984 0.221653 0.410208
0.236637 0.281788 0.429603
0.469871 0.233600 0.393759
0.445502 0.162325 0.333867
0.044373 0.241260 0.400702
0.061006 0.350393 0.501671
0.430716 0.535348 0.610803
0.671260 0.549874 0.639414
0.733639 0.498604 0.608133
0.086122 0.408453 0.507805
0.187304 0.513024 0.591455
0.594842 0.688823 0.717617
0.759304 0.750896 0.772580
0.859876 0.742489 0.776272
0.368017 0.661585 0.676631
0.481468 0.717433 0.728252
0.713695 0.809262 0.806607
0.815091 0.843061 0.836347
0.911192 0.874434 0.864637
