tools/luts_backup/Kodak Vision3 50D 5203 (NEG)_CIN.cube
# (C) 2014 VisionColor & Patchflyer [www.vision-color.com]
# Generator: VC Patchmatch v.2.1.1 [64/53]
# All work and no play makes Jack a dull boy.
# LUT generated from: Kodak Vision3 50D 5203 (NEG)_Cineon
LUT_3D_SIZE 9
0.076951 0.076951 0.076951
0.197330 0.082338 0.082780
0.288243 0.095644 0.098039
0.371008 0.108034 0.109041
0.434394 0.115343 0.115023
0.483742 0.124514 0.119234
0.529717 0.144015 0.130404
0.565332 0.164523 0.142046
0.588434 0.150271 0.150408
0.121477 0.197223 0.116045
0.227039 0.211521 0.092775
0.316640 0.224857 0.096330
0.384497 0.235508 0.111513
0.443900 0.244953 0.118761
0.491661 0.248768 0.123766
0.538079 0.271031 0.138720
0.574960 0.303792 0.155032
0.600717 0.305562 0.167300
0.142046 0.318593 0.157824
0.213489 0.326375 0.137240
0.312139 0.336263 0.123934
0.386038 0.335302 0.113924
0.452598 0.347402 0.123110
0.509453 0.361639 0.134966
0.554238 0.381781 0.152743
0.591516 0.414008 0.176196
0.619410 0.448524 0.205005
0.145724 0.406302 0.170672
0.226093 0.417304 0.150561
0.300206 0.422370 0.142565
0.383032 0.426673 0.136965
0.452888 0.428626 0.139315
0.519646 0.447349 0.154788
0.567361 0.465965 0.176730
0.603250 0.486778 0.202838
0.630213 0.516747 0.241108
0.158587 0.473625 0.193668
0.214069 0.481834 0.183154
0.285527 0.488121 0.171054
0.368811 0.491661 0.162249
0.450874 0.496773 0.157244
0.517006 0.505043 0.176013
0.563531 0.510277 0.186969
0.601160 0.519112 0.203403
0.629572 0.534554 0.235630
0.169726 0.525582 0.227558
0.202274 0.530114 0.221027
0.256550 0.536767 0.220691
0.339605 0.541451 0.216846
0.425910 0.542321 0.195865
0.496330 0.543664 0.185107
0.549981 0.544732 0.198734
0.589853 0.540063 0.199939
0.629160 0.553292 0.231388
0.182834 0.564294 0.260197
0.212589 0.566781 0.255772
0.259373 0.570413 0.268193
0.341390 0.576257 0.279515
0.422187 0.579248 0.258305
0.492134 0.579950 0.233433
0.547158 0.580270 0.235050
0.591516 0.578485 0.236805
0.633204 0.587320 0.264134
0.204944 0.593179 0.296483
0.240467 0.595224 0.295354
0.311315 0.599329 0.323980
0.407187 0.605997 0.350500
0.486595 0.611994 0.326696
0.536385 0.614969 0.314336
0.579904 0.615488 0.315099
0.612009 0.614603 0.310033
0.636759 0.614710 0.304204
0.214939 0.611872 0.323293
0.270024 0.616068 0.330892
0.361166 0.621683 0.351095
0.467628 0.630289 0.364065
0.533837 0.636698 0.370474
0.573251 0.639033 0.379721
0.602426 0.639292 0.379431
0.624140 0.638209 0.367666
0.642695 0.638331 0.359823
0.085695 0.061784 0.147692
0.184146 0.075639 0.145739
0.270741 0.087221 0.160281
0.352926 0.099947 0.169909
0.425223 0.109499 0.174533
0.478645 0.118685 0.170657
0.525765 0.129839 0.172259
0.562921 0.140597 0.179034
0.589624 0.150027 0.187503
0.111467 0.165728 0.184024
0.195178 0.177783 0.177020
0.334554 0.151812 0.133608
0.404532 0.144793 0.140093
0.459083 0.151171 0.143389
0.507134 0.170123 0.153918
0.545388 0.187259 0.165652
0.574365 0.194049 0.176684
0.595224 0.208057 0.182330
0.130785 0.303975 0.234257
0.188144 0.355261 0.200061
0.340551 0.370474 0.169665
0.426093 0.345144 0.151232
0.481071 0.334554 0.155993
0.525811 0.343542 0.169726
0.563165 0.364187 0.186328
0.588129 0.365713 0.195926
0.602762 0.330358 0.193744
0.139147 0.401343 0.253712
0.201404 0.438880 0.203800
0.314290 0.451881 0.186038
0.417426 0.465034 0.183444
0.495949 0.459098 0.188037
0.547524 0.464866 0.203983
0.584833 0.480507 0.226276
0.607645 0.483665 0.237690
0.613443 0.430488 0.211902
0.156344 0.479637 0.255909
0.204410 0.490959 0.229496
0.287709 0.500252 0.215122
0.383627 0.508721 0.208988
0.470039 0.518776 0.207523
0.537774 0.517220 0.220386
0.582559 0.519402 0.230274
0.609766 0.519158 0.242161
0.618906 0.485512 0.222385
0.173358 0.531533 0.274861
0.205066 0.532784 0.258564
0.264134 0.539437 0.256596
0.360281 0.545144 0.248310
0.444785 0.550439 0.239460
0.524300 0.558755 0.255375
0.574624 0.554452 0.251789
0.608454 0.546502 0.247730
0.615290 0.511055 0.215900
0.186572 0.565774 0.298909
0.215061 0.567346 0.292119
0.265324 0.571145 0.307027
0.349996 0.576608 0.314107
0.442695 0.581842 0.290013
0.525246 0.588876 0.300801
0.585718 0.594766 0.324224
0.617243 0.592218 0.311055
0.627085 0.571145 0.269215
0.208667 0.593927 0.334051
0.243626 0.595758 0.333074
0.314870 0.599817 0.362341
0.403525 0.604715 0.387152
0.487541 0.611948 0.358221
0.550271 0.617502 0.363882
0.596628 0.620783 0.379690
0.625544 0.621805 0.379553
0.639460 0.616724 0.358618
0.220676 0.613077 0.362722
0.274403 0.617014 0.370886
0.359823 0.621241 0.387289
0.460792 0.628962 0.396353
0.530007 0.635554 0.398810
0.573678 0.638529 0.412314
0.603937 0.639414 0.419394
0.626978 0.639704 0.417899
0.645182 0.640238 0.413123
0.087999 0.068452 0.246586
0.166491 0.070512 0.239887
0.253239 0.079881 0.239521
0.340063 0.093065 0.250584
0.418906 0.105135 0.255406
0.476341 0.115923 0.254704
0.524178 0.126726 0.246601
0.562173 0.135470 0.241871
0.590448 0.147189 0.245411
0.094560 0.150210 0.281621
0.129702 0.109453 0.296056
0.296361 0.121721 0.283467
0.391226 0.131487 0.252674
0.453147 0.140841 0.231983
0.502907 0.151812 0.217655
0.542733 0.161822 0.215183
0.571908 0.172305 0.218433
0.592371 0.178149 0.222599
0.113802 0.273686 0.304784
0.156237 0.316060 0.347021
0.310918 0.305562 0.316457
0.424140 0.249180 0.225132
0.477791 0.214893 0.188800
0.523827 0.220127 0.193042
0.555581 0.226383 0.202411
0.579492 0.232670 0.209720
0.598337 0.228031 0.214237
0.127993 0.390585 0.328954
0.181903 0.443122 0.309407
0.319860 0.463081 0.258076
0.436362 0.458732 0.275731
0.510811 0.441505 0.231281
0.556329 0.445167 0.237110
0.581796 0.441291 0.244572
0.592172 0.394278 0.229191
0.607599 0.358862 0.230625
0.150210 0.477974 0.345251
0.202289 0.508858 0.308843
0.282368 0.515175 0.287251
0.418769 0.521569 0.255329
0.497429 0.531136 0.287572
0.558236 0.521187 0.265736
0.591928 0.516457 0.270512
0.605646 0.489174 0.257115
0.618128 0.461570 0.253300
0.180133 0.537896 0.359457
0.217319 0.546838 0.330953
0.275990 0.550103 0.340383
0.384833 0.556390 0.324422
0.490837 0.564370 0.313924
0.562097 0.573068 0.346838
0.593881 0.559304 0.304494
0.607004 0.529549 0.264317
0.625376 0.524422 0.270970
0.210544 0.576211 0.379065
0.238499 0.576669 0.364477
0.304906 0.579904 0.383948
0.401053 0.585443 0.404273
0.498604 0.593881 0.369696
0.567788 0.601297 0.398947
0.607492 0.604273 0.405356
0.621607 0.592493 0.359686
0.632136 0.573877 0.314290
0.238117 0.600595 0.408179
0.266224 0.600824 0.404349
0.336507 0.603510 0.415671
0.439994 0.609644 0.439933
0.524819 0.618311 0.431861
0.575021 0.623026 0.440406
0.608194 0.624781 0.446769
0.630503 0.625208 0.442130
0.640803 0.617670 0.414267
0.297002 0.623194 0.451545
0.297841 0.620844 0.438148
0.342718 0.621180 0.439643
0.434348 0.625345 0.456062
0.524102 0.632975 0.459434
0.574060 0.639292 0.465858
0.605173 0.641108 0.471382
0.628977 0.641703 0.471809
0.647898 0.642832 0.473564
0.089235 0.077104 0.328893
0.164416 0.074754 0.322591
0.245014 0.078279 0.318868
0.330556 0.087587 0.319097
0.421363 0.105028 0.328847
0.479164 0.116396 0.323827
0.525582 0.124636 0.323919
0.563119 0.133562 0.320226
0.590967 0.143557 0.311986
0.089693 0.136736 0.358038
0.116991 0.109209 0.376150
0.256428 0.109514 0.371481
0.396048 0.125963 0.361761
0.457664 0.139773 0.336065
0.503838 0.148211 0.320470
0.542962 0.157336 0.306493
0.572366 0.167300 0.290715
0.593256 0.175067 0.273442
0.100786 0.241535 0.377478
0.122606 0.220493 0.408957
0.197879 0.181552 0.402228
0.417731 0.203052 0.392294
0.473930 0.178836 0.327718
0.520745 0.184039 0.284901
0.553094 0.194156 0.266102
0.576196 0.202396 0.258122
0.597238 0.213092 0.263615
0.117174 0.365072 0.396155
0.150088 0.412009 0.433707
0.256306 0.425849 0.434913
0.419898 0.420844 0.426810
0.505486 0.356863 0.341314
0.533593 0.288502 0.252338
0.561227 0.268696 0.242115
0.584253 0.272755 0.250004
0.609644 0.316564 0.274647
0.139147 0.467399 0.412375
0.210437 0.512810 0.429160
0.281468 0.518975 0.379019
0.414069 0.525353 0.384085
0.513588 0.521172 0.401541
0.561166 0.495506 0.314717
0.584680 0.468391 0.284657
0.599451 0.438346 0.281239
0.622675 0.454612 0.315297
0.192081 0.540612 0.440940
0.245289 0.558816 0.423774
0.298131 0.560449 0.415793
0.419013 0.567727 0.432197
0.535119 0.576257 0.401160
0.571130 0.576257 0.425803
0.595087 0.547524 0.333013
0.611109 0.527703 0.312261
0.632761 0.534722 0.346777
0.237278 0.582788 0.460685
0.279881 0.586221 0.446632
0.321996 0.586038 0.445182
0.440925 0.593561 0.476204
0.534417 0.602869 0.460304
0.586984 0.607431 0.468330
0.612894 0.607294 0.465202
0.622690 0.590280 0.404074
0.638926 0.585718 0.396094
0.283757 0.608179 0.482933
0.334127 0.609140 0.484123
0.342489 0.606592 0.472694
0.432746 0.610544 0.489006
0.527642 0.619028 0.502144
0.580713 0.625422 0.498085
0.611673 0.627146 0.500008
0.633143 0.627512 0.497536
0.645182 0.621439 0.474937
0.347463 0.628580 0.509987
0.368887 0.627497 0.506127
0.371206 0.624613 0.495003
0.437873 0.626673 0.504021
0.515862 0.632136 0.514153
0.574014 0.638926 0.520241
0.606928 0.642771 0.520241
0.631678 0.643900 0.523018
0.649714 0.644938 0.525368
0.090303 0.086137 0.402564
0.169665 0.083162 0.400473
0.260319 0.085634 0.399283
0.353292 0.091356 0.396918
0.428336 0.101839 0.393866
0.488426 0.116152 0.391913
0.531823 0.124712 0.388098
0.566079 0.134142 0.380514
0.591684 0.142382 0.357977
0.090959 0.134722 0.426383
0.115923 0.115984 0.439155
0.227665 0.112810 0.438224
0.385138 0.123110 0.436240
0.471962 0.140475 0.420432
0.514214 0.149966 0.402808
0.547341 0.157946 0.384253
0.574014 0.166934 0.354498
0.594507 0.174838 0.327642
0.097429 0.221592 0.437217
0.120226 0.182208 0.458915
0.152331 0.150332 0.460441
0.354391 0.154574 0.463676
0.494011 0.178836 0.447883
0.528008 0.183673 0.398566
0.555459 0.191333 0.355062
0.577676 0.199741 0.326940
0.599512 0.212909 0.335424
0.111147 0.336889 0.451774
0.131853 0.331197 0.472984
0.169421 0.288014 0.482475
0.289769 0.275578 0.478996
0.500008 0.314336 0.479057
0.530816 0.238437 0.392004
0.558618 0.229328 0.320180
0.584070 0.248112 0.319356
0.614954 0.304662 0.360067
0.120104 0.440925 0.462669
0.172015 0.482292 0.495140
0.255543 0.503899 0.509453
0.376318 0.501122 0.504082
0.502831 0.502678 0.504158
0.560952 0.447196 0.439536
0.574197 0.351080 0.321675
0.596231 0.361990 0.321401
0.628214 0.448203 0.395407
0.183139 0.531380 0.487663
0.277684 0.562768 0.512917
0.334600 0.565820 0.499550
0.421241 0.568185 0.497917
0.516518 0.573068 0.506447
0.571649 0.570413 0.501625
0.599069 0.539666 0.401877
0.616175 0.522133 0.380377
0.639399 0.540810 0.440925
0.260731 0.585977 0.515297
0.338720 0.593942 0.524605
0.370703 0.593317 0.512810
0.423194 0.594263 0.516182
0.535760 0.604761 0.531640
0.592172 0.609262 0.513924
0.613382 0.608515 0.521233
0.626307 0.592294 0.459724
0.643229 0.590143 0.475578
0.322072 0.613382 0.534661
0.397162 0.615854 0.541009
0.407691 0.613489 0.532830
0.439811 0.613184 0.531823
0.524468 0.619440 0.546395
0.579904 0.626688 0.548104
0.613596 0.629389 0.545617
0.635035 0.629862 0.545205
0.647517 0.623896 0.524880
0.399649 0.634470 0.552804
0.413825 0.632151 0.548348
0.433906 0.630915 0.545571
0.477150 0.632105 0.547509
0.529427 0.634928 0.551446
0.576852 0.639811 0.556771
0.610529 0.644526 0.558282
0.633753 0.645701 0.558862
0.650889 0.646510 0.558038
0.091585 0.094133 0.464805
0.156298 0.090440 0.461448
0.255528 0.090364 0.462913
0.360128 0.096086 0.461494
0.449592 0.106981 0.457908
0.497551 0.117678 0.446937
0.540063 0.129015 0.446433
0.572488 0.137942 0.443656
0.594888 0.148150 0.426368
0.093355 0.133425 0.477531
0.116274 0.120333 0.487282
0.203525 0.118303 0.487068
0.374014 0.126238 0.494667
0.479469 0.142916 0.491264
0.526772 0.157763 0.478172
0.557595 0.166049 0.464225
0.578439 0.170657 0.436515
0.596521 0.176623 0.391531
0.098604 0.197971 0.484642
0.120348 0.169482 0.498909
0.143908 0.148562 0.500160
0.296117 0.146868 0.507454
0.482719 0.173526 0.515221
0.545312 0.198657 0.504601
0.564050 0.198871 0.463478
0.580728 0.202823 0.413123
0.602060 0.218036 0.416724
0.105135 0.305318 0.492088
0.128130 0.260533 0.505852
0.149981 0.213916 0.511925
0.197192 0.189746 0.508583
0.433326 0.208972 0.521523
0.546700 0.250919 0.513527
0.564050 0.234882 0.442954
0.587228 0.252552 0.419898
0.617731 0.309850 0.456779
0.112566 0.417060 0.503029
0.149142 0.425528 0.524361
0.181643 0.395895 0.533288
0.233783 0.350683 0.530541
0.389471 0.368170 0.535256
0.557397 0.435721 0.543542
0.578073 0.337697 0.466316
0.601480 0.348547 0.440696
0.631861 0.436805 0.494011
0.145861 0.504143 0.517754
0.221851 0.537469 0.546975
0.294713 0.555001 0.561456
0.371344 0.556283 0.559182
0.479866 0.556207 0.557870
0.557351 0.557931 0.556863
0.601099 0.521752 0.514153
0.617960 0.489174 0.450355
0.643153 0.538293 0.523995
0.239628 0.579446 0.544381
0.325414 0.593637 0.562814
0.423713 0.599817 0.571725
0.465095 0.599573 0.565530
0.529824 0.603586 0.568689
0.585962 0.609186 0.566125
0.610300 0.605524 0.558923
0.629404 0.590509 0.514809
0.649027 0.592996 0.547082
0.312917 0.613428 0.564355
0.415198 0.619089 0.574884
0.464256 0.620371 0.576532
0.480766 0.618830 0.571359
0.532464 0.621851 0.576471
0.581903 0.626856 0.581415
0.615976 0.630671 0.577020
0.635752 0.631281 0.577035
0.649729 0.625208 0.564187
0.402564 0.635874 0.577676
0.438163 0.635920 0.578744
0.464622 0.634989 0.577966
0.501671 0.636164 0.578607
0.541833 0.637766 0.579965
0.579309 0.640681 0.582498
0.611719 0.645350 0.584848
0.634470 0.647074 0.583444
0.652140 0.648478 0.581903
0.092668 0.097154 0.510552
0.145144 0.098665 0.511040
0.257496 0.095720 0.514412
0.380377 0.103792 0.517769
0.460960 0.113054 0.515679
0.513970 0.124468 0.510933
0.548211 0.133639 0.502129
0.579629 0.147555 0.502739
0.600046 0.152926 0.494133
0.094896 0.136187 0.518776
0.117113 0.123354 0.521569
0.189151 0.122042 0.522408
0.348867 0.126589 0.533288
0.466804 0.142947 0.537850
0.534554 0.162448 0.537270
0.567102 0.177127 0.530648
0.586725 0.180682 0.515618
0.599771 0.181186 0.481956
0.100191 0.182010 0.523400
0.120470 0.166552 0.529061
0.145266 0.150103 0.528725
0.260487 0.146670 0.532967
0.442832 0.166583 0.548104
0.538842 0.195621 0.551766
0.575525 0.217594 0.547341
0.589578 0.217655 0.517052
0.606180 0.231388 0.492012
0.105333 0.258061 0.527657
0.126787 0.225757 0.534600
0.148760 0.202594 0.537209
0.183093 0.183322 0.535317
0.374762 0.186801 0.548440
0.533608 0.231449 0.559060
0.579507 0.272221 0.556161
0.595529 0.281590 0.523415
0.620295 0.330556 0.533791
0.116289 0.384817 0.538903
0.145388 0.357671 0.547601
0.163409 0.304463 0.546960
0.186145 0.250507 0.544152
0.261753 0.233677 0.544793
0.504356 0.294774 0.564874
0.587625 0.395972 0.571481
0.606165 0.382300 0.545007
0.631678 0.453422 0.559884
0.132433 0.485573 0.549432
0.199359 0.504387 0.569650
0.221088 0.488350 0.573678
0.240635 0.436881 0.568353
0.330159 0.420081 0.569894
0.489601 0.453727 0.581781
0.598825 0.530770 0.590738
0.620264 0.496605 0.563409
0.642954 0.540688 0.580194
0.193591 0.556100 0.565713
0.269383 0.576608 0.584970
0.341833 0.586557 0.592569
0.400473 0.590082 0.594522
0.470985 0.593118 0.596231
0.549859 0.596628 0.596628
0.597177 0.597360 0.596109
0.630671 0.578424 0.574945
0.650309 0.591608 0.592218
0.279469 0.608118 0.585580
0.346212 0.612894 0.593317
0.422797 0.616724 0.596994
0.489311 0.620295 0.601221
0.535241 0.623316 0.601541
0.581430 0.627436 0.603174
0.615778 0.631373 0.601114
0.634745 0.630869 0.599008
0.651835 0.625101 0.597559
0.336553 0.630625 0.593256
0.412116 0.633906 0.597559
0.466514 0.635935 0.601816
0.511208 0.638346 0.603357
0.547280 0.639979 0.601984
0.580316 0.642237 0.602060
0.609903 0.645823 0.602869
0.635111 0.648356 0.602426
0.652247 0.649790 0.603632
0.093935 0.100130 0.542092
0.141970 0.099565 0.541894
0.237034 0.097078 0.546334
0.378195 0.106966 0.556222
0.462318 0.118227 0.559106
0.519982 0.130785 0.558175
0.560174 0.143496 0.556039
0.586160 0.152987 0.551919
0.605478 0.160647 0.548089
0.095064 0.136721 0.547143
0.120104 0.126162 0.548913
0.187579 0.125353 0.549737
0.310491 0.125170 0.557107
0.441932 0.141482 0.567163
0.519158 0.158877 0.569772
0.570474 0.181567 0.571527
0.593225 0.192340 0.568185
0.606653 0.192035 0.550927
0.099626 0.179721 0.551629
0.121355 0.166125 0.553170
0.152987 0.156512 0.553918
0.266667 0.153262 0.558480
0.420096 0.169177 0.571603
0.522515 0.194629 0.577432
0.573114 0.218433 0.578729
0.597116 0.238117 0.577142
0.614710 0.262257 0.563287
0.103975 0.230381 0.555062
0.127352 0.216526 0.558343
0.154208 0.202823 0.559564
0.197406 0.191928 0.560250
0.352773 0.192569 0.571023
0.511193 0.233036 0.583078
0.574609 0.281300 0.586725
0.603937 0.337911 0.589914
0.623514 0.370062 0.584741
0.116045 0.334478 0.563745
0.138430 0.304356 0.565530
0.161181 0.261616 0.563989
0.198795 0.241657 0.565469
0.277821 0.232792 0.568826
0.475242 0.275166 0.586023
0.577844 0.375845 0.597116
0.612665 0.457496 0.605158
0.632044 0.479042 0.601694
0.158694 0.472801 0.582559
0.171771 0.449165 0.583551
0.189563 0.391730 0.578424
0.232456 0.355627 0.578683
0.313863 0.336812 0.580713
0.424018 0.316686 0.584558
0.579675 0.467384 0.608698
0.621042 0.533654 0.615610
0.641764 0.555566 0.615366
0.195514 0.544808 0.592035
0.221897 0.546838 0.598306
0.264500 0.539498 0.601740
0.318349 0.528969 0.602747
0.401648 0.532723 0.606821
0.495659 0.530373 0.612131
0.574838 0.538430 0.618082
0.626917 0.586496 0.623667
0.648295 0.595865 0.622629
0.240208 0.592676 0.601862
0.311574 0.605066 0.610651
0.373236 0.609522 0.613382
0.425849 0.611994 0.615351
0.484947 0.616114 0.619272
0.551461 0.623072 0.624796
0.595468 0.626810 0.626154
0.628458 0.628031 0.627146
0.654078 0.625086 0.627756
0.307088 0.626261 0.612055
0.361349 0.628397 0.612955
0.426429 0.632456 0.617060
0.499748 0.637629 0.622263
0.546319 0.641001 0.623667
0.580438 0.644053 0.623499
0.608896 0.647334 0.620554
0.634852 0.649226 0.621424
0.653025 0.651835 0.627039
0.091661 0.098192 0.566064
0.137484 0.099367 0.567178
0.213840 0.097139 0.568933
0.326757 0.102495 0.576730
0.433921 0.117281 0.585016
0.504082 0.129641 0.587274
0.558938 0.148013 0.590021
0.591531 0.163821 0.591028
0.610010 0.172381 0.590204
0.094499 0.137118 0.569940
0.125582 0.131075 0.571344
0.220020 0.130709 0.574258
0.326757 0.132006 0.581216
0.440681 0.148684 0.589822
0.518105 0.167422 0.594049
0.560876 0.178607 0.593622
0.593332 0.196002 0.594888
0.611597 0.204288 0.592752
0.098482 0.178210 0.573556
0.128420 0.172076 0.575845
0.165103 0.167529 0.577783
0.267628 0.164981 0.582162
0.401755 0.177371 0.593042
0.512642 0.204425 0.599207
0.565072 0.229923 0.601358
0.596918 0.258503 0.603647
0.619440 0.300969 0.606714
0.104952 0.229252 0.577539
0.131991 0.215763 0.578943
0.166049 0.207416 0.581094
0.237995 0.204364 0.584833
0.377523 0.209293 0.595148
0.506630 0.259205 0.605707
0.571786 0.320409 0.611780
0.604059 0.369696 0.615030
0.626322 0.425788 0.620157
0.115343 0.316686 0.584268
0.136980 0.264836 0.581262
0.173770 0.254841 0.584024
0.245716 0.246830 0.588251
0.381292 0.256535 0.598459
0.512764 0.333135 0.612360
0.579065 0.427314 0.621805
0.612482 0.477531 0.626871
0.632975 0.501137 0.628504
0.132067 0.422248 0.595224
0.156756 0.366781 0.591333
0.195636 0.346899 0.593500
0.295232 0.367010 0.603464
0.402304 0.364233 0.607630
0.518853 0.416876 0.619486
0.586465 0.507454 0.631937
0.619730 0.547448 0.637171
0.639994 0.555322 0.636179
0.153750 0.514534 0.605936
0.200687 0.498680 0.608759
0.243885 0.481834 0.610483
0.350820 0.512505 0.619898
0.462501 0.528603 0.627497
0.533669 0.538308 0.633097
0.591272 0.570306 0.639857
0.623835 0.592294 0.643885
0.646189 0.596994 0.643946
0.195621 0.573419 0.614420
0.260075 0.579004 0.621241
0.319982 0.578683 0.624918
0.404471 0.589624 0.629526
0.492302 0.601282 0.636301
0.551324 0.608454 0.641947
0.595987 0.619089 0.646174
0.627436 0.625910 0.649607
0.651637 0.628199 0.650126
0.283955 0.621485 0.626551
0.340124 0.625040 0.628855
0.390143 0.627207 0.630167
0.447715 0.630686 0.634104
0.523766 0.637949 0.640528
0.571283 0.643122 0.644938
0.603571 0.647395 0.647883
0.631327 0.650935 0.650813
0.654994 0.653010 0.653834
