tools/luts_backup/Kodak Ektar 100_FPE.cube
# (C) 2014 VisionColor & Patchflyer [www.vision-color.com]
# Generator: VC Patchmatch v.2.1.1 [64/53]
# All work and no play makes Jack a dull boy.
# LUT generated from: Kodak Ektar 100_FPE
LUT_3D_SIZE 5
0.033692 0.031968 0.032746
0.121386 0.051118 0.044053
0.309255 0.062562 0.052094
0.467826 0.077180 0.062409
0.527443 0.077043 0.073335
0.045518 0.148226 0.089998
0.128145 0.167575 0.067506
0.379553 0.241688 0.055253
0.635996 0.351247 0.078157
0.792493 0.526146 0.155810
0.041779 0.275975 0.124544
0.073136 0.321920 0.105699
0.335576 0.398322 0.071458
0.642084 0.494255 0.103944
0.826627 0.606867 0.209842
0.053468 0.408209 0.241276
0.056001 0.414496 0.232944
0.137346 0.501595 0.290715
0.488121 0.547585 0.157427
0.848508 0.656916 0.260594
0.074006 0.490181 0.371847
0.109483 0.529564 0.396872
0.501167 0.695506 0.531594
0.752285 0.758709 0.582620
0.865888 0.769146 0.542870
0.036423 0.036988 0.067201
0.090654 0.045686 0.072557
0.268437 0.060044 0.102754
0.439261 0.064561 0.099916
0.530022 0.077913 0.099138
0.035584 0.110323 0.145586
0.160754 0.167910 0.172854
0.440497 0.086717 0.062959
0.543008 0.096941 0.075822
0.553384 0.104433 0.088930
0.037186 0.264530 0.233463
0.048966 0.379599 0.238651
0.483909 0.540429 0.200473
0.787167 0.543069 0.157336
0.739895 0.408957 0.133593
0.051331 0.418891 0.364340
0.093812 0.513130 0.390097
0.425437 0.672145 0.530480
0.848295 0.756664 0.523888
0.811063 0.590753 0.239811
0.078202 0.511666 0.477836
0.435386 0.693919 0.612818
0.430152 0.690700 0.611292
0.757778 0.791897 0.724498
0.878523 0.812253 0.699947
0.041978 0.040284 0.176287
0.138750 0.048157 0.176669
0.270481 0.053483 0.175509
0.453452 0.062409 0.191913
0.529870 0.073610 0.145876
0.038437 0.089631 0.251194
0.045823 0.043366 0.266072
0.439094 0.061036 0.267811
0.528572 0.075303 0.148455
0.552529 0.094926 0.130968
0.041245 0.248005 0.338140
0.050248 0.365469 0.462806
0.516640 0.493568 0.472892
0.594232 0.161990 0.113420
0.747082 0.407614 0.268559
0.051362 0.419028 0.442710
0.218204 0.620020 0.584787
0.368368 0.659800 0.576440
0.850294 0.800244 0.705470
0.853025 0.691814 0.499275
0.094179 0.539635 0.555779
0.631266 0.757702 0.705974
0.671336 0.769467 0.719295
0.809750 0.813611 0.768002
0.887495 0.839155 0.788281
0.042878 0.041154 0.273854
0.167254 0.047166 0.298589
0.359274 0.051942 0.289158
0.473289 0.061860 0.276890
0.551171 0.079881 0.275700
0.041871 0.053178 0.303838
0.043000 0.042084 0.303624
0.357946 0.053330 0.365606
0.559258 0.083909 0.386938
0.576379 0.115358 0.272938
0.043931 0.205356 0.403357
0.044572 0.104601 0.383780
0.086717 0.058579 0.351949
0.666133 0.293385 0.508766
0.745846 0.449516 0.514351
0.050523 0.376989 0.488884
0.086366 0.518547 0.593835
0.218158 0.611963 0.634867
0.764706 0.727428 0.704784
0.875914 0.742473 0.716411
0.130694 0.578027 0.610773
0.355612 0.674815 0.659129
0.684291 0.776242 0.745800
0.810468 0.826398 0.776120
0.907195 0.859922 0.810178
0.041855 0.040726 0.301106
0.101396 0.044923 0.326925
0.351385 0.053285 0.370535
0.503487 0.066102 0.386404
0.564248 0.087114 0.400946
0.042023 0.050629 0.324483
0.051865 0.050874 0.333349
0.303761 0.062684 0.393347
0.543160 0.100099 0.431571
0.649195 0.237079 0.492439
0.044633 0.116213 0.392706
0.054246 0.070298 0.358419
0.320790 0.093019 0.423499
0.672862 0.387243 0.586847
0.766705 0.579828 0.666789
0.051591 0.333410 0.514961
0.068788 0.309865 0.513832
0.495628 0.493965 0.633677
0.751019 0.640574 0.719127
0.852766 0.753262 0.783536
0.092912 0.530068 0.599420
0.211765 0.620310 0.640406
0.542229 0.738521 0.727672
0.800519 0.838636 0.829435
0.922637 0.887495 0.880308
