tools/luts_backup/Kodak Vision3 50D 5203 (NEG)_FPE.cube
# (C) 2014 VisionColor & Patchflyer [www.vision-color.com]
# Generator: VC Patchmatch v.2.1.1 [64/53]
# All work and no play makes Jack a dull boy.
# LUT generated from: Kodak Vision3 50D 5203 (NEG)_FPE
LUT_3D_SIZE 9
0.032364 0.034257 0.034455
0.061631 0.038346 0.033509
0.128313 0.047440 0.038148
0.218357 0.049989 0.038788
0.304952 0.046876 0.041459
0.376867 0.046342 0.044297
0.446708 0.049302 0.047745
0.496529 0.051881 0.050202
0.509255 0.051545 0.051347
0.031724 0.058122 0.041855
0.095079 0.081559 0.038804
0.191104 0.098314 0.038056
0.288319 0.108492 0.041474
0.384833 0.111192 0.044160
0.461128 0.104967 0.047944
0.540932 0.114672 0.052735
0.612284 0.142443 0.056504
0.641459 0.136507 0.058106
0.031327 0.124895 0.060426
0.063874 0.152926 0.050141
0.204898 0.196918 0.042588
0.338003 0.210666 0.042878
0.462379 0.227832 0.048493
0.572274 0.245075 0.055756
0.659190 0.270771 0.062379
0.742672 0.320394 0.072862
0.812680 0.380087 0.087221
0.034791 0.195514 0.064958
0.057023 0.239612 0.050095
0.160449 0.284611 0.044556
0.350973 0.334279 0.047333
0.516167 0.361212 0.057527
0.664057 0.396643 0.072328
0.762905 0.428183 0.087404
0.833021 0.463249 0.101518
0.892622 0.521523 0.122484
0.038911 0.262272 0.071962
0.044648 0.293324 0.059052
0.103807 0.351141 0.051194
0.298085 0.412314 0.052461
0.526040 0.466178 0.068620
0.705425 0.508019 0.094041
0.801068 0.519081 0.106844
0.865782 0.532784 0.118273
0.904158 0.558511 0.130571
0.040864 0.319615 0.091173
0.041550 0.330938 0.078676
0.051713 0.371481 0.072587
0.176959 0.448615 0.066682
0.440543 0.512367 0.071138
0.656367 0.555718 0.095506
0.801419 0.583185 0.119387
0.867567 0.574899 0.126696
0.915160 0.596643 0.139986
0.042222 0.359594 0.116762
0.043000 0.372396 0.106264
0.047333 0.401175 0.111315
0.138705 0.484276 0.119036
0.391974 0.553094 0.095933
0.627894 0.599649 0.106020
0.791852 0.632349 0.130205
0.891569 0.645899 0.145846
0.929808 0.661997 0.159594
0.044083 0.394690 0.153903
0.046494 0.414435 0.147112
0.071412 0.471901 0.174975
0.288045 0.583185 0.221653
0.567452 0.650019 0.181369
0.735195 0.684733 0.175387
0.862989 0.711177 0.187930
0.921599 0.723140 0.192844
0.939513 0.718654 0.186526
0.045609 0.416220 0.186923
0.052811 0.453330 0.192096
0.139025 0.541024 0.214160
0.483330 0.662470 0.246845
0.698405 0.723491 0.264759
0.818631 0.757351 0.291447
0.887373 0.773022 0.296788
0.926040 0.777600 0.276905
0.944396 0.779171 0.262592
0.029755 0.031891 0.044968
0.056580 0.037171 0.045518
0.114961 0.044297 0.050431
0.201373 0.050111 0.053269
0.296345 0.048920 0.050935
0.372290 0.046601 0.048737
0.438926 0.047883 0.050278
0.484810 0.049805 0.051881
0.514870 0.051667 0.053315
0.029389 0.051804 0.063584
0.061814 0.064317 0.063920
0.185199 0.063340 0.042863
0.271092 0.057969 0.043626
0.350652 0.053849 0.045518
0.430472 0.056001 0.048997
0.488319 0.057450 0.051804
0.521462 0.056931 0.052964
0.550896 0.059556 0.053681
0.030854 0.121294 0.104417
0.036545 0.164187 0.080323
0.245274 0.242359 0.055589
0.405722 0.223453 0.048615
0.496910 0.206470 0.052277
0.577432 0.213062 0.056687
0.650141 0.237690 0.062181
0.684016 0.233066 0.064637
0.664668 0.170153 0.061494
0.034516 0.201495 0.124666
0.038880 0.241672 0.076844
0.165545 0.325261 0.055802
0.422675 0.402045 0.058762
0.612863 0.415641 0.072435
0.719738 0.426108 0.084535
0.795209 0.452461 0.098344
0.829053 0.455070 0.104417
0.784405 0.345953 0.081453
0.039338 0.278294 0.125856
0.040421 0.296849 0.091661
0.087724 0.364019 0.071168
0.315602 0.442847 0.064485
0.568215 0.508492 0.082887
0.745998 0.531212 0.106569
0.833219 0.535149 0.117342
0.869581 0.530465 0.122408
0.848219 0.456367 0.103639
0.041825 0.334234 0.139528
0.041917 0.342641 0.115251
0.050675 0.378012 0.101549
0.213275 0.469322 0.087770
0.479713 0.537408 0.089143
0.716609 0.594446 0.121828
0.843091 0.603784 0.135485
0.885969 0.586679 0.136004
0.874067 0.512657 0.116060
0.043046 0.369253 0.162402
0.043900 0.381643 0.149569
0.050294 0.414405 0.161364
0.143526 0.493889 0.163470
0.444526 0.576471 0.128084
0.707424 0.643931 0.157336
0.871031 0.690684 0.199039
0.916655 0.683116 0.185168
0.915816 0.633265 0.152926
0.045106 0.404959 0.204456
0.047791 0.424628 0.199603
0.073960 0.485176 0.236561
0.250492 0.581613 0.284092
0.555245 0.658442 0.234607
0.756573 0.711788 0.255665
0.874113 0.746365 0.297734
0.922911 0.758984 0.301198
0.939529 0.740459 0.252888
0.047059 0.428702 0.243854
0.054704 0.465919 0.253269
0.128664 0.548486 0.276783
0.446372 0.665034 0.313985
0.672038 0.727962 0.323720
0.804273 0.767178 0.362722
0.876081 0.785779 0.384848
0.916777 0.796353 0.385977
0.942077 0.800870 0.376410
0.030213 0.033021 0.082399
0.046006 0.035554 0.082704
0.101595 0.042741 0.090135
0.187533 0.047669 0.095171
0.294514 0.047791 0.093126
0.377035 0.047135 0.085267
0.444739 0.048417 0.074571
0.490120 0.050034 0.068498
0.522347 0.052049 0.068070
0.031312 0.047532 0.114168
0.032746 0.038926 0.116106
0.142153 0.052934 0.122744
0.258412 0.055924 0.095842
0.346624 0.054154 0.075151
0.419760 0.052903 0.063523
0.475853 0.053376 0.061189
0.512139 0.054704 0.060624
0.534508 0.054704 0.060899
0.033143 0.104982 0.159991
0.035981 0.141299 0.205524
0.165179 0.169223 0.176135
0.333608 0.118303 0.078660
0.405921 0.081727 0.055421
0.479225 0.076677 0.056016
0.522972 0.074601 0.057984
0.552483 0.074357 0.059342
0.566262 0.068132 0.059312
0.034287 0.199619 0.200855
0.037263 0.259358 0.179599
0.148516 0.343893 0.111757
0.441596 0.403357 0.123308
0.616892 0.380804 0.081102
0.707195 0.384588 0.087205
0.745693 0.373922 0.090623
0.713191 0.281666 0.074205
0.693370 0.212390 0.070085
0.039475 0.295598 0.227787
0.041444 0.329473 0.177279
0.059205 0.372229 0.138369
0.395987 0.483742 0.092607
0.621759 0.547219 0.134844
0.776135 0.539986 0.125154
0.833631 0.527810 0.129000
0.828290 0.467323 0.111055
0.816999 0.407095 0.100053
0.042985 0.360006 0.245274
0.043931 0.374838 0.202457
0.054597 0.411719 0.210300
0.246143 0.507637 0.180301
0.591974 0.594461 0.165148
0.796841 0.654383 0.229618
0.864988 0.620081 0.168551
0.867430 0.552499 0.132174
0.886748 0.539467 0.133059
0.045823 0.405768 0.271809
0.047211 0.416205 0.248051
0.069078 0.469123 0.275257
0.239384 0.562966 0.315480
0.587228 0.648173 0.260441
0.789883 0.708751 0.333684
0.885298 0.733379 0.355077
0.913146 0.696468 0.251225
0.916121 0.645869 0.178088
0.049287 0.442023 0.314549
0.052918 0.458320 0.308446
0.092515 0.521752 0.327321
0.342367 0.627466 0.387015
0.645380 0.713390 0.395758
0.795010 0.753796 0.427832
0.873823 0.773861 0.450385
0.916030 0.780819 0.442588
0.934539 0.758938 0.372320
0.062760 0.505730 0.384771
0.062974 0.502174 0.362982
0.094408 0.544808 0.367987
0.307622 0.643870 0.416007
0.631556 0.738094 0.456703
0.785595 0.784131 0.485786
0.861860 0.803723 0.507881
0.908339 0.814542 0.514153
0.938216 0.821988 0.520592
0.031144 0.033005 0.133608
0.043610 0.034684 0.134707
0.088487 0.038437 0.142000
0.177218 0.042893 0.148730
0.303838 0.045411 0.156252
0.387396 0.046296 0.145083
0.452720 0.047517 0.138933
0.498054 0.049332 0.129412
0.528313 0.051286 0.116838
0.031830 0.040314 0.165560
0.032883 0.036423 0.172732
0.094484 0.042176 0.186587
0.269139 0.049058 0.191196
0.362112 0.051087 0.162417
0.430747 0.051087 0.140536
0.484062 0.052399 0.120790
0.518212 0.054276 0.100450
0.540673 0.054963 0.084886
0.036423 0.083223 0.212238
0.036439 0.069459 0.230350
0.047471 0.058381 0.211246
0.318181 0.087984 0.238743
0.394919 0.064805 0.155184
0.462501 0.061250 0.106798
0.505653 0.061204 0.087526
0.534691 0.063294 0.078492
0.561746 0.064836 0.079835
0.037369 0.182391 0.274037
0.041001 0.239384 0.335164
0.050294 0.287144 0.342061
0.355856 0.348760 0.341665
0.514611 0.238773 0.189120
0.528466 0.136049 0.083223
0.554635 0.108141 0.073671
0.584405 0.106401 0.075166
0.648707 0.149432 0.089296
0.039048 0.292638 0.319677
0.043702 0.364019 0.349187
0.059312 0.398505 0.272786
0.321416 0.500114 0.284733
0.615641 0.549050 0.327657
0.740688 0.489265 0.160876
0.768002 0.429831 0.121065
0.760678 0.365850 0.109575
0.803159 0.395392 0.144183
0.045212 0.382956 0.368505
0.048615 0.422202 0.341741
0.064698 0.456840 0.329961
0.293355 0.564996 0.369299
0.686046 0.651774 0.331365
0.782208 0.674891 0.392248
0.848798 0.600565 0.198062
0.861860 0.553185 0.164385
0.888914 0.570031 0.208576
0.049546 0.442405 0.399725
0.056199 0.469398 0.378790
0.075807 0.501534 0.378180
0.335622 0.620890 0.451698
0.666896 0.705058 0.458579
0.813443 0.742168 0.492378
0.873823 0.750988 0.490440
0.901595 0.703334 0.344167
0.921080 0.689937 0.320653
0.058259 0.493294 0.436667
0.083040 0.537896 0.443809
0.091447 0.542351 0.426184
0.292149 0.638117 0.474220
0.622354 0.727962 0.537499
0.790829 0.775479 0.557275
0.865385 0.793408 0.572183
0.908263 0.800214 0.571817
0.930571 0.781826 0.516289
0.090745 0.569116 0.488197
0.116823 0.593286 0.486839
0.123507 0.591455 0.468544
0.297124 0.666224 0.504768
0.572808 0.736019 0.555215
0.764889 0.797711 0.601770
0.850095 0.821256 0.616587
0.902312 0.834516 0.631067
0.934295 0.842298 0.640284
0.033188 0.034272 0.187839
0.044663 0.036011 0.196979
0.094240 0.037491 0.209293
0.200916 0.039368 0.221393
0.318105 0.042481 0.224353
0.407599 0.046754 0.219699
0.465690 0.049393 0.210727
0.507134 0.050660 0.196643
0.533394 0.051392 0.165972
0.035172 0.039139 0.218097
0.034333 0.036881 0.219257
0.069154 0.040848 0.238926
0.246067 0.043076 0.265949
0.391501 0.048844 0.256764
0.454826 0.052079 0.234257
0.497093 0.053147 0.207218
0.526619 0.053803 0.167681
0.546822 0.054704 0.133501
0.037598 0.067155 0.257771
0.038224 0.051362 0.261189
0.037034 0.043580 0.245548
0.197086 0.051286 0.291890
0.436088 0.058747 0.295705
0.483665 0.060227 0.230518
0.516548 0.060197 0.174090
0.541253 0.062654 0.138384
0.571038 0.065629 0.144396
0.040635 0.154940 0.322164
0.041566 0.149248 0.339300
0.040970 0.113390 0.325154
0.101747 0.129137 0.323033
0.494667 0.193606 0.379416
0.507134 0.095140 0.231388
0.533364 0.080201 0.138323
0.572473 0.089799 0.134279
0.648066 0.141543 0.183749
0.044739 0.271260 0.386053
0.048142 0.330632 0.445930
0.052430 0.388540 0.472770
0.181033 0.463676 0.475288
0.546777 0.521477 0.497932
0.657404 0.400443 0.352682
0.628214 0.214084 0.146960
0.670115 0.226184 0.143511
0.791608 0.388083 0.266865
0.048219 0.381949 0.444999
0.057237 0.461631 0.488518
0.086778 0.504952 0.468635
0.271443 0.581582 0.481880
0.590051 0.652247 0.532082
0.749630 0.677028 0.545296
0.825467 0.595392 0.324636
0.846494 0.550958 0.269856
0.881178 0.599771 0.397314
0.055711 0.468681 0.492149
0.085389 0.536080 0.512078
0.128634 0.568261 0.499153
0.257710 0.619654 0.518059
0.639323 0.718685 0.592584
0.808347 0.757458 0.588266
0.855283 0.765682 0.607874
0.890730 0.719387 0.470985
0.912795 0.718639 0.501625
0.071443 0.534936 0.525109
0.167498 0.621836 0.554070
0.196765 0.630121 0.544060
0.298131 0.658915 0.551675
0.594446 0.736202 0.617029
0.766476 0.784421 0.650401
0.854490 0.807065 0.665110
0.897871 0.815106 0.670253
0.922118 0.799878 0.624765
0.163058 0.641749 0.573297
0.199130 0.656428 0.571557
0.264439 0.677028 0.575174
0.419928 0.718334 0.597971
0.605798 0.762173 0.632059
0.756481 0.805035 0.668284
0.845258 0.832151 0.691478
0.896819 0.845075 0.704494
0.927840 0.851530 0.707820
0.035401 0.036118 0.236454
0.042069 0.038087 0.242664
0.082780 0.039780 0.262150
0.200900 0.039963 0.283665
0.345693 0.041871 0.292515
0.421698 0.047013 0.280964
0.481224 0.050309 0.278889
0.520851 0.052018 0.273991
0.546044 0.053346 0.249851
0.037537 0.039551 0.257923
0.036713 0.038209 0.259037
0.053101 0.040238 0.275013
0.219135 0.043214 0.320745
0.398810 0.048066 0.336477
0.478004 0.053269 0.325399
0.518456 0.055161 0.306340
0.540612 0.055985 0.268727
0.557717 0.055451 0.210483
0.040131 0.053986 0.290120
0.039719 0.046571 0.287526
0.038376 0.042725 0.278233
0.117922 0.046647 0.318990
0.409049 0.054810 0.370077
0.522271 0.063340 0.370016
0.540948 0.062791 0.312505
0.556634 0.064286 0.244160
0.587198 0.067811 0.248081
0.041932 0.123781 0.346700
0.041611 0.085389 0.333547
0.041703 0.061753 0.318227
0.045106 0.055421 0.303685
0.325505 0.072923 0.377462
0.547265 0.098756 0.400351
0.556191 0.084504 0.293004
0.590417 0.094377 0.260868
0.666010 0.152239 0.324331
0.045869 0.241123 0.416403
0.046921 0.253223 0.443183
0.045365 0.218509 0.434226
0.047105 0.179416 0.408164
0.244175 0.248341 0.443229
0.647288 0.401205 0.528222
0.633692 0.210117 0.360021
0.671763 0.218570 0.318181
0.777234 0.379797 0.437171
0.049989 0.350835 0.482856
0.053513 0.411551 0.535225
0.064897 0.472847 0.565789
0.134829 0.536583 0.573053
0.460014 0.613947 0.597559
0.680812 0.649119 0.621759
0.768002 0.564340 0.519463
0.795010 0.483268 0.382589
0.854948 0.598962 0.545007
0.055955 0.456794 0.537789
0.076143 0.529335 0.574960
0.237858 0.637125 0.613062
0.384497 0.670542 0.617548
0.609598 0.719753 0.652064
0.769512 0.758709 0.675258
0.832532 0.762966 0.673411
0.875242 0.727306 0.581048
0.898497 0.735912 0.640681
0.070787 0.532570 0.574365
0.200595 0.648890 0.615778
0.364996 0.698116 0.638758
0.429023 0.709087 0.637720
0.612863 0.751690 0.673945
0.755993 0.787472 0.705486
0.846159 0.812802 0.720256
0.890349 0.821912 0.730465
0.914427 0.808927 0.702586
0.162707 0.648341 0.614343
0.261585 0.690867 0.631052
0.356588 0.715877 0.642481
0.500603 0.752453 0.667842
0.640833 0.783673 0.691539
0.752392 0.810224 0.713115
0.836637 0.836301 0.737087
0.889982 0.850278 0.749783
0.924269 0.858701 0.755810
0.037934 0.038102 0.273365
0.039704 0.038376 0.279042
0.076265 0.040467 0.306279
0.221347 0.042374 0.339010
0.354025 0.042603 0.350301
0.451423 0.048600 0.356207
0.496910 0.051148 0.345785
0.536477 0.052903 0.347631
0.558053 0.053803 0.335332
0.038453 0.039872 0.290913
0.038697 0.039475 0.287953
0.045960 0.039551 0.299748
0.174640 0.043259 0.349630
0.366491 0.045686 0.378653
0.494255 0.054063 0.397024
0.539651 0.056687 0.391226
0.560372 0.057130 0.371252
0.570367 0.057023 0.324834
0.041138 0.048707 0.313558
0.040528 0.045136 0.309529
0.039796 0.043214 0.302388
0.079469 0.045426 0.331106
0.328161 0.051347 0.391638
0.511376 0.060792 0.423407
0.570977 0.068757 0.425727
0.583032 0.068269 0.385092
0.605264 0.073823 0.350759
0.042695 0.081147 0.351843
0.042924 0.063600 0.341039
0.042588 0.055512 0.331823
0.042176 0.051774 0.321401
0.215763 0.057786 0.383337
0.515084 0.080491 0.443015
0.605631 0.112261 0.459937
0.627253 0.119265 0.417380
0.691630 0.183200 0.448402
0.046494 0.201022 0.432349
0.045777 0.170947 0.423651
0.044419 0.118914 0.391882
0.043961 0.079896 0.362219
0.073655 0.081422 0.363256
0.478126 0.149416 0.469184
0.685069 0.315877 0.544549
0.705989 0.281514 0.492699
0.785306 0.425254 0.557031
0.051575 0.325521 0.504677
0.053010 0.360632 0.538827
0.052430 0.346212 0.534905
0.050767 0.282994 0.498543
0.093034 0.299733 0.501152
0.469657 0.411215 0.566567
0.762615 0.603677 0.663111
0.788281 0.523369 0.593439
0.849912 0.618006 0.651972
0.054597 0.417334 0.560235
0.062104 0.476646 0.600809
0.089799 0.544167 0.626596
0.173419 0.606729 0.641810
0.399252 0.671366 0.669215
0.660487 0.721721 0.702724
0.782269 0.744274 0.721004
0.848203 0.702281 0.673426
0.887175 0.733959 0.714549
0.065049 0.506401 0.604074
0.090959 0.570382 0.630106
0.219013 0.659175 0.655970
0.453346 0.724941 0.693339
0.615915 0.759869 0.717571
0.750179 0.791760 0.741985
0.836408 0.814649 0.756466
0.879591 0.821653 0.763027
0.907774 0.809689 0.756527
0.082795 0.569940 0.623590
0.182269 0.661784 0.651606
0.357015 0.723491 0.683207
0.530083 0.768582 0.715084
0.653361 0.794324 0.731929
0.751263 0.816709 0.747234
0.825071 0.836454 0.762905
0.884733 0.853101 0.779156
0.918257 0.861982 0.790265
0.039490 0.039643 0.296132
0.039628 0.038911 0.300786
0.061128 0.040787 0.324208
0.209094 0.043061 0.369406
0.349874 0.044388 0.391608
0.452842 0.048188 0.402335
0.519127 0.052873 0.409903
0.549264 0.053803 0.406058
0.570809 0.054597 0.402152
0.038911 0.040070 0.310719
0.039948 0.040421 0.308598
0.044709 0.040040 0.320195
0.120684 0.042863 0.357092
0.318318 0.046799 0.401633
0.458579 0.050675 0.421027
0.548928 0.057145 0.439353
0.577401 0.058320 0.436484
0.588861 0.057954 0.414603
0.041215 0.047333 0.332555
0.040864 0.044495 0.326665
0.040818 0.044327 0.323705
0.080842 0.046723 0.353262
0.282597 0.052079 0.407965
0.475502 0.058625 0.440833
0.569940 0.068009 0.461448
0.609018 0.076066 0.465599
0.640696 0.090822 0.456230
0.043626 0.065171 0.360540
0.043442 0.058717 0.353994
0.043183 0.054459 0.348074
0.044434 0.053086 0.345251
0.179049 0.058579 0.397223
0.467338 0.080598 0.459403
0.603418 0.121431 0.498589
0.680629 0.202945 0.533684
0.726528 0.255421 0.541711
0.046220 0.142306 0.420706
0.045197 0.113527 0.404822
0.044587 0.082155 0.381399
0.045823 0.074754 0.373846
0.087114 0.079942 0.387366
0.406165 0.124575 0.473335
0.653239 0.275410 0.564614
0.755138 0.442283 0.633539
0.798337 0.486000 0.643091
0.050248 0.307530 0.524041
0.048844 0.278019 0.509758
0.047974 0.211154 0.472526
0.048661 0.178332 0.452018
0.098161 0.179767 0.452384
0.311772 0.177752 0.481987
0.688853 0.458473 0.637720
0.803800 0.611093 0.705821
0.851438 0.658534 0.722667
0.055604 0.403372 0.580118
0.056596 0.416220 0.591409
0.058717 0.429923 0.599039
0.070008 0.449622 0.600885
0.180529 0.516213 0.625010
0.476768 0.564172 0.656428
0.697124 0.608347 0.695186
0.835843 0.728206 0.759930
0.881437 0.748852 0.768139
0.061158 0.471672 0.618708
0.074571 0.533806 0.649088
0.119493 0.600229 0.668376
0.228061 0.658976 0.686442
0.432593 0.718303 0.718166
0.661738 0.772564 0.761776
0.779568 0.800397 0.785412
0.855970 0.815976 0.799664
0.901549 0.811017 0.800580
0.073777 0.542443 0.647379
0.102632 0.600534 0.664149
0.220478 0.680720 0.690455
0.479912 0.760845 0.737057
0.644968 0.799100 0.766629
0.747707 0.823499 0.784192
0.818235 0.840223 0.791608
0.877974 0.854932 0.806882
0.912718 0.866560 0.825864
0.040986 0.041047 0.311101
0.040238 0.040040 0.316869
0.050065 0.041276 0.333684
0.133120 0.042405 0.368505
0.295460 0.045548 0.407614
0.418830 0.046799 0.424918
0.511467 0.051896 0.440848
0.563378 0.055329 0.451423
0.585229 0.056168 0.451743
0.040436 0.041337 0.326268
0.041291 0.041840 0.325292
0.052537 0.042329 0.346014
0.133898 0.043931 0.379171
0.311864 0.048310 0.421317
0.454017 0.051408 0.444083
0.527321 0.055100 0.454368
0.581643 0.059037 0.466606
0.604807 0.060792 0.465507
0.041703 0.046647 0.345876
0.042115 0.045869 0.344610
0.041581 0.046036 0.344808
0.079133 0.048722 0.373068
0.247944 0.053544 0.422644
0.455146 0.062119 0.460578
0.556100 0.072221 0.482521
0.620432 0.088609 0.502800
0.677317 0.135927 0.528252
0.044022 0.063127 0.374502
0.043839 0.057435 0.367788
0.043488 0.055497 0.365469
0.059052 0.059174 0.377417
0.212970 0.067201 0.428168
0.459312 0.099855 0.488396
0.610269 0.173159 0.542779
0.695644 0.259525 0.583398
0.762615 0.372610 0.630701
0.046189 0.121309 0.423972
0.044755 0.081498 0.395407
0.045548 0.077317 0.392767
0.054810 0.084794 0.396765
0.223667 0.103349 0.450584
0.494438 0.196887 0.538354
0.667430 0.369985 0.624445
0.757641 0.482185 0.675517
0.809979 0.538323 0.702449
0.049500 0.236927 0.498558
0.048173 0.175051 0.462745
0.047578 0.157794 0.453925
0.064988 0.206546 0.486992
0.252522 0.236347 0.520012
0.532219 0.345968 0.602167
0.709056 0.541405 0.696452
0.798749 0.638560 0.744808
0.846311 0.661112 0.756069
0.053986 0.355657 0.570626
0.052842 0.346059 0.566445
0.053758 0.339010 0.564691
0.091646 0.443854 0.613550
0.362997 0.544274 0.665156
0.581445 0.591150 0.697383
0.739666 0.679820 0.753948
0.823621 0.737896 0.790478
0.874754 0.754589 0.802747
0.058320 0.430793 0.615366
0.062028 0.467247 0.636622
0.073716 0.510262 0.653407
0.166278 0.602502 0.683940
0.449592 0.695903 0.735012
0.646922 0.742260 0.772335
0.768704 0.782834 0.804547
0.843687 0.808789 0.825696
0.895277 0.821012 0.837263
0.069505 0.521645 0.661418
0.088411 0.577340 0.683207
0.138369 0.636484 0.699718
0.288151 0.704692 0.727184
0.564019 0.782284 0.778744
0.715557 0.820035 0.813993
0.800351 0.842481 0.834501
0.864286 0.859159 0.850202
0.909606 0.869886 0.861738
