tools/luts_backup/Kodak Vision3 500T 5219 (NEG)_VS.cube
# (C) 2014 VisionColor & Patchflyer [www.vision-color.com]
# Generator: VC Patchmatch v.2.1.1 [64/53]
# All work and no play makes Jack a dull boy.
# LUT generated from: BMD Film to Kodak Vision3 500T 5219 (NEG)_VisionSpace
LUT_3D_SIZE 9
0.031373 0.031373 0.031373
0.101961 0.031373 0.027451
0.211765 0.058824 0.047059
0.349020 0.125490 0.082353
0.462745 0.149020 0.101961
0.505882 0.137255 0.105882
0.501961 0.109804 0.094118
0.494118 0.098039 0.090196
0.494118 0.094118 0.090196
0.078431 0.086275 0.035294
0.121569 0.074510 0.039216
0.227451 0.094118 0.054902
0.352941 0.145098 0.086275
0.466667 0.164706 0.109804
0.521569 0.152941 0.109804
0.509804 0.129412 0.101961
0.521569 0.141176 0.105882
0.529412 0.156863 0.113725
0.082353 0.200000 0.070588
0.152941 0.207843 0.078431
0.262745 0.200000 0.090196
0.388251 0.227451 0.117647
0.517662 0.262745 0.145098
0.572549 0.262745 0.149020
0.560784 0.219608 0.133333
0.549020 0.196078 0.129412
0.556863 0.200000 0.129412
0.101961 0.317662 0.101961
0.160800 0.321584 0.113725
0.349020 0.372564 0.152941
0.450996 0.364706 0.164706
0.576471 0.392157 0.188235
0.631373 0.407843 0.203922
0.623529 0.372564 0.192157
0.623529 0.356863 0.188235
0.603922 0.321569 0.172549
0.207843 0.556878 0.184314
0.294118 0.556878 0.196078
0.439231 0.572564 0.223529
0.525505 0.529427 0.223545
0.658824 0.552956 0.270604
0.686275 0.560800 0.282368
0.690196 0.552956 0.278447
0.686275 0.545113 0.274510
0.674510 0.509819 0.254902
0.294118 0.686275 0.270588
0.368627 0.690196 0.278431
0.556863 0.717647 0.305882
0.698039 0.745098 0.380392
0.756863 0.756863 0.419608
0.760784 0.741176 0.411765
0.752941 0.721569 0.396078
0.745098 0.713726 0.388235
0.745098 0.701961 0.380392
0.325490 0.733333 0.286275
0.411765 0.733333 0.305882
0.611765 0.752941 0.352941
0.733333 0.768627 0.411765
0.772549 0.772549 0.435294
0.780392 0.780392 0.443137
0.776471 0.776471 0.439216
0.772549 0.772549 0.435294
0.768627 0.768627 0.431373
0.337255 0.741176 0.278431
0.427451 0.741176 0.298039
0.627451 0.752941 0.356863
0.749020 0.772549 0.423529
0.772549 0.776471 0.439216
0.772549 0.772549 0.435294
0.776471 0.776471 0.439216
0.776471 0.776471 0.443137
0.776471 0.776471 0.443137
0.345098 0.733333 0.258824
0.431373 0.741176 0.286275
0.639216 0.760784 0.360784
0.752941 0.772549 0.423529
0.772549 0.776471 0.439216
0.776471 0.776471 0.439216
0.776471 0.776471 0.443137
0.776471 0.776471 0.443137
0.776471 0.776471 0.439216
0.027451 0.015686 0.062745
0.066667 0.023529 0.066667
0.176471 0.035294 0.094118
0.294118 0.058824 0.117647
0.443137 0.101961 0.160784
0.478431 0.090196 0.145098
0.470588 0.086275 0.145098
0.490196 0.090196 0.133333
0.490196 0.090196 0.141176
0.050980 0.074510 0.090196
0.105882 0.094118 0.082353
0.250980 0.098039 0.086275
0.368627 0.137255 0.113725
0.509804 0.180392 0.149020
0.568627 0.172549 0.156863
0.529412 0.105882 0.149020
0.498039 0.090196 0.117647
0.490196 0.086275 0.117647
0.066667 0.188235 0.101961
0.117647 0.200000 0.082353
0.262745 0.211765 0.098039
0.388235 0.235294 0.117647
0.509819 0.262745 0.141176
0.572549 0.266667 0.152941
0.556863 0.215686 0.133333
0.545098 0.188235 0.125490
0.545098 0.180392 0.121569
0.101961 0.301976 0.129412
0.125490 0.329427 0.113725
0.329412 0.372564 0.149020
0.447074 0.376471 0.168627
0.572564 0.396078 0.188235
0.643137 0.415686 0.211765
0.631373 0.388235 0.196078
0.615686 0.356863 0.184314
0.607843 0.321584 0.172549
0.180392 0.537270 0.223529
0.239231 0.545113 0.203922
0.431388 0.564721 0.219608
0.560800 0.580407 0.247074
0.658824 0.572564 0.274525
0.698039 0.580392 0.294118
0.690196 0.564721 0.286290
0.686275 0.549035 0.274525
0.678431 0.521584 0.262745
0.278431 0.690196 0.294118
0.325490 0.694118 0.294118
0.521569 0.709804 0.294118
0.674510 0.737255 0.364706
0.756863 0.756863 0.415686
0.760784 0.741176 0.411765
0.752941 0.725490 0.396078
0.756863 0.725490 0.400000
0.749020 0.713710 0.388235
0.301961 0.737255 0.305882
0.380392 0.737255 0.329412
0.580392 0.752941 0.376471
0.721569 0.768627 0.411765
0.768627 0.772549 0.431373
0.772549 0.772549 0.435294
0.780392 0.780392 0.443137
0.772549 0.772549 0.435294
0.776471 0.772549 0.435294
0.313726 0.745098 0.298039
0.400000 0.749020 0.333333
0.607843 0.756863 0.392157
0.741176 0.772549 0.427451
0.776471 0.776471 0.439216
0.780392 0.780392 0.443137
0.772549 0.772549 0.435294
0.772549 0.772549 0.435294
0.772549 0.772549 0.435294
0.329412 0.733333 0.278431
0.415686 0.749020 0.325490
0.627451 0.756863 0.392157
0.741176 0.768627 0.419608
0.776471 0.776471 0.439216
0.776471 0.776471 0.439216
0.772549 0.772549 0.439216
0.776471 0.776471 0.443137
0.776471 0.776471 0.439216
0.007843 0.007843 0.117647
0.011765 0.011765 0.121569
0.098039 0.027451 0.141176
0.231373 0.054902 0.180392
0.364721 0.078431 0.243137
0.494118 0.129412 0.294118
0.439216 0.086275 0.203922
0.462745 0.090196 0.188235
0.466667 0.090196 0.188235
0.015686 0.023529 0.133333
0.027451 0.031373 0.152941
0.145098 0.047059 0.164706
0.266667 0.062745 0.188235
0.372564 0.082353 0.223529
0.490196 0.129412 0.274510
0.447059 0.090196 0.219608
0.474510 0.094118 0.192157
0.478431 0.094118 0.188235
0.070588 0.164706 0.196078
0.066667 0.168627 0.196078
0.223529 0.203922 0.207843
0.439216 0.211765 0.203922
0.576471 0.223529 0.223529
0.592157 0.219608 0.247059
0.576471 0.176471 0.250980
0.509804 0.105882 0.207843
0.490196 0.094118 0.180392
0.113725 0.298039 0.254902
0.113725 0.309804 0.247059
0.227451 0.384314 0.192157
0.423545 0.368643 0.215686
0.552956 0.376471 0.219608
0.619608 0.372549 0.219608
0.627451 0.333333 0.207843
0.600000 0.274510 0.168627
0.588235 0.250996 0.152941
0.176471 0.482368 0.345113
0.172549 0.486290 0.317647
0.329427 0.560800 0.258824
0.533349 0.603937 0.298054
0.643153 0.584329 0.301961
0.674510 0.552956 0.282368
0.682353 0.537270 0.270604
0.670588 0.509819 0.254917
0.670588 0.486290 0.247059
0.239216 0.654887 0.415686
0.262745 0.670573 0.384314
0.443137 0.701961 0.329412
0.615686 0.729412 0.345098
0.725490 0.741176 0.392157
0.752941 0.733333 0.400000
0.749020 0.717647 0.392157
0.749020 0.713726 0.388235
0.737255 0.698024 0.376471
0.282353 0.713726 0.443137
0.329412 0.729412 0.419608
0.486275 0.772549 0.380392
0.654902 0.760784 0.376471
0.749020 0.768627 0.419608
0.772549 0.772549 0.439216
0.772549 0.772549 0.435294
0.772549 0.768627 0.435294
0.776471 0.768627 0.435294
0.298039 0.729412 0.439216
0.349020 0.749020 0.431373
0.521569 0.784314 0.403922
0.694118 0.764706 0.435294
0.764706 0.776471 0.435294
0.776471 0.780392 0.470588
0.768627 0.768627 0.431373
0.772549 0.772549 0.435294
0.772549 0.772549 0.435294
0.301961 0.733333 0.411765
0.341176 0.749020 0.403922
0.529412 0.776471 0.400000
0.705882 0.768627 0.466667
0.768627 0.776471 0.454902
0.772549 0.772549 0.454902
0.776471 0.776471 0.439216
0.776471 0.776471 0.439216
0.776471 0.776471 0.439216
0.015686 0.015686 0.176471
0.011765 0.011765 0.172549
0.023529 0.019608 0.172549
0.160784 0.039216 0.192157
0.301961 0.070588 0.270588
0.341161 0.074510 0.239216
0.364706 0.074510 0.207843
0.400000 0.078431 0.196078
0.407843 0.078431 0.184314
0.019608 0.019608 0.176471
0.015686 0.015686 0.176471
0.031373 0.019608 0.172549
0.180392 0.047059 0.196078
0.294118 0.070588 0.254902
0.364691 0.078431 0.250980
0.388235 0.082353 0.219608
0.423529 0.086275 0.207843
0.427451 0.086275 0.207843
0.062745 0.129412 0.239216
0.058824 0.129412 0.231373
0.121569 0.172549 0.294118
0.290196 0.156863 0.301961
0.352941 0.121569 0.274510
0.396078 0.090196 0.258824
0.403922 0.086275 0.239216
0.415686 0.086275 0.211765
0.439216 0.086275 0.207843
0.113725 0.278431 0.309804
0.113725 0.278431 0.309804
0.156863 0.317647 0.337255
0.360784 0.349020 0.349020
0.545098 0.337255 0.329412
0.674510 0.317662 0.325490
0.690196 0.282353 0.298039
0.631373 0.243137 0.258824
0.556863 0.184314 0.196078
0.168627 0.443153 0.415702
0.172549 0.450996 0.407843
0.223545 0.490211 0.403937
0.396094 0.572564 0.356878
0.607858 0.556878 0.349035
0.682353 0.533349 0.360784
0.674525 0.486290 0.329427
0.670588 0.458839 0.298054
0.654902 0.415702 0.258824
0.239216 0.615671 0.498039
0.235294 0.619593 0.478431
0.301961 0.658824 0.427466
0.478431 0.729412 0.380392
0.686275 0.737255 0.443137
0.745098 0.729397 0.466651
0.749020 0.705882 0.443137
0.741176 0.690181 0.419608
0.733333 0.666651 0.380392
0.290196 0.694118 0.560784
0.294118 0.701961 0.537255
0.356863 0.760784 0.423529
0.545098 0.764706 0.400000
0.717647 0.768627 0.466667
0.772549 0.776471 0.482353
0.776471 0.776471 0.474510
0.768627 0.764706 0.454902
0.772549 0.760784 0.447059
0.305882 0.713726 0.572549
0.333333 0.725490 0.560784
0.400000 0.780392 0.462745
0.607843 0.760784 0.419608
0.729412 0.772549 0.439231
0.772549 0.780392 0.478431
0.780392 0.780392 0.462745
0.784314 0.784314 0.462745
0.780392 0.780392 0.454902
0.301961 0.717647 0.560784
0.337255 0.721569 0.545098
0.411765 0.788235 0.486275
0.627451 0.764706 0.435294
0.733333 0.768627 0.443137
0.776471 0.776471 0.466667
0.784314 0.784314 0.470588
0.776471 0.776471 0.454902
0.776471 0.776471 0.447059
0.019608 0.019608 0.188235
0.015686 0.015686 0.184314
0.011765 0.011765 0.168627
0.098039 0.031373 0.172549
0.301961 0.078431 0.270588
0.243137 0.058824 0.200000
0.294118 0.062745 0.196078
0.313726 0.062745 0.180392
0.333333 0.070588 0.172549
0.019608 0.019608 0.188235
0.019608 0.019608 0.184314
0.011765 0.011765 0.164706
0.094118 0.027451 0.168627
0.243137 0.058824 0.231373
0.250980 0.054902 0.203922
0.317632 0.070588 0.211765
0.349020 0.074510 0.207843
0.368627 0.074510 0.200000
0.031373 0.047059 0.207843
0.027451 0.043137 0.200000
0.035294 0.062745 0.215686
0.098039 0.043137 0.223529
0.219608 0.050980 0.215686
0.270588 0.062745 0.207843
0.294118 0.066667 0.196078
0.309804 0.066667 0.180392
0.360769 0.074510 0.203922
0.101961 0.239216 0.325490
0.101961 0.239216 0.317647
0.101961 0.243137 0.321569
0.231373 0.290196 0.427451
0.419608 0.266667 0.403922
0.470588 0.215686 0.352941
0.462745 0.164721 0.301961
0.400015 0.105898 0.223545
0.341176 0.078431 0.172549
0.164706 0.407843 0.450980
0.160784 0.407843 0.447074
0.164706 0.411780 0.443153
0.286290 0.478447 0.498054
0.505898 0.505898 0.498054
0.619608 0.474525 0.454917
0.686275 0.443153 0.396094
0.705882 0.423545 0.349035
0.666682 0.392172 0.301976
0.223529 0.545083 0.556863
0.215686 0.521553 0.556863
0.227451 0.545083 0.552941
0.372549 0.666651 0.572549
0.592157 0.694102 0.552941
0.701946 0.686259 0.517662
0.733333 0.658808 0.470588
0.745098 0.631357 0.431373
0.725490 0.592142 0.396078
0.294118 0.662745 0.623529
0.294118 0.662745 0.619608
0.325490 0.682353 0.611765
0.423529 0.760784 0.552956
0.650980 0.772549 0.568643
0.752926 0.780392 0.560800
0.772549 0.764706 0.525505
0.784314 0.756863 0.509804
0.772549 0.737255 0.482353
0.333333 0.701961 0.658824
0.325490 0.701961 0.647059
0.396078 0.717647 0.635294
0.454917 0.784314 0.505898
0.670588 0.788235 0.556878
0.764706 0.796078 0.556878
0.792157 0.796078 0.541192
0.792157 0.792157 0.525505
0.788235 0.788235 0.513726
0.345098 0.709804 0.674510
0.345098 0.717647 0.662745
0.423529 0.737255 0.647059
0.474510 0.788235 0.498054
0.686275 0.788235 0.537270
0.768627 0.796078 0.556878
0.792157 0.792157 0.545113
0.796078 0.796078 0.529427
0.796078 0.796078 0.521584
0.015686 0.015686 0.188235
0.015686 0.015686 0.196078
0.019608 0.019608 0.184314
0.019608 0.015686 0.160784
0.113756 0.031373 0.184329
0.196094 0.047059 0.196094
0.235294 0.054902 0.176471
0.254902 0.050980 0.149020
0.254902 0.050980 0.137255
0.015686 0.015686 0.192157
0.015686 0.015686 0.180392
0.015686 0.015686 0.172549
0.019608 0.015686 0.149020
0.141192 0.039216 0.176471
0.207843 0.050980 0.192157
0.254902 0.058824 0.200000
0.282353 0.058824 0.192157
0.282353 0.058824 0.176471
0.015686 0.015686 0.200000
0.015686 0.019608 0.188235
0.015686 0.015686 0.160784
0.011765 0.011765 0.145098
0.109819 0.027451 0.164706
0.200000 0.047059 0.176471
0.196078 0.047059 0.160784
0.290196 0.066667 0.215686
0.341176 0.074510 0.235294
0.086275 0.188251 0.325505
0.082353 0.180407 0.313741
0.074510 0.168643 0.290211
0.113741 0.211780 0.349035
0.247089 0.176486 0.392172
0.317662 0.117662 0.301976
0.274525 0.062760 0.231388
0.258839 0.058839 0.196094
0.239231 0.050980 0.172549
0.160784 0.384314 0.482353
0.160784 0.384314 0.482353
0.152941 0.368643 0.462745
0.203937 0.380407 0.494133
0.384329 0.423545 0.580392
0.521569 0.411780 0.521584
0.596094 0.380407 0.470603
0.643137 0.345129 0.423545
0.658839 0.329427 0.396078
0.207843 0.498039 0.564706
0.196078 0.462730 0.564706
0.188235 0.439216 0.568627
0.321569 0.576471 0.619608
0.462760 0.615686 0.654902
0.643137 0.643137 0.643137
0.694118 0.635279 0.603906
0.713726 0.600000 0.545083
0.729412 0.584298 0.521553
0.294118 0.639216 0.647059
0.294118 0.635294 0.647059
0.290196 0.607843 0.658824
0.407843 0.678431 0.682353
0.560800 0.737255 0.709804
0.701961 0.741176 0.698039
0.749020 0.745098 0.666667
0.764706 0.725490 0.615686
0.772549 0.709804 0.576471
0.329412 0.678431 0.682353
0.337255 0.686275 0.686275
0.368627 0.701961 0.698039
0.454902 0.733333 0.717647
0.603937 0.776471 0.717647
0.737255 0.784314 0.725490
0.780392 0.788235 0.698039
0.792157 0.788235 0.670588
0.788235 0.776471 0.631373
0.352941 0.701961 0.701961
0.349020 0.701961 0.698039
0.376471 0.713726 0.701961
0.466667 0.756863 0.725490
0.619623 0.784314 0.721553
0.749020 0.792157 0.733333
0.792157 0.800000 0.713726
0.796078 0.796078 0.682353
0.800000 0.800000 0.670573
0.015686 0.015686 0.196078
0.019608 0.019608 0.200000
0.011765 0.011765 0.188235
0.019608 0.019608 0.180392
0.011765 0.011765 0.152941
0.070588 0.023529 0.156863
0.172549 0.039216 0.176471
0.203922 0.043137 0.125490
0.203922 0.043137 0.109804
0.015686 0.015686 0.200000
0.015686 0.015686 0.196078
0.019608 0.019608 0.196078
0.015686 0.015686 0.160784
0.015686 0.015686 0.145098
0.117647 0.031373 0.156863
0.192157 0.047059 0.192157
0.235294 0.050980 0.172549
0.239216 0.050980 0.156863
0.015686 0.015686 0.207843
0.015686 0.015686 0.203922
0.011765 0.011765 0.160784
0.011765 0.011765 0.137255
0.015686 0.015686 0.125490
0.121569 0.031373 0.129412
0.176471 0.043137 0.164706
0.262745 0.058824 0.227451
0.301961 0.066667 0.239216
0.054902 0.101976 0.298054
0.050980 0.098054 0.290211
0.047059 0.094133 0.247074
0.062745 0.125505 0.286290
0.074525 0.066682 0.294133
0.200015 0.062760 0.266682
0.219623 0.050996 0.223545
0.203937 0.047059 0.196094
0.266667 0.062745 0.231373
0.149020 0.352956 0.490211
0.156863 0.364721 0.505898
0.141176 0.329427 0.466682
0.141192 0.321584 0.474525
0.301976 0.376486 0.635294
0.411765 0.341192 0.596078
0.521584 0.329427 0.537255
0.564721 0.298054 0.482368
0.584329 0.294133 0.454917
0.215686 0.505882 0.592157
0.223529 0.513726 0.600000
0.239216 0.505867 0.615686
0.239216 0.498039 0.611765
0.392157 0.560769 0.698039
0.564691 0.588220 0.670588
0.639216 0.584298 0.639216
0.678431 0.572534 0.623529
0.694118 0.556863 0.603922
0.286275 0.611765 0.650980
0.294118 0.623529 0.662745
0.301961 0.611765 0.666667
0.352941 0.639216 0.686275
0.478431 0.690196 0.741176
0.623529 0.709804 0.725490
0.725490 0.729412 0.725490
0.749020 0.729412 0.713726
0.756863 0.725490 0.705882
0.321569 0.658824 0.686275
0.325490 0.662745 0.686275
0.341176 0.678431 0.694118
0.419608 0.705882 0.721569
0.513741 0.745098 0.760784
0.674510 0.760784 0.756863
0.760784 0.772549 0.756863
0.776471 0.776471 0.745098
0.788235 0.776471 0.733333
0.341176 0.682353 0.698039
0.345098 0.690196 0.701961
0.356863 0.701961 0.705882
0.435294 0.721569 0.729412
0.537270 0.768627 0.768627
0.698039 0.780392 0.768627
0.772549 0.788235 0.772549
0.796078 0.800000 0.768627
0.800000 0.800000 0.756863
0.019608 0.019608 0.184314
0.015686 0.015686 0.180392
0.015686 0.015686 0.176471
0.015686 0.015686 0.180392
0.011765 0.011765 0.160784
0.015686 0.011765 0.152941
0.101961 0.027451 0.156863
0.168627 0.039216 0.149020
0.168627 0.035294 0.094118
0.019608 0.019608 0.196078
0.019608 0.019608 0.200000
0.015686 0.015686 0.188235
0.011765 0.011765 0.176471
0.015686 0.015686 0.172549
0.019608 0.011765 0.160784
0.133333 0.035294 0.184314
0.200000 0.047059 0.184314
0.207843 0.047059 0.145098
0.019608 0.019608 0.223529
0.019608 0.019608 0.219608
0.015686 0.015686 0.184314
0.015686 0.015686 0.168627
0.011765 0.011765 0.145098
0.015686 0.011765 0.121569
0.109804 0.031373 0.145098
0.223529 0.054902 0.227451
0.274510 0.062745 0.243137
0.043137 0.062760 0.298054
0.039216 0.058839 0.290211
0.035294 0.054917 0.243153
0.047059 0.090211 0.262760
0.023545 0.023545 0.219623
0.086290 0.031373 0.211780
0.152956 0.043137 0.203937
0.184329 0.047059 0.203937
0.270588 0.062745 0.258824
0.133333 0.309819 0.482353
0.137255 0.309819 0.490211
0.133333 0.305898 0.474525
0.125505 0.286290 0.458839
0.254917 0.341192 0.588251
0.317647 0.286290 0.635309
0.447059 0.290211 0.572564
0.501976 0.274525 0.501976
0.529427 0.270604 0.470603
0.200000 0.466667 0.584314
0.203922 0.466667 0.592157
0.192157 0.431373 0.592157
0.203922 0.447059 0.600000
0.345098 0.501961 0.686275
0.501945 0.552926 0.701961
0.580377 0.541161 0.666667
0.650980 0.537240 0.647059
0.678431 0.525475 0.635294
0.274510 0.592157 0.654902
0.282353 0.603922 0.662745
0.282353 0.603922 0.662745
0.290196 0.596078 0.666667
0.431373 0.654902 0.733333
0.580377 0.682353 0.741176
0.690196 0.701961 0.725490
0.717647 0.698039 0.717647
0.745098 0.713726 0.725490
0.317647 0.650980 0.686275
0.317647 0.650980 0.682353
0.325490 0.662745 0.690196
0.372549 0.678431 0.701961
0.482353 0.725490 0.760784
0.631357 0.745098 0.764706
0.729412 0.752941 0.760784
0.768627 0.768627 0.760784
0.780392 0.772549 0.768627
0.329412 0.670588 0.694118
0.341176 0.678431 0.698039
0.349020 0.694118 0.705882
0.403922 0.709804 0.717647
0.494133 0.749020 0.760784
0.647059 0.768627 0.776471
0.752941 0.784314 0.784314
0.792157 0.796078 0.788235
0.796078 0.796078 0.784314
0.011765 0.011765 0.156863
0.011765 0.011765 0.152941
0.011765 0.011765 0.156863
0.011765 0.011765 0.160784
0.015686 0.015686 0.160784
0.015686 0.015686 0.145098
0.023529 0.015686 0.129412
0.105882 0.027451 0.121569
0.152941 0.035294 0.113725
0.015686 0.015686 0.184314
0.019608 0.019608 0.196078
0.011765 0.011765 0.172549
0.019608 0.019608 0.184314
0.015686 0.015686 0.172549
0.015686 0.015686 0.164706
0.062745 0.023529 0.168627
0.145098 0.035294 0.172549
0.188235 0.043137 0.156863
0.019608 0.019608 0.215686
0.019608 0.019608 0.219608
0.015686 0.015686 0.215686
0.015686 0.015686 0.188235
0.011765 0.011765 0.184314
0.011765 0.011765 0.156863
0.082353 0.027451 0.184314
0.188235 0.047059 0.227451
0.247059 0.058824 0.243137
0.031373 0.039231 0.282368
0.031373 0.043153 0.286290
0.031373 0.047074 0.262760
0.050980 0.094133 0.278447
0.019608 0.019608 0.188251
0.031373 0.019608 0.196094
0.094133 0.027451 0.188251
0.164706 0.043137 0.207858
0.231373 0.054902 0.243137
0.129412 0.290211 0.486290
0.129412 0.282368 0.486275
0.129412 0.286290 0.490196
0.121569 0.274525 0.458839
0.207858 0.317662 0.564721
0.247059 0.247074 0.635294
0.372564 0.254917 0.564721
0.450996 0.258839 0.513741
0.482368 0.250996 0.474525
0.192157 0.443137 0.588235
0.200000 0.454887 0.596078
0.188235 0.431373 0.588235
0.180392 0.411765 0.588235
0.313726 0.466667 0.654902
0.466651 0.529397 0.717647
0.521553 0.494102 0.690196
0.627451 0.513710 0.670588
0.662745 0.517632 0.650980
0.266667 0.572549 0.654902
0.270588 0.580392 0.654902
0.278431 0.592157 0.666667
0.274510 0.576471 0.658824
0.403922 0.623529 0.717647
0.529397 0.654902 0.745098
0.674510 0.690196 0.733333
0.701961 0.686275 0.725490
0.729412 0.694118 0.729412
0.309804 0.639216 0.682353
0.309804 0.639216 0.682353
0.321569 0.654902 0.686275
0.329412 0.654902 0.686275
0.450980 0.701961 0.745098
0.592142 0.725490 0.764706
0.709804 0.745098 0.764706
0.752941 0.756863 0.764706
0.772549 0.760784 0.768627
0.329412 0.662745 0.694118
0.337255 0.670588 0.698039
0.341176 0.682353 0.698039
0.372549 0.694118 0.705882
0.474510 0.737255 0.752941
0.623514 0.764706 0.776471
0.737255 0.776471 0.784314
0.776471 0.784314 0.784314
0.792157 0.792157 0.788235
