tools/luts_backup/Kodak Vision3 200T 5213 (NEG)_CIN.cube
# (C) 2014 VisionColor & Patchflyer [www.vision-color.com]
# Generator: VC Patchmatch v.2.1.1 [64/53]
# All work and no play makes Jack a dull boy.
# LUT generated from: Kodak Vision3 200T 5213 (NEG)_Cineon
LUT_3D_SIZE 9
0.101381 0.101381 0.101381
0.127504 0.058900 0.071809
0.187167 0.016754 0.016846
0.234226 0.010498 0.010498
0.290044 0.004334 0.004334
0.304845 0.003174 0.003174
0.364202 0.000641 0.000641
0.461433 0.000244 0.000244
0.488624 0.000183 0.000183
0.120974 0.233860 0.065614
0.173587 0.231693 0.063478
0.270848 0.142641 0.018402
0.303136 0.042817 0.003479
0.331029 0.005829 0.001434
0.359106 0.000824 0.000610
0.395819 0.000488 0.000397
0.465461 0.002014 0.000244
0.492866 0.000183 0.000183
0.151003 0.312901 0.100832
0.179477 0.324804 0.116182
0.261448 0.324590 0.142092
0.407324 0.299321 0.089326
0.461006 0.233738 0.000793
0.469581 0.139086 0.000153
0.472023 0.070527 0.000183
0.563989 0.153323 0.000031
0.507530 0.009033 0.000153
0.285740 0.415290 0.199710
0.283665 0.419562 0.200076
0.254643 0.430457 0.193515
0.356512 0.432898 0.212131
0.505241 0.410834 0.184817
0.575952 0.334981 0.017502
0.551995 0.223255 0.000031
0.538720 0.110048 0.000061
0.595117 0.199878 0.000000
0.403784 0.506401 0.247440
0.401312 0.507073 0.249088
0.375097 0.513024 0.247807
0.356603 0.512474 0.238560
0.494118 0.517784 0.270298
0.601099 0.476310 0.240314
0.646357 0.374472 0.060182
0.590066 0.222019 0.007584
0.690700 0.377066 0.102739
0.509422 0.581537 0.287175
0.496406 0.582025 0.259251
0.491676 0.583337 0.275181
0.440864 0.573938 0.274876
0.456306 0.566308 0.276921
0.587060 0.553429 0.311192
0.653651 0.540185 0.323308
0.670924 0.497856 0.278767
0.696376 0.492744 0.284886
0.586480 0.630182 0.333715
0.578149 0.627192 0.321080
0.564904 0.621820 0.321233
0.530785 0.615106 0.316533
0.496376 0.606806 0.305882
0.537713 0.604303 0.321355
0.616053 0.596735 0.355383
0.671046 0.583032 0.375982
0.696834 0.565393 0.371344
0.626032 0.655085 0.365576
0.624292 0.654169 0.364050
0.619287 0.652216 0.362402
0.596399 0.647883 0.358251
0.562310 0.642298 0.346441
0.571862 0.638239 0.357275
0.618769 0.635737 0.386603
0.673854 0.624628 0.406897
0.698146 0.612665 0.413031
0.655940 0.672328 0.396002
0.654078 0.671382 0.394690
0.652399 0.670802 0.393866
0.642573 0.669551 0.393835
0.611109 0.665461 0.384588
0.605371 0.662135 0.391211
0.643122 0.660609 0.418280
0.684413 0.654658 0.432227
0.695186 0.642512 0.442054
0.025116 0.027649 0.141268
0.197330 0.024537 0.222904
0.246616 0.002533 0.212985
0.254185 0.003876 0.138094
0.262089 0.005982 0.033661
0.289342 0.004364 0.005158
0.333013 0.001373 0.001373
0.429633 0.000336 0.000336
0.480751 0.000183 0.000183
0.070344 0.265019 0.252781
0.203006 0.207858 0.226169
0.306859 0.119478 0.174472
0.339940 0.036255 0.058076
0.354742 0.007324 0.001312
0.366217 0.001556 0.000549
0.384070 0.000427 0.000427
0.433936 0.000336 0.000336
0.505486 0.006348 0.000122
0.136629 0.348669 0.186862
0.219394 0.323064 0.176638
0.298100 0.337377 0.171145
0.433600 0.295811 0.127382
0.503441 0.239170 0.011841
0.507805 0.185428 0.000122
0.496590 0.100145 0.000153
0.486732 0.027497 0.000153
0.569329 0.153811 0.000031
0.267643 0.435584 0.187961
0.286900 0.423346 0.194400
0.321660 0.437934 0.189273
0.398810 0.448249 0.215427
0.534447 0.410376 0.174289
0.580194 0.321675 0.007584
0.578485 0.273548 0.000031
0.573907 0.213672 0.000031
0.610010 0.251408 0.000000
0.404974 0.525780 0.228855
0.398596 0.516472 0.229404
0.412482 0.521965 0.235691
0.405341 0.523735 0.237919
0.507347 0.528649 0.276493
0.597314 0.490715 0.249897
0.643275 0.431479 0.167742
0.666621 0.368185 0.065141
0.682033 0.355871 0.050431
0.502983 0.589624 0.257084
0.500633 0.589929 0.251987
0.496162 0.585199 0.255497
0.465278 0.581140 0.263249
0.499886 0.578393 0.294530
0.590875 0.577813 0.332036
0.644953 0.547997 0.327764
0.673365 0.495186 0.276432
0.690761 0.460914 0.240467
0.586786 0.637751 0.301579
0.578973 0.637140 0.291356
0.570550 0.635279 0.278630
0.541192 0.625299 0.281712
0.531945 0.615747 0.311070
0.584405 0.615961 0.350195
0.651972 0.613397 0.389563
0.678706 0.583917 0.378485
0.695796 0.558831 0.362280
0.626307 0.657374 0.348760
0.624872 0.656184 0.351263
0.616876 0.654414 0.337652
0.595300 0.648646 0.337804
0.563531 0.642023 0.336156
0.570092 0.638209 0.351720
0.615686 0.639094 0.386603
0.661738 0.629084 0.405585
0.695125 0.614527 0.408637
0.652644 0.671199 0.390448
0.652064 0.670710 0.391089
0.652247 0.670832 0.392309
0.644709 0.669154 0.392248
0.614740 0.663935 0.383124
0.591516 0.658656 0.375036
0.614679 0.655329 0.398505
0.658778 0.651911 0.420813
0.693416 0.644434 0.430854
0.006744 0.006348 0.165927
0.142580 0.002289 0.254398
0.214786 0.001770 0.264256
0.254673 0.001068 0.274235
0.284306 0.000977 0.255192
0.313970 0.000580 0.187396
0.321813 0.001282 0.068864
0.407172 0.000366 0.003693
0.465187 0.000244 0.000244
0.006744 0.148898 0.296635
0.153628 0.060243 0.293675
0.288212 0.045777 0.302007
0.341131 0.001953 0.305058
0.361669 0.000153 0.249790
0.380011 0.000244 0.144915
0.366339 0.000488 0.017319
0.400183 0.000397 0.000397
0.460273 0.000244 0.000244
0.084321 0.373449 0.365911
0.177890 0.347814 0.349157
0.309911 0.290867 0.324407
0.425879 0.252201 0.280735
0.488258 0.196384 0.208652
0.528344 0.114763 0.062699
0.489570 0.044892 0.000214
0.453986 0.001617 0.000244
0.475776 0.000275 0.000183
0.193301 0.465370 0.336065
0.238041 0.440253 0.307317
0.342809 0.419745 0.299321
0.427771 0.438697 0.279210
0.537926 0.395270 0.243595
0.598108 0.322164 0.141863
0.612940 0.271000 0.009476
0.582879 0.236759 0.000000
0.574517 0.172320 0.000031
0.344244 0.533959 0.304723
0.349493 0.521996 0.287449
0.397040 0.515404 0.305852
0.444556 0.525505 0.283330
0.524712 0.529320 0.272160
0.616480 0.488243 0.231159
0.659632 0.421134 0.113725
0.675593 0.384909 0.033982
0.678767 0.346456 0.030167
0.459663 0.591943 0.305699
0.463355 0.590906 0.299443
0.471687 0.586175 0.304814
0.495338 0.584283 0.297246
0.522271 0.584192 0.272587
0.602258 0.580011 0.288640
0.658686 0.557458 0.279362
0.682490 0.517052 0.260761
0.693721 0.471931 0.241566
0.560693 0.641199 0.338415
0.553033 0.635950 0.326574
0.555657 0.633509 0.305791
0.556634 0.629938 0.295354
0.552117 0.629389 0.275547
0.598505 0.627039 0.317693
0.650996 0.620905 0.357824
0.682704 0.595270 0.370062
0.697353 0.550958 0.343450
0.623529 0.668574 0.339147
0.621302 0.666987 0.336187
0.613886 0.662318 0.329320
0.599603 0.656672 0.316625
0.587304 0.656886 0.291386
0.607324 0.653437 0.319860
0.650629 0.650477 0.382757
0.672816 0.636286 0.405615
0.699214 0.603357 0.393866
0.655573 0.682582 0.354070
0.656611 0.682033 0.353552
0.655482 0.680720 0.356268
0.646418 0.677668 0.352819
0.622095 0.671412 0.345312
0.611444 0.668238 0.350164
0.629389 0.663264 0.383795
0.650813 0.652644 0.415198
0.687282 0.642481 0.424933
0.002502 0.002502 0.235416
0.053346 0.002045 0.263951
0.157321 0.001282 0.280766
0.221012 0.000855 0.289647
0.256352 0.000549 0.292210
0.293400 0.000488 0.288975
0.333715 0.000153 0.270146
0.427405 0.000122 0.167163
0.476692 0.000153 0.035111
0.001923 0.017212 0.268132
0.047150 0.002930 0.303563
0.222110 0.001556 0.352087
0.290745 0.000763 0.335485
0.326329 0.000214 0.324407
0.357794 0.000092 0.306157
0.374517 0.000122 0.256443
0.399786 0.000275 0.081254
0.452033 0.000244 0.000244
0.025452 0.327947 0.431891
0.136934 0.296910 0.419745
0.231662 0.256992 0.401343
0.393713 0.166537 0.398749
0.464729 0.087709 0.380194
0.496712 0.015366 0.337652
0.487739 0.000061 0.236194
0.460426 0.000214 0.056016
0.456031 0.000244 0.000977
0.152346 0.492287 0.470008
0.224521 0.470436 0.467689
0.309361 0.441321 0.447608
0.415656 0.401679 0.420569
0.520775 0.365667 0.380285
0.568658 0.292103 0.322469
0.594385 0.190021 0.202808
0.597803 0.095232 0.028061
0.529976 0.056870 0.000122
0.277195 0.559777 0.452399
0.298161 0.537591 0.423865
0.351751 0.521569 0.409430
0.435309 0.505089 0.395697
0.518212 0.518486 0.376684
0.604395 0.485008 0.347143
0.641138 0.411826 0.283040
0.666896 0.360616 0.171710
0.676783 0.337713 0.025772
0.386877 0.589410 0.404837
0.393896 0.587427 0.398840
0.419379 0.580835 0.385107
0.470436 0.577539 0.385473
0.532219 0.584436 0.371191
0.600885 0.585260 0.355230
0.660578 0.556176 0.326299
0.691066 0.499855 0.250553
0.705104 0.444556 0.160342
0.507652 0.631067 0.401526
0.504997 0.628260 0.387640
0.512383 0.627894 0.377508
0.527092 0.624903 0.378393
0.554711 0.624231 0.375738
0.600732 0.629847 0.356298
0.656245 0.630030 0.348699
0.696620 0.603357 0.320592
0.706264 0.568200 0.299779
0.593072 0.663233 0.417884
0.586297 0.658808 0.403388
0.588067 0.657221 0.387335
0.589349 0.656519 0.373846
0.597009 0.656489 0.365118
0.612055 0.660060 0.340063
0.659297 0.659236 0.348913
0.689265 0.644373 0.365179
0.701015 0.621057 0.377600
0.635584 0.681453 0.413916
0.640650 0.682795 0.405005
0.639735 0.682185 0.398993
0.628840 0.678309 0.394110
0.627466 0.677302 0.381506
0.629541 0.680659 0.346685
0.666163 0.679774 0.350378
0.687160 0.662318 0.383642
0.697139 0.640467 0.407782
0.001404 0.001404 0.276432
0.006409 0.001404 0.272984
0.120699 0.000427 0.327184
0.197208 0.000153 0.338598
0.223514 0.000214 0.324498
0.257908 0.000244 0.313664
0.321843 0.000183 0.325017
0.434730 0.000031 0.309651
0.510399 0.000031 0.243183
0.000855 0.005585 0.301579
0.020844 0.000519 0.312596
0.165621 0.000153 0.356603
0.241459 0.000153 0.361913
0.275883 0.000122 0.348150
0.314977 0.000122 0.351476
0.338994 0.000122 0.331792
0.396551 0.000092 0.254551
0.451881 0.000214 0.033768
0.000092 0.270054 0.460548
0.018585 0.227451 0.487617
0.162783 0.163333 0.478584
0.328527 0.106966 0.476112
0.411078 0.020600 0.453956
0.428168 0.000641 0.406058
0.424628 0.000000 0.349081
0.449012 0.000031 0.276143
0.469978 0.000122 0.090990
0.094148 0.469825 0.560052
0.179721 0.440497 0.545647
0.248661 0.414557 0.530785
0.337133 0.378180 0.508507
0.468025 0.339025 0.486091
0.531334 0.273548 0.454063
0.568200 0.141131 0.397391
0.584314 0.015244 0.275959
0.552590 0.000732 0.137163
0.243870 0.584100 0.576928
0.298863 0.564904 0.561852
0.344854 0.547326 0.551598
0.409094 0.526970 0.528832
0.499458 0.494972 0.503563
0.578698 0.464927 0.469688
0.612879 0.396201 0.418814
0.634913 0.306722 0.314504
0.661768 0.271443 0.179980
0.347265 0.613733 0.539223
0.356909 0.607355 0.531609
0.384039 0.594385 0.507546
0.426398 0.581323 0.485191
0.503594 0.568689 0.472480
0.579675 0.576226 0.460746
0.641443 0.554955 0.438911
0.668666 0.496559 0.386114
0.686458 0.442054 0.311192
0.453742 0.628656 0.489784
0.449470 0.626459 0.481590
0.459297 0.625513 0.478767
0.475990 0.618433 0.451087
0.524010 0.617151 0.454231
0.585077 0.622034 0.453071
0.641810 0.621790 0.439368
0.685481 0.598962 0.407202
0.699580 0.555352 0.364660
0.550469 0.655177 0.482979
0.548669 0.651240 0.452186
0.546380 0.649378 0.444617
0.548852 0.649287 0.436835
0.566125 0.648371 0.440558
0.598321 0.650416 0.442756
0.644739 0.651942 0.435767
0.689021 0.642359 0.401343
0.701961 0.620813 0.378637
0.600092 0.674342 0.480201
0.607813 0.676356 0.470619
0.609308 0.674708 0.453773
0.607050 0.672572 0.443549
0.607965 0.672724 0.432746
0.616876 0.673426 0.423438
0.640467 0.675776 0.392462
0.687892 0.670771 0.376043
0.701015 0.656397 0.390112
0.000244 0.000244 0.332921
0.000549 0.000549 0.313695
0.020279 0.000397 0.328405
0.141329 0.000122 0.368902
0.193057 0.000122 0.364202
0.201328 0.000122 0.354711
0.280461 0.000122 0.352880
0.468788 0.000000 0.424994
0.536339 0.000000 0.407202
0.000214 0.001862 0.340520
0.001984 0.000183 0.339483
0.099016 0.000122 0.379553
0.206729 0.000092 0.401282
0.260441 0.000061 0.406043
0.266209 0.000092 0.389868
0.290135 0.000092 0.373907
0.361303 0.000061 0.344121
0.501030 0.000031 0.295125
0.000061 0.243778 0.487984
0.000092 0.145830 0.472114
0.028885 0.056291 0.499245
0.265644 0.019913 0.518914
0.350301 0.003540 0.496590
0.353353 0.000031 0.439979
0.371405 0.000000 0.412146
0.430976 0.000000 0.382239
0.489418 0.000031 0.269902
0.000870 0.439292 0.587518
0.027024 0.413901 0.604700
0.138933 0.389303 0.593317
0.267170 0.350149 0.571405
0.405112 0.309743 0.555627
0.477943 0.227161 0.546258
0.534386 0.118639 0.524254
0.558801 0.013077 0.435096
0.565667 0.000061 0.333593
0.183825 0.569360 0.637018
0.231769 0.543542 0.623499
0.286000 0.530571 0.611353
0.342947 0.510552 0.596826
0.440513 0.479835 0.573358
0.528771 0.450889 0.554528
0.577844 0.400717 0.531121
0.620417 0.311482 0.465217
0.658503 0.233234 0.351659
0.326940 0.629145 0.629206
0.347478 0.621668 0.625086
0.386267 0.609155 0.612360
0.423835 0.598383 0.599115
0.486275 0.582177 0.580224
0.561120 0.560876 0.562676
0.614984 0.540185 0.538994
0.641627 0.491463 0.494942
0.664363 0.436500 0.422934
0.425086 0.643915 0.583032
0.415930 0.642481 0.594079
0.424323 0.636744 0.576532
0.445594 0.628077 0.558770
0.485756 0.617548 0.542229
0.554711 0.608698 0.533898
0.621271 0.612573 0.525628
0.665797 0.596277 0.502281
0.683131 0.564538 0.466896
0.514946 0.653742 0.551476
0.500847 0.647700 0.535790
0.495735 0.644953 0.532189
0.499672 0.642756 0.521019
0.517021 0.639765 0.507836
0.560967 0.640925 0.507561
0.619776 0.643030 0.506127
0.672206 0.637995 0.488930
0.689937 0.627253 0.470710
0.562432 0.666072 0.535851
0.569360 0.667506 0.525872
0.565637 0.664088 0.505943
0.564965 0.663203 0.497749
0.568689 0.664546 0.487587
0.584100 0.669154 0.478828
0.610712 0.666041 0.477852
0.652522 0.663966 0.457496
0.692592 0.660121 0.456092
0.000092 0.000092 0.394812
0.000122 0.000122 0.378576
0.000366 0.000122 0.376684
0.053285 0.000092 0.398840
0.140749 0.000092 0.419074
0.174838 0.000092 0.419471
0.295903 0.000031 0.464210
0.459693 0.000000 0.497383
0.543725 0.000000 0.500603
0.000122 0.000153 0.370825
0.000122 0.000122 0.368994
0.010529 0.000122 0.379675
0.169131 0.000061 0.435401
0.245060 0.000031 0.450660
0.257298 0.000031 0.446662
0.241093 0.000061 0.424720
0.350195 0.000000 0.440131
0.545403 0.000000 0.486610
0.000061 0.174975 0.479957
0.000092 0.143404 0.474098
0.000061 0.041581 0.464302
0.195636 0.002625 0.529412
0.321721 0.000214 0.530724
0.346380 0.000000 0.505241
0.329900 0.000000 0.466102
0.404883 0.000000 0.460060
0.505669 0.000000 0.437354
0.000000 0.406485 0.580804
0.000000 0.382498 0.582086
0.003952 0.360861 0.599878
0.135729 0.316365 0.614710
0.334737 0.271260 0.600977
0.429145 0.198840 0.605646
0.463111 0.076097 0.589258
0.530632 0.014298 0.558343
0.571801 0.000031 0.477607
0.073899 0.561547 0.677668
0.125994 0.543267 0.668666
0.196460 0.523400 0.654231
0.272663 0.496376 0.639277
0.382803 0.471260 0.620050
0.477729 0.437461 0.602564
0.524315 0.396262 0.594385
0.592950 0.334432 0.582208
0.659663 0.225086 0.500938
0.264622 0.621759 0.665431
0.302922 0.612512 0.664393
0.342168 0.599207 0.652552
0.389593 0.587823 0.642115
0.449287 0.572351 0.628901
0.525628 0.552666 0.611505
0.569512 0.535088 0.598993
0.611353 0.503746 0.583886
0.648707 0.447105 0.539574
0.387671 0.657130 0.653468
0.409308 0.647578 0.655604
0.418616 0.643610 0.647456
0.442695 0.635859 0.636927
0.487831 0.627100 0.627436
0.545220 0.616022 0.614984
0.603235 0.602045 0.602625
0.639612 0.587304 0.585412
0.658167 0.561883 0.559350
0.485237 0.665095 0.623133
0.466835 0.661250 0.627741
0.457984 0.657740 0.622003
0.469093 0.653315 0.610925
0.492256 0.646967 0.599298
0.533196 0.640192 0.585595
0.590021 0.633539 0.575769
0.647059 0.634089 0.568627
0.671595 0.626642 0.556695
0.536645 0.669184 0.598962
0.541283 0.666957 0.583154
0.517693 0.659754 0.573480
0.519188 0.661341 0.577600
0.529625 0.659693 0.563684
0.543481 0.657588 0.544701
0.575830 0.659571 0.535332
0.633753 0.659571 0.534173
0.676905 0.658656 0.539025
0.000092 0.000092 0.416297
0.000092 0.000092 0.415045
0.000336 0.000092 0.421149
0.048249 0.000061 0.447211
0.104402 0.000061 0.464363
0.147036 0.000061 0.473426
0.287724 0.000000 0.501823
0.415534 0.000000 0.528679
0.516686 0.000000 0.544854
0.000092 0.000092 0.409644
0.000092 0.000092 0.397833
0.000214 0.000092 0.400183
0.105852 0.000061 0.451667
0.233799 0.000000 0.489357
0.260533 0.000000 0.496193
0.300145 0.000000 0.501244
0.357580 0.000000 0.492134
0.540063 0.000000 0.544305
0.000061 0.096513 0.469490
0.000061 0.096391 0.468147
0.000061 0.052949 0.468574
0.066148 0.000580 0.517998
0.265965 0.000061 0.549981
0.327794 0.000000 0.538476
0.336919 0.000000 0.517510
0.370184 0.000000 0.501640
0.522545 0.000000 0.532189
0.000000 0.382498 0.572320
0.000000 0.372427 0.575708
0.000000 0.343328 0.579980
0.017136 0.276051 0.617945
0.237201 0.248768 0.630304
0.365515 0.201312 0.636927
0.435645 0.099290 0.638666
0.487648 0.025010 0.615869
0.576440 0.001465 0.587762
0.002762 0.543664 0.673030
0.032578 0.540520 0.688991
0.074571 0.515496 0.684749
0.156481 0.474342 0.669123
0.321065 0.453559 0.648249
0.427008 0.437308 0.631189
0.492836 0.405997 0.628351
0.536858 0.358968 0.626825
0.630823 0.250782 0.627558
0.192004 0.619532 0.701381
0.286305 0.611597 0.689143
0.304784 0.598352 0.681788
0.370825 0.584192 0.667567
0.430488 0.565362 0.653468
0.506676 0.550347 0.637903
0.546380 0.533654 0.627680
0.570825 0.515435 0.621637
0.622858 0.472465 0.612787
0.348089 0.657557 0.687800
0.409003 0.642237 0.677272
0.409400 0.638758 0.674525
0.446815 0.630732 0.663417
0.495033 0.618708 0.653986
0.538476 0.608423 0.643641
0.585779 0.597955 0.633265
0.608209 0.589929 0.626673
0.636347 0.574273 0.616815
0.452613 0.673793 0.673365
0.455695 0.668788 0.668116
0.465644 0.660487 0.664332
0.478584 0.656825 0.659052
0.511193 0.649592 0.652552
0.548913 0.643214 0.645014
0.589990 0.635920 0.635737
0.631525 0.626764 0.626703
0.650721 0.620844 0.620081
0.511925 0.677150 0.653132
0.517082 0.676326 0.642847
0.495003 0.671351 0.638911
0.494026 0.670497 0.644678
0.522911 0.668696 0.641108
0.540581 0.663478 0.631525
0.561456 0.658076 0.613153
0.615137 0.651728 0.604120
0.657313 0.651942 0.609125
0.000061 0.000061 0.432135
0.000061 0.000061 0.430915
0.000305 0.000061 0.436530
0.053895 0.000061 0.463111
0.132998 0.000061 0.485390
0.152682 0.000061 0.487007
0.247959 0.000000 0.503929
0.356481 0.000000 0.528008
0.460029 0.000000 0.549981
0.000061 0.001617 0.443336
0.000061 0.000061 0.439612
0.004913 0.000061 0.453590
0.231022 0.000000 0.522728
0.260105 0.000000 0.533562
0.234714 0.000000 0.508385
0.337255 0.000000 0.526513
0.430793 0.000000 0.543114
0.496834 0.000000 0.551934
0.000031 0.232090 0.538537
0.000061 0.013886 0.455146
0.000061 0.015198 0.442084
0.003235 0.002594 0.481834
0.244480 0.000031 0.579431
0.277440 0.000031 0.582818
0.333745 0.000000 0.553674
0.425605 0.000000 0.553552
0.513817 0.000000 0.564782
0.000000 0.413458 0.590356
0.000000 0.314778 0.554955
0.000000 0.298482 0.561273
0.009384 0.283619 0.624659
0.193133 0.232929 0.648341
0.336706 0.223041 0.654231
0.407202 0.172229 0.658686
0.471015 0.110369 0.660029
0.579217 0.085832 0.665644
0.000000 0.535561 0.661219
0.009720 0.524178 0.674403
0.041581 0.506127 0.689204
0.102708 0.473060 0.691890
0.264698 0.445686 0.668666
0.420905 0.440513 0.648096
0.477333 0.420645 0.645441
0.516747 0.396170 0.644434
0.567864 0.357229 0.645289
0.155383 0.630671 0.722530
0.296620 0.615686 0.701595
0.309071 0.595270 0.695918
0.351980 0.577661 0.685481
0.393561 0.556054 0.672328
0.498466 0.547936 0.651728
0.537835 0.537804 0.640375
0.563989 0.530602 0.636439
0.586480 0.513664 0.632654
0.319036 0.653773 0.705653
0.380194 0.642023 0.693324
0.461402 0.632624 0.681636
0.487892 0.624079 0.674952
0.513512 0.613977 0.666682
0.549157 0.604425 0.657130
0.585626 0.598474 0.647181
0.604273 0.596002 0.639612
0.616999 0.591577 0.633387
0.413642 0.671656 0.695888
0.428748 0.670985 0.691524
0.495216 0.657771 0.679591
0.503319 0.649500 0.676234
0.540551 0.643153 0.667964
0.563409 0.635279 0.660914
0.596918 0.629816 0.653162
0.627832 0.626001 0.644648
0.639246 0.627497 0.638819
0.484077 0.680568 0.685634
0.491524 0.681178 0.681575
0.512779 0.677119 0.677821
0.532921 0.669093 0.672236
0.531701 0.666285 0.670192
0.541436 0.660609 0.664027
0.574243 0.655085 0.657313
0.624475 0.649958 0.649836
0.649592 0.645441 0.646113
