tools/luts_backup/Kodak Vision3 500T 5219 (C41)_VS.cube
# (C) 2014 VisionColor & Patchflyer [www.vision-color.com]
# Generator: VC Patchmatch v.2.1.1 [64/53]
# All work and no play makes Jack a dull boy.
# LUT generated from: BMD Film to Kodak Vision3 500T 5219 (C41)_VisionSpace
LUT_3D_SIZE 9
0.050980 0.043137 0.043137
0.117647 0.047059 0.050980
0.176471 0.058824 0.058824
0.254902 0.074510 0.078431
0.352956 0.101961 0.125490
0.400000 0.121569 0.176471
0.396078 0.117647 0.156863
0.396078 0.109804 0.109804
0.400000 0.109804 0.109804
0.058824 0.125490 0.054902
0.117647 0.125490 0.070588
0.203922 0.129412 0.086275
0.250980 0.105882 0.086275
0.372549 0.109804 0.113725
0.400000 0.117647 0.164706
0.400000 0.117647 0.156863
0.411765 0.121569 0.113725
0.411765 0.125490 0.117647
0.109804 0.235294 0.101961
0.125490 0.215686 0.098039
0.223529 0.239216 0.125490
0.305882 0.227451 0.137255
0.384314 0.203922 0.145098
0.494118 0.156878 0.149020
0.474510 0.145098 0.164706
0.470588 0.207843 0.160784
0.470588 0.200000 0.156863
0.149020 0.341176 0.141176
0.152941 0.329412 0.137255
0.239216 0.325490 0.156863
0.337255 0.345098 0.180392
0.400000 0.313726 0.180392
0.490196 0.313726 0.203922
0.529412 0.305898 0.211765
0.537255 0.317647 0.219608
0.529412 0.305882 0.211765
0.184314 0.447074 0.180392
0.184314 0.435294 0.176471
0.243137 0.411765 0.184314
0.341176 0.423529 0.207843
0.439216 0.447059 0.243137
0.490196 0.423529 0.247059
0.556863 0.411780 0.262745
0.576471 0.415686 0.270588
0.568627 0.396078 0.258824
0.239216 0.572549 0.235294
0.239216 0.564706 0.231373
0.278431 0.541176 0.231373
0.372549 0.529397 0.254902
0.450980 0.525490 0.278431
0.537255 0.552941 0.317647
0.568627 0.513726 0.313726
0.611765 0.513726 0.329412
0.607843 0.486275 0.313726
0.290196 0.666667 0.290196
0.278431 0.650980 0.278431
0.313726 0.639216 0.282353
0.403922 0.623529 0.309804
0.478431 0.607843 0.329412
0.541176 0.603922 0.349020
0.607843 0.619608 0.384314
0.631373 0.592157 0.384314
0.650980 0.596078 0.392157
0.305882 0.686275 0.309804
0.298039 0.678431 0.305882
0.313726 0.690196 0.309804
0.423529 0.694118 0.345098
0.509804 0.678431 0.372549
0.572549 0.670588 0.392157
0.623529 0.678431 0.419608
0.662745 0.678431 0.439216
0.698039 0.674510 0.458824
0.305882 0.686275 0.313726
0.305882 0.682353 0.313726
0.305882 0.686275 0.309804
0.396078 0.698039 0.341176
0.505882 0.694118 0.372549
0.576471 0.686275 0.400000
0.627451 0.698039 0.431373
0.670588 0.709804 0.466667
0.705882 0.717647 0.501961
0.058824 0.047059 0.125490
0.098039 0.050980 0.101961
0.180392 0.066667 0.117647
0.247059 0.082353 0.133333
0.356878 0.109804 0.172549
0.396078 0.125490 0.200000
0.403922 0.125490 0.188235
0.403922 0.117647 0.129412
0.403922 0.113725 0.117647
0.058824 0.105882 0.105882
0.129412 0.113725 0.121569
0.262745 0.101961 0.105882
0.313726 0.105882 0.125490
0.376471 0.113725 0.172549
0.400000 0.121569 0.188235
0.407843 0.125490 0.184314
0.443137 0.133333 0.129412
0.431373 0.125490 0.121569
0.094118 0.219608 0.101961
0.113725 0.215686 0.094118
0.231373 0.231373 0.125490
0.305882 0.211765 0.129412
0.411780 0.196078 0.149020
0.486290 0.160800 0.200000
0.470588 0.149020 0.188235
0.478431 0.207843 0.160784
0.474510 0.207843 0.160784
0.145098 0.333333 0.137255
0.152941 0.333333 0.141176
0.235294 0.321569 0.156863
0.337255 0.345098 0.184314
0.400000 0.317647 0.188235
0.501945 0.317647 0.211765
0.552941 0.305898 0.219608
0.533333 0.309804 0.211765
0.529412 0.309804 0.211765
0.184314 0.447074 0.180392
0.180392 0.431388 0.176471
0.243137 0.415702 0.188235
0.356863 0.435294 0.215686
0.443137 0.450980 0.243137
0.494118 0.419608 0.247059
0.572549 0.419623 0.270588
0.576471 0.411765 0.266667
0.576471 0.407843 0.266667
0.243137 0.580392 0.239216
0.239216 0.568627 0.235294
0.274510 0.552941 0.239216
0.372549 0.533318 0.258824
0.450980 0.525490 0.274510
0.537255 0.552941 0.321569
0.576471 0.521569 0.317647
0.611765 0.509804 0.325490
0.607843 0.494118 0.321569
0.294118 0.670588 0.298039
0.286275 0.658824 0.286275
0.309804 0.639216 0.282353
0.400000 0.619608 0.305882
0.490196 0.611765 0.329412
0.545098 0.607843 0.349020
0.611765 0.627451 0.392157
0.647059 0.607843 0.396078
0.654902 0.596078 0.396078
0.301961 0.682353 0.313726
0.305882 0.678431 0.313726
0.313726 0.694118 0.309804
0.427451 0.694118 0.349020
0.529412 0.682353 0.376471
0.584314 0.674510 0.400000
0.635294 0.682353 0.427451
0.678431 0.686275 0.447059
0.705882 0.682353 0.466667
0.305882 0.686275 0.317647
0.309804 0.686275 0.313726
0.305882 0.686275 0.305882
0.403922 0.698039 0.341176
0.505882 0.694118 0.380392
0.588235 0.698039 0.407843
0.639216 0.705882 0.443137
0.674510 0.713726 0.470588
0.713726 0.725490 0.517647
0.074510 0.062745 0.211765
0.098039 0.062745 0.192157
0.168627 0.070588 0.172549
0.262745 0.098039 0.196078
0.372549 0.121569 0.219608
0.403922 0.129412 0.235294
0.392157 0.121569 0.211765
0.396078 0.121569 0.184314
0.400000 0.121569 0.180392
0.082353 0.101961 0.215686
0.121569 0.101961 0.262745
0.200000 0.090196 0.200000
0.274510 0.101961 0.200000
0.368627 0.121569 0.219608
0.400000 0.129412 0.227451
0.403922 0.129412 0.223529
0.443137 0.137255 0.184314
0.443137 0.137255 0.180392
0.105882 0.207843 0.207843
0.113725 0.215686 0.211765
0.243137 0.235294 0.235294
0.454902 0.200000 0.227451
0.498039 0.192157 0.254902
0.450996 0.152956 0.243153
0.447059 0.149020 0.231373
0.576471 0.211765 0.203922
0.552941 0.203922 0.192157
0.141176 0.329412 0.172549
0.137255 0.321569 0.156863
0.219608 0.325490 0.152941
0.341176 0.337255 0.184314
0.419623 0.317647 0.188235
0.549004 0.325490 0.231373
0.600000 0.301976 0.247059
0.564706 0.317647 0.227451
0.556863 0.305882 0.223529
0.192157 0.450996 0.184314
0.188235 0.443137 0.184314
0.235294 0.415702 0.184314
0.345098 0.423529 0.211765
0.435309 0.439231 0.239216
0.501961 0.419608 0.250980
0.576471 0.423529 0.274510
0.584314 0.407858 0.270588
0.588235 0.403922 0.270588
0.243137 0.576471 0.239216
0.231373 0.564706 0.231373
0.270588 0.549020 0.235294
0.368627 0.525490 0.254902
0.458824 0.541161 0.286275
0.529412 0.541176 0.309804
0.580392 0.521569 0.321569
0.623529 0.525475 0.337255
0.615686 0.498039 0.321569
0.294118 0.662745 0.305882
0.278431 0.643137 0.294118
0.294118 0.647059 0.282353
0.388235 0.631373 0.305882
0.490196 0.615686 0.337255
0.556848 0.615686 0.360784
0.615686 0.623529 0.392157
0.654902 0.607843 0.400000
0.658824 0.600000 0.396078
0.333333 0.682353 0.411765
0.337255 0.682353 0.403922
0.329412 0.694118 0.376471
0.364706 0.717647 0.329412
0.509804 0.701961 0.380392
0.580392 0.690196 0.403922
0.647059 0.694118 0.435294
0.686275 0.698039 0.462745
0.701961 0.674510 0.466667
0.333333 0.682353 0.403922
0.329412 0.682353 0.392157
0.333333 0.694118 0.384314
0.349020 0.725490 0.329412
0.474525 0.717647 0.368627
0.580392 0.705882 0.411765
0.643137 0.713726 0.447059
0.686275 0.713726 0.478431
0.729412 0.729412 0.525490
0.090196 0.074510 0.266667
0.090196 0.066667 0.254902
0.145098 0.074510 0.227451
0.254902 0.101961 0.250980
0.380392 0.133333 0.282353
0.396078 0.133333 0.270588
0.396078 0.133333 0.258824
0.396078 0.129412 0.239216
0.396078 0.129412 0.239216
0.090196 0.078431 0.282353
0.101961 0.082353 0.286275
0.141176 0.078431 0.247059
0.243137 0.094118 0.235294
0.380392 0.133333 0.274510
0.388235 0.129412 0.262745
0.407843 0.137255 0.266667
0.450980 0.156863 0.266667
0.443137 0.152941 0.258824
0.101961 0.152941 0.294118
0.113725 0.176471 0.298039
0.231373 0.180392 0.427451
0.313726 0.137255 0.301961
0.400000 0.149020 0.294118
0.407843 0.141176 0.274510
0.427451 0.149020 0.282353
0.560784 0.223529 0.301961
0.549020 0.215686 0.290196
0.156863 0.301961 0.305882
0.156863 0.305882 0.309804
0.188235 0.341176 0.333333
0.376471 0.364706 0.364706
0.564706 0.345098 0.356863
0.670588 0.301976 0.341192
0.662745 0.290196 0.345098
0.678431 0.309804 0.286275
0.678431 0.309804 0.286275
0.196078 0.439231 0.270588
0.192157 0.435309 0.270588
0.203922 0.466667 0.254902
0.333333 0.454902 0.223529
0.439231 0.435309 0.247059
0.545098 0.431388 0.282353
0.635294 0.439216 0.317647
0.650980 0.423529 0.317647
0.639216 0.407843 0.301961
0.247059 0.588235 0.250980
0.235294 0.572549 0.243137
0.254902 0.572549 0.239216
0.360784 0.533333 0.254902
0.458824 0.533333 0.286275
0.545098 0.552941 0.317647
0.580392 0.521569 0.317647
0.650980 0.529412 0.360784
0.647059 0.505882 0.349020
0.313726 0.662745 0.376471
0.301961 0.650980 0.349020
0.290196 0.654902 0.313726
0.372549 0.650980 0.313726
0.490196 0.619608 0.333333
0.564706 0.619608 0.368627
0.611765 0.623529 0.388235
0.682353 0.635294 0.427451
0.686275 0.619608 0.419608
0.360784 0.670588 0.498039
0.360784 0.670588 0.490196
0.360784 0.686275 0.478431
0.364706 0.733333 0.423529
0.490211 0.741176 0.450980
0.588235 0.717647 0.443153
0.650980 0.701961 0.454902
0.701961 0.709804 0.494118
0.721569 0.694118 0.501961
0.360784 0.670588 0.490196
0.368627 0.678431 0.494118
0.364706 0.682353 0.482353
0.360784 0.725490 0.431388
0.482368 0.745098 0.454917
0.580392 0.737255 0.482368
0.639216 0.729412 0.482353
0.690196 0.729412 0.517647
0.737255 0.733333 0.564706
0.101961 0.078431 0.337255
0.105882 0.086275 0.349020
0.113725 0.086275 0.352941
0.223529 0.105882 0.325490
0.364706 0.137255 0.333333
0.396078 0.145098 0.333349
0.392157 0.141176 0.313726
0.396078 0.141176 0.301961
0.392157 0.137255 0.298039
0.105882 0.086275 0.352941
0.105882 0.082353 0.337255
0.109804 0.082353 0.345098
0.211765 0.098039 0.313726
0.364706 0.137255 0.329412
0.400000 0.152941 0.337270
0.396078 0.145098 0.317662
0.454902 0.172549 0.341176
0.450980 0.172549 0.337255
0.105882 0.094118 0.372549
0.109804 0.101961 0.396078
0.129412 0.098039 0.376471
0.211765 0.098039 0.321569
0.364706 0.137255 0.333333
0.396078 0.149020 0.333333
0.431373 0.164706 0.341176
0.541176 0.239216 0.396078
0.549020 0.247059 0.392157
0.145098 0.231373 0.403922
0.145098 0.239216 0.388251
0.164706 0.278431 0.415686
0.352956 0.305898 0.580407
0.458839 0.235294 0.450980
0.513726 0.231373 0.415702
0.529412 0.239216 0.407858
0.658824 0.329412 0.443137
0.666667 0.329427 0.427466
0.207843 0.396094 0.403937
0.215686 0.415686 0.415686
0.215686 0.415686 0.415686
0.278431 0.474510 0.474510
0.501961 0.494118 0.490196
0.611749 0.462760 0.482368
0.686275 0.450996 0.450996
0.690196 0.439231 0.423545
0.694118 0.443153 0.411780
0.270588 0.549020 0.423545
0.286275 0.568612 0.435294
0.282353 0.564691 0.431373
0.298039 0.611749 0.392172
0.454917 0.611749 0.356893
0.572549 0.576471 0.364721
0.654902 0.541176 0.372564
0.698039 0.549020 0.431373
0.698039 0.545098 0.423529
0.352941 0.658824 0.482353
0.349020 0.654902 0.482353
0.337255 0.654902 0.458839
0.321569 0.694118 0.372564
0.454902 0.686275 0.360800
0.576455 0.647059 0.384314
0.635294 0.639216 0.403922
0.705882 0.639216 0.470588
0.701961 0.635294 0.466667
0.380392 0.670588 0.556863
0.380392 0.670588 0.556863
0.392157 0.690196 0.552941
0.431388 0.729412 0.549035
0.552956 0.733333 0.592157
0.647059 0.733333 0.619608
0.674510 0.721569 0.556863
0.705882 0.705882 0.545113
0.729412 0.705882 0.568627
0.388235 0.674510 0.560784
0.388235 0.674510 0.552941
0.392157 0.682353 0.556863
0.427451 0.725490 0.560784
0.545113 0.733333 0.584329
0.647059 0.741176 0.643137
0.682353 0.741176 0.635309
0.717647 0.737255 0.607843
0.752941 0.749020 0.635294
0.117647 0.090196 0.368627
0.121569 0.094118 0.368627
0.117647 0.086275 0.360784
0.133349 0.086275 0.349020
0.333333 0.141176 0.384314
0.403922 0.164706 0.403922
0.400000 0.164706 0.400000
0.396078 0.156863 0.376471
0.392157 0.152941 0.372549
0.117647 0.090196 0.368627
0.117647 0.090196 0.364706
0.117647 0.090196 0.364706
0.129427 0.086275 0.352941
0.317662 0.137255 0.376471
0.403922 0.164706 0.403922
0.415686 0.172549 0.407843
0.454902 0.200000 0.423529
0.450980 0.192157 0.415686
0.117647 0.098039 0.388235
0.117647 0.094118 0.380392
0.121569 0.094118 0.380392
0.137255 0.098039 0.376471
0.309819 0.129412 0.372549
0.403922 0.164706 0.403922
0.435294 0.184314 0.427451
0.529412 0.270588 0.482353
0.541176 0.278431 0.482353
0.121569 0.113741 0.427466
0.133333 0.125505 0.462745
0.137255 0.164721 0.466667
0.223560 0.164736 0.494148
0.325505 0.149020 0.407843
0.415686 0.172549 0.415686
0.486275 0.231373 0.462745
0.631373 0.364706 0.545098
0.639216 0.364706 0.537255
0.207843 0.349035 0.509804
0.211765 0.356878 0.509804
0.227451 0.380407 0.517647
0.250996 0.415702 0.541176
0.501961 0.474510 0.611749
0.611765 0.403952 0.588235
0.650980 0.427466 0.580392
0.662745 0.482353 0.568627
0.666667 0.478431 0.564706
0.298039 0.537255 0.541176
0.301961 0.537255 0.537255
0.301961 0.533333 0.533333
0.309804 0.549020 0.545098
0.450996 0.600000 0.599985
0.615686 0.615686 0.615686
0.670588 0.607843 0.600000
0.678431 0.600000 0.596078
0.674510 0.584314 0.580392
0.388235 0.650980 0.588235
0.396078 0.658824 0.592157
0.384314 0.647059 0.584314
0.388235 0.658824 0.576471
0.529412 0.690196 0.600000
0.627451 0.678431 0.619608
0.682353 0.678431 0.580377
0.713726 0.666667 0.580377
0.713726 0.662745 0.580377
0.403922 0.674510 0.611765
0.403922 0.670588 0.607843
0.407843 0.678431 0.607843
0.470588 0.713726 0.627451
0.600000 0.737255 0.662745
0.690196 0.741176 0.701961
0.709804 0.737255 0.678431
0.733333 0.733333 0.650980
0.737255 0.717647 0.647059
0.400000 0.670588 0.600000
0.403922 0.674510 0.603922
0.415686 0.686275 0.611765
0.458824 0.717647 0.623529
0.580407 0.729412 0.654902
0.686275 0.745098 0.701961
0.717647 0.752941 0.713726
0.737255 0.749020 0.690196
0.760784 0.756863 0.698039
0.137255 0.109804 0.419608
0.129412 0.098039 0.380392
0.141176 0.098039 0.376471
0.168627 0.101961 0.376471
0.301961 0.133333 0.376471
0.392157 0.152941 0.392157
0.388235 0.152941 0.388235
0.392157 0.156863 0.392157
0.380392 0.149020 0.380392
0.141176 0.133333 0.466667
0.149020 0.121569 0.435294
0.149020 0.113725 0.411765
0.188235 0.121569 0.415686
0.294133 0.137255 0.400000
0.411765 0.172549 0.411765
0.407843 0.168627 0.407843
0.450980 0.203922 0.450980
0.458824 0.211765 0.458824
0.149020 0.188235 0.482353
0.160784 0.188235 0.501961
0.176471 0.168627 0.525490
0.200000 0.137255 0.447059
0.305898 0.149020 0.427451
0.423529 0.180392 0.423529
0.431373 0.184314 0.431373
0.537255 0.301961 0.537255
0.552941 0.317647 0.552941
0.164706 0.243137 0.478431
0.184314 0.274510 0.505882
0.215671 0.309789 0.545083
0.247059 0.274510 0.627451
0.345113 0.211765 0.521553
0.466667 0.215686 0.466667
0.494118 0.250980 0.494118
0.627451 0.419608 0.619608
0.635294 0.427451 0.611765
0.215686 0.360784 0.525490
0.231373 0.384314 0.533333
0.247059 0.403937 0.549020
0.278431 0.439216 0.584314
0.498054 0.494118 0.666667
0.556863 0.341192 0.592172
0.611765 0.400015 0.611765
0.658824 0.537255 0.643137
0.658824 0.525490 0.631373
0.301961 0.505882 0.580392
0.305882 0.505867 0.584314
0.313726 0.517647 0.592157
0.333333 0.537255 0.607843
0.462760 0.596078 0.682353
0.623529 0.623529 0.666667
0.666667 0.603922 0.666667
0.674510 0.615686 0.654902
0.678431 0.607843 0.647059
0.407843 0.639216 0.643137
0.411765 0.647059 0.647059
0.407843 0.647059 0.647059
0.423529 0.662745 0.662745
0.498054 0.678431 0.674510
0.631373 0.682353 0.678431
0.709804 0.709804 0.709804
0.717647 0.701961 0.698039
0.721569 0.698039 0.694118
0.439216 0.682353 0.662745
0.431373 0.682353 0.654902
0.447059 0.694118 0.670588
0.517647 0.721569 0.682353
0.623529 0.733333 0.705882
0.698039 0.745098 0.721569
0.741176 0.756863 0.745098
0.741176 0.741176 0.709804
0.749020 0.737255 0.713726
0.435294 0.678431 0.658824
0.435294 0.682353 0.654902
0.443137 0.694118 0.662745
0.498039 0.717647 0.674510
0.607858 0.733333 0.701961
0.690196 0.741176 0.721569
0.737255 0.760784 0.745098
0.749020 0.760784 0.741176
0.760784 0.756863 0.729412
0.176471 0.207843 0.529412
0.164706 0.133333 0.454902
0.207843 0.125490 0.415686
0.262745 0.133333 0.403922
0.356863 0.156863 0.407843
0.392157 0.160784 0.392157
0.396078 0.160784 0.396078
0.392157 0.152941 0.392157
0.388235 0.152941 0.388235
0.196078 0.290196 0.521569
0.250980 0.298039 0.615686
0.266667 0.207843 0.545098
0.329412 0.203922 0.513726
0.407843 0.211765 0.486275
0.466667 0.223529 0.466667
0.458824 0.211765 0.458824
0.462745 0.215686 0.462745
0.458824 0.211765 0.458824
0.207843 0.349020 0.521569
0.262745 0.376471 0.584314
0.337255 0.384314 0.686275
0.372549 0.305882 0.662745
0.474510 0.313726 0.611765
0.552941 0.321569 0.564706
0.545098 0.309804 0.545098
0.552941 0.317647 0.552941
0.552941 0.317647 0.552941
0.239216 0.403922 0.537255
0.278431 0.435294 0.584314
0.349020 0.490196 0.662745
0.462745 0.505882 0.674510
0.498039 0.431373 0.662745
0.592157 0.431373 0.635294
0.627451 0.435294 0.627451
0.631373 0.431373 0.631373
0.627451 0.435294 0.627451
0.278431 0.466667 0.564706
0.305882 0.498039 0.596078
0.368627 0.552941 0.650980
0.466667 0.584314 0.686275
0.588235 0.607843 0.674510
0.600000 0.556863 0.658824
0.658824 0.568627 0.658824
0.662745 0.568627 0.662745
0.658824 0.556878 0.658824
0.337255 0.552941 0.603922
0.349020 0.560784 0.611765
0.396078 0.607843 0.658824
0.478431 0.635294 0.690196
0.600000 0.658824 0.698039
0.666667 0.666667 0.694118
0.678431 0.639216 0.686275
0.690196 0.647059 0.690196
0.694118 0.650980 0.694118
0.427451 0.654902 0.666667
0.411765 0.643137 0.658824
0.435294 0.662745 0.678431
0.501961 0.674510 0.698039
0.615686 0.698039 0.717647
0.674510 0.705882 0.717647
0.725490 0.725490 0.737255
0.729412 0.717647 0.729412
0.733333 0.721569 0.733333
0.454902 0.686275 0.686275
0.450980 0.682353 0.682353
0.482353 0.698039 0.698039
0.552941 0.713726 0.713726
0.654902 0.737255 0.737255
0.701961 0.745098 0.745098
0.745098 0.760784 0.760784
0.780392 0.780392 0.780392
0.772549 0.768627 0.764706
0.450980 0.678431 0.678431
0.450980 0.682353 0.682353
0.470588 0.698039 0.690196
0.537255 0.713726 0.709804
0.639216 0.737255 0.733333
0.698039 0.745098 0.745098
0.745098 0.764706 0.760784
0.772549 0.776471 0.776471
0.772549 0.772549 0.764706
0.192157 0.239216 0.537255
0.176471 0.149020 0.478431
0.219608 0.141176 0.439216
0.270588 0.137255 0.411765
0.349020 0.156863 0.415686
0.411765 0.168627 0.411765
0.392157 0.156863 0.392157
0.388235 0.156863 0.388235
0.392157 0.156863 0.392157
0.211765 0.325490 0.537255
0.266667 0.329412 0.619608
0.278431 0.227451 0.576471
0.337255 0.223529 0.537255
0.411765 0.223529 0.501961
0.486275 0.239216 0.486275
0.474510 0.227451 0.474510
0.458824 0.211765 0.458824
0.458824 0.207843 0.458824
0.231373 0.376471 0.537255
0.278431 0.411765 0.588235
0.360784 0.419608 0.690196
0.388235 0.325490 0.674510
0.482353 0.329412 0.631373
0.560784 0.337255 0.592157
0.568627 0.329412 0.568627
0.564706 0.325490 0.564706
0.556863 0.317647 0.556863
0.262745 0.439216 0.556863
0.298039 0.474510 0.592157
0.380392 0.529412 0.670588
0.482353 0.529412 0.670588
0.494118 0.443137 0.666667
0.588235 0.450980 0.643137
0.631373 0.450980 0.631373
0.627451 0.443137 0.627451
0.623529 0.423529 0.623529
0.309804 0.517647 0.588235
0.341176 0.541176 0.611765
0.403922 0.600000 0.666667
0.486290 0.607843 0.682353
0.603922 0.623529 0.682353
0.603922 0.576486 0.662745
0.666667 0.596078 0.670588
0.662745 0.564721 0.662745
0.662745 0.564706 0.662745
0.364706 0.584314 0.619608
0.380392 0.600000 0.635294
0.419608 0.635294 0.674510
0.525490 0.662745 0.698039
0.639216 0.694118 0.713726
0.682353 0.694118 0.713726
0.682353 0.662745 0.694118
0.694118 0.654902 0.694118
0.694118 0.658824 0.694118
0.427451 0.658824 0.666667
0.419608 0.647059 0.666667
0.462745 0.678431 0.690196
0.552941 0.698039 0.709804
0.647059 0.717647 0.725490
0.713726 0.741176 0.745098
0.752941 0.756863 0.760784
0.745098 0.737255 0.745098
0.741176 0.725490 0.741176
0.454902 0.686275 0.686275
0.450980 0.682353 0.682353
0.478431 0.698039 0.698039
0.576471 0.721569 0.721569
0.666667 0.737255 0.737255
0.717647 0.752941 0.752941
0.752941 0.764706 0.764706
0.784314 0.784314 0.784314
0.780392 0.780392 0.780392
0.450980 0.678431 0.678431
0.454902 0.686275 0.686275
0.478431 0.701961 0.701961
0.552941 0.717647 0.717647
0.643137 0.733333 0.733333
0.701961 0.745098 0.745098
0.741176 0.756863 0.756863
0.776471 0.780392 0.780392
0.788235 0.788235 0.788235
