tools/luts_backup/Kodak Vision3 200T 5213 (NEG)_CIN.cube
# (C) 2014 VisionColor & Patchflyer [www.vision-color.com]
# Generator: VC Patchmatch v.2.1.1 [64/53]
# All work and no play makes Jack a dull boy.
# LUT generated from: Kodak Vision3 200T 5213 (NEG)_Cineon
LUT_3D_SIZE 17
0.101381 0.101381 0.101381
0.110658 0.080476 0.091768
0.127504 0.058900 0.071809
0.156863 0.026612 0.033112
0.187167 0.016754 0.016846
0.210086 0.013947 0.013886
0.234226 0.010498 0.010498
0.266453 0.006561 0.006561
0.290044 0.004334 0.004334
0.302403 0.003204 0.003204
0.304845 0.003174 0.003174
0.315465 0.002472 0.002472
0.364202 0.000641 0.000641
0.428199 0.000336 0.000336
0.461433 0.000244 0.000244
0.475227 0.000183 0.000183
0.488624 0.000183 0.000183
0.108461 0.181094 0.105684
0.149111 0.182193 0.094362
0.179141 0.133394 0.068116
0.186526 0.089998 0.049866
0.213016 0.049683 0.020050
0.242374 0.022919 0.009522
0.262394 0.011688 0.006653
0.281865 0.006226 0.005066
0.303868 0.003265 0.003204
0.321630 0.001892 0.001892
0.335790 0.001251 0.001251
0.353277 0.000763 0.000763
0.385351 0.000427 0.000427
0.431434 0.000336 0.000336
0.461799 0.000244 0.000244
0.477180 0.000183 0.000183
0.491279 0.000183 0.000183
0.120974 0.233860 0.065614
0.144320 0.235447 0.067018
0.173587 0.231693 0.063478
0.238224 0.191867 0.050813
0.270848 0.142641 0.018402
0.286046 0.085756 0.006073
0.303136 0.042817 0.003479
0.318181 0.017853 0.002380
0.331029 0.005829 0.001434
0.344274 0.002045 0.001038
0.359106 0.000824 0.000610
0.374640 0.000488 0.000458
0.395819 0.000488 0.000397
0.430854 0.001221 0.000305
0.465461 0.002014 0.000244
0.480995 0.000366 0.000183
0.492866 0.000183 0.000183
0.126375 0.271794 0.060365
0.145327 0.272465 0.067659
0.159365 0.275578 0.070985
0.197696 0.274205 0.081392
0.288792 0.249821 0.079866
0.345190 0.220737 0.027985
0.377417 0.185824 0.002228
0.394141 0.142031 0.000458
0.402625 0.093446 0.000366
0.401984 0.053452 0.000366
0.401312 0.026490 0.000397
0.407813 0.012207 0.000366
0.425971 0.009369 0.000305
0.467048 0.029023 0.000214
0.516838 0.060365 0.000122
0.511528 0.024750 0.000122
0.495338 0.000275 0.000183
0.151003 0.312901 0.100832
0.167575 0.315984 0.107515
0.179477 0.324804 0.116182
0.185367 0.331029 0.121248
0.261448 0.324590 0.142092
0.352209 0.316655 0.138003
0.407324 0.299321 0.089326
0.450538 0.273991 0.025452
0.461006 0.233738 0.000793
0.467506 0.186236 0.000153
0.469581 0.139086 0.000153
0.466865 0.097429 0.000183
0.472023 0.070527 0.000183
0.505547 0.089876 0.000122
0.563989 0.153323 0.000031
0.562066 0.118318 0.000031
0.507530 0.009033 0.000153
0.209445 0.361425 0.154757
0.217472 0.363378 0.157168
0.223636 0.373480 0.161868
0.219852 0.382086 0.165103
0.224155 0.383337 0.166781
0.316472 0.378851 0.186252
0.403815 0.380072 0.185733
0.456214 0.361913 0.148379
0.503319 0.335027 0.069886
0.520409 0.293172 0.005600
0.516899 0.243580 0.000061
0.519158 0.198230 0.000061
0.517876 0.158267 0.000061
0.527001 0.134096 0.000061
0.561334 0.154299 0.000031
0.582422 0.169924 0.000031
0.545739 0.080064 0.000061
0.285740 0.415290 0.199710
0.284367 0.413581 0.198795
0.283665 0.419562 0.200076
0.273747 0.426581 0.199069
0.254643 0.430457 0.193515
0.262119 0.430640 0.191165
0.356512 0.432898 0.212131
0.449195 0.431952 0.217594
0.505241 0.410834 0.184817
0.551934 0.379721 0.111620
0.575952 0.334981 0.017502
0.557671 0.278401 0.000031
0.551995 0.223255 0.000031
0.539269 0.157595 0.000061
0.538720 0.110048 0.000061
0.585077 0.185092 0.000000
0.595117 0.199878 0.000000
0.351049 0.464057 0.230167
0.348363 0.462013 0.229831
0.345312 0.464546 0.230503
0.334447 0.469337 0.228946
0.314031 0.472419 0.222416
0.298833 0.473671 0.214969
0.326726 0.475441 0.217746
0.421042 0.479866 0.240879
0.504997 0.472541 0.244236
0.556848 0.448203 0.212573
0.594568 0.410727 0.143694
0.617823 0.359213 0.031556
0.588724 0.291585 0.000168
0.559823 0.205158 0.000031
0.527443 0.100145 0.000092
0.585229 0.199069 0.000061
0.655329 0.297993 0.007919
0.403784 0.506401 0.247440
0.403204 0.505547 0.248386
0.401312 0.507073 0.249088
0.393622 0.510735 0.251041
0.375097 0.513024 0.247807
0.352514 0.512322 0.240665
0.356603 0.512474 0.238560
0.402228 0.515221 0.247257
0.494118 0.517784 0.270298
0.560281 0.503960 0.269169
0.601099 0.476310 0.240314
0.628443 0.430777 0.170031
0.646357 0.374472 0.060182
0.626459 0.307271 0.013626
0.590066 0.222019 0.007584
0.625971 0.265248 0.012406
0.690700 0.377066 0.102739
0.455238 0.545586 0.262516
0.452674 0.545342 0.258061
0.450904 0.547082 0.254368
0.449744 0.549981 0.260777
0.436362 0.551507 0.265080
0.411200 0.549157 0.262058
0.393561 0.544213 0.256748
0.412695 0.543297 0.259342
0.465690 0.546288 0.271885
0.552453 0.540368 0.293980
0.605798 0.528557 0.298680
0.635920 0.505730 0.278538
0.650355 0.459480 0.215961
0.661982 0.419913 0.152148
0.661494 0.393790 0.130541
0.671138 0.393240 0.133928
0.693507 0.440925 0.213611
0.509422 0.581537 0.287175
0.502800 0.580591 0.273960
0.496406 0.582025 0.259251
0.498970 0.583307 0.264347
0.491676 0.583337 0.275181
0.469612 0.580560 0.279606
0.440864 0.573938 0.274876
0.431098 0.567376 0.271153
0.456306 0.566308 0.276921
0.510918 0.567956 0.292729
0.587060 0.553429 0.311192
0.636316 0.554406 0.332708
0.653651 0.540185 0.323308
0.659205 0.508110 0.286244
0.670924 0.497856 0.278767
0.682399 0.494194 0.280079
0.696376 0.492744 0.284886
0.555169 0.610468 0.313756
0.549035 0.608545 0.303227
0.540825 0.608576 0.283940
0.539361 0.607355 0.285222
0.532555 0.605249 0.293400
0.515618 0.602014 0.298070
0.489418 0.596582 0.295476
0.465217 0.589837 0.288518
0.466438 0.585443 0.288121
0.495644 0.584924 0.297032
0.542229 0.584741 0.311559
0.602045 0.573114 0.329870
0.644251 0.577447 0.357488
0.656733 0.565637 0.353155
0.670832 0.551385 0.343847
0.686854 0.544579 0.342596
0.696956 0.534203 0.335149
0.586480 0.630182 0.333715
0.583062 0.628534 0.330022
0.578149 0.627192 0.321080
0.573510 0.624750 0.319707
0.564904 0.621820 0.321233
0.550683 0.618799 0.320745
0.530785 0.615106 0.316533
0.507713 0.610742 0.309545
0.496376 0.606806 0.305882
0.509178 0.604761 0.310674
0.537713 0.604303 0.321355
0.572869 0.603387 0.335271
0.616053 0.596735 0.355383
0.649836 0.593164 0.373510
0.671046 0.583032 0.375982
0.688533 0.574304 0.374914
0.696834 0.565393 0.371344
0.609735 0.644953 0.350805
0.608148 0.644038 0.349554
0.605859 0.642695 0.347417
0.602167 0.640711 0.345739
0.594690 0.638178 0.344671
0.582208 0.635279 0.342870
0.566064 0.632044 0.338323
0.546807 0.628840 0.330877
0.531792 0.625971 0.325322
0.534783 0.623835 0.328374
0.553857 0.622583 0.338964
0.580102 0.621546 0.352636
0.609705 0.619715 0.367956
0.642756 0.612879 0.384283
0.671931 0.606653 0.394049
0.689967 0.599695 0.395819
0.697810 0.591882 0.395483
0.626032 0.655085 0.365576
0.625177 0.654658 0.364813
0.624292 0.654169 0.364050
0.622919 0.653437 0.363165
0.619287 0.652216 0.362402
0.610773 0.650294 0.361303
0.596399 0.647883 0.358251
0.577996 0.645197 0.352331
0.562310 0.642298 0.346441
0.559380 0.639857 0.347570
0.571862 0.638239 0.357275
0.593530 0.637079 0.371527
0.618769 0.635737 0.386603
0.644862 0.631830 0.398718
0.673854 0.624628 0.406897
0.691371 0.619593 0.410559
0.698146 0.612665 0.413031
0.642023 0.664393 0.381628
0.641108 0.663844 0.380652
0.640467 0.663417 0.379736
0.640040 0.663142 0.379339
0.638514 0.662593 0.379278
0.632868 0.661341 0.379217
0.621668 0.659419 0.377356
0.605798 0.657038 0.371954
0.588006 0.654688 0.365209
0.580133 0.652735 0.364843
0.588739 0.651209 0.374731
0.607477 0.650019 0.389807
0.630121 0.648920 0.403662
0.654353 0.646601 0.413581
0.677424 0.641535 0.419440
0.692256 0.636927 0.424628
0.696315 0.630335 0.430976
0.655940 0.672328 0.396002
0.655390 0.672023 0.395575
0.654078 0.671382 0.394690
0.653071 0.670893 0.393988
0.652399 0.670802 0.393866
0.650019 0.670588 0.394049
0.642573 0.669551 0.393835
0.628046 0.667628 0.391028
0.611109 0.665461 0.384588
0.601129 0.663539 0.382513
0.605371 0.662135 0.391211
0.620783 0.661280 0.404578
0.643122 0.660609 0.418280
0.666773 0.658747 0.428229
0.684413 0.654658 0.432227
0.693629 0.650080 0.435309
0.695186 0.642512 0.442054
0.052583 0.063752 0.114626
0.151766 0.065553 0.169192
0.203006 0.033082 0.163180
0.225376 0.008392 0.137087
0.225711 0.007507 0.084138
0.215000 0.011749 0.040314
0.220584 0.012329 0.018067
0.248722 0.008484 0.009064
0.272526 0.006073 0.006104
0.289311 0.004425 0.004425
0.302831 0.003204 0.003204
0.320287 0.002075 0.002075
0.359106 0.000641 0.000641
0.414405 0.000336 0.000336
0.453590 0.000244 0.000244
0.473091 0.000183 0.000183
0.489693 0.000183 0.000183
0.080903 0.195499 0.185763
0.159915 0.162539 0.164797
0.201511 0.105287 0.138338
0.216770 0.062623 0.102174
0.232181 0.035615 0.056092
0.254398 0.016083 0.018830
0.270726 0.007538 0.007568
0.276524 0.006012 0.006012
0.291081 0.004303 0.004273
0.309209 0.002869 0.002869
0.327001 0.001587 0.001587
0.344701 0.000977 0.000977
0.366827 0.000519 0.000519
0.403296 0.000397 0.000397
0.447303 0.000275 0.000275
0.477180 0.000214 0.000183
0.493812 0.000275 0.000183
0.099733 0.248081 0.136751
0.157992 0.234165 0.133700
0.199527 0.236271 0.119966
0.259373 0.198062 0.097566
0.290593 0.158755 0.061830
0.316381 0.104768 0.025086
0.337285 0.050782 0.005005
0.350530 0.024018 0.001465
0.360723 0.014221 0.000732
0.366674 0.008057 0.000549
0.372107 0.002808 0.000519
0.382147 0.000763 0.000427
0.398535 0.000397 0.000397
0.425116 0.000336 0.000336
0.460822 0.001129 0.000244
0.499336 0.016388 0.000183
0.509850 0.016236 0.000122
0.126162 0.287144 0.103944
0.167605 0.278874 0.110414
0.190890 0.281529 0.109712
0.226169 0.282963 0.117494
0.307988 0.260319 0.116182
0.361944 0.229679 0.069978
0.403265 0.194827 0.018372
0.421607 0.157107 0.000885
0.431281 0.129305 0.000336
0.434028 0.096391 0.000305
0.428107 0.052842 0.000305
0.423621 0.020661 0.000305
0.428748 0.006226 0.000305
0.444221 0.003021 0.000275
0.473274 0.010040 0.000183
0.506554 0.029267 0.000122
0.514946 0.023102 0.000122
0.154238 0.331395 0.113985
0.181521 0.323278 0.119814
0.206699 0.328038 0.124544
0.224704 0.334447 0.129366
0.264988 0.337835 0.144411
0.358648 0.326879 0.154086
0.422095 0.302617 0.113893
0.470100 0.274968 0.042634
0.482612 0.245518 0.003052
0.479988 0.213092 0.000153
0.485298 0.167956 0.000122
0.483253 0.117357 0.000153
0.478035 0.073381 0.000183
0.482551 0.051545 0.000183
0.512047 0.078157 0.000122
0.552178 0.127657 0.000061
0.553246 0.103120 0.000061
0.205081 0.374914 0.148623
0.215183 0.368048 0.146517
0.238590 0.374884 0.150637
0.251072 0.383215 0.157046
0.257816 0.388434 0.165133
0.318700 0.390692 0.187716
0.414405 0.388586 0.195712
0.476204 0.363012 0.156069
0.519524 0.331456 0.078126
0.534386 0.300313 0.011276
0.524376 0.259846 0.000092
0.528954 0.217670 0.000031
0.528862 0.178149 0.000061
0.529351 0.146746 0.000061
0.548547 0.155093 0.000061
0.588464 0.206516 0.000000
0.594110 0.201328 0.000000
0.281621 0.425269 0.187533
0.274235 0.414649 0.182834
0.288273 0.420386 0.181857
0.292943 0.427924 0.185031
0.288884 0.433021 0.191409
0.304295 0.437842 0.203311
0.373053 0.440162 0.224430
0.463539 0.439185 0.228428
0.519036 0.411048 0.188357
0.557458 0.378805 0.120073
0.582086 0.345052 0.033005
0.575036 0.303243 0.001511
0.568139 0.262470 0.000031
0.566125 0.225269 0.000031
0.572564 0.207065 0.000000
0.598840 0.236454 0.000000
0.616724 0.263035 0.000000
0.353460 0.472816 0.220768
0.344335 0.464668 0.217899
0.346899 0.465217 0.214847
0.344457 0.469734 0.213291
0.330663 0.472480 0.216648
0.327550 0.476570 0.221775
0.356603 0.481239 0.232578
0.429603 0.484291 0.249790
0.507897 0.478889 0.251957
0.556542 0.453910 0.221424
0.591058 0.422995 0.168292
0.618952 0.387564 0.087694
0.626947 0.345663 0.022019
0.608728 0.296895 0.001328
0.594812 0.257282 0.000031
0.611109 0.269718 0.000061
0.657893 0.317082 0.007034
0.409766 0.513512 0.244358
0.405524 0.510063 0.242313
0.403662 0.508293 0.242100
0.397253 0.510399 0.241215
0.381689 0.512108 0.242039
0.363439 0.512932 0.241093
0.373297 0.515709 0.245121
0.414710 0.519188 0.255192
0.491646 0.522454 0.274418
0.553552 0.511833 0.275578
0.592737 0.489067 0.254749
0.621210 0.457572 0.213092
0.642847 0.418875 0.147143
0.655543 0.371481 0.063401
0.642908 0.321767 0.015976
0.655085 0.324819 0.021012
0.685908 0.379217 0.099260
0.460700 0.550500 0.261753
0.456855 0.550164 0.254154
0.455451 0.549004 0.255314
0.450568 0.549004 0.258610
0.436744 0.549249 0.261814
0.414923 0.548272 0.260807
0.405066 0.547295 0.260075
0.429816 0.548669 0.266697
0.476890 0.551415 0.279393
0.548608 0.551904 0.301640
0.594537 0.537957 0.303410
0.624933 0.515404 0.287358
0.645380 0.482368 0.250095
0.660182 0.442237 0.193866
0.669215 0.403723 0.131975
0.676326 0.402335 0.136034
0.689998 0.442298 0.213092
0.511528 0.584253 0.282078
0.505119 0.585229 0.263706
0.502739 0.586419 0.260655
0.500969 0.585992 0.263096
0.491951 0.583551 0.268711
0.470069 0.580072 0.274296
0.448951 0.575921 0.275669
0.452796 0.573053 0.279545
0.482918 0.572747 0.288792
0.531395 0.575250 0.305638
0.592554 0.571527 0.328374
0.629694 0.558587 0.333684
0.651606 0.536553 0.319249
0.662928 0.507866 0.288914
0.672419 0.482338 0.258381
0.682002 0.478859 0.258381
0.694728 0.496010 0.287938
0.555413 0.612085 0.306676
0.549279 0.612573 0.288090
0.544976 0.615686 0.277012
0.542840 0.617334 0.273716
0.539269 0.613428 0.273503
0.520531 0.607599 0.282628
0.494697 0.600641 0.289525
0.480873 0.594049 0.292851
0.491493 0.589532 0.298161
0.522118 0.589197 0.308812
0.569848 0.593133 0.329747
0.622919 0.588495 0.355230
0.655451 0.575219 0.360479
0.668818 0.556603 0.347723
0.674434 0.543267 0.335485
0.685603 0.536706 0.332311
0.695857 0.538231 0.339269
0.586358 0.631067 0.328374
0.583001 0.630426 0.320836
0.579705 0.632441 0.308354
0.576226 0.634577 0.299138
0.571557 0.630610 0.297704
0.557000 0.625330 0.302953
0.534630 0.619806 0.307317
0.513207 0.613886 0.307866
0.507378 0.608759 0.309178
0.522240 0.605890 0.315587
0.552483 0.606683 0.328984
0.592950 0.609552 0.350805
0.636133 0.605371 0.374731
0.663844 0.590906 0.378027
0.674983 0.580591 0.374609
0.686244 0.574853 0.373877
0.695674 0.569177 0.374334
0.609155 0.644984 0.347692
0.607752 0.644251 0.346502
0.605982 0.644129 0.341009
0.603143 0.644282 0.333257
0.596521 0.641169 0.333043
0.584009 0.637201 0.334447
0.567468 0.633326 0.333349
0.548119 0.629541 0.328740
0.533013 0.626215 0.324498
0.535149 0.623713 0.327489
0.553460 0.622492 0.338018
0.579736 0.622248 0.352850
0.610681 0.621790 0.370092
0.643458 0.616022 0.388251
0.669215 0.606989 0.393774
0.686610 0.601160 0.395209
0.696376 0.594415 0.395972
0.624659 0.654475 0.363653
0.624323 0.654261 0.363561
0.623743 0.653956 0.362707
0.622492 0.653376 0.360845
0.618891 0.652064 0.360052
0.610651 0.650019 0.359319
0.596948 0.647486 0.356878
0.579095 0.644739 0.351537
0.562158 0.641657 0.344976
0.555779 0.638941 0.343938
0.565118 0.637140 0.351781
0.584619 0.636011 0.364752
0.609094 0.634913 0.379828
0.634760 0.632441 0.394232
0.663081 0.625177 0.403784
0.686580 0.619837 0.408087
0.697261 0.614252 0.410315
0.640406 0.663386 0.379370
0.640009 0.663111 0.379004
0.639704 0.662959 0.378729
0.639429 0.662776 0.378546
0.638025 0.662257 0.378363
0.632929 0.660883 0.377997
0.622553 0.658839 0.376165
0.607538 0.656367 0.371191
0.588830 0.653834 0.363928
0.576318 0.651606 0.360388
0.579705 0.649866 0.366308
0.595544 0.648432 0.379583
0.616419 0.647150 0.394446
0.640314 0.645838 0.406470
0.664363 0.641535 0.413794
0.686702 0.636469 0.419989
0.696254 0.631861 0.425696
0.653895 0.671290 0.394507
0.653162 0.670954 0.394080
0.652552 0.670710 0.393652
0.652399 0.670619 0.393530
0.652461 0.670710 0.393683
0.650965 0.670558 0.393805
0.644556 0.669490 0.393500
0.630976 0.667353 0.391089
0.613428 0.664698 0.384192
0.598871 0.662104 0.377813
0.596735 0.660029 0.381476
0.607965 0.658503 0.393744
0.626215 0.657435 0.406744
0.649531 0.656306 0.419104
0.672358 0.652796 0.426368
0.688106 0.648646 0.430518
0.695125 0.643946 0.436805
0.025116 0.027649 0.141268
0.119600 0.030152 0.203525
0.197330 0.024537 0.222904
0.230137 0.005921 0.223941
0.246616 0.002533 0.212985
0.254459 0.002502 0.187228
0.254185 0.003876 0.138094
0.251438 0.005951 0.076112
0.262089 0.005982 0.033661
0.274876 0.005646 0.012757
0.289342 0.004364 0.005158
0.306889 0.002991 0.002991
0.333013 0.001373 0.001373
0.376715 0.000488 0.000488
0.429633 0.000336 0.000336
0.461707 0.000244 0.000244
0.480751 0.000183 0.000183
0.042878 0.119631 0.196017
0.115450 0.076081 0.201633
0.221286 0.070008 0.226749
0.262974 0.036683 0.225467
0.289891 0.009857 0.217075
0.298589 0.003357 0.181003
0.289952 0.003204 0.112947
0.275944 0.005005 0.046632
0.277470 0.005402 0.015259
0.291234 0.004211 0.005737
0.310063 0.002777 0.002869
0.331762 0.001404 0.001404
0.356023 0.000641 0.000641
0.386358 0.000397 0.000397
0.427955 0.000336 0.000336
0.461067 0.000244 0.000244
0.484504 0.000183 0.000183
0.070344 0.265019 0.252781
0.130068 0.242344 0.243656
0.203006 0.207858 0.226169
0.270909 0.169314 0.205905
0.306859 0.119478 0.174472
0.329107 0.070375 0.126345
0.339940 0.036255 0.058076
0.349340 0.013001 0.011536
0.354742 0.007324 0.001312
0.361883 0.003815 0.000580
0.366217 0.001556 0.000549
0.372259 0.000671 0.000488
0.384070 0.000427 0.000427
0.404181 0.000397 0.000397
0.433936 0.000336 0.000336
0.476448 0.001312 0.000183
0.505486 0.006348 0.000122
0.098238 0.310246 0.221164
0.139254 0.292363 0.203311
0.199802 0.271885 0.195315
0.252689 0.280095 0.181582
0.325200 0.254917 0.163485
0.374365 0.230808 0.124636
0.413764 0.200900 0.069368
0.443336 0.163210 0.021393
0.453742 0.132540 0.002075
0.452613 0.109560 0.000275
0.449561 0.080415 0.000244
0.441535 0.044450 0.000275
0.435706 0.014618 0.000305
0.439490 0.002686 0.000305
0.458991 0.002472 0.000244
0.521111 0.073121 0.000092
0.571496 0.160922 0.000000
0.136629 0.348669 0.186862
0.168063 0.333318 0.175875
0.219394 0.323064 0.176638
0.251743 0.331640 0.169589
0.298100 0.337377 0.171145
0.378424 0.321263 0.164981
0.433600 0.295811 0.127382
0.477272 0.267918 0.065919
0.503441 0.239170 0.011841
0.504173 0.213504 0.000366
0.507805 0.185428 0.000122
0.506981 0.149752 0.000092
0.496590 0.100145 0.000153
0.484688 0.050034 0.000183
0.486732 0.027497 0.000153
0.522454 0.073884 0.000092
0.569329 0.153811 0.000031
0.192599 0.389807 0.175021
0.209415 0.381811 0.174685
0.246983 0.373541 0.180209
0.274815 0.381750 0.176516
0.294408 0.389258 0.174319
0.345159 0.395789 0.184543
0.430243 0.385565 0.185183
0.486549 0.358160 0.148806
0.530785 0.323766 0.073243
0.544274 0.287190 0.005936
0.535027 0.252766 0.000061
0.544457 0.227329 0.000031
0.547082 0.200687 0.000031
0.538781 0.158282 0.000061
0.532982 0.122850 0.000061
0.551476 0.141329 0.000061
0.591028 0.200351 0.000000
0.267643 0.435584 0.187961
0.267399 0.431037 0.188174
0.286900 0.423346 0.194400
0.309575 0.430060 0.192416
0.321660 0.437934 0.189273
0.337377 0.443183 0.194888
0.398810 0.448249 0.215427
0.480842 0.441230 0.215549
0.534447 0.410376 0.174289
0.572808 0.366476 0.088396
0.580194 0.321675 0.007584
0.571893 0.291829 0.000092
0.578485 0.273548 0.000031
0.577478 0.245045 0.000000
0.573907 0.213672 0.000031
0.584375 0.211917 0.000000
0.610010 0.251408 0.000000
0.343694 0.484108 0.210727
0.337316 0.478737 0.208255
0.340185 0.471443 0.212863
0.357671 0.474067 0.217227
0.365087 0.482490 0.211948
0.365759 0.486305 0.212375
0.387335 0.487709 0.225864
0.455512 0.492409 0.248051
0.526390 0.484382 0.245548
0.570306 0.452110 0.206622
0.602197 0.407919 0.132067
0.623835 0.373404 0.058335
0.634485 0.353628 0.029984
0.632197 0.325582 0.011460
0.621271 0.291768 0.001358
0.618677 0.279225 0.000122
0.639124 0.302770 0.000366
0.404974 0.525780 0.228855
0.400824 0.521996 0.227176
0.398596 0.516472 0.229404
0.407843 0.515373 0.236179
0.412482 0.521965 0.235691
0.403540 0.525170 0.230869
0.405341 0.523735 0.237919
0.433997 0.522637 0.253452
0.507347 0.528649 0.276493
0.562219 0.517296 0.274815
0.597314 0.490715 0.249897
0.624048 0.458122 0.207813
0.643275 0.431479 0.167742
0.658015 0.403311 0.121355
0.666621 0.368185 0.065141
0.669367 0.347127 0.036027
0.682033 0.355871 0.050431
0.454994 0.559472 0.242649
0.453559 0.559289 0.242527
0.451972 0.555962 0.241550
0.454261 0.553124 0.245579
0.453223 0.555383 0.248569
0.441474 0.556939 0.247288
0.431128 0.554955 0.250828
0.446448 0.552636 0.263920
0.484001 0.552697 0.281468
0.552026 0.556634 0.304906
0.593378 0.543755 0.305486
0.622278 0.523949 0.293156
0.643091 0.498909 0.268910
0.658564 0.469398 0.234943
0.670039 0.434943 0.187274
0.678157 0.408576 0.148821
0.686000 0.408728 0.159808
0.502983 0.589624 0.257084
0.497536 0.592065 0.264317
0.500633 0.589929 0.251987
0.500175 0.586969 0.253086
0.496162 0.585199 0.255497
0.481880 0.583825 0.258427
0.465278 0.581140 0.263249
0.470588 0.578851 0.275944
0.499886 0.578393 0.294530
0.539849 0.579492 0.313024
0.590875 0.577813 0.332036
0.622919 0.565606 0.335424
0.644953 0.547997 0.327764
0.661036 0.524590 0.307958
0.673365 0.495186 0.276432
0.681849 0.467384 0.244114
0.690761 0.460914 0.240467
0.550408 0.617731 0.277195
0.533410 0.619776 0.299046
0.543572 0.618494 0.266758
0.542046 0.616999 0.264408
0.538231 0.613916 0.263035
0.525414 0.610193 0.264652
0.505486 0.605463 0.271885
0.499306 0.601038 0.285679
0.518517 0.598932 0.304906
0.549706 0.599512 0.323919
0.586084 0.601099 0.343999
0.624842 0.596490 0.361608
0.649866 0.583795 0.364691
0.665614 0.565820 0.355505
0.677760 0.546380 0.339574
0.687129 0.524804 0.318730
0.694484 0.513726 0.308507
0.586786 0.637751 0.301579
0.572198 0.639429 0.316777
0.578973 0.637140 0.291356
0.575952 0.637568 0.284550
0.570550 0.635279 0.278630
0.560662 0.630488 0.275425
0.541192 0.625299 0.281712
0.526146 0.619928 0.294163
0.531945 0.615747 0.311070
0.554253 0.614374 0.329442
0.584405 0.615961 0.350195
0.618341 0.617853 0.372961
0.651972 0.613397 0.389563
0.670649 0.600061 0.388067
0.678706 0.583917 0.378485
0.689296 0.568231 0.367895
0.695796 0.558831 0.362280
0.611322 0.650111 0.325231
0.607507 0.650813 0.326329
0.606897 0.648615 0.322271
0.603235 0.649042 0.313146
0.595026 0.647578 0.302739
0.584436 0.642542 0.300481
0.568811 0.637446 0.304204
0.551354 0.632715 0.309758
0.543603 0.628748 0.318181
0.553521 0.626490 0.331945
0.576196 0.626917 0.350408
0.605188 0.629267 0.371923
0.634028 0.630243 0.392035
0.662013 0.624170 0.402411
0.674678 0.611627 0.399023
0.686580 0.600336 0.394415
0.695827 0.590814 0.392615
0.626307 0.657374 0.348760
0.625879 0.657069 0.350042
0.624872 0.656184 0.351263
0.622858 0.655665 0.346990
0.616876 0.654414 0.337652
0.608148 0.651698 0.336400
0.595300 0.648646 0.337804
0.578729 0.645380 0.337499
0.563531 0.642023 0.336156
0.559136 0.639338 0.339971
0.570092 0.638209 0.351720
0.591150 0.638605 0.368170
0.615686 0.639094 0.386603
0.639155 0.637720 0.400519
0.661738 0.629084 0.405585
0.681788 0.620844 0.406867
0.695125 0.614527 0.408637
0.640711 0.664729 0.369482
0.640314 0.664271 0.370947
0.640070 0.663905 0.372656
0.639521 0.663478 0.373297
0.636866 0.662440 0.371740
0.631617 0.660853 0.371008
0.622095 0.658747 0.370123
0.608057 0.656153 0.366766
0.589807 0.653498 0.360876
0.575677 0.651179 0.357031
0.576226 0.649409 0.361486
0.589868 0.648066 0.373632
0.609461 0.646845 0.388983
0.631342 0.645716 0.402197
0.654139 0.642603 0.410468
0.678462 0.636744 0.415961
0.694118 0.632776 0.421454
0.652644 0.671199 0.390448
0.652216 0.670893 0.390631
0.652064 0.670710 0.391089
0.652216 0.670771 0.391669
0.652247 0.670832 0.392309
0.650782 0.670466 0.392523
0.644709 0.669154 0.392248
0.631769 0.666835 0.389868
0.614740 0.663935 0.383124
0.598291 0.661006 0.375158
0.591516 0.658656 0.375036
0.599298 0.656703 0.385351
0.614679 0.655329 0.398505
0.635493 0.654231 0.410620
0.658778 0.651911 0.420813
0.679500 0.647578 0.425361
0.693416 0.644434 0.430854
0.010986 0.008423 0.155184
0.095888 0.005982 0.220401
0.169070 0.007355 0.241642
0.208164 0.003601 0.247288
0.235203 0.002167 0.254032
0.251865 0.001892 0.253697
0.263645 0.001862 0.242069
0.276829 0.001404 0.215579
0.288975 0.001587 0.175448
0.296757 0.002014 0.120256
0.294896 0.002930 0.057389
0.298924 0.003235 0.017075
0.316930 0.002258 0.004242
