tools/luts_backup/Kodak Vision3 50D 5203 (DP)_FC.cube
# (C) 2014 VisionColor & Patchflyer [www.vision-color.com]
# Generator: VC Patchmatch v.2.1.1 [64/53]
# All work and no play makes Jack a dull boy.
# LUT generated from: Kodak Vision3 50D 5203 (DP)_FC01
LUT_3D_SIZE 17
0.029297 0.029297 0.029297
0.036561 0.020905 0.026520
0.034867 0.017639 0.019669
0.048875 0.017319 0.016602
0.069368 0.016632 0.014160
0.084779 0.016052 0.012543
0.107240 0.015122 0.011078
0.137392 0.014328 0.009415
0.157687 0.014130 0.008591
0.173327 0.013886 0.008011
0.176242 0.013870 0.007904
0.187976 0.013794 0.007492
0.252064 0.013718 0.005921
0.362325 0.014420 0.004578
0.433188 0.014954 0.004211
0.464012 0.015152 0.004242
0.498924 0.015351 0.004349
0.023850 0.071351 0.023850
0.046784 0.069841 0.017975
0.070878 0.040024 0.011017
0.061692 0.022660 0.014069
0.081315 0.017227 0.012528
0.105180 0.015549 0.011109
0.126574 0.014649 0.009918
0.148760 0.014221 0.008865
0.174823 0.013931 0.007965
0.195407 0.013809 0.007263
0.213092 0.013794 0.006775
0.233783 0.013733 0.006271
0.287343 0.013657 0.005249
0.368994 0.014481 0.004517
0.433936 0.014984 0.004211
0.468467 0.015183 0.004257
0.506386 0.015381 0.004364
0.029770 0.107546 0.008820
0.038407 0.107530 0.006332
0.054978 0.099550 0.007477
0.105074 0.064744 0.004715
0.122606 0.041123 0.005341
0.139254 0.027268 0.006424
0.162203 0.019486 0.007279
0.184985 0.016129 0.007172
0.206943 0.014511 0.006790
0.221866 0.013993 0.006500
0.244251 0.013703 0.006027
0.268879 0.013565 0.005524
0.303822 0.013825 0.005035
0.367498 0.014679 0.004532
0.442176 0.015366 0.004211
0.478157 0.015274 0.004273
0.510948 0.015412 0.004364
0.030610 0.130968 0.007004
0.033814 0.130938 0.007156
0.029816 0.134630 0.007065
0.063630 0.121035 0.014267
0.146166 0.093660 0.012039
0.206149 0.077241 0.003555
0.250278 0.065797 0.002472
0.278614 0.052369 0.002365
0.304433 0.036423 0.003006
0.302174 0.026108 0.003281
0.307042 0.019577 0.004242
0.320104 0.016541 0.004547
0.355856 0.016220 0.004425
0.442344 0.020905 0.003693
0.574487 0.028748 0.003479
0.561654 0.020462 0.003998
0.517845 0.015457 0.004379
0.034363 0.166323 0.017502
0.035370 0.168383 0.017716
0.031586 0.180133 0.017609
0.032090 0.185885 0.017334
0.110307 0.160418 0.033570
0.226307 0.137270 0.027192
0.326635 0.120409 0.010773
0.392752 0.107088 0.003891
0.427100 0.091432 0.002258
0.444877 0.071412 0.002197
0.433753 0.053681 0.002457
0.438483 0.038468 0.002853
0.450462 0.030686 0.003113
0.545602 0.035981 0.003220
0.710887 0.060060 0.003235
0.705455 0.046799 0.003616
0.552636 0.017105 0.004334
0.060365 0.216846 0.031647
0.059144 0.217243 0.031388
0.056306 0.230488 0.030365
0.046433 0.246128 0.028061
0.052186 0.244282 0.028153
0.164004 0.217823 0.043732
0.313909 0.198459 0.042527
0.459312 0.168719 0.021317
0.557610 0.146853 0.007309
0.603922 0.123018 0.003326
0.608881 0.099199 0.002304
0.586740 0.078355 0.002304
0.566644 0.061646 0.002640
0.584909 0.052247 0.002991
0.701976 0.060410 0.003143
0.776410 0.066819 0.003403
0.663371 0.034028 0.003754
0.119722 0.274784 0.045426
0.115694 0.271778 0.044816
0.111177 0.281483 0.043885
0.096254 0.295872 0.040391
0.076020 0.307256 0.034302
0.085328 0.302831 0.034562
0.223636 0.293233 0.048631
0.418524 0.265614 0.053651
0.606867 0.223499 0.031861
0.736568 0.186557 0.013108
0.782940 0.151888 0.005280
0.765972 0.119249 0.002853
0.709316 0.090730 0.002594
0.632731 0.061570 0.002884
0.635386 0.042710 0.003449
0.791257 0.073793 0.003235
0.837613 0.080751 0.003449
0.205142 0.344961 0.058549
0.200183 0.341482 0.058640
0.193378 0.346136 0.058625
0.175372 0.354696 0.056901
0.144442 0.361379 0.051301
0.125856 0.365515 0.045197
0.165866 0.363714 0.049287
0.354879 0.377523 0.061082
0.583993 0.328862 0.065354
0.785946 0.274830 0.041855
0.892729 0.223865 0.018235
0.915846 0.173083 0.007187
0.867277 0.129091 0.003464
0.719905 0.082444 0.002853
0.605585 0.039185 0.003449
0.795789 0.080323 0.003311
0.956481 0.137560 0.005692
0.315526 0.430457 0.063951
0.313573 0.428779 0.064607
0.308186 0.431601 0.065248
0.288380 0.437415 0.067460
0.246952 0.437354 0.066667
0.204715 0.432074 0.062501
0.213275 0.432517 0.061143
0.310613 0.446983 0.063905
0.547021 0.450614 0.078553
0.771099 0.387243 0.079820
0.925734 0.323552 0.055421
0.965423 0.252949 0.024277
0.965255 0.192050 0.010040
0.919646 0.140703 0.005829
0.780331 0.091798 0.004669
0.912459 0.115923 0.005722
0.991272 0.205966 0.016693
0.451789 0.525231 0.069062
0.445792 0.523033 0.066133
0.442130 0.525551 0.063905
0.437217 0.533181 0.068162
0.398978 0.534249 0.072496
0.329976 0.520729 0.073640
0.286885 0.504204 0.071733
0.335317 0.508736 0.071443
0.479210 0.530251 0.075898
0.730449 0.485054 0.095827
0.905547 0.442878 0.102632
0.968765 0.388006 0.083742
0.984131 0.300435 0.043397
0.986084 0.245777 0.024842
0.983688 0.220096 0.022751
0.986954 0.221912 0.023850
0.996094 0.288426 0.044007
0.609430 0.629038 0.084947
0.592493 0.622003 0.075624
0.577462 0.620996 0.065187
0.584085 0.625849 0.068544
0.559564 0.625879 0.076204
0.493584 0.613825 0.080262
0.409232 0.587701 0.079912
0.382330 0.568353 0.078279
0.454200 0.575921 0.079179
0.610498 0.593500 0.089998
0.846128 0.512688 0.112291
0.953857 0.513283 0.136797
0.973907 0.476387 0.125673
0.984298 0.399542 0.090043
0.990723 0.381262 0.085359
0.993286 0.378882 0.087678
0.995697 0.382467 0.091859
0.749111 0.722820 0.106416
0.732586 0.713817 0.097124
0.712566 0.708553 0.082460
0.707561 0.705272 0.083497
0.683726 0.699428 0.089326
0.629541 0.686687 0.092271
0.550393 0.662989 0.090745
0.478126 0.635767 0.087419
0.481895 0.626032 0.086824
0.567300 0.635294 0.091646
0.703182 0.643809 0.105547
0.884627 0.570245 0.128969
0.957809 0.582376 0.163912
0.972061 0.547555 0.159457
0.987488 0.509621 0.148745
0.992813 0.497673 0.148013
0.995453 0.477150 0.140581
0.847425 0.790158 0.123766
0.837446 0.783673 0.120623
0.823972 0.776272 0.112688
0.809033 0.768277 0.111696
0.780850 0.758846 0.113359
0.734859 0.746426 0.112810
0.673793 0.729000 0.108904
0.604761 0.708400 0.102983
0.570321 0.693553 0.100175
0.607553 0.693660 0.103822
0.692760 0.703975 0.113130
0.796262 0.699229 0.126604
0.906355 0.645869 0.154009
0.961120 0.630625 0.184604
0.986053 0.600793 0.190723
0.991836 0.577462 0.189044
0.994247 0.557015 0.184863
0.898589 0.837690 0.140749
0.895369 0.835004 0.139406
0.890822 0.830823 0.137240
0.883177 0.825269 0.135485
0.867369 0.818082 0.134722
0.833066 0.807309 0.133715
0.782177 0.792508 0.129763
0.721691 0.774289 0.122316
0.676860 0.759518 0.117266
0.684733 0.755383 0.119875
0.741085 0.761593 0.130251
0.819593 0.764324 0.143908
0.890410 0.736904 0.162387
0.950530 0.698299 0.193820
0.985489 0.674739 0.215702
0.992187 0.652430 0.220218
0.994614 0.630213 0.219638
0.931289 0.862181 0.156924
0.929595 0.861402 0.156069
0.927810 0.860548 0.155184
0.924987 0.859419 0.154116
0.917144 0.858854 0.153216
0.899092 0.857984 0.152132
0.869261 0.850980 0.150011
0.819104 0.836072 0.144839
0.769360 0.820417 0.138933
0.759457 0.812696 0.139956
0.797360 0.815610 0.149599
0.859495 0.818875 0.165148
0.909255 0.800641 0.185855
0.951919 0.767666 0.208240
0.984939 0.733516 0.233051
0.991867 0.715694 0.242527
0.994385 0.695933 0.247730
0.953079 0.879927 0.177157
0.951888 0.878813 0.175891
0.951064 0.877897 0.174731
0.950515 0.877226 0.174182
0.948409 0.876921 0.174182
0.940826 0.877897 0.174472
0.921050 0.879332 0.172290
0.888273 0.873854 0.166659
0.849805 0.863722 0.159060
0.823957 0.857923 0.158816
0.849821 0.859113 0.171389
0.887388 0.861158 0.190433
0.931731 0.848722 0.209857
0.963897 0.821698 0.228229
0.986160 0.793469 0.248936
0.991730 0.775937 0.264042
0.992935 0.756634 0.279484
0.971038 0.895033 0.196292
0.970336 0.894667 0.195727
0.968643 0.893462 0.194461
0.967346 0.892790 0.193545
0.966415 0.893080 0.193454
0.963302 0.894438 0.193881
0.953216 0.897368 0.194171
0.934005 0.899702 0.191669
0.899504 0.893629 0.184833
0.878645 0.886885 0.182834
0.886091 0.886946 0.194171
0.915145 0.887922 0.212604
0.949691 0.876997 0.232441
0.979706 0.860471 0.250324
0.988922 0.840772 0.269001
0.992309 0.822354 0.281590
0.992493 0.800748 0.297887
0.012100 0.016312 0.041764
0.062531 0.015335 0.076234
0.099657 0.012390 0.063233
0.107301 0.011612 0.044617
0.095247 0.012192 0.028122
0.088121 0.014069 0.018280
0.096406 0.015000 0.012421
0.121141 0.014588 0.010346
0.143343 0.014221 0.009140
0.156710 0.014176 0.008621
0.173770 0.013916 0.007996
0.193927 0.013779 0.007309
0.244038 0.013718 0.006058
0.333104 0.014206 0.004761
0.416327 0.014817 0.004273
0.459236 0.015137 0.004242
0.501854 0.015366 0.004349
0.009613 0.079927 0.071778
0.048325 0.057084 0.063828
0.093614 0.029267 0.044587
0.095125 0.017487 0.026932
0.096773 0.015213 0.015518
0.116869 0.014771 0.010895
0.132158 0.014374 0.009705
0.144579 0.014176 0.009064
0.158877 0.014130 0.008545
0.180835 0.013886 0.007752
0.202884 0.013779 0.007065
0.222431 0.013779 0.006516
0.256474 0.013596 0.005768
0.315358 0.013962 0.004929
0.403037 0.014725 0.004318
0.468559 0.015183 0.004257
0.513497 0.015442 0.004379
0.012528 0.125444 0.031769
0.044373 0.106279 0.029679
0.071702 0.104341 0.022110
0.130205 0.071748 0.015793
0.161669 0.050095 0.006378
0.175708 0.031540 0.004913
0.197711 0.021469 0.005783
0.219226 0.017823 0.005875
0.241566 0.016571 0.005661
0.254444 0.015274 0.005585
0.264363 0.014099 0.005554
0.281025 0.013672 0.005295
0.307958 0.013886 0.005005
0.355428 0.014420 0.004623
0.432044 0.015122 0.004242
0.526604 0.018875 0.004044
0.556970 0.018906 0.004120
0.022919 0.157351 0.011780
0.050904 0.140444 0.015564
0.055894 0.141207 0.015518
0.078462 0.135683 0.022110
0.165713 0.103655 0.023545
0.243320 0.083757 0.007691
0.287083 0.069261 0.003159
0.318074 0.057877 0.002396
0.344152 0.049226 0.002426
0.366964 0.037675 0.002792
0.353826 0.026184 0.003128
0.349447 0.018647 0.004120
0.362036 0.015686 0.004456
0.395468 0.015244 0.004318
0.459068 0.016983 0.004059
0.546242 0.021210 0.003876
0.572213 0.020249 0.004059
0.037369 0.186892 0.014847
0.050584 0.175219 0.017243
0.055543 0.179355 0.020294
0.050965 0.188037 0.022095
0.099062 0.177523 0.036744
0.225589 0.150576 0.038270
0.361181 0.125689 0.016739
0.441779 0.109255 0.004959
0.469474 0.097185 0.002731
0.475517 0.083803 0.002090
0.483223 0.064561 0.002335
0.472190 0.045975 0.002747
0.466606 0.031830 0.003098
0.477028 0.026093 0.003235
0.563455 0.032898 0.003342
0.670634 0.050050 0.003357
0.684230 0.041489 0.003632
0.063157 0.230228 0.026200
0.065019 0.218189 0.027359
0.078325 0.224079 0.030411
0.076280 0.238285 0.031281
0.074052 0.247013 0.032746
0.160739 0.234928 0.047379
0.331136 0.210468 0.049348
0.518791 0.172168 0.022934
0.603311 0.146426 0.008698
0.632502 0.127047 0.004166
0.638331 0.106966 0.002487
0.630701 0.087373 0.002335
0.612451 0.069123 0.002625
0.597986 0.057176 0.002899
0.662760 0.060594 0.003006
0.816266 0.084001 0.003082
0.837232 0.081437 0.003326
0.123980 0.285924 0.040436
0.114946 0.269368 0.040345
0.128191 0.273732 0.040635
0.126711 0.286748 0.040284
0.114046 0.299260 0.040314
0.132219 0.305196 0.045182
0.249104 0.306828 0.056016
0.457557 0.276844 0.059617
0.655207 0.224247 0.032471
0.757733 0.187335 0.014359
0.800153 0.158709 0.006363
0.805432 0.133944 0.003754
0.791272 0.110491 0.002930
0.757580 0.092210 0.002823
0.763256 0.083833 0.002884
0.879835 0.098985 0.003098
0.918929 0.114015 0.003342
0.215091 0.357580 0.053117
0.201450 0.343832 0.052796
0.205676 0.343236 0.051392
0.199176 0.350072 0.050004
0.172900 0.355947 0.051041
0.165499 0.365072 0.052628
0.214313 0.374166 0.058732
0.373495 0.389517 0.066056
0.591699 0.342504 0.070008
0.781277 0.285222 0.046937
0.894789 0.238575 0.023011
0.930907 0.200031 0.012360
0.927123 0.164797 0.006683
0.902739 0.133181 0.004089
0.874983 0.109331 0.003281
0.908995 0.117540 0.003525
0.961151 0.150530 0.005692
0.332265 0.444495 0.061357
0.322026 0.436759 0.060578
0.317357 0.432883 0.060700
0.301259 0.435676 0.060807
0.264820 0.435340 0.062806
0.225193 0.433478 0.063218
0.243977 0.441688 0.064866
0.340352 0.458412 0.068025
0.540993 0.469001 0.080766
0.743542 0.408057 0.084291
0.893660 0.349157 0.067002
0.959335 0.291920 0.039963
0.976898 0.240116 0.021149
0.973953 0.191577 0.010742
0.946670 0.151827 0.006332
0.961913 0.155276 0.006989
0.988891 0.206348 0.016098
0.469001 0.536645 0.068162
0.459327 0.533349 0.063462
0.454887 0.530816 0.064271
0.440269 0.530724 0.066606
0.401572 0.529107 0.070069
0.340459 0.519921 0.072251
0.314870 0.514717 0.072984
0.378470 0.526543 0.074556
0.509621 0.545769 0.080766
0.714366 0.522911 0.101137
0.874998 0.469551 0.106523
0.947997 0.409705 0.091661
0.980560 0.340871 0.061479
0.989899 0.277455 0.034257
0.985473 0.229633 0.020981
0.988693 0.230503 0.022202
0.995804 0.289006 0.043519
0.617319 0.635004 0.081300
0.602518 0.632197 0.068177
0.596551 0.634409 0.065843
0.590646 0.633158 0.067430
0.562020 0.625528 0.071443
0.496437 0.611887 0.076356
0.432700 0.595468 0.079347
0.442100 0.591043 0.081666
0.528298 0.601038 0.086244
0.668742 0.614496 0.100816
0.857145 0.568490 0.127031
0.942061 0.524788 0.137469
0.972763 0.465873 0.121691
0.986435 0.399817 0.092317
0.992309 0.349874 0.069123
0.993927 0.347768 0.070298
0.995422 0.388525 0.094057
0.752026 0.725414 0.100160
0.738018 0.721904 0.085557
0.728374 0.728496 0.077073
0.722759 0.732082 0.074403
0.711086 0.720409 0.074403
0.649714 0.700298 0.081025
0.569284 0.674189 0.086351
0.524346 0.652918 0.089113
0.554894 0.645823 0.092882
0.644450 0.656443 0.102220
0.784588 0.659953 0.122438
0.921569 0.616999 0.157107
0.970611 0.575525 0.169162
0.985245 0.522164 0.153048
0.989593 0.489372 0.139162
0.993240 0.477470 0.136233
0.995239 0.486259 0.144991
0.848905 0.790951 0.118868
0.840223 0.786221 0.112139
0.833036 0.788556 0.100526
0.824659 0.792615 0.093095
0.809506 0.779644 0.092317
0.761242 0.763210 0.096590
0.689006 0.740963 0.100572
0.622415 0.718227 0.101335
0.604028 0.703151 0.102525
0.646464 0.701900 0.107942
0.735943 0.714534 0.120104
0.856336 0.708232 0.143786
0.943679 0.672908 0.181079
0.978012 0.623301 0.192584
0.987579 0.593576 0.188739
0.991135 0.578485 0.187610
0.993957 0.566629 0.188708
0.897856 0.837293 0.137438
0.895140 0.835050 0.136202
0.892424 0.833722 0.130388
0.888136 0.832685 0.122896
0.873854 0.823514 0.122927
0.841382 0.810697 0.125078
0.788190 0.795193 0.124620
0.726314 0.776608 0.120378
0.680797 0.760540 0.116533
0.686137 0.755016 0.119051
0.740063 0.761028 0.129320
0.818738 0.767514 0.144152
0.892531 0.745052 0.164965
0.950820 0.709972 0.198154
0.982834 0.676387 0.214771
0.991150 0.656519 0.219272
0.994186 0.637476 0.220417
0.928664 0.861051 0.154711
0.927916 0.860700 0.154635
0.926818 0.860136 0.153689
0.924498 0.859220 0.151583
0.916747 0.858137 0.150668
0.899229 0.856886 0.150011
0.870665 0.849515 0.148425
0.822675 0.835126 0.143908
0.768978 0.818341 0.137331
0.748547 0.808087 0.136202
0.776928 0.808774 0.144060
0.835294 0.814771 0.156695
0.890135 0.804822 0.176211
0.938918 0.774273 0.198093
0.974166 0.737118 0.225681
0.990112 0.716625 0.237858
0.994293 0.699214 0.243091
0.951019 0.877760 0.174197
0.950561 0.877150 0.173678
0.950103 0.876921 0.173342
0.949737 0.876554 0.173144
0.947860 0.876020 0.172961
0.940963 0.876249 0.172778
0.922866 0.877211 0.170459
0.891768 0.872557 0.165118
0.852567 0.862242 0.157534
0.812100 0.854063 0.153994
0.821866 0.852064 0.160418
0.864118 0.856092 0.177005
0.904189 0.851514 0.196292
0.945724 0.826871 0.214511
0.976455 0.797879 0.234607
0.989639 0.773724 0.254047
0.993133 0.759167 0.268421
0.968460 0.893385 0.194293
0.967483 0.892790 0.193637
0.966705 0.892485 0.193072
0.966461 0.892409 0.192905
0.966552 0.892638 0.193149
0.964584 0.893462 0.193408
0.955901 0.895491 0.193545
0.937835 0.897826 0.191470
0.904204 0.892409 0.183886
0.874067 0.882841 0.176425
0.868879 0.878904 0.181308
0.889937 0.880766 0.196857
0.925032 0.876753 0.215366
0.957443 0.860990 0.233524
0.984298 0.838560 0.252323
0.990219 0.817166 0.271336
0.992691 0.802945 0.286839
0.008392 0.014313 0.046555
0.039292 0.014862 0.102358
0.096193 0.014450 0.116976
0.135531 0.014115 0.109010
0.148989 0.013108 0.093172
0.153765 0.011948 0.075532
0.148989 0.010773 0.051255
0.136660 0.011093 0.028122
0.141604 0.011841 0.014466
0.148226 0.013336 0.009903
0.157137 0.014069 0.008713
0.178363 0.013870 0.007843
0.210483 0.013733 0.006836
0.271656 0.013672 0.005524
0.365148 0.014466 0.004547
0.434058 0.014954 0.004227
0.477363 0.015244 0.004273
0.005341 0.037919 0.083558
0.036057 0.022614 0.103105
0.120394 0.017838 0.120394
0.170184 0.014603 0.107134
0.192767 0.012345 0.087175
0.195087 0.010407 0.064271
0.173526 0.010178 0.036194
0.154192 0.011170 0.016693
0.151492 0.013031 0.010086
0.159960 0.013947 0.008713
0.181765 0.013886 0.007736
0.209110 0.013764 0.006882
0.238941 0.013687 0.006134
0.289387 0.013611 0.005203
0.361501 0.014450 0.004578
0.432593 0.014954 0.004227
0.487694 0.015290 0.004318
0.001495 0.134600 0.119875
0.024979 0.111864 0.113115
0.071595 0.083101 0.104341
0.147005 0.060151 0.080369
0.199359 0.039414 0.057923
0.221393 0.023209 0.033768
0.216648 0.017578 0.013947
0.218631 0.016434 0.007507
0.229267 0.015457 0.006271
0.247608 0.014389 0.005875
0.255390 0.013840 0.005768
0.265080 0.013626 0.005585
0.285222 0.013565 0.005249
0.316564 0.014008 0.004913
0.373663 0.014618 0.004501
0.467140 0.015381 0.004242
0.546746 0.016541 0.004379
0.005997 0.184344 0.082765
0.021027 0.164569 0.066270
0.060151 0.136034 0.061799
0.105608 0.137819 0.051209
0.195453 0.107790 0.042878
0.281376 0.089418 0.023682
0.343481 0.072923 0.007965
0.357229 0.060258 0.003601
0.369024 0.051148 0.002640
0.393545 0.042863 0.002686
0.401816 0.033326 0.002930
0.382818 0.024186 0.003235
0.375280 0.017578 0.004166
0.385336 0.015137 0.004379
0.427924 0.015351 0.004227
0.588952 0.031647 0.003494
0.739269 0.063081 0.003296
0.014343 0.223346 0.045609
0.030884 0.208408 0.038636
0.072313 0.180850 0.042420
0.093309 0.187366 0.038422
0.141939 0.186389 0.041398
0.266148 0.153170 0.039872
0.399008 0.127184 0.020020
0.474571 0.108339 0.006302
0.499641 0.094957 0.003235
0.516396 0.084031 0.002243
0.541619 0.072038 0.002335
0.535256 0.058213 0.002625
0.516396 0.040009 0.003006
0.482979 0.026017 0.003204
0.491508 0.020645 0.003738
0.593759 0.031174 0.003571
0.728588 0.060334 0.003326
0.047654 0.260105 0.030915
0.057847 0.252613 0.030350
0.094072 0.230243 0.039017
0.118715 0.235111 0.039689
0.122621 0.245029 0.038346
0.195819 0.247150 0.044755
0.366033 0.210620 0.046204
0.548348 0.171939 0.021866
0.634516 0.143236 0.008469
0.659724 0.120668 0.003754
0.670817 0.104082 0.002411
0.687907 0.092348 0.002457
0.675624 0.080079 0.002579
0.635370 0.061601 0.002914
0.610025 0.048081 0.003174
0.669383 0.054948 0.003204
0.819883 0.081209 0.003174
0.110948 0.303365 0.037629
0.111482 0.298878 0.037476
0.134844 0.283650 0.043870
0.164767 0.289296 0.045182
0.167987 0.302113 0.042939
0.179446 0.310567 0.044572
0.296300 0.321248 0.053605
0.509163 0.277058 0.053147
0.711055 0.222599 0.025513
0.790082 0.176181 0.010986
0.801602 0.144335 0.004761
0.815915 0.128145 0.003189
0.833585 0.117723 0.003113
0.810819 0.102480 0.002976
0.773968 0.086870 0.002899
0.807370 0.086412 0.003021
0.906081 0.107149 0.003189
0.203464 0.374151 0.047242
0.195468 0.365377 0.046326
0.204196 0.354452 0.050355
0.236576 0.360082 0.052811
0.244419 0.374166 0.048737
0.237446 0.380209 0.048295
0.279164 0.387655 0.053971
0.438529 0.403113 0.066270
0.657954 0.347372 0.064897
0.834943 0.279530 0.037858
0.911101 0.221103 0.017273
0.933135 0.187243 0.009186
0.939452 0.171633 0.007431
0.933959 0.152972 0.005798
0.918914 0.131151 0.004318
0.919203 0.123720 0.003784
0.951598 0.139788 0.004211
0.326863 0.464820 0.051804
0.316991 0.456168 0.051255
0.312886 0.446052 0.053101
0.335073 0.446662 0.056672
0.345449 0.460090 0.055756
0.323033 0.463752 0.053483
0.324086 0.462409 0.057679
0.393332 0.469154 0.065126
0.587823 0.476722 0.082506
0.774960 0.418112 0.083116
0.910857 0.350973 0.062928
0.962798 0.292439 0.038422
0.982254 0.256413 0.025071
0.979492 0.225391 0.018036
0.979278 0.191043 0.011307
0.975937 0.172488 0.008453
0.986374 0.182116 0.009979
0.460060 0.551476 0.055665
0.456062 0.550698 0.055634
0.450614 0.542382 0.055207
0.455482 0.537453 0.057939
0.452811 0.542809 0.059754
0.422004 0.543801 0.059495
0.390478 0.537163 0.063066
0.428351 0.538720 0.070649
0.529778 0.550805 0.082033
0.725093 0.535561 0.103563
0.870329 0.484993 0.107897
0.939925 0.429679 0.096468
0.976440 0.372290 0.075502
0.987381 0.321065 0.052583
0.992386 0.270191 0.032364
0.990280 0.237888 0.022873
0.993469 0.241093 0.024308
0.599374 0.641947 0.063355
0.583322 0.647547 0.067964
0.594064 0.641443 0.059815
0.591211 0.633921 0.060746
0.578653 0.628443 0.062425
0.536080 0.621118 0.064408
0.487877 0.611154 0.068330
0.497581 0.609339 0.077516
0.579080 0.620584 0.090135
0.693095 0.627207 0.107118
0.849393 0.589410 0.129442
0.927459 0.545342 0.138231
0.964248 0.495598 0.130831
0.982727 0.437507 0.109865
0.992035 0.375586 0.082490
0.994553 0.327153 0.059205
0.995941 0.319844 0.057435
0.744945 0.734356 0.077226
0.687892 0.739162 0.093111
0.727092 0.734234 0.069429
0.722713 0.729610 0.067796
0.710765 0.719982 0.066896
0.670542 0.706538 0.067796
0.608484 0.687999 0.072938
0.584680 0.676265 0.083375
0.636011 0.680934 0.098390
0.726879 0.691997 0.115694
0.833768 0.679835 0.137240
0.923720 0.643519 0.163317
0.963226 0.601175 0.173678
0.981109 0.548119 0.161990
0.990204 0.498100 0.143999
0.993545 0.448173 0.121981
0.994919 0.426917 0.112398
0.857420 0.802258 0.094621
0.808789 0.810132 0.109102
0.835431 0.797833 0.087190
0.827878 0.797589 0.082017
0.811994 0.789441 0.077668
0.780819 0.773831 0.075395
0.717586 0.755154 0.080018
0.667826 0.736660 0.089357
0.679225 0.730251 0.103944
0.742885 0.736522 0.120439
0.831693 0.740612 0.141680
0.907515 0.723583 0.170443
0.961654 0.698085 0.203800
0.985122 0.652735 0.206867
0.988739 0.603479 0.194034
0.992096 0.560433 0.179355
0.993988 0.537636 0.172076
0.906462 0.847105 0.114885
0.898421 0.850278 0.116289
0.897658 0.842283 0.112322
0.891127 0.840955 0.103838
0.875792 0.833417 0.095338
0.851545 0.817319 0.093812
0.800610 0.801602 0.097200
0.742382 0.783581 0.102739
0.715343 0.770764 0.110689
0.742199 0.770779 0.123186
0.810162 0.781888 0.141726
0.882368 0.782589 0.165942
0.938201 0.765682 0.195590
0.972946 0.733608 0.223682
0.986160 0.691234 0.223056
0.991150 0.654063 0.217853
0.994049 0.626169 0.215000
0.935409 0.864713 0.138308
0.934279 0.864363 0.139788
0.931792 0.862898 0.141161
0.928130 0.862119 0.136492
0.916701 0.859983 0.126864
0.898131 0.855909 0.126070
0.870909 0.847288 0.128344
0.825254 0.833661 0.129076
0.775448 0.818128 0.128038
0.760082 0.809812 0.131960
0.793149 0.813840 0.143923
0.855421 0.823636 0.160678
0.903365 0.817884 0.185519
0.944244 0.792798 0.206088
0.972610 0.751888 0.226688
0.988251 0.720409 0.234974
0.993667 0.699413 0.240345
0.952544 0.879210 0.161044
0.951782 0.878523 0.162692
0.951156 0.877974 0.164752
0.950378 0.877302 0.165713
0.946822 0.876173 0.163790
0.939803 0.875578 0.163073
0.922850 0.875807 0.162066
0.893431 0.871290 0.159304
0.855497 0.861479 0.154177
0.810651 0.852064 0.150408
0.811368 0.848417 0.154894
0.853086 0.853208 0.169314
0.890639 0.853925 0.188678
0.933867 0.833722 0.207660
0.963806 0.805600 0.224689
0.986587 0.775051 0.245640
0.992447 0.760723 0.259251
0.967147 0.893156 0.188556
0.966415 0.892714 0.188876
0.966232 0.892409 0.189548
0.966415 0.892485 0.190295
0.966415 0.892790 0.191226
0.964446 0.893080 0.191592
0.956222 0.894209 0.191730
0.938933 0.896010 0.189624
0.906783 0.890898 0.182086
0.872908 0.880140 0.172717
0.858198 0.873579 0.172656
0.873228 0.874159 0.185885
0.901839 0.874769 0.202518
0.939681 0.862730 0.220783
0.969268 0.840879 0.238514
0.986954 0.815854 0.257481
0.992203 0.802289 0.274525
0.007263 0.014710 0.058488
0.025757 0.015015 0.108293
0.068147 0.015061 0.130648
0.105165 0.015183 0.135164
0.138308 0.015686 0.134676
0.161105 0.015045 0.126726
0.180362 0.014054 0.112047
0.195392 0.012345 0.090715
0.205066 0.010376 0.067048
0.200168 0.009873 0.040543
0.182559 0.010697 0.019715
0.176028 0.012543 0.009751
0.190417 0.013626 0.007660
