tools/luts_backup/Kodak Vision3 50D 5203 (NEG)_FC.cube
# (C) 2014 VisionColor & Patchflyer [www.vision-color.com]
# Generator: VC Patchmatch v.2.1.1 [64/53]
# All work and no play makes Jack a dull boy.
# LUT generated from: BMD Film to Kodak Vision3 50D 5203 (NEG)_Cineon
LUT_3D_SIZE 5
0.020325 0.020325 0.020325
0.191959 0.022721 0.023896
0.486519 0.028412 0.028275
0.780468 0.040375 0.033433
0.943999 0.043290 0.043366
0.026123 0.189242 0.034684
0.160037 0.194018 0.017807
0.419043 0.198260 0.019654
0.733043 0.240879 0.034394
0.926467 0.358999 0.062730
0.020752 0.502586 0.038590
0.105348 0.505577 0.029129
0.363256 0.497078 0.028748
0.708324 0.517617 0.048615
0.917464 0.586587 0.083223
0.027314 0.794537 0.073182
0.074723 0.788693 0.081910
0.281254 0.768994 0.082780
0.624140 0.749218 0.076860
0.913069 0.761685 0.105257
0.043809 0.942428 0.125490
0.180804 0.917769 0.168246
0.573877 0.918013 0.214817
0.813962 0.919203 0.235981
0.927001 0.915969 0.211521
0.025620 0.015259 0.169894
0.147112 0.016297 0.131716
0.433494 0.024155 0.125948
0.751019 0.032227 0.109148
0.938827 0.041871 0.104448
0.016999 0.137041 0.180560
0.160555 0.153948 0.167727
0.554574 0.077668 0.059953
0.810956 0.084016 0.068009
0.936614 0.085527 0.076204
0.017838 0.499825 0.177310
0.100420 0.578866 0.104631
0.477729 0.586618 0.114885
0.802792 0.531685 0.107118
0.912734 0.389212 0.094835
0.044541 0.813352 0.204501
0.118837 0.791852 0.214405
0.469535 0.795789 0.208225
0.833951 0.822126 0.276448
0.909468 0.714199 0.152377
0.113878 0.921645 0.338933
0.163806 0.908293 0.316304
0.548943 0.905028 0.379797
0.824643 0.922744 0.420142
0.936996 0.926986 0.428763
0.022858 0.020722 0.573831
0.147295 0.017121 0.446571
0.444266 0.022156 0.348180
0.748852 0.031479 0.299443
0.930022 0.039811 0.233509
0.013733 0.091463 0.566522
0.047562 0.046296 0.702358
0.581704 0.056733 0.433127
0.799512 0.062882 0.224216
0.931319 0.076234 0.190921
0.008789 0.392676 0.463844
0.083742 0.528313 0.547738
0.495171 0.494759 0.499062
0.798077 0.198016 0.160861
0.920607 0.358221 0.258854
0.085817 0.806363 0.529671
0.208545 0.801434 0.514626
0.588647 0.823896 0.576608
0.854261 0.837461 0.552224
0.928420 0.771084 0.427176
0.260761 0.914748 0.640864
0.325567 0.903136 0.617868
0.573541 0.907530 0.641443
0.847272 0.931151 0.671992
0.941619 0.934844 0.674708
0.021790 0.024002 0.964996
0.137758 0.020401 0.883452
0.504982 0.026963 0.706737
0.767605 0.036088 0.596338
0.924773 0.045640 0.539773
0.017578 0.064210 0.938109
0.042908 0.045823 0.952453
0.427482 0.050782 0.808865
0.808484 0.080537 0.698985
0.916228 0.089418 0.504677
0.011597 0.270344 0.810147
0.037812 0.157931 0.904036
0.116686 0.091691 0.887404
0.779934 0.264424 0.721508
0.903044 0.372869 0.668376
0.042466 0.709529 0.749447
0.177432 0.772824 0.793652
0.415625 0.781537 0.790249
0.796445 0.797101 0.790280
0.939071 0.776379 0.776440
0.172717 0.911864 0.784527
0.408423 0.909911 0.808713
0.635294 0.919814 0.811978
0.847761 0.933745 0.819989
0.943725 0.939895 0.825147
0.020630 0.023758 0.989181
0.096452 0.021424 0.984833
0.418921 0.028809 0.944106
0.772061 0.043656 0.884657
0.927718 0.056214 0.852964
0.017029 0.061494 0.988098
0.052033 0.053574 0.987564
0.324804 0.056199 0.954452
0.753552 0.089158 0.886641
0.901961 0.147799 0.857160
0.014954 0.173159 0.976898
0.047898 0.109377 0.985031
0.263355 0.105577 0.936843
0.737087 0.320470 0.877562
0.896895 0.492012 0.879438
0.024002 0.574655 0.931792
0.080217 0.458518 0.936446
0.391989 0.568475 0.895155
0.772427 0.702068 0.906767
0.930282 0.795972 0.918257
0.117906 0.894728 0.900786
0.254948 0.892012 0.893111
0.568902 0.913176 0.912383
0.828534 0.936095 0.929076
0.947982 0.944915 0.938170
