tools/luts_backup/Kodak Vision3 500T 5219 (C41)_FPE.cube
# (C) 2014 VisionColor & Patchflyer [www.vision-color.com]
# Generator: VC Patchmatch v.2.1.1 [64/53]
# All work and no play makes Jack a dull boy.
# LUT generated from: Kodak Vision3 500T 5219 (C41)_FPE
LUT_3D_SIZE 9
0.037507 0.041794 0.042802
0.076616 0.044648 0.040055
0.152438 0.054841 0.042069
0.247883 0.059678 0.045014
0.393500 0.060227 0.059586
0.426551 0.062623 0.098405
0.416037 0.061524 0.076570
0.409339 0.057664 0.051072
0.409339 0.057664 0.051072
0.034882 0.074434 0.047044
0.083406 0.090425 0.051637
0.185962 0.099458 0.053758
0.260243 0.079835 0.048524
0.370855 0.057374 0.050507
0.423301 0.060945 0.083436
0.421469 0.060639 0.071489
0.409339 0.057664 0.051072
0.409339 0.057664 0.051072
0.037934 0.151873 0.065644
0.069200 0.161761 0.066728
0.226429 0.215137 0.072938
0.357382 0.196811 0.067994
0.452506 0.165438 0.064408
0.487800 0.073121 0.059159
0.448051 0.062394 0.063737
0.501701 0.110567 0.062028
0.501701 0.110567 0.062028
0.043809 0.230503 0.080430
0.051820 0.230259 0.077623
0.191638 0.283589 0.087144
0.407935 0.354345 0.090394
0.525750 0.328588 0.088991
0.609873 0.292119 0.086519
0.615076 0.248447 0.082033
0.618906 0.255329 0.082033
0.612100 0.241703 0.079973
0.046311 0.316274 0.095262
0.049805 0.308186 0.093126
0.155673 0.365835 0.101915
0.381323 0.415305 0.107530
0.561822 0.460487 0.125032
0.636881 0.438346 0.125811
0.709758 0.414191 0.136904
0.703120 0.390402 0.121172
0.696498 0.368277 0.112871
0.058808 0.405402 0.127138
0.057237 0.398566 0.123598
0.134081 0.436118 0.123278
0.377157 0.497536 0.140368
0.551186 0.537484 0.165469
0.665797 0.560784 0.194034
0.739391 0.540688 0.194995
0.782147 0.530816 0.203250
0.747799 0.478248 0.167163
0.102113 0.495232 0.188525
0.086976 0.475792 0.171160
0.152438 0.507927 0.178790
0.363760 0.554421 0.192508
0.558633 0.602533 0.220600
0.674693 0.623697 0.255680
0.760159 0.649760 0.300786
0.816632 0.631983 0.313130
0.821775 0.612726 0.285023
0.089357 0.488197 0.194888
0.089357 0.488197 0.194888
0.102113 0.495232 0.188525
0.356420 0.597070 0.233753
0.578149 0.659953 0.298085
0.670314 0.680217 0.336110
0.766293 0.709941 0.395056
0.822751 0.725902 0.444984
0.862348 0.715908 0.443809
0.094759 0.493935 0.207080
0.094759 0.493935 0.207080
0.089387 0.489219 0.201099
0.268910 0.569711 0.212497
0.531502 0.647028 0.280812
0.647425 0.673945 0.326207
0.724681 0.698970 0.364736
0.806897 0.727993 0.434836
0.860624 0.761379 0.521447
0.034211 0.042237 0.078920
0.074403 0.048219 0.081117
0.147646 0.056901 0.080842
0.256916 0.063447 0.088579
0.402304 0.063584 0.107027
0.429587 0.062470 0.126314
0.420157 0.061616 0.105211
0.409689 0.057832 0.051804
0.417121 0.058793 0.051926
0.029465 0.066438 0.077089
0.078447 0.083024 0.085374
0.243732 0.081971 0.066117
0.309743 0.068696 0.070710
0.395438 0.064149 0.097841
0.430030 0.064164 0.118776
0.428122 0.064271 0.101884
0.409339 0.057664 0.051072
0.409339 0.057664 0.051072
0.034394 0.148531 0.070008
0.049699 0.150698 0.065461
0.228687 0.207477 0.070314
0.343450 0.178424 0.065965
0.455726 0.146822 0.064698
0.486793 0.070649 0.094972
0.444633 0.063676 0.082567
0.503685 0.114778 0.063554
0.501701 0.110567 0.062028
0.044663 0.227329 0.077852
0.046418 0.229603 0.077592
0.186114 0.276936 0.081834
0.406790 0.348577 0.094438
0.516396 0.321874 0.086458
0.609873 0.292119 0.086519
0.615915 0.248569 0.079988
0.615076 0.248432 0.082033
0.605753 0.242420 0.080003
0.046311 0.316274 0.095262
0.047898 0.305135 0.093477
0.146548 0.363333 0.102373
0.379171 0.420996 0.111376
0.570474 0.463004 0.133532
0.636881 0.438346 0.125811
0.723278 0.429877 0.142947
0.711406 0.398108 0.130709
0.686091 0.361303 0.112428
0.057145 0.401999 0.123003
0.057237 0.398566 0.123598
0.132876 0.440040 0.122728
0.367468 0.494392 0.134783
0.550744 0.531411 0.165774
0.678004 0.563043 0.194720
0.749905 0.549432 0.201968
0.782147 0.530816 0.203250
0.744915 0.469612 0.161288
0.089357 0.488197 0.194888
0.079744 0.475273 0.176852
0.142580 0.503395 0.178470
0.374105 0.562951 0.199069
0.569528 0.605768 0.227741
0.675181 0.629618 0.255512
0.760159 0.649760 0.300786
0.831174 0.641611 0.330297
0.820035 0.613245 0.292805
0.094759 0.493935 0.207080
0.089387 0.489219 0.201099
0.101579 0.497993 0.188067
0.370092 0.600366 0.233539
0.590433 0.662684 0.298390
0.692760 0.691432 0.345922
0.776974 0.719097 0.405005
0.829526 0.735576 0.463722
0.860441 0.716487 0.452476
0.094759 0.493935 0.207080
0.094759 0.493935 0.207080
0.084001 0.483543 0.188754
0.279896 0.574304 0.219257
0.531502 0.647028 0.280812
0.659525 0.676600 0.326970
0.733318 0.708598 0.383047
0.815152 0.736843 0.444694
0.876310 0.773175 0.541665
0.037186 0.040909 0.133303
0.052399 0.045289 0.129717
0.144717 0.055741 0.135653
0.260471 0.065675 0.151690
0.409216 0.064271 0.168673
0.435630 0.065461 0.167330
0.434089 0.065614 0.150347
0.426963 0.062638 0.101625
0.424979 0.060975 0.094926
0.036103 0.062760 0.154726
0.062501 0.071839 0.196460
0.172107 0.066911 0.158709
0.273320 0.068666 0.151919
0.402594 0.064866 0.160769
0.441276 0.064927 0.162539
0.440482 0.064958 0.154025
0.423713 0.060945 0.085908
0.424445 0.062577 0.083711
0.037339 0.143786 0.173999
0.038972 0.149523 0.181659
0.216449 0.205875 0.199710
0.422278 0.176181 0.175891
0.519493 0.119371 0.172564
0.462364 0.069749 0.153841
0.452537 0.065476 0.141039
0.562539 0.100252 0.076768
0.551522 0.097490 0.071656
0.038880 0.227253 0.114260
0.039841 0.232136 0.113741
0.147250 0.271809 0.082918
0.399542 0.330098 0.089174
0.518685 0.308354 0.085420
0.647227 0.280537 0.100221
0.652735 0.218982 0.114107
0.627314 0.238560 0.085771
0.611704 0.219562 0.081392
0.047669 0.312734 0.092302
0.047868 0.308919 0.092943
0.128511 0.351202 0.096544
0.379171 0.420996 0.111376
0.551705 0.452293 0.120836
0.653941 0.446097 0.134279
0.719753 0.422065 0.142153
0.698390 0.375738 0.116777
0.686091 0.361288 0.112428
0.058625 0.408637 0.126619
0.058488 0.395209 0.119860
0.116854 0.428473 0.123323
0.377142 0.497536 0.140368
0.551186 0.537484 0.165469
0.677516 0.556939 0.195010
0.749905 0.549432 0.201968
0.764294 0.504616 0.188144
0.747799 0.478248 0.167163
0.095354 0.493278 0.219715
0.089937 0.487541 0.207538
0.105745 0.484489 0.160784
0.348043 0.560708 0.192508
0.558633 0.602533 0.220600
0.674693 0.623697 0.255680
0.768231 0.659098 0.317998
0.831174 0.641611 0.330297
0.818433 0.613855 0.300862
0.109087 0.526360 0.342733
0.109621 0.525536 0.335882
0.101015 0.518608 0.293919
0.229587 0.574914 0.228443
0.539971 0.666362 0.296803
0.680858 0.689052 0.345129
0.776974 0.719097 0.405005
0.838651 0.737392 0.464652
0.859159 0.717388 0.461311
0.109621 0.525536 0.335882
0.105043 0.520104 0.322286
0.106676 0.520134 0.301198
0.147845 0.542260 0.224659
0.486686 0.657969 0.296498
0.647135 0.684108 0.325887
0.755734 0.720043 0.394095
0.815152 0.736843 0.444694
0.881910 0.774304 0.549615
0.043885 0.043229 0.197971
0.043000 0.042237 0.190478
0.104479 0.051865 0.196017
0.257557 0.063035 0.216968
0.415564 0.063691 0.233005
0.440742 0.064027 0.226841
0.445884 0.063859 0.216571
0.436347 0.065293 0.175769
0.436347 0.065293 0.175769
0.041550 0.044419 0.210483
0.046601 0.046677 0.210605
0.100755 0.051804 0.192218
0.257435 0.063233 0.212680
0.415564 0.063691 0.233005
0.440253 0.064134 0.221790
0.445136 0.064240 0.207324
0.447745 0.064256 0.166247
0.447349 0.064271 0.161975
0.039246 0.099107 0.245808
0.039872 0.114443 0.254292
0.172534 0.151141 0.339178
0.330983 0.093294 0.278309
0.432807 0.070893 0.244556
0.440253 0.064134 0.221790
0.438376 0.065049 0.198505
0.570184 0.111940 0.199313
0.561578 0.107973 0.183871
0.042664 0.248447 0.302190
0.042130 0.237995 0.290028
0.050034 0.273960 0.309590
0.392065 0.364309 0.352148
0.576761 0.345846 0.324331
0.675914 0.269596 0.281559
0.656504 0.209308 0.247044
0.680461 0.230488 0.174350
0.667689 0.217594 0.168856
0.048188 0.333776 0.218357
0.047318 0.331792 0.218402
0.048386 0.339055 0.174868
0.289281 0.401541 0.117403
0.558892 0.455055 0.133455
0.675776 0.430381 0.145632
0.756542 0.415778 0.193149
0.742458 0.383154 0.184161
0.740246 0.374456 0.171527
0.054353 0.403449 0.132296
0.054536 0.400214 0.132815
0.063554 0.395315 0.115846
0.379065 0.497047 0.134524
0.539162 0.529366 0.165576
0.675822 0.563470 0.201297
0.748196 0.549722 0.208377
0.805844 0.523919 0.239582
0.779675 0.489326 0.214618
0.103914 0.511498 0.287678
0.099107 0.506950 0.280751
0.079515 0.485115 0.219944
0.291203 0.564935 0.194049
0.571450 0.610605 0.220859
0.674693 0.623697 0.255680
0.769741 0.652216 0.309773
0.847669 0.652537 0.371237
0.833280 0.616815 0.340383
0.129992 0.562081 0.446326
0.129992 0.562081 0.446326
0.124575 0.558633 0.426032
0.222950 0.615869 0.399084
0.487205 0.689860 0.421439
0.665278 0.725124 0.439399
0.771542 0.728618 0.440269
0.852598 0.758587 0.511650
0.871977 0.738354 0.507576
0.130770 0.561242 0.439796
0.123857 0.557031 0.438987
0.125261 0.557702 0.419257
0.178912 0.597787 0.395834
0.413764 0.669917 0.414878
0.607813 0.725444 0.459052
0.726589 0.733394 0.444297
0.835355 0.767239 0.510124
0.891890 0.786084 0.583963
0.045762 0.042939 0.246921
0.046952 0.042969 0.251118
0.049378 0.043214 0.256214
0.197314 0.053986 0.283650
0.420432 0.066285 0.311925
0.455375 0.067506 0.314076
0.447349 0.066255 0.288685
0.444739 0.064698 0.262211
0.444739 0.064698 0.262211
0.045716 0.042741 0.250172
0.048188 0.043183 0.252049
0.049439 0.043397 0.252995
0.185763 0.053574 0.286168
0.411536 0.062486 0.304952
0.447303 0.065278 0.307805
0.447349 0.066255 0.288685
0.465736 0.068605 0.262730
0.466957 0.071244 0.263523
0.044205 0.044800 0.267353
0.044938 0.047486 0.287541
0.059113 0.048386 0.284428
0.185031 0.053285 0.290074
0.419135 0.063691 0.310704
0.447227 0.065492 0.302892
0.447349 0.066255 0.288685
0.581643 0.132708 0.319142
0.581643 0.132708 0.319127
0.044144 0.160281 0.357855
0.044099 0.165866 0.344182
0.045289 0.192065 0.364279
0.329274 0.300755 0.467933
0.523186 0.171771 0.406424
0.557824 0.121462 0.365103
0.560739 0.121447 0.329870
0.685420 0.271244 0.354421
0.688228 0.278813 0.362509
0.050919 0.335317 0.403265
0.052537 0.353323 0.414206
0.051011 0.346212 0.407385
0.154528 0.428779 0.441077
0.544625 0.504219 0.483543
0.691279 0.476967 0.453422
0.755337 0.432425 0.402670
0.749920 0.415366 0.360006
0.754955 0.405798 0.350607
0.070787 0.459678 0.398810
0.072496 0.467536 0.411810
0.070787 0.459678 0.398810
0.123247 0.495171 0.357549
0.479026 0.574853 0.364263
0.681682 0.588708 0.353491
0.788312 0.557671 0.330617
0.812329 0.551598 0.378241
0.807004 0.533822 0.366659
0.129992 0.562081 0.446326
0.129015 0.563058 0.453056
0.116884 0.552789 0.438178
0.169726 0.562905 0.345464
0.469917 0.637049 0.335897
0.669245 0.637736 0.278843
0.785458 0.664805 0.345052
0.849500 0.669642 0.463874
0.834607 0.633097 0.430732
0.150088 0.586618 0.517296
0.150942 0.586175 0.510826
0.149996 0.589410 0.504463
0.286427 0.659571 0.527108
0.520394 0.727535 0.562081
0.679759 0.766659 0.601007
0.775845 0.764492 0.561746
0.859129 0.776715 0.588647
0.877394 0.762768 0.584237
0.150942 0.586175 0.510826
0.150942 0.586175 0.510826
0.143099 0.585214 0.503471
0.235386 0.640238 0.515068
0.475898 0.720119 0.563561
0.650736 0.765652 0.604334
0.766262 0.788083 0.617273
0.830045 0.778454 0.593790
0.899718 0.808789 0.652827
0.048188 0.043183 0.252049
0.049439 0.043397 0.252995
0.049439 0.043397 0.252995
0.070192 0.046250 0.268864
0.366522 0.061494 0.342306
0.450767 0.069139 0.364111
0.450767 0.069139 0.364111
0.450355 0.069230 0.353994
0.448783 0.066850 0.347692
0.049378 0.043214 0.256214
0.049439 0.043397 0.252995
0.049378 0.043214 0.256214
0.063569 0.046021 0.263294
0.359640 0.062913 0.346777
0.450767 0.069139 0.364111
0.450767 0.069139 0.364111
0.476097 0.078721 0.359503
0.482887 0.078553 0.359747
0.048829 0.043946 0.259892
0.048829 0.043946 0.259892
0.048127 0.043000 0.255268
0.059693 0.044511 0.261097
0.358724 0.061326 0.345922
0.450767 0.069139 0.364111
0.450767 0.069139 0.364111
0.588647 0.164950 0.426093
0.590249 0.170962 0.422232
0.046571 0.049897 0.301198
0.045304 0.056840 0.326497
0.044938 0.076844 0.344549
0.141726 0.087480 0.389410
0.332067 0.062348 0.339651
0.450782 0.069139 0.364111
0.524681 0.109926 0.414832
0.681132 0.328771 0.483680
0.677424 0.312764 0.467079
0.049973 0.271519 0.459846
0.050248 0.276570 0.466575
0.052094 0.295949 0.474327
0.062776 0.349889 0.506752
0.501854 0.480049 0.575250
0.671214 0.415808 0.552941
0.715511 0.419104 0.539437
0.749264 0.471870 0.520531
0.745541 0.455161 0.510002
0.084504 0.476204 0.533593
0.084443 0.470726 0.531395
0.080995 0.467948 0.526055
0.077943 0.465354 0.520729
0.413138 0.584924 0.562127
0.658656 0.627771 0.601358
0.781491 0.612207 0.576501
0.792447 0.591653 0.554406
0.786267 0.562173 0.523171
0.180758 0.607675 0.568231
0.180758 0.607675 0.568231
0.183505 0.603235 0.561563
0.172854 0.602167 0.553674
0.468605 0.679774 0.577920
0.683925 0.722454 0.621027
0.795178 0.718578 0.572351
0.840787 0.686732 0.558740
0.827985 0.658686 0.534447
0.189578 0.612314 0.575982
0.180758 0.607675 0.568231
0.198611 0.619776 0.570794
0.322057 0.680842 0.597742
0.552438 0.746334 0.648020
0.713069 0.785580 0.685954
0.791791 0.800610 0.687388
0.872572 0.802152 0.673289
0.882887 0.786542 0.666896
0.180758 0.607675 0.568231
0.181582 0.607111 0.561654
0.180774 0.610147 0.555016
0.297887 0.669795 0.595331
0.524910 0.739544 0.636957
0.688334 0.788006 0.691051
0.784497 0.814664 0.721920
0.844831 0.804120 0.683482
0.894041 0.821469 0.709682
0.052918 0.046693 0.280491
0.051209 0.043488 0.257282
0.065232 0.045884 0.267262
0.096086 0.049638 0.280674
0.310475 0.061250 0.337148
0.450767 0.069139 0.364111
0.450767 0.069139 0.364111
0.452125 0.071550 0.365423
0.450767 0.069139 0.364111
0.050202 0.054734 0.317159
0.061463 0.053544 0.314351
0.065675 0.049195 0.287694
0.097566 0.052049 0.301442
0.269551 0.058549 0.327153
0.450767 0.069139 0.364111
0.450767 0.069139 0.364111
0.477089 0.078248 0.385031
0.480018 0.084565 0.387854
0.046098 0.088685 0.361318
0.048676 0.089448 0.371450
0.060548 0.079866 0.372595
0.101213 0.058671 0.333028
0.266804 0.062058 0.345449
0.450767 0.069139 0.364111
0.450767 0.069139 0.364111
0.596429 0.203113 0.485542
0.613108 0.241764 0.502297
0.045121 0.152758 0.393164
0.046540 0.175586 0.412726
0.048325 0.190433 0.431632
0.101457 0.188525 0.470756
0.311604 0.120577 0.431128
0.514229 0.099351 0.415396
0.547265 0.131685 0.443107
0.689174 0.397940 0.577966
0.690776 0.406195 0.580484
0.049989 0.271000 0.464118
0.051835 0.290379 0.471870
0.054643 0.309422 0.488396
0.062440 0.337026 0.519142
0.439170 0.450202 0.603143
0.604074 0.295827 0.537102
0.670039 0.374502 0.565377
0.742657 0.522606 0.620905
0.733898 0.514275 0.612009
0.072358 0.432624 0.548791
0.070893 0.424765 0.541665
0.072679 0.432929 0.543938
0.083879 0.453941 0.559518
0.371313 0.587579 0.657267
0.662242 0.642878 0.681315
0.768322 0.625269 0.672343
0.787106 0.631891 0.662058
0.786328 0.621912 0.645914
0.248508 0.634577 0.652964
0.238041 0.631647 0.646738
0.238025 0.631647 0.646738
0.238041 0.631647 0.646738
0.438895 0.683345 0.674083
0.659129 0.727275 0.703120
0.798321 0.759960 0.739574
0.836194 0.734035 0.712367
0.828550 0.724575 0.696376
0.260456 0.646342 0.636820
0.247288 0.642725 0.635431
0.257923 0.650721 0.637064
0.398108 0.709834 0.676097
0.583261 0.760296 0.712154
0.717174 0.792782 0.740108
0.815396 0.824872 0.772274
0.883497 0.822583 0.753399
0.880796 0.805325 0.739590
0.247288 0.642725 0.635431
0.247288 0.642725 0.635431
0.247974 0.641993 0.628779
0.374380 0.695872 0.652399
0.559518 0.747631 0.693507
0.706874 0.790112 0.731975
0.805844 0.823194 0.770809
0.855695 0.825391 0.761730
0.892088 0.831510 0.763638
0.052354 0.106752 0.392752
0.071351 0.056641 0.326802
0.127871 0.055955 0.321599
0.222904 0.058183 0.325780
0.366751 0.062837 0.347448
0.452125 0.071550 0.365423
0.450767 0.069139 0.364111
0.450767 0.069139 0.364111
0.450767 0.069139 0.364111
0.047669 0.181125 0.419303
0.085618 0.213306 0.477485
0.151598 0.118212 0.423239
0.289464 0.112184 0.420935
0.411383 0.101579 0.410269
0.507866 0.100465 0.410636
0.488518 0.087556 0.394614
0.486946 0.083803 0.393057
0.488518 0.087556 0.394614
0.048035 0.247486 0.445686
0.062806 0.280598 0.501381
0.213367 0.341085 0.552728
0.306355 0.251133 0.520378
0.453819 0.235355 0.514778
0.615351 0.255299 0.511223
0.609812 0.228580 0.498436
0.609812 0.228580 0.498436
0.609812 0.228580 0.498436
0.054978 0.320668 0.493202
0.062516 0.348501 0.523995
0.160693 0.435233 0.583947
0.389670 0.469047 0.613794
0.477241 0.398703 0.587488
0.637827 0.416983 0.593774
0.694118 0.423163 0.591821
0.694118 0.423163 0.591821
0.694118 0.423163 0.591821
0.064256 0.386694 0.525505
0.067170 0.402380 0.539773
0.141192 0.490166 0.598077
0.373602 0.573526 0.652766
0.569024 0.589563 0.661341
0.630243 0.549722 0.649302
0.741100 0.558495 0.650828
0.741100 0.558495 0.650828
0.741100 0.558495 0.650828
0.093156 0.485023 0.574426
0.093156 0.485023 0.574426
0.152834 0.534508 0.607996
0.366430 0.621942 0.667933
0.565255 0.668345 0.697200
0.694987 0.687404 0.717494
0.770550 0.674846 0.717327
0.798901 0.679042 0.722545
0.798901 0.679042 0.722545
0.248508 0.634577 0.652964
0.223117 0.615457 0.646052
0.259434 0.631266 0.657191
0.428931 0.689250 0.697932
0.577478 0.722225 0.728969
0.714443 0.759899 0.764874
0.812940 0.784756 0.783291
0.836194 0.764706 0.773297
0.836194 0.764706 0.773297
0.284291 0.656504 0.666072
0.284291 0.656504 0.666072
0.320867 0.671595 0.676661
0.483284 0.726970 0.719234
0.641093 0.776944 0.765087
0.743206 0.810239 0.799344
0.829694 0.839536 0.823377
0.898024 0.864424 0.850309
0.897383 0.850675 0.834226
0.271229 0.652888 0.664683
0.284291 0.656504 0.666072
0.297597 0.659693 0.667247
0.454551 0.721828 0.715831
0.628153 0.774670 0.763180
0.722835 0.798459 0.780957
0.811063 0.828855 0.811872
0.890684 0.863157 0.849226
0.892821 0.841337 0.807950
0.050492 0.135454 0.411139
0.075380 0.063584 0.346731
0.131029 0.059419 0.336172
0.220401 0.060151 0.339117
0.345800 0.061814 0.340658
0.450767 0.069139 0.364111
0.450767 0.069139 0.364111
0.452125 0.071550 0.365423
0.450767 0.069139 0.364111
0.047959 0.209171 0.434165
0.090547 0.243946 0.496620
0.167147 0.145754 0.448981
0.283803 0.128832 0.434745
0.404730 0.116091 0.427237
0.537209 0.123110 0.434836
0.514229 0.099351 0.415396
0.488518 0.087556 0.394614
0.488518 0.087556 0.394614
0.051560 0.284840 0.469413
0.070726 0.321675 0.523812
0.236667 0.372686 0.566323
0.314000 0.269383 0.527611
0.456474 0.261570 0.527687
0.619318 0.289006 0.536446
0.614862 0.248829 0.504479
0.613108 0.241764 0.502297
0.609812 0.228580 0.498436
0.059083 0.350118 0.508034
0.070985 0.393866 0.544747
0.192126 0.471366 0.596796
0.413520 0.505837 0.628443
0.464805 0.410727 0.589548
0.632883 0.440955 0.600198
0.698970 0.448356 0.599237
0.695735 0.431479 0.594369
0.692515 0.414908 0.589288
0.072358 0.432639 0.548791
0.083879 0.453941 0.559518
0.188754 0.539895 0.620264
0.424414 0.611139 0.667048
0.581231 0.623270 0.679988
0.642267 0.567666 0.655985
0.752911 0.592187 0.673121
0.742626 0.567056 0.653422
0.741100 0.558511 0.650828
0.122011 0.531777 0.598962
0.117327 0.523156 0.591165
0.222568 0.596216 0.644602
0.444129 0.664118 0.690272
0.614511 0.705928 0.719890
0.740047 0.726085 0.742245
0.763775 0.698116 0.729503
0.800351 0.687449 0.725521
0.798901 0.679042 0.722545
0.248127 0.640406 0.654978
0.248524 0.634577 0.652964
0.321401 0.665492 0.674678
0.509316 0.724636 0.725200
0.652033 0.764355 0.761318
0.768170 0.799435 0.796811
0.841688 0.812253 0.808209
0.848295 0.790280 0.789502
0.844984 0.773861 0.783123
0.284291 0.656504 0.666072
0.271229 0.652888 0.664683
0.334874 0.674937 0.678325
0.510246 0.738918 0.730404
0.653788 0.779202 0.767025
0.752850 0.811933 0.800855
0.837568 0.841703 0.831281
0.909880 0.873198 0.864378
0.903471 0.865995 0.856352
0.284291 0.656504 0.666072
0.284291 0.656504 0.666072
0.307576 0.668421 0.675486
0.454566 0.721828 0.715831
0.628153 0.774670 0.763180
0.722103 0.799130 0.787549
0.810590 0.836988 0.827085
0.890272 0.863737 0.854459
0.909880 0.873198 0.864378
