tools/luts_backup/Kodak Vision3 250D 5207 (NEG)_CIN.cube
# (C) 2014 VisionColor & Patchflyer [www.vision-color.com]
# Generator: VC Patchmatch v.2.1.1 [64/53]
# All work and no play makes Jack a dull boy.
# LUT generated from: Kodak Vision3 250D 5207 (NEG)_Cineon
LUT_3D_SIZE 5
0.085847 0.090944 0.086824
0.294682 0.096651 0.080964
0.343481 0.082582 0.076997
0.403845 0.074769 0.069215
0.528954 0.056733 0.051392
0.190066 0.311681 0.134249
0.322179 0.320226 0.153719
0.458961 0.265232 0.073457
0.490974 0.097810 0.056641
0.541833 0.057099 0.049989
0.437903 0.472114 0.217716
0.418891 0.476875 0.225834
0.502708 0.478035 0.221683
0.621637 0.370413 0.054612
0.666896 0.382483 0.054582
0.613581 0.611322 0.248112
0.592737 0.600732 0.242466
0.526940 0.579644 0.245090
0.629236 0.573999 0.268528
0.701961 0.561761 0.294865
0.679774 0.660517 0.292790
0.677485 0.659083 0.290074
0.643427 0.653712 0.294987
0.668635 0.648981 0.338659
0.709072 0.643946 0.374884
0.076692 0.082277 0.258915
0.267918 0.077760 0.305913
0.334203 0.072267 0.301579
0.365972 0.075227 0.137346
0.505425 0.058961 0.053620
0.097749 0.324681 0.332677
0.322454 0.302953 0.310399
0.492988 0.268254 0.221134
0.503655 0.159213 0.065217
0.512749 0.058289 0.052949
0.393072 0.508507 0.275700
0.425452 0.498268 0.279484
0.533135 0.498604 0.213291
0.644465 0.418357 0.084092
0.654475 0.352178 0.038972
0.584100 0.629450 0.268559
0.580468 0.617548 0.221744
0.578912 0.610559 0.164920
0.667109 0.605646 0.264134
0.700282 0.545617 0.267094
0.679988 0.671351 0.237522
0.680659 0.669551 0.237095
0.650935 0.659083 0.235264
0.657099 0.651484 0.291142
0.696162 0.637385 0.354894
0.068269 0.073610 0.344335
0.133547 0.070008 0.356085
0.263951 0.068116 0.366125
0.360418 0.067536 0.358129
0.554162 0.048096 0.234272
0.065827 0.302861 0.465705
0.204959 0.234623 0.443671
0.419867 0.143679 0.427344
0.446876 0.057557 0.360693
0.503899 0.057588 0.114458
0.246616 0.550591 0.546563
0.347692 0.524163 0.530571
0.492500 0.490791 0.496406
0.613672 0.421897 0.422690
0.644007 0.326345 0.211963
0.467964 0.620508 0.464469
0.473793 0.619837 0.456977
0.536522 0.614038 0.426520
0.651240 0.621363 0.405234
0.703120 0.563561 0.336172
0.618433 0.670985 0.446754
0.628382 0.670130 0.410346
0.628229 0.667323 0.380743
0.661189 0.667933 0.319997
0.715724 0.656825 0.280034
0.054658 0.059876 0.456641
0.057160 0.062348 0.430732
0.123873 0.060395 0.445960
0.307256 0.052613 0.497688
0.605371 0.041352 0.535210
0.048127 0.179583 0.514458
0.052827 0.098039 0.481300
0.314580 0.057130 0.539117
0.336614 0.051759 0.496620
0.549584 0.046693 0.460609
0.108446 0.532341 0.642969
0.209277 0.503044 0.628168
0.376272 0.469337 0.611841
0.502220 0.407248 0.586053
0.646174 0.289845 0.490425
0.384100 0.643610 0.637446
0.408331 0.633692 0.635004
0.468849 0.623652 0.622675
0.608209 0.612268 0.612085
0.669062 0.586877 0.579431
0.543816 0.666865 0.601373
0.522759 0.656275 0.572412
0.539239 0.658045 0.562036
0.591730 0.660853 0.528801
0.682887 0.665156 0.539391
0.051728 0.056977 0.487190
0.051820 0.057008 0.486488
0.095216 0.053895 0.510338
0.235019 0.048005 0.542351
0.484474 0.041596 0.602625
0.039338 0.227268 0.588312
0.051453 0.064881 0.489723
0.205692 0.054841 0.581903
0.313298 0.044251 0.587518
0.542382 0.040375 0.617884
0.031067 0.540948 0.684901
0.089464 0.489082 0.662470
0.261769 0.448096 0.646235
0.450446 0.437522 0.635248
0.548089 0.382162 0.631098
0.329595 0.642908 0.682826
0.450111 0.631373 0.667506
0.502800 0.618647 0.660029
0.587884 0.611231 0.651789
0.619471 0.604913 0.640772
0.480323 0.671534 0.671412
0.511070 0.670192 0.666072
0.528008 0.662745 0.661677
0.575311 0.656977 0.655940
0.660517 0.659907 0.657740
