tools/luts_backup/Kodak Vision3 500T 5219 (C41)_CIN.cube
# (C) 2014 VisionColor & Patchflyer [www.vision-color.com]
# Generator: VC Patchmatch v.2.1.1 [64/53]
# All work and no play makes Jack a dull boy.
# LUT generated from: BMD Film to Kodak Vision3 500T 5219 (C41)_Cineon
LUT_3D_SIZE 9
0.125490 0.113725 0.117647
0.219608 0.113725 0.121569
0.309804 0.129412 0.129412
0.388235 0.145098 0.145098
0.482353 0.172549 0.203922
0.498039 0.180392 0.270588
0.494118 0.176471 0.239216
0.494118 0.172549 0.172549
0.494118 0.172549 0.172549
0.141176 0.231373 0.133333
0.219608 0.231373 0.145098
0.321569 0.227451 0.160784
0.384314 0.192157 0.156863
0.470588 0.164706 0.172549
0.498039 0.176471 0.250980
0.498039 0.176471 0.231373
0.494118 0.172549 0.172549
0.494118 0.172549 0.172549
0.184314 0.341176 0.172549
0.227451 0.333333 0.176471
0.333333 0.349020 0.200000
0.411765 0.325490 0.203922
0.474510 0.301961 0.207843
0.533333 0.215702 0.203922
0.513726 0.188235 0.215686
0.521569 0.262745 0.207843
0.521569 0.262745 0.207843
0.215686 0.419608 0.207843
0.227451 0.411765 0.203922
0.325490 0.411765 0.223529
0.419608 0.431373 0.239216
0.478431 0.411765 0.247059
0.529412 0.392157 0.254902
0.545098 0.368627 0.250980
0.545098 0.372549 0.250980
0.545098 0.364706 0.247059
0.243137 0.490196 0.239216
0.247059 0.478431 0.235294
0.325490 0.478431 0.250980
0.411765 0.474510 0.262745
0.478431 0.482353 0.278431
0.517647 0.470588 0.286275
0.560784 0.458824 0.301961
0.560784 0.447059 0.290196
0.560784 0.435294 0.282353
0.286275 0.549020 0.282353
0.282353 0.545098 0.278431
0.333333 0.533333 0.278431
0.419608 0.529412 0.298039
0.478431 0.529412 0.313726
0.517647 0.529412 0.329412
0.552941 0.517647 0.333333
0.576471 0.513726 0.341176
0.568627 0.490196 0.321569
0.337255 0.596078 0.333333
0.325490 0.588235 0.321569
0.356863 0.584314 0.325490
0.423529 0.568627 0.333333
0.486275 0.568627 0.349020
0.525490 0.564706 0.364706
0.556863 0.568627 0.384314
0.584314 0.556863 0.392157
0.588235 0.549020 0.380392
0.329412 0.596078 0.337255
0.329412 0.596078 0.337255
0.337255 0.596078 0.333333
0.427451 0.600000 0.356863
0.498039 0.600000 0.388235
0.529412 0.596078 0.403922
0.564706 0.600000 0.427451
0.588235 0.600000 0.447059
0.607843 0.592157 0.447059
0.333333 0.596078 0.345098
0.333333 0.596078 0.345098
0.329412 0.596078 0.341176
0.400000 0.600000 0.345098
0.482353 0.600000 0.380392
0.521569 0.596078 0.400000
0.549020 0.600000 0.415686
0.580392 0.603922 0.443137
0.607843 0.611765 0.478431
0.133333 0.121569 0.231373
0.215686 0.121569 0.223529
0.301961 0.133333 0.223529
0.388235 0.149020 0.239216
0.482353 0.176471 0.278431
0.498039 0.180392 0.301961
0.494118 0.176471 0.278431
0.494118 0.172549 0.176471
0.498039 0.176471 0.176471
0.129412 0.203922 0.203922
0.223529 0.211765 0.215686
0.376471 0.196078 0.200000
0.423529 0.172549 0.215686
0.478431 0.176471 0.266667
0.498039 0.184314 0.294118
0.498039 0.184314 0.274510
0.494118 0.172549 0.172549
0.494118 0.172549 0.172549
0.172549 0.341176 0.180392
0.203922 0.329412 0.172549
0.333333 0.341176 0.196078
0.407843 0.309804 0.200000
0.482353 0.286275 0.207843
0.533349 0.207858 0.270588
0.509804 0.188235 0.250980
0.521569 0.266667 0.211765
0.521569 0.262745 0.207843
0.215686 0.415686 0.203922
0.219608 0.415686 0.203922
0.321569 0.407843 0.215686
0.419608 0.427451 0.243137
0.474510 0.407843 0.243137
0.529412 0.392157 0.254902
0.545098 0.368627 0.247059
0.545098 0.368627 0.250980
0.541176 0.364706 0.247059
0.243137 0.490196 0.239216
0.243137 0.478431 0.235294
0.321569 0.478431 0.250980
0.411765 0.478431 0.266667
0.482353 0.482353 0.286275
0.517647 0.470588 0.286275
0.564706 0.466667 0.305882
0.564706 0.450980 0.298039
0.556863 0.431373 0.282353
0.282353 0.549020 0.278431
0.282353 0.545098 0.278431
0.333333 0.537255 0.278431
0.415686 0.529412 0.294118
0.478431 0.525490 0.313726
0.521569 0.529412 0.329412
0.556863 0.521569 0.337255
0.576471 0.513726 0.341176
0.568627 0.486275 0.317647
0.329412 0.596078 0.337255
0.321569 0.592157 0.325490
0.352941 0.584314 0.325490
0.427451 0.572549 0.337255
0.490196 0.568627 0.352941
0.525490 0.568627 0.364706
0.556863 0.568627 0.384314
0.592157 0.560784 0.400000
0.588235 0.549020 0.384314
0.333333 0.596078 0.345098
0.329412 0.596078 0.341176
0.337255 0.600000 0.333333
0.431373 0.600000 0.356863
0.501961 0.600000 0.388235
0.537255 0.600000 0.407843
0.568627 0.603922 0.431373
0.592157 0.603922 0.454902
0.607843 0.592157 0.450980
0.333333 0.596078 0.345098
0.333333 0.596078 0.345098
0.325490 0.596078 0.333333
0.403922 0.600000 0.349020
0.482353 0.600000 0.380392
0.525490 0.596078 0.400000
0.552941 0.603922 0.423529
0.584314 0.607843 0.447059
0.615686 0.615686 0.486275
0.149020 0.121569 0.317647
0.188235 0.125490 0.305882
0.298039 0.133333 0.298039
0.388235 0.156863 0.317647
0.482353 0.180392 0.341176
0.498039 0.188235 0.341176
0.498039 0.188235 0.325490
0.498039 0.180392 0.274510
0.498039 0.176471 0.266667
0.149020 0.192157 0.329412
0.223529 0.200000 0.376471
0.321569 0.160784 0.321569
0.396078 0.164706 0.317647
0.478431 0.180392 0.333333
0.501961 0.188235 0.337255
0.501961 0.188235 0.329412
0.498039 0.176471 0.254902
0.498039 0.180392 0.250980
0.176471 0.313726 0.313726
0.188235 0.317647 0.321569
0.345098 0.333333 0.333333
0.466667 0.305882 0.329412
0.533333 0.266667 0.341176
0.513741 0.200015 0.329412
0.509804 0.192157 0.317647
0.572549 0.262745 0.250980
0.564706 0.258824 0.239216
0.203922 0.415686 0.247059
0.207843 0.419608 0.247059
0.301961 0.411765 0.215686
0.415686 0.415686 0.235294
0.478431 0.400000 0.243137
0.556863 0.388235 0.274510
0.584314 0.356863 0.294118
0.556863 0.364706 0.258824
0.552941 0.352941 0.250980
0.243137 0.486275 0.235294
0.243137 0.482353 0.235294
0.309804 0.474510 0.243137
0.411765 0.478431 0.266667
0.474510 0.478431 0.274510
0.525490 0.474510 0.294118
0.564706 0.462745 0.305882
0.560784 0.439216 0.286275
0.556863 0.431373 0.282353
0.286275 0.552941 0.282353
0.282353 0.541176 0.274510
0.325490 0.533333 0.278431
0.419608 0.529412 0.298039
0.478431 0.529412 0.313726
0.521569 0.525490 0.329412
0.556863 0.521569 0.337255
0.572549 0.501961 0.333333
0.568627 0.490196 0.321569
0.333333 0.592157 0.352941
0.329412 0.592157 0.345098
0.333333 0.588235 0.313726
0.419608 0.576471 0.333333
0.486275 0.568627 0.349020
0.525490 0.564706 0.364706
0.560784 0.572549 0.392157
0.592157 0.560784 0.400000
0.588235 0.549020 0.388235
0.349020 0.592157 0.423529
0.349020 0.592157 0.419608
0.341176 0.600000 0.396078
0.392157 0.615686 0.356863
0.486275 0.611765 0.388235
0.533333 0.600000 0.407843
0.568627 0.603922 0.431373
0.596078 0.603922 0.454902
0.607843 0.592157 0.454902
0.349020 0.592157 0.419608
0.345098 0.592157 0.411765
0.345098 0.596078 0.400000
0.364706 0.615686 0.356863
0.470588 0.615686 0.388235
0.521569 0.603922 0.400000
0.560784 0.607843 0.427451
0.584314 0.607843 0.447059
0.619608 0.615686 0.490196
0.172549 0.137255 0.396078
0.168627 0.133333 0.388235
0.266667 0.141176 0.376471
0.384314 0.156863 0.380392
0.482353 0.184314 0.396078
0.498039 0.188235 0.392157
0.501961 0.188235 0.384314
0.498039 0.188235 0.349020
0.498039 0.188235 0.349020
0.168627 0.145098 0.411765
0.184314 0.149020 0.407843
0.262745 0.141176 0.372549
0.384314 0.156863 0.376471
0.482353 0.184314 0.396078
0.498039 0.188235 0.388235
0.501961 0.188235 0.376471
0.505882 0.188235 0.341176
0.505882 0.188235 0.337255
0.176471 0.258824 0.411765
0.180392 0.278431 0.411765
0.337255 0.290196 0.478431
0.423529 0.211765 0.423529
0.490196 0.200000 0.403922
0.498039 0.188235 0.388235
0.498039 0.188235 0.368627
0.568627 0.266667 0.368627
0.564706 0.262745 0.356863
0.219608 0.403922 0.407843
0.215686 0.396078 0.400000
0.254902 0.415686 0.411765
0.435294 0.427451 0.431373
0.525490 0.415686 0.423529
0.592157 0.380392 0.411765
0.596078 0.345113 0.396078
0.603922 0.364706 0.345098
0.600000 0.356863 0.341176
0.250980 0.482353 0.341176
0.247059 0.482353 0.341176
0.254902 0.494118 0.309804
0.380392 0.478431 0.270588
0.478431 0.478431 0.286275
0.541176 0.466667 0.305882
0.592157 0.458824 0.345098
0.592157 0.443137 0.341176
0.592157 0.439216 0.333333
0.278431 0.552941 0.286275
0.278431 0.549020 0.286275
0.286275 0.537255 0.270588
0.419608 0.529412 0.294118
0.474510 0.525490 0.313726
0.521569 0.529412 0.333333
0.556863 0.521569 0.341176
0.596078 0.509804 0.364706
0.588235 0.494118 0.352941
0.341176 0.592157 0.392157
0.337255 0.592157 0.388235
0.321569 0.596078 0.352941
0.403922 0.592157 0.333333
0.490196 0.572549 0.349020
0.525490 0.564706 0.364706
0.560784 0.568627 0.388235
0.603922 0.564706 0.419608
0.600000 0.549020 0.407843
0.368627 0.596078 0.482353
0.368627 0.596078 0.482353
0.364706 0.600000 0.470588
0.407843 0.623529 0.450980
0.482353 0.627451 0.450980
0.533333 0.619608 0.450980
0.568627 0.607843 0.447059
0.603922 0.611765 0.474510
0.615686 0.600000 0.474510
0.368627 0.596078 0.478431
0.364706 0.596078 0.478431
0.364706 0.600000 0.466667
0.392157 0.619608 0.450980
0.462745 0.627451 0.450980
0.517647 0.627451 0.462745
0.552941 0.615686 0.450980
0.596078 0.619608 0.474510
0.627451 0.619608 0.505882
0.180392 0.141176 0.454902
0.184314 0.141176 0.458824
0.192157 0.141176 0.462745
0.352941 0.160784 0.454902
0.482353 0.196078 0.458824
0.501961 0.200000 0.458824
0.498039 0.196078 0.439216
0.498039 0.192157 0.419608
0.498039 0.192157 0.419608
0.180392 0.141176 0.458824
0.188235 0.141176 0.458824
0.192157 0.141176 0.458824
0.345098 0.160784 0.458824
0.478431 0.188235 0.454902
0.498039 0.196078 0.454902
0.498039 0.196078 0.439216
0.509804 0.200000 0.419608
0.509804 0.203922 0.419608
0.180392 0.152941 0.478431
0.188235 0.164706 0.498039
0.215686 0.160784 0.486275
0.345098 0.160784 0.462745
0.482353 0.192157 0.458824
0.498039 0.196078 0.450980
0.498039 0.196078 0.439216
0.564706 0.282353 0.450980
0.564706 0.282353 0.450980
0.207843 0.333333 0.490196
0.207843 0.337255 0.474510
0.219608 0.360784 0.482353
0.427451 0.396078 0.537255
0.517647 0.301961 0.501961
0.549020 0.270588 0.482353
0.552941 0.270588 0.458824
0.596078 0.376471 0.454902
0.596078 0.380392 0.458824
0.258824 0.462745 0.470588
0.262745 0.474510 0.474510
0.258824 0.470588 0.470588
0.360784 0.486275 0.486275
0.501961 0.494118 0.498039
0.572549 0.482353 0.490196
0.611765 0.466667 0.470588
0.607843 0.458824 0.447059
0.611765 0.454902 0.443137
0.309804 0.545098 0.458824
0.313726 0.549020 0.466667
0.309804 0.545098 0.458839
0.352941 0.552941 0.431388
0.470588 0.549020 0.423545
0.537255 0.537255 0.411780
0.588235 0.521569 0.407858
0.607843 0.517647 0.435294
0.607843 0.509804 0.431373
0.368627 0.596078 0.482353
0.368627 0.596078 0.486275
0.360784 0.596078 0.478431
0.380392 0.600000 0.423529
0.466667 0.596078 0.407843
0.525490 0.572549 0.376471
0.568627 0.572549 0.403922
0.611765 0.568627 0.462745
0.607843 0.552941 0.450980
0.384314 0.596078 0.521569
0.384314 0.596078 0.517647
0.384314 0.600000 0.513726
0.435294 0.619608 0.517647
0.501961 0.631373 0.521569
0.549020 0.631373 0.529412
0.576471 0.619608 0.501961
0.611765 0.615686 0.509804
0.623529 0.607843 0.509804
0.384314 0.596078 0.517647
0.384314 0.596078 0.517647
0.380392 0.600000 0.513726
0.419608 0.615686 0.513726
0.490196 0.631373 0.525490
0.541176 0.635294 0.533333
0.576471 0.631373 0.529412
0.600000 0.619608 0.513726
0.635294 0.627451 0.537255
0.188235 0.141176 0.458824
0.192157 0.141176 0.458824
0.192157 0.141176 0.458824
0.231388 0.145098 0.466667
0.454917 0.188235 0.490196
0.498039 0.203922 0.498039
0.498039 0.203922 0.498039
0.498039 0.203922 0.490196
0.498039 0.200000 0.486275
0.192157 0.141176 0.462745
0.192157 0.141176 0.458824
0.192157 0.141176 0.462745
0.219623 0.145098 0.462745
0.450996 0.192157 0.494118
0.498039 0.203922 0.498039
0.498039 0.203922 0.498039
0.509804 0.219608 0.490196
0.513726 0.219608 0.490196
0.192157 0.145098 0.466667
0.192157 0.145098 0.466667
0.188235 0.141176 0.462745
0.211780 0.141176 0.462745
0.450996 0.188235 0.494118
0.498039 0.203922 0.498039
0.498039 0.203922 0.498039
0.556863 0.305882 0.517647
0.556863 0.309804 0.513726
0.196078 0.172564 0.509819
0.200000 0.196094 0.533333
0.200000 0.239231 0.529412
0.321584 0.235309 0.552956
0.435309 0.188235 0.490196
0.498039 0.203922 0.498039
0.529412 0.258824 0.521569
0.584314 0.403922 0.529412
0.584314 0.396078 0.521569
0.250980 0.423545 0.537255
0.250980 0.427466 0.541176
0.258824 0.439231 0.541176
0.294118 0.466667 0.552941
0.498039 0.486275 0.572549
0.568627 0.443153 0.556863
0.592157 0.447074 0.549020
0.603922 0.474510 0.529412
0.603922 0.466667 0.525490
0.329412 0.537255 0.541176
0.329412 0.533333 0.541176
0.325490 0.533333 0.537255
0.321569 0.533333 0.533333
0.462760 0.545098 0.541176
0.549020 0.549020 0.549020
0.603922 0.541176 0.537255
0.611765 0.533333 0.529412
0.611765 0.521569 0.517647
0.400000 0.596078 0.549020
0.400000 0.596078 0.549020
0.400000 0.592157 0.545098
0.396078 0.596078 0.541176
0.486275 0.600000 0.537255
0.552941 0.600000 0.545098
0.588235 0.588235 0.509804
0.615686 0.572549 0.509804
0.611765 0.560784 0.501961
0.403922 0.596078 0.552941
0.400000 0.596078 0.549020
0.407843 0.600000 0.549020
0.450980 0.619608 0.556863
0.513726 0.627451 0.564706
0.564706 0.631373 0.572549
0.592157 0.631373 0.564706
0.623529 0.623529 0.549020
0.631373 0.615686 0.549020
0.400000 0.596078 0.549020
0.400000 0.596078 0.545098
0.400000 0.600000 0.541176
0.443137 0.615686 0.556863
0.505882 0.627451 0.560784
0.556863 0.635294 0.576471
0.592157 0.639216 0.584314
0.611765 0.627451 0.556863
0.635294 0.631373 0.564706
0.203922 0.156863 0.486275
0.196078 0.141176 0.462745
0.223529 0.145098 0.466667
0.266667 0.152941 0.470588
0.423545 0.184314 0.490196
0.498039 0.203922 0.498039
0.498039 0.203922 0.498039
0.498039 0.207843 0.498039
0.498039 0.203922 0.498039
0.207843 0.188235 0.521569
0.227451 0.180392 0.513726
0.227451 0.160784 0.486275
0.270588 0.164706 0.490196
0.400015 0.176471 0.486275
0.498039 0.203922 0.498039
0.498039 0.203922 0.498039
0.509804 0.219608 0.509804
0.509804 0.227451 0.509804
0.207843 0.258824 0.537255
0.219608 0.258824 0.549020
0.247059 0.235294 0.560784
0.278431 0.188235 0.517647
0.400015 0.188235 0.501961
0.498039 0.203922 0.498039
0.498039 0.203922 0.498039
0.552941 0.329412 0.552941
0.556863 0.352941 0.556863
0.211765 0.329412 0.529412
0.227451 0.349020 0.537255
0.239216 0.360784 0.549020
0.321569 0.345098 0.596078
0.423545 0.266667 0.556863
0.525490 0.247059 0.525490
0.537255 0.278431 0.537255
0.580392 0.435294 0.576471
0.580392 0.439216 0.576471
0.250980 0.423529 0.541176
0.258824 0.435294 0.541176
0.266667 0.447059 0.549020
0.294118 0.458824 0.568627
0.482353 0.478431 0.603922
0.549020 0.384329 0.572549
0.572549 0.423529 0.572549
0.596078 0.494118 0.580392
0.592157 0.490196 0.576471
0.317647 0.513726 0.564706
0.313726 0.509804 0.560784
0.317647 0.513726 0.560784
0.333333 0.521569 0.568627
0.462760 0.549020 0.607843
0.556863 0.556863 0.603922
0.600000 0.541176 0.592157
0.607843 0.545098 0.584314
0.607843 0.541176 0.576471
0.427451 0.592157 0.596078
0.423529 0.592157 0.592157
0.423529 0.592157 0.592157
0.423529 0.592157 0.592157
0.482353 0.596078 0.596078
0.549020 0.600000 0.596078
0.603922 0.603922 0.603922
0.623529 0.592157 0.592157
0.619608 0.588235 0.584314
0.431373 0.600000 0.584314
0.427451 0.600000 0.584314
0.431373 0.603922 0.584314
0.474510 0.619608 0.596078
0.525490 0.627451 0.600000
0.568627 0.631373 0.603922
0.607843 0.639216 0.611765
0.635294 0.631373 0.592157
0.635294 0.623529 0.588235
0.427451 0.600000 0.584314
0.427451 0.600000 0.584314
0.427451 0.600000 0.580392
0.466667 0.615686 0.584314
0.517647 0.623529 0.592157
0.564706 0.631373 0.600000
0.603922 0.639216 0.611765
0.623529 0.635294 0.600000
0.639216 0.635294 0.596078
0.239216 0.278431 0.560784
0.243137 0.188235 0.521569
0.301961 0.176471 0.501961
0.372549 0.176471 0.490196
0.454902 0.192157 0.494118
0.498039 0.207843 0.498039
0.498039 0.203922 0.498039
0.498039 0.203922 0.498039
0.498039 0.203922 0.498039
0.235294 0.352941 0.541176
0.313726 0.364706 0.588235
0.333333 0.270588 0.572549
0.411765 0.258824 0.552941
0.474510 0.247059 0.533333
0.521569 0.247059 0.521569
0.513726 0.231373 0.513726
0.513726 0.227451 0.513726
0.513726 0.231373 0.513726
0.239216 0.407843 0.533333
0.294118 0.419608 0.576471
0.396078 0.431373 0.600000
0.423529 0.368627 0.596078
0.486275 0.352941 0.580392
0.556863 0.360784 0.560784
0.556863 0.345098 0.556863
0.556863 0.345098 0.556863
0.556863 0.345098 0.556863
0.266667 0.454902 0.549020
0.294118 0.466667 0.568627
0.384314 0.490196 0.596078
0.466667 0.490196 0.607843
0.494118 0.447059 0.600000
0.556863 0.447059 0.588235
0.580392 0.447059 0.580392
0.580392 0.447059 0.580392
0.580392 0.447059 0.580392
0.298039 0.490196 0.556863
0.305882 0.498039 0.564706
0.380392 0.525490 0.592157
0.462745 0.541176 0.607843
0.525490 0.537255 0.607843
0.549020 0.513726 0.603922
0.592157 0.509804 0.592157
0.592157 0.509804 0.592157
0.592157 0.509804 0.592157
0.345098 0.537255 0.572549
0.345098 0.537255 0.572549
0.388235 0.549020 0.588235
0.462745 0.568627 0.607843
0.521569 0.576471 0.611765
0.568627 0.576471 0.615686
0.600000 0.564706 0.611765
0.611765 0.564706 0.611765
0.611765 0.564706 0.611765
0.427451 0.592157 0.596078
0.419608 0.584314 0.596078
0.431373 0.588235 0.600000
0.482353 0.600000 0.611765
0.525490 0.603922 0.619608
0.572549 0.611765 0.627451
0.611765 0.615686 0.627451
0.623529 0.603922 0.623529
0.623529 0.603922 0.623529
0.439216 0.600000 0.600000
0.439216 0.600000 0.600000
0.450980 0.603922 0.603922
0.498039 0.615686 0.615686
0.545098 0.627451 0.627451
0.580392 0.635294 0.635294
0.615686 0.643137 0.639216
0.647059 0.650980 0.647059
0.647059 0.643137 0.639216
0.435294 0.600000 0.600000
0.439216 0.600000 0.600000
0.443137 0.600000 0.600000
0.490196 0.615686 0.615686
0.541176 0.627451 0.627451
0.572549 0.631373 0.627451
0.607843 0.639216 0.635294
0.643137 0.650980 0.647059
0.643137 0.639216 0.623529
0.247059 0.309804 0.560784
0.254902 0.203922 0.537255
0.305882 0.188235 0.513726
0.372549 0.184314 0.501961
0.443153 0.188235 0.490196
0.498039 0.203922 0.498039
0.498039 0.203922 0.498039
0.498039 0.207843 0.498039
0.498039 0.203922 0.498039
0.239216 0.376471 0.541176
0.325490 0.384314 0.592157
0.349020 0.298039 0.584314
0.407843 0.274510 0.560784
0.470588 0.262745 0.545098
0.533333 0.270588 0.533333
0.525490 0.247059 0.525490
0.513726 0.231373 0.513726
0.513726 0.231373 0.513726
0.258824 0.431373 0.541176
0.309804 0.443137 0.580392
0.407843 0.447059 0.600000
0.427451 0.380392 0.596078
0.486275 0.368627 0.584314
0.556863 0.380392 0.572549
0.556863 0.356863 0.556863
0.556863 0.352941 0.556863
0.556863 0.345098 0.556863
0.282353 0.470588 0.552941
0.313726 0.490196 0.572549
0.400000 0.505882 0.596078
0.474510 0.505882 0.607843
0.490196 0.454902 0.600000
0.552941 0.458824 0.588235
0.580392 0.458824 0.580392
0.580392 0.450980 0.580392
0.580392 0.443137 0.580392
0.317647 0.513726 0.564706
0.333333 0.521569 0.568627
0.403922 0.545098 0.596078
0.478431 0.556863 0.607843
0.529412 0.552941 0.611765
0.552941 0.521569 0.603922
0.596078 0.525490 0.600000
0.592157 0.513726 0.592157
0.592157 0.509804 0.592157
0.368627 0.556863 0.580392
0.364706 0.552941 0.576471
0.419608 0.572549 0.600000
0.486275 0.584314 0.611765
0.537255 0.592157 0.615686
0.584314 0.592157 0.619608
0.596078 0.576471 0.615686
0.611765 0.568627 0.611765
0.611765 0.564706 0.611765
0.427451 0.596078 0.596078
0.427451 0.592157 0.596078
0.450980 0.600000 0.603922
0.505882 0.611765 0.619608
0.549020 0.619608 0.627451
0.592157 0.627451 0.635294
0.623529 0.627451 0.635294
0.627451 0.615686 0.627451
0.627451 0.607843 0.627451
0.439216 0.600000 0.600000
0.435294 0.600000 0.600000
0.454902 0.603922 0.603922
0.505882 0.619608 0.619608
0.549020 0.627451 0.627451
0.584314 0.635294 0.635294
0.619608 0.643137 0.643137
0.654902 0.654902 0.654902
0.650980 0.650980 0.650980
0.439216 0.600000 0.600000
0.439216 0.600000 0.600000
0.447059 0.603922 0.603922
0.490196 0.615686 0.615686
0.541176 0.627451 0.627451
0.572549 0.631373 0.631373
0.607843 0.643137 0.643137
0.643137 0.650980 0.650980
0.654902 0.654902 0.654902
