tools/luts_backup/Kodak Vision3 200T 5213 (NEG)_CIN.cube
# (C) 2014 VisionColor & Patchflyer [www.vision-color.com]
# Generator: VC Patchmatch v.2.1.1 [64/53]
# All work and no play makes Jack a dull boy.
# LUT generated from: Kodak Vision3 200T 5213 (NEG)_Cineon
LUT_3D_SIZE 5
0.101381 0.101381 0.101381
0.187167 0.016754 0.016846
0.290044 0.004334 0.004334
0.364202 0.000641 0.000641
0.488624 0.000183 0.000183
0.151003 0.312901 0.100832
0.261448 0.324590 0.142092
0.461006 0.233738 0.000793
0.472023 0.070527 0.000183
0.507530 0.009033 0.000153
0.403784 0.506401 0.247440
0.375097 0.513024 0.247807
0.494118 0.517784 0.270298
0.646357 0.374472 0.060182
0.690700 0.377066 0.102739
0.586480 0.630182 0.333715
0.564904 0.621820 0.321233
0.496376 0.606806 0.305882
0.616053 0.596735 0.355383
0.696834 0.565393 0.371344
0.655940 0.672328 0.396002
0.652399 0.670802 0.393866
0.611109 0.665461 0.384588
0.643122 0.660609 0.418280
0.695186 0.642512 0.442054
0.006744 0.006348 0.165927
0.214786 0.001770 0.264256
0.284306 0.000977 0.255192
0.321813 0.001282 0.068864
0.465187 0.000244 0.000244
0.084321 0.373449 0.365911
0.309911 0.290867 0.324407
0.488258 0.196384 0.208652
0.489570 0.044892 0.000214
0.475776 0.000275 0.000183
0.344244 0.533959 0.304723
0.397040 0.515404 0.305852
0.524712 0.529320 0.272160
0.659632 0.421134 0.113725
0.678767 0.346456 0.030167
0.560693 0.641199 0.338415
0.555657 0.633509 0.305791
0.552117 0.629389 0.275547
0.650996 0.620905 0.357824
0.697353 0.550958 0.343450
0.655573 0.682582 0.354070
0.655482 0.680720 0.356268
0.622095 0.671412 0.345312
0.629389 0.663264 0.383795
0.687282 0.642481 0.424933
0.001404 0.001404 0.276432
0.120699 0.000427 0.327184
0.223514 0.000214 0.324498
0.321843 0.000183 0.325017
0.510399 0.000031 0.243183
0.000092 0.270054 0.460548
0.162783 0.163333 0.478584
0.411078 0.020600 0.453956
0.424628 0.000000 0.349081
0.469978 0.000122 0.090990
0.243870 0.584100 0.576928
0.344854 0.547326 0.551598
0.499458 0.494972 0.503563
0.612879 0.396201 0.418814
0.661768 0.271443 0.179980
0.453742 0.628656 0.489784
0.459297 0.625513 0.478767
0.524010 0.617151 0.454231
0.641810 0.621790 0.439368
0.699580 0.555352 0.364660
0.600092 0.674342 0.480201
0.609308 0.674708 0.453773
0.607965 0.672724 0.432746
0.640467 0.675776 0.392462
0.701015 0.656397 0.390112
0.000092 0.000092 0.394812
0.000366 0.000122 0.376684
0.140749 0.000092 0.419074
0.295903 0.000031 0.464210
0.543725 0.000000 0.500603
0.000061 0.174975 0.479957
0.000061 0.041581 0.464302
0.321721 0.000214 0.530724
0.329900 0.000000 0.466102
0.505669 0.000000 0.437354
0.073899 0.561547 0.677668
0.196460 0.523400 0.654231
0.382803 0.471260 0.620050
0.524315 0.396262 0.594385
0.659663 0.225086 0.500938
0.387671 0.657130 0.653468
0.418616 0.643610 0.647456
0.487831 0.627100 0.627436
0.603235 0.602045 0.602625
0.658167 0.561883 0.559350
0.536645 0.669184 0.598962
0.517693 0.659754 0.573480
0.529625 0.659693 0.563684
0.575830 0.659571 0.535332
0.676905 0.658656 0.539025
0.000061 0.000061 0.432135
0.000305 0.000061 0.436530
0.132998 0.000061 0.485390
0.247959 0.000000 0.503929
0.460029 0.000000 0.549981
0.000031 0.232090 0.538537
0.000061 0.015198 0.442084
0.244480 0.000031 0.579431
0.333745 0.000000 0.553674
0.513817 0.000000 0.564782
0.000000 0.535561 0.661219
0.041581 0.506127 0.689204
0.264698 0.445686 0.668666
0.477333 0.420645 0.645441
0.567864 0.357229 0.645289
0.319036 0.653773 0.705653
0.461402 0.632624 0.681636
0.513512 0.613977 0.666682
0.585626 0.598474 0.647181
0.616999 0.591577 0.633387
0.484077 0.680568 0.685634
0.512779 0.677119 0.677821
0.531701 0.666285 0.670192
0.574243 0.655085 0.657313
0.649592 0.645441 0.646113
