tools/luts_backup/Kodak Elite Chrome 200_FC.cube
# (C) 2014 VisionColor & Patchflyer [www.vision-color.com]
# Generator: VC Patchmatch v.2.1.1 [64/53]
# All work and no play makes Jack a dull boy.
# LUT generated from: Kodak Elite Chrome 200_FC01
LUT_3D_SIZE 5
0.025147 0.025147 0.025147
0.154162 0.022324 0.028107
0.266590 0.028809 0.028824
0.444358 0.042741 0.042756
0.591379 0.046342 0.046372
0.027604 0.143008 0.016648
0.145480 0.158221 0.030381
0.340230 0.159380 0.054704
0.496498 0.154589 0.065705
0.608911 0.153857 0.065354
0.034485 0.293431 0.028275
0.105684 0.354833 0.040070
0.404059 0.436271 0.093599
0.704784 0.466804 0.145525
0.820172 0.448829 0.161639
0.056687 0.561181 0.053849
0.126558 0.586984 0.067399
0.406302 0.636286 0.118029
0.774655 0.711086 0.201999
0.917311 0.753994 0.269169
0.078126 0.752148 0.072328
0.179034 0.757259 0.092180
0.490211 0.792615 0.159655
0.840970 0.891691 0.254902
0.927947 0.908415 0.315785
0.030945 0.028000 0.181521
0.148379 0.027878 0.142306
0.287114 0.038193 0.124483
0.465095 0.050706 0.131044
0.586694 0.053269 0.130266
0.028336 0.127352 0.144930
0.171359 0.164324 0.174044
0.408331 0.061967 0.061067
0.571115 0.056367 0.055192
0.581003 0.123644 0.127825
0.041489 0.318837 0.149722
0.069032 0.501778 0.068238
0.690517 0.643534 0.192248
0.797818 0.431189 0.161395
0.748394 0.345281 0.185397
0.060029 0.569589 0.167529
0.084840 0.732799 0.078294
0.484947 0.793484 0.163897
0.914519 0.891279 0.301961
0.911284 0.732891 0.327611
0.099413 0.771771 0.201343
0.188205 0.766567 0.157717
0.521080 0.819654 0.238514
0.857801 0.908446 0.343145
0.941787 0.918105 0.402197
0.033951 0.031922 0.292958
0.132570 0.031678 0.311910
0.300267 0.045914 0.267674
0.465110 0.056184 0.243091
0.567086 0.052827 0.226780
0.042130 0.141375 0.314458
0.061418 0.070848 0.458808
0.468345 0.097414 0.419532
0.557794 0.059907 0.228595
0.578332 0.123690 0.235248
0.062821 0.285481 0.331807
0.129854 0.474388 0.526345
0.486778 0.497169 0.476158
0.599786 0.157824 0.158572
0.765194 0.311025 0.310780
0.127291 0.578576 0.445548
0.196017 0.782635 0.517342
0.206210 0.731533 0.181430
0.922652 0.880842 0.390005
0.940139 0.747372 0.489662
0.203540 0.803967 0.542489
0.211170 0.799512 0.385336
0.406119 0.835157 0.349676
0.848737 0.923049 0.465095
0.941833 0.908721 0.487739
0.038270 0.028840 0.468498
0.130968 0.040574 0.548287
0.287510 0.055344 0.518761
0.482200 0.069001 0.442954
0.556420 0.055741 0.358053
0.066239 0.200626 0.553429
0.050645 0.048814 0.657954
0.271946 0.084047 0.716854
0.577188 0.078447 0.535042
0.641032 0.166674 0.482368
0.069902 0.308186 0.516503
0.106203 0.380407 0.693446
0.202976 0.297765 0.716823
0.728130 0.278752 0.674769
0.839170 0.422538 0.632120
0.132952 0.531853 0.593317
0.300221 0.787015 0.857114
0.416480 0.780819 0.849470
0.822934 0.778241 0.797223
0.934279 0.751781 0.768963
0.306432 0.852735 0.770550
0.395483 0.860365 0.779248
0.576104 0.891875 0.785794
0.779095 0.926574 0.755856
0.947829 0.941695 0.756558
0.036179 0.025849 0.686717
0.125536 0.046113 0.720928
0.265202 0.066011 0.731685
0.470283 0.074907 0.621286
0.568612 0.063569 0.529519
0.083452 0.244190 0.727825
0.155901 0.241032 0.717037
0.340795 0.272938 0.808774
0.613062 0.252399 0.740276
0.691508 0.206439 0.635081
0.097322 0.382147 0.708080
0.207248 0.443915 0.757092
0.460121 0.524208 0.862043
0.735592 0.533715 0.867796
0.869474 0.497292 0.818219
0.152911 0.565225 0.764675
0.255634 0.600259 0.787594
0.554070 0.723980 0.884337
0.802411 0.779904 0.912245
0.942992 0.777584 0.897932
0.319387 0.806668 0.875364
0.432578 0.847196 0.889342
0.631479 0.893172 0.915404
0.836164 0.933791 0.940566
0.959945 0.959945 0.951598
