tools/luts_backup/Kodak Vision3 200T 5213 (NEG)_FPE.cube
# (C) 2014 VisionColor & Patchflyer [www.vision-color.com]
# Generator: VC Patchmatch v.2.1.1 [64/53]
# All work and no play makes Jack a dull boy.
# LUT generated from: Kodak Vision3 200T 5213 (NEG)_FPE
LUT_3D_SIZE 9
0.034607 0.038911 0.039475
0.038193 0.032425 0.032425
0.053727 0.030518 0.027512
0.078630 0.032395 0.027817
0.117540 0.036530 0.029938
0.129290 0.036881 0.031022
0.179995 0.037110 0.033234
0.283330 0.039063 0.035676
0.315709 0.040589 0.038148
0.032349 0.074388 0.036667
0.056672 0.084016 0.036698
0.128801 0.056626 0.031418
0.136568 0.040528 0.031144
0.151827 0.037888 0.033021
0.175158 0.037263 0.033371
0.210941 0.036713 0.032853
0.288930 0.039338 0.036118
0.320958 0.040848 0.038651
0.034943 0.125261 0.043366
0.042603 0.141451 0.045548
0.120104 0.168002 0.049897
0.362432 0.170230 0.043397
0.386130 0.105318 0.044175
0.348989 0.055772 0.042908
0.327489 0.043824 0.042481
0.474006 0.053513 0.049104
0.343343 0.041810 0.040391
0.120623 0.267384 0.071260
0.116350 0.270680 0.071199
0.073671 0.267124 0.066499
0.258656 0.325734 0.072679
0.593835 0.325063 0.063508
0.616800 0.194644 0.056214
0.501503 0.085542 0.049180
0.425727 0.047089 0.046418
0.532845 0.066346 0.051789
0.358160 0.453239 0.087175
0.350072 0.452522 0.088258
0.272633 0.442634 0.087037
0.221149 0.428519 0.081865
0.616251 0.523842 0.118486
0.811658 0.441245 0.101671
0.754818 0.243214 0.066789
0.544686 0.078874 0.052140
0.800549 0.236133 0.070237
0.663157 0.621927 0.139300
0.631617 0.608377 0.116014
0.610437 0.610468 0.125658
0.448005 0.564691 0.113863
0.497856 0.567575 0.117189
0.847959 0.610040 0.174182
0.919173 0.573266 0.173922
0.904860 0.472313 0.124834
0.913176 0.455283 0.124346
0.871382 0.738354 0.211948
0.856977 0.725978 0.192218
0.818479 0.712276 0.189364
0.716701 0.681880 0.176410
0.610803 0.646754 0.156329
0.737560 0.675578 0.183322
0.910750 0.704494 0.245319
0.947036 0.671778 0.267597
0.949157 0.626123 0.245914
0.928695 0.795972 0.271901
0.927153 0.793774 0.268513
0.922225 0.789197 0.264302
0.882734 0.772473 0.251652
0.799649 0.742214 0.225208
0.824720 0.747875 0.245319
0.913130 0.778393 0.314946
0.958541 0.764340 0.347829
0.962768 0.736400 0.348547
0.951156 0.836118 0.340017
0.950149 0.834073 0.336858
0.949248 0.832670 0.334813
0.941649 0.827832 0.333303
0.903716 0.806577 0.307576
0.889326 0.802762 0.320974
0.939895 0.827253 0.388769
0.965164 0.824460 0.415686
0.966430 0.805432 0.431785
0.027085 0.029694 0.042908
0.061830 0.033371 0.076356
0.093477 0.035584 0.072587
0.097017 0.036332 0.043320
0.098131 0.034623 0.029770
0.117052 0.036484 0.029892
0.152209 0.037339 0.032853
0.246967 0.037476 0.033707
0.306127 0.040116 0.037324
0.030640 0.095933 0.120684
0.062425 0.078813 0.089815
0.151308 0.053193 0.057023
0.169253 0.039567 0.034119
0.172885 0.038117 0.033753
0.182223 0.037217 0.033280
0.198917 0.036667 0.032792
0.251835 0.037690 0.033936
0.339529 0.041657 0.040131
0.031937 0.148882 0.075196
0.064012 0.150256 0.067231
0.168978 0.191226 0.059876
0.397040 0.162921 0.046143
0.453819 0.102922 0.047639
0.424231 0.068788 0.045212
0.370199 0.046525 0.044465
0.326268 0.041199 0.039322
0.479728 0.053407 0.049470
0.090181 0.280415 0.062058
0.121309 0.276616 0.065980
0.183642 0.312291 0.058350
0.363241 0.368658 0.070924
0.651240 0.323095 0.066880
0.604013 0.175677 0.055177
0.564126 0.124514 0.053239
0.520653 0.077043 0.050599
0.584375 0.099870 0.054337
0.366171 0.479118 0.075227
0.348608 0.463096 0.074418
0.385733 0.479545 0.079423
0.363592 0.477043 0.080323
0.655283 0.547311 0.127932
0.819181 0.471885 0.109346
0.826154 0.341375 0.082734
0.766369 0.228687 0.067094
0.758450 0.206577 0.065476
0.653101 0.620188 0.118257
0.647532 0.618402 0.115908
0.632151 0.611063 0.114824
0.530953 0.588632 0.109758
0.629679 0.613962 0.143603
0.870878 0.664652 0.207416
0.917693 0.592706 0.183780
0.904448 0.465553 0.122683
0.887358 0.388190 0.099245
0.881025 0.736004 0.178744
0.868238 0.727947 0.168750
0.848844 0.717922 0.159472
0.761410 0.688609 0.148562
0.722469 0.681666 0.170855
0.860975 0.725338 0.237629
0.945785 0.741848 0.311772
0.951537 0.672374 0.270817
0.947692 0.610315 0.227756
0.930846 0.791058 0.241764
0.929015 0.790356 0.245075
0.923995 0.780301 0.224170
0.887892 0.765133 0.219135
0.807736 0.739178 0.209857
0.821744 0.744839 0.235126
0.909606 0.781399 0.314107
0.952514 0.774823 0.350408
0.962264 0.739666 0.340307
0.949203 0.831693 0.326986
0.948928 0.831312 0.328420
0.949096 0.831998 0.331228
0.944305 0.827771 0.330129
0.910002 0.806226 0.305333
0.866026 0.786450 0.284489
0.905928 0.803265 0.339574
0.951003 0.820874 0.394354
0.965484 0.805829 0.404929
0.027466 0.028397 0.047822
0.040467 0.030823 0.088853
0.070222 0.033112 0.100237
0.097597 0.034043 0.108034
0.121691 0.036423 0.095537
0.142611 0.038697 0.058167
0.143679 0.036835 0.033402
0.223178 0.036851 0.033173
0.287770 0.039277 0.035996
0.030945 0.044221 0.126940
0.041611 0.033509 0.113771
0.128206 0.036500 0.131350
0.172107 0.036423 0.127459
0.189517 0.038483 0.088838
0.206928 0.038437 0.043595
0.183688 0.037140 0.033829
0.215442 0.036759 0.032914
0.281956 0.039002 0.035584
0.035584 0.189792 0.248081
0.037537 0.174899 0.217258
0.160769 0.153552 0.179126
0.335012 0.123812 0.125170
0.409827 0.068605 0.062074
0.436698 0.047547 0.047211
0.338003 0.041993 0.040803
0.275166 0.038697 0.035126
0.300282 0.039857 0.036912
0.038743 0.289967 0.211887
0.045792 0.276661 0.175921
0.204028 0.303593 0.163195
0.416495 0.369177 0.130663
0.629313 0.295476 0.080339
0.657404 0.160998 0.058686
0.605325 0.115938 0.055375
0.545510 0.092134 0.052018
0.495583 0.058076 0.050095
0.147967 0.446448 0.155550
0.174487 0.436820 0.134112
0.309636 0.464485 0.155200
0.462409 0.508507 0.123064
0.707805 0.556435 0.130220
0.846799 0.462928 0.105882
0.829709 0.322301 0.079973
0.778683 0.254948 0.069123
0.739605 0.195468 0.063844
0.491585 0.603433 0.150134
0.507118 0.604120 0.142611
0.532113 0.605814 0.150622
0.613458 0.618830 0.145480
0.708156 0.629129 0.133761
0.896239 0.656474 0.163561
0.934920 0.601541 0.151293
0.930495 0.509865 0.127153
0.898573 0.410590 0.103975
0.798199 0.737148 0.212680
0.780194 0.722179 0.193271
0.795789 0.714153 0.171832
0.802762 0.707408 0.162936
0.796201 0.698711 0.150240
0.897444 0.734401 0.194720
0.947417 0.745434 0.249516
0.954437 0.692226 0.256352
0.948165 0.589502 0.196796
0.930251 0.796979 0.228275
0.928771 0.793484 0.223850
0.923156 0.783566 0.213031
0.901091 0.766934 0.195499
0.885679 0.752194 0.174884
0.914107 0.768536 0.199588
0.948119 0.807248 0.311315
0.959030 0.786297 0.349355
0.959228 0.710872 0.301961
0.951217 0.825879 0.254765
0.951598 0.825513 0.254154
0.951278 0.825406 0.258045
0.948028 0.819333 0.251347
0.927520 0.801495 0.236271
0.915007 0.796155 0.240589
0.927382 0.812177 0.309331
0.946105 0.820676 0.383368
0.964096 0.801419 0.391577
0.028504 0.028595 0.072099
0.029511 0.029129 0.087999
0.044083 0.031418 0.104402
0.071992 0.032792 0.115785
0.097093 0.033585 0.119249
0.128328 0.035019 0.117235
0.164675 0.037812 0.103075
0.261509 0.039582 0.049638
0.306081 0.039902 0.038178
0.029328 0.029923 0.090303
0.030579 0.030442 0.110063
0.067918 0.032547 0.153201
0.120714 0.032609 0.149722
0.156100 0.034623 0.141787
0.188251 0.037232 0.127733
0.203326 0.038529 0.092424
0.223484 0.037522 0.036439
0.272206 0.038544 0.034882
0.038636 0.142397 0.289555
0.039094 0.121935 0.269474
0.060288 0.108034 0.235309
0.272663 0.065705 0.237827
0.366964 0.043870 0.205768
0.367834 0.044511 0.151675
0.337560 0.042222 0.076158
0.290867 0.039063 0.038270
0.277028 0.038773 0.035233
0.046113 0.333501 0.413321
0.046571 0.332143 0.403571
0.088731 0.333608 0.366049
0.346883 0.317845 0.327077
0.546014 0.256397 0.245197
0.577844 0.135409 0.144152
0.538552 0.055665 0.056077
0.482185 0.048997 0.048997
0.391989 0.043702 0.043397
0.055238 0.449393 0.389639
0.065583 0.437644 0.342580
0.137270 0.453696 0.319615
0.391287 0.484321 0.306401
0.640070 0.544701 0.280446
0.799832 0.467521 0.199878
0.782742 0.298360 0.099580
0.763867 0.201709 0.066621
0.728069 0.183856 0.062776
0.195026 0.554650 0.313634
0.218021 0.557839 0.304646
0.315816 0.573541 0.283574
0.493614 0.611322 0.291127
0.694240 0.658183 0.269062
0.883131 0.683940 0.244404
0.931792 0.605844 0.181643
0.917815 0.469642 0.117494
0.885252 0.354360 0.090043
0.600763 0.707851 0.326741
0.597864 0.698054 0.296147
0.625940 0.699931 0.275944
0.673609 0.707744 0.280308
0.763592 0.725933 0.280217
0.891798 0.752407 0.249866
0.949722 0.757382 0.236866
0.954620 0.690761 0.188220
0.952392 0.614130 0.163149
0.852018 0.806485 0.378058
0.842680 0.793561 0.344442
0.852888 0.787366 0.309071
0.861921 0.782818 0.281743
0.881727 0.783719 0.265431
0.918135 0.784710 0.226535
0.952544 0.803342 0.247456
0.959609 0.782742 0.260853
0.960281 0.740734 0.272877
0.931075 0.843153 0.376852
0.938582 0.843046 0.357656
0.937926 0.839933 0.343954
0.925200 0.830442 0.331060
0.925826 0.824216 0.303761
0.934508 0.813062 0.240711
0.955123 0.824918 0.250950
0.961532 0.817777 0.305104
0.964034 0.789746 0.346502
0.029755 0.029786 0.092836
0.029648 0.029664 0.091234
0.034699 0.030472 0.128878
0.055573 0.032074 0.141360
0.070848 0.031998 0.136004
0.095674 0.032471 0.133700
0.151339 0.034348 0.142107
0.277699 0.040726 0.129122
0.366140 0.042908 0.078950
0.030365 0.030533 0.107240
0.030808 0.030808 0.113909
0.043732 0.031922 0.150698
0.079667 0.032959 0.162402
0.106813 0.032029 0.157809
0.141695 0.032975 0.161440
0.168750 0.035126 0.147677
0.227543 0.038895 0.090181
0.277775 0.038544 0.036667
0.039094 0.095781 0.279683
0.040009 0.069734 0.292821
0.038209 0.046708 0.264347
0.156359 0.041321 0.291997
0.253132 0.038651 0.258625
0.272404 0.039643 0.211521
0.266209 0.040055 0.160967
0.292821 0.041566 0.101854
0.304921 0.039689 0.039902
0.050233 0.297642 0.497932
0.048341 0.274647 0.474479
0.049241 0.259510 0.447349
0.133989 0.251987 0.410986
0.435142 0.229618 0.394202
0.530159 0.130510 0.328161
0.513802 0.051759 0.217716
0.459007 0.047456 0.093904
0.403159 0.043900 0.045426
0.059297 0.467185 0.588083
0.067048 0.486381 0.570825
0.098634 0.501717 0.554040
0.251026 0.526543 0.527291
0.537514 0.506035 0.492378
0.695308 0.435966 0.406485
0.717388 0.291066 0.291173
0.664958 0.131014 0.122362
0.660502 0.085100 0.058030
0.089448 0.561242 0.536843
0.100969 0.565820 0.526390
0.153307 0.582162 0.493309
0.285924 0.597696 0.462165
0.566003 0.633936 0.466285
0.789807 0.683467 0.467491
0.895949 0.631388 0.401526
0.887663 0.481758 0.257069
0.854780 0.346899 0.126452
0.359518 0.675212 0.483131
0.348806 0.665980 0.466453
0.386267 0.671778 0.464668
0.465995 0.673426 0.418677
0.635111 0.716197 0.444068
0.816739 0.760250 0.459220
0.932692 0.773083 0.433066
0.957031 0.710018 0.335698
0.948714 0.602594 0.230442
0.704234 0.790433 0.516411
0.710277 0.776181 0.447440
0.705852 0.770169 0.429572
0.716274 0.769284 0.412161
0.768826 0.781796 0.426001
0.855482 0.803922 0.439200
0.940780 0.823774 0.431510
0.962936 0.792889 0.335760
0.960479 0.740322 0.274556
0.849165 0.843793 0.528542
0.871534 0.846998 0.508446
0.879026 0.840177 0.468254
0.876936 0.833173 0.443168
0.882475 0.829847 0.416953
0.903487 0.831174 0.395972
0.939284 0.832578 0.329519
0.961044 0.826673 0.293050
0.962798 0.808621 0.311208
0.031434 0.031434 0.124849
0.030838 0.030838 0.113466
0.031281 0.031281 0.123201
0.038117 0.032425 0.156756
0.052323 0.032898 0.157733
0.056947 0.032456 0.152132
0.110079 0.032013 0.161303
0.323705 0.042100 0.226337
0.408347 0.046983 0.212161
0.031662 0.031693 0.129763
0.031647 0.031647 0.128969
0.034272 0.033204 0.160296
0.057084 0.034897 0.184970
0.088853 0.035508 0.195926
0.094835 0.034379 0.185229
0.115755 0.032837 0.176928
0.191974 0.036103 0.157687
0.358648 0.043931 0.112505
0.040116 0.079561 0.293355
0.037568 0.043442 0.246845
0.036271 0.036301 0.246494
0.082139 0.038621 0.286519
0.163607 0.039734 0.278401
0.171160 0.036255 0.231739
0.197543 0.035859 0.212772
0.274922 0.040391 0.189746
0.342092 0.043122 0.095262
0.047013 0.238468 0.465553
0.048127 0.218799 0.477287
0.049104 0.198215 0.476967
0.055055 0.182437 0.446708
0.281163 0.171557 0.445472
0.409201 0.081285 0.416709
0.476417 0.049561 0.368658
0.442634 0.048325 0.241581
0.435340 0.047242 0.141070
0.059281 0.421378 0.634684
0.057710 0.412711 0.613550
0.061021 0.429252 0.606012
0.088991 0.439963 0.587289
0.334096 0.448280 0.562737
0.586877 0.428458 0.546639
0.668528 0.324147 0.485863
0.671000 0.153536 0.336889
0.636362 0.066651 0.151263
0.082078 0.566232 0.679789
0.093172 0.582391 0.680034
0.135210 0.614054 0.669520
0.233707 0.639826 0.658625
0.462928 0.661814 0.645106
0.689708 0.656657 0.633524
0.800931 0.608392 0.576699
0.820630 0.482979 0.455772
0.818601 0.352148 0.299443
0.214649 0.683009 0.631632
0.187625 0.672816 0.646403
0.217350 0.674922 0.620951
0.298528 0.686488 0.600259
0.458762 0.704753 0.589578
0.696254 0.737835 0.606622
0.870665 0.775494 0.619150
0.932754 0.735759 0.557351
0.936431 0.649226 0.456016
0.552605 0.775570 0.628565
0.506477 0.752224 0.590921
0.489372 0.743954 0.581186
0.508171 0.739879 0.561730
0.578012 0.746151 0.545266
0.727871 0.787350 0.570336
0.883375 0.823713 0.590875
0.958251 0.816281 0.552300
0.964294 0.787289 0.500603
0.716075 0.822080 0.628046
0.743770 0.828122 0.613108
0.741817 0.817777 0.571893
0.743648 0.814496 0.554757
0.759106 0.815412 0.533379
0.808255 0.828397 0.519356
0.876265 0.839353 0.526223
0.947188 0.845945 0.485161
0.968490 0.839170 0.474525
0.033448 0.033448 0.164004
0.032929 0.032929 0.153704
0.032868 0.032868 0.152499
0.033204 0.033204 0.170001
0.038178 0.034302 0.188754
0.044755 0.034226 0.192340
0.112276 0.038407 0.243229
0.306340 0.039689 0.287861
0.422156 0.046281 0.299886
0.032670 0.032670 0.148684
0.032609 0.032609 0.147478
0.032929 0.032929 0.155108
0.042252 0.033707 0.201678
0.074479 0.036759 0.224247
0.082704 0.037476 0.224018
0.074540 0.036347 0.206073
0.167849 0.036286 0.231540
0.424842 0.047181 0.287556
0.038422 0.050645 0.262013
0.037568 0.042939 0.247440
0.033829 0.033845 0.212818
0.048188 0.038254 0.273747
0.129259 0.039811 0.297887
0.157717 0.039841 0.282933
0.144717 0.038422 0.249928
0.231754 0.038376 0.252415
0.373770 0.045106 0.239322
0.046525 0.207248 0.443763
0.046342 0.185046 0.432776
0.046403 0.165026 0.435843
0.047028 0.117357 0.444129
0.146868 0.114275 0.445319
0.295537 0.060594 0.445609
0.332921 0.045991 0.402747
0.410391 0.044541 0.354620
0.452171 0.049226 0.279408
0.055985 0.379126 0.629816
0.057267 0.376974 0.631571
0.056870 0.371328 0.619745
0.057435 0.367010 0.602502
0.156222 0.398352 0.596811
0.432425 0.375357 0.580072
0.546715 0.311971 0.563806
0.663111 0.200259 0.523491
0.649760 0.065095 0.350011
0.068116 0.502464 0.691875
0.072740 0.522789 0.699565
0.084932 0.547509 0.695354
0.129229 0.582055 0.691524
0.303899 0.616510 0.691508
0.570352 0.621332 0.678492
0.690974 0.603830 0.666560
0.774823 0.541985 0.632349
0.807050 0.403723 0.516777
0.128405 0.658320 0.732769
0.168978 0.677516 0.742977
0.191257 0.686671 0.736751
0.269352 0.707103 0.731395
0.438071 0.737408 0.736202
0.645563 0.756252 0.740353
0.796277 0.755734 0.735897
0.867964 0.723537 0.699199
0.884672 0.656611 0.626947
0.406394 0.776165 0.730449
0.339757 0.754726 0.727672
0.309758 0.740139 0.712322
0.354208 0.745968 0.700526
0.450156 0.760632 0.695949
0.610407 0.782742 0.697978
0.781384 0.803479 0.704814
0.914687 0.828275 0.719081
0.942657 0.811109 0.688869
0.615488 0.825452 0.733394
0.633814 0.821164 0.705821
0.556817 0.792737 0.673198
0.560784 0.797131 0.682170
0.599481 0.797665 0.661250
0.649332 0.796490 0.630411
0.761379 0.826474 0.634440
0.906447 0.858595 0.659541
0.964446 0.867658 0.675914
0.034073 0.034073 0.177279
0.034043 0.034043 0.176501
0.034195 0.034195 0.180255
0.033082 0.033082 0.198779
0.035126 0.034531 0.215106
0.038911 0.035309 0.225483
0.100969 0.039033 0.269810
0.238880 0.041352 0.311116
0.384604 0.043168 0.334615
0.033875 0.033875 0.173175
0.033539 0.033539 0.165881
0.033600 0.033600 0.167330
0.035004 0.034211 0.206592
0.063905 0.035691 0.248966
0.080323 0.037949 0.260151
0.112184 0.039200 0.271672
0.171206 0.039780 0.274311
0.416022 0.044388 0.336233
0.035233 0.036118 0.229557
0.035218 0.036118 0.228641
0.033707 0.033722 0.217517
0.035264 0.035264 0.246677
0.080858 0.040131 0.301320
0.134722 0.040085 0.304646
0.146365 0.039780 0.290623
0.184985 0.040360 0.283955
0.393759 0.043107 0.324407
0.045869 0.184909 0.424720
0.045823 0.175708 0.422354
0.045136 0.149584 0.410971
0.043336 0.093156 0.406592
0.050401 0.078019 0.422370
0.183124 0.060563 0.448661
0.278462 0.046510 0.435935
0.343709 0.045060 0.399710
0.458000 0.048219 0.375128
0.054887 0.345861 0.590173
0.054902 0.349126 0.607507
0.055253 0.333684 0.603922
0.054459 0.297292 0.583642
0.068025 0.326940 0.587457
0.282795 0.354299 0.592889
0.465400 0.321233 0.597101
0.550088 0.236484 0.573861
0.655238 0.077150 0.518441
0.064439 0.461921 0.700877
0.070161 0.504555 0.712596
0.071702 0.506752 0.706661
0.100359 0.552575 0.707149
0.227543 0.583261 0.704982
0.499565 0.606058 0.707042
0.618021 0.586755 0.691737
0.678645 0.556725 0.682567
0.779324 0.474174 0.656031
0.091722 0.600031 0.746181
0.158328 0.664775 0.760739
0.159289 0.661891 0.756680
0.266896 0.698024 0.759197
0.448981 0.727169 0.768246
0.606516 0.735882 0.769558
0.740261 0.736996 0.765591
0.793881 0.729641 0.759731
0.851423 0.701717 0.740703
0.281758 0.756710 0.789517
0.295247 0.755459 0.784039
0.332265 0.758404 0.783475
0.382483 0.768032 0.783291
0.513054 0.790845 0.792889
0.647211 0.807462 0.801404
0.766735 0.815549 0.804135
0.861708 0.813413 0.798169
0.896315 0.801099 0.784833
0.505196 0.821881 0.798993
0.527794 0.824643 0.787991
0.441199 0.795911 0.764477
0.437263 0.795346 0.773480
0.553002 0.820996 0.788754
0.621286 0.827420 0.785702
0.693065 0.830091 0.765347
0.838911 0.847730 0.770764
0.924254 0.866056 0.800748
0.034470 0.034470 0.186664
0.034440 0.034440 0.185946
0.034562 0.034562 0.189258
0.033188 0.033188 0.209079
0.037552 0.035996 0.232410
0.039902 0.035843 0.235706
0.071519 0.037125 0.263188
0.166018 0.040436 0.301930
0.300969 0.041321 0.332555
0.034668 0.034668 0.193454
0.034653 0.034653 0.191043
0.034791 0.034791 0.199664
0.061723 0.037720 0.274128
0.077440 0.039170 0.287999
0.064073 0.036896 0.263951
0.145754 0.039933 0.297322
0.258854 0.041611 0.324300
0.355123 0.042359 0.338231
0.040772 0.071885 0.328176
0.034516 0.034516 0.202502
0.034012 0.034012 0.194675
0.036118 0.036118 0.218357
0.066499 0.041352 0.316472
0.086900 0.041962 0.326513
0.139528 0.040650 0.317021
0.249653 0.042267 0.332204
0.378103 0.043931 0.350668
0.046983 0.213733 0.454643
0.043809 0.126238 0.377935
0.043503 0.113466 0.375738
0.043763 0.098924 0.412680
0.045960 0.063127 0.419654
0.140810 0.070634 0.458381
0.239063 0.052049 0.463294
0.336690 0.048142 0.460517
0.500740 0.050889 0.472419
0.054093 0.337530 0.576562
0.053468 0.328130 0.581369
0.053849 0.315984 0.588083
0.054353 0.287510 0.582010
0.055451 0.285725 0.579721
0.256092 0.353872 0.608255
0.418692 0.339681 0.615763
0.516091 0.303975 0.613581
0.606882 0.227787 0.595560
0.062913 0.454810 0.703975
0.072358 0.513664 0.725124
0.071824 0.503639 0.714916
0.083207 0.521904 0.710658
0.129992 0.531746 0.700786
0.463355 0.593164 0.716121
0.590448 0.590723 0.707668
0.658747 0.584009 0.708568
0.711238 0.554955 0.701656
0.081254 0.563348 0.748501
0.110399 0.624353 0.760662
0.306157 0.712428 0.785962
0.408789 0.727749 0.790295
0.509865 0.729061 0.786892
0.630945 0.731670 0.784970
0.734340 0.736324 0.783566
0.781506 0.739483 0.779599
0.812329 0.735378 0.773526
0.163684 0.696498 0.787823
0.200610 0.717052 0.791928
0.434607 0.783688 0.816052
0.468421 0.780835 0.814008
0.606577 0.800153 0.821653
0.681239 0.799313 0.820874
0.773404 0.804013 0.821942
0.846662 0.809842 0.820645
0.875334 0.817334 0.818906
0.385595 0.798169 0.822202
0.418433 0.807889 0.824338
0.505287 0.826200 0.834134
0.582879 0.833524 0.836820
0.579522 0.828962 0.832517
0.615961 0.828229 0.828138
0.721736 0.839948 0.836439
0.849119 0.855009 0.846082
0.900450 0.856016 0.846235
