tools/luts_backup/Kodak Vision3 50D 5203 (DP)_FPE.cube
# (C) 2014 VisionColor & Patchflyer [www.vision-color.com]
# Generator: VC Patchmatch v.2.1.1 [64/53]
# All work and no play makes Jack a dull boy.
# LUT generated from: Kodak Vision3 50D 5203 (DP)_FPE
LUT_3D_SIZE 5
0.034607 0.038911 0.039475
0.046723 0.035111 0.031724
0.106126 0.041642 0.033265
0.174029 0.043046 0.034043
0.324788 0.043885 0.041947
0.035340 0.115496 0.046647
0.120592 0.149737 0.055024
0.400259 0.099062 0.044388
0.326528 0.048646 0.041566
0.350271 0.044312 0.043305
0.435187 0.416297 0.074464
0.339727 0.399283 0.077836
0.657862 0.463355 0.095277
0.719005 0.192630 0.062303
0.763836 0.202777 0.065675
0.912963 0.681773 0.168673
0.886290 0.665232 0.160479
0.729961 0.607599 0.131579
0.902068 0.604837 0.174716
0.936324 0.532021 0.183551
0.954009 0.753628 0.229999
0.952911 0.752163 0.227848
0.936660 0.758007 0.231373
0.949065 0.753323 0.281498
0.958801 0.706386 0.343893
0.026200 0.030625 0.048615
0.072297 0.039841 0.091554
0.146731 0.044068 0.083360
0.139086 0.041947 0.036118
0.295567 0.043977 0.040436
0.035157 0.183948 0.241428
0.153582 0.158236 0.182986
0.385168 0.079774 0.058671
0.336889 0.045853 0.042435
0.308675 0.043977 0.041093
0.160723 0.391836 0.126421
0.360082 0.424964 0.132631
0.724971 0.474495 0.099977
0.781079 0.250889 0.069276
0.717769 0.166171 0.061753
0.881926 0.691554 0.173495
0.882109 0.670863 0.153750
0.886488 0.658518 0.146471
0.938933 0.637385 0.176242
0.927443 0.494469 0.145388
0.954223 0.752178 0.192691
0.954116 0.749660 0.193072
0.944976 0.742611 0.187076
0.946075 0.747707 0.221271
0.956802 0.699092 0.300053
0.028580 0.032975 0.084749
0.031403 0.034501 0.103624
0.072755 0.039307 0.122438
0.199741 0.044663 0.120577
0.425132 0.046250 0.053712
0.036591 0.103136 0.237720
0.036347 0.071275 0.222553
0.295781 0.049317 0.193530
0.356527 0.043977 0.116564
0.320623 0.041169 0.040330
0.052018 0.392004 0.525261
0.053620 0.412634 0.513359
0.510155 0.486931 0.472831
0.695155 0.302037 0.273106
0.649485 0.109682 0.057740
0.252552 0.591379 0.428931
0.310201 0.596078 0.410407
0.668681 0.666621 0.394263
0.928603 0.689784 0.343771
0.933379 0.515145 0.172992
0.885939 0.796460 0.457725
0.914015 0.794797 0.386892
0.920775 0.785367 0.335195
0.950530 0.770230 0.234730
0.957214 0.696223 0.217990
0.030426 0.034363 0.143252
0.029984 0.034134 0.133501
0.032410 0.034623 0.152209
0.124956 0.040635 0.216007
0.532021 0.051545 0.194400
0.035828 0.066514 0.222324
0.033112 0.038819 0.186313
0.144533 0.041855 0.260807
0.184726 0.041825 0.224262
0.481407 0.048768 0.157534
0.051667 0.328267 0.526741
0.051698 0.326772 0.527794
0.077058 0.365835 0.525170
0.564599 0.356344 0.485832
0.661265 0.097063 0.223651
0.067399 0.510552 0.656611
0.079576 0.547845 0.665965
0.239780 0.645777 0.677638
0.772900 0.718105 0.692775
0.861280 0.641596 0.602686
0.474723 0.751431 0.673579
0.416281 0.712123 0.613092
0.510689 0.723384 0.600504
0.776440 0.773571 0.585824
0.956100 0.801923 0.595682
0.031662 0.035294 0.163638
0.031861 0.035447 0.166018
0.033143 0.035386 0.188083
0.063890 0.039872 0.225925
0.421759 0.047547 0.278721
0.038590 0.089433 0.271717
0.032120 0.036408 0.170825
0.054994 0.040146 0.261738
0.158328 0.041993 0.282383
0.504265 0.050629 0.266148
0.047990 0.292271 0.489586
0.048096 0.277760 0.490929
0.048661 0.277668 0.506325
0.348196 0.351736 0.529534
0.638392 0.306981 0.493446
0.062104 0.455756 0.665019
0.136034 0.598703 0.703593
0.365576 0.653269 0.715511
0.694774 0.696254 0.725414
0.796628 0.707012 0.721370
0.169726 0.672236 0.745937
0.286488 0.721355 0.759991
0.395544 0.740566 0.764706
0.624079 0.777234 0.779690
0.877714 0.812207 0.794354
