tools/luts_backup/Kodak Vision3 200T 5213 (NEG)_FPE.cube
# (C) 2014 VisionColor & Patchflyer [www.vision-color.com]
# Generator: VC Patchmatch v.2.1.1 [64/53]
# All work and no play makes Jack a dull boy.
# LUT generated from: Kodak Vision3 200T 5213 (NEG)_FPE
LUT_3D_SIZE 5
0.034607 0.038911 0.039475
0.053727 0.030518 0.027512
0.117540 0.036530 0.029938
0.179995 0.037110 0.033234
0.315709 0.040589 0.038148
0.034943 0.125261 0.043366
0.120104 0.168002 0.049897
0.386130 0.105318 0.044175
0.327489 0.043824 0.042481
0.343343 0.041810 0.040391
0.358160 0.453239 0.087175
0.272633 0.442634 0.087037
0.616251 0.523842 0.118486
0.754818 0.243214 0.066789
0.800549 0.236133 0.070237
0.871382 0.738354 0.211948
0.818479 0.712276 0.189364
0.610803 0.646754 0.156329
0.910750 0.704494 0.245319
0.949157 0.626123 0.245914
0.951156 0.836118 0.340017
0.949248 0.832670 0.334813
0.903716 0.806577 0.307576
0.939895 0.827253 0.388769
0.966430 0.805432 0.431785
0.027466 0.028397 0.047822
0.070222 0.033112 0.100237
0.121691 0.036423 0.095537
0.143679 0.036835 0.033402
0.287770 0.039277 0.035996
0.035584 0.189792 0.248081
0.160769 0.153552 0.179126
0.409827 0.068605 0.062074
0.338003 0.041993 0.040803
0.300282 0.039857 0.036912
0.147967 0.446448 0.155550
0.309636 0.464485 0.155200
0.707805 0.556435 0.130220
0.829709 0.322301 0.079973
0.739605 0.195468 0.063844
0.798199 0.737148 0.212680
0.795789 0.714153 0.171832
0.796201 0.698711 0.150240
0.947417 0.745434 0.249516
0.948165 0.589502 0.196796
0.951217 0.825879 0.254765
0.951278 0.825406 0.258045
0.927520 0.801495 0.236271
0.927382 0.812177 0.309331
0.964096 0.801419 0.391577
0.029755 0.029786 0.092836
0.034699 0.030472 0.128878
0.070848 0.031998 0.136004
0.151339 0.034348 0.142107
0.366140 0.042908 0.078950
0.039094 0.095781 0.279683
0.038209 0.046708 0.264347
0.253132 0.038651 0.258625
0.266209 0.040055 0.160967
0.304921 0.039689 0.039902
0.059297 0.467185 0.588083
0.098634 0.501717 0.554040
0.537514 0.506035 0.492378
0.717388 0.291066 0.291173
0.660502 0.085100 0.058030
0.359518 0.675212 0.483131
0.386267 0.671778 0.464668
0.635111 0.716197 0.444068
0.932692 0.773083 0.433066
0.948714 0.602594 0.230442
0.849165 0.843793 0.528542
0.879026 0.840177 0.468254
0.882475 0.829847 0.416953
0.939284 0.832578 0.329519
0.962798 0.808621 0.311208
0.033448 0.033448 0.164004
0.032868 0.032868 0.152499
0.038178 0.034302 0.188754
0.112276 0.038407 0.243229
0.422156 0.046281 0.299886
0.038422 0.050645 0.262013
0.033829 0.033845 0.212818
0.129259 0.039811 0.297887
0.144717 0.038422 0.249928
0.373770 0.045106 0.239322
0.055985 0.379126 0.629816
0.056870 0.371328 0.619745
0.156222 0.398352 0.596811
0.546715 0.311971 0.563806
0.649760 0.065095 0.350011
0.128405 0.658320 0.732769
0.191257 0.686671 0.736751
0.438071 0.737408 0.736202
0.796277 0.755734 0.735897
0.884672 0.656611 0.626947
0.615488 0.825452 0.733394
0.556817 0.792737 0.673198
0.599481 0.797665 0.661250
0.761379 0.826474 0.634440
0.964446 0.867658 0.675914
0.034470 0.034470 0.186664
0.034562 0.034562 0.189258
0.037552 0.035996 0.232410
0.071519 0.037125 0.263188
0.300969 0.041321 0.332555
0.040772 0.071885 0.328176
0.034012 0.034012 0.194675
0.066499 0.041352 0.316472
0.139528 0.040650 0.317021
0.378103 0.043931 0.350668
0.054093 0.337530 0.576562
0.053849 0.315984 0.588083
0.055451 0.285725 0.579721
0.418692 0.339681 0.615763
0.606882 0.227787 0.595560
0.081254 0.563348 0.748501
0.306157 0.712428 0.785962
0.509865 0.729061 0.786892
0.734340 0.736324 0.783566
0.812329 0.735378 0.773526
0.385595 0.798169 0.822202
0.505287 0.826200 0.834134
0.579522 0.828962 0.832517
0.721736 0.839948 0.836439
0.900450 0.856016 0.846235
