tools/luts_backup/Kodak Vision3 500T 5219 (C41)_FC.cube
# (C) 2014 VisionColor & Patchflyer [www.vision-color.com]
# Generator: VC Patchmatch v.2.1.1 [64/53]
# All work and no play makes Jack a dull boy.
# LUT generated from: BMD Film to Kodak Vision3 500T 5219 (C41)_FC01
LUT_3D_SIZE 9
0.043137 0.031373 0.039216
0.109804 0.035294 0.035294
0.188235 0.043137 0.047059
0.290196 0.062745 0.062745
0.478431 0.101961 0.117647
0.533333 0.113725 0.164706
0.533333 0.117647 0.152941
0.529412 0.105882 0.105882
0.541176 0.109804 0.109804
0.039216 0.098039 0.035294
0.090196 0.094118 0.043137
0.172549 0.090196 0.054902
0.270588 0.086275 0.066667
0.478447 0.101961 0.105882
0.537255 0.113725 0.152941
0.529412 0.109804 0.141176
0.545098 0.121569 0.113725
0.549020 0.121569 0.117647
0.074510 0.200000 0.066667
0.094118 0.200000 0.070588
0.172549 0.196078 0.082353
0.286275 0.180392 0.098039
0.400015 0.156863 0.105882
0.658808 0.145098 0.145098
0.627451 0.133333 0.149020
0.568627 0.172549 0.133333
0.572549 0.168627 0.137255
0.109804 0.329412 0.105882
0.113725 0.317647 0.105882
0.172549 0.282353 0.101961
0.294133 0.301976 0.129412
0.392172 0.278431 0.141176
0.521569 0.258824 0.156863
0.627451 0.266682 0.172549
0.623529 0.266667 0.172549
0.627451 0.266667 0.176471
0.156863 0.486290 0.152941
0.160784 0.466682 0.149020
0.196078 0.435294 0.149020
0.301961 0.419608 0.164706
0.419608 0.439216 0.184314
0.498039 0.380407 0.184314
0.631357 0.388251 0.211765
0.654902 0.384314 0.215686
0.658824 0.368627 0.211765
0.211765 0.670588 0.211765
0.207843 0.647059 0.207843
0.239216 0.619593 0.203922
0.325490 0.556848 0.207843
0.423545 0.537255 0.219608
0.541176 0.568627 0.258824
0.596078 0.501961 0.247059
0.698039 0.498039 0.266667
0.694118 0.478431 0.262745
0.282353 0.823529 0.278431
0.274510 0.803922 0.270588
0.274510 0.756863 0.254902
0.352941 0.698039 0.254902
0.458824 0.666667 0.270588
0.549020 0.666667 0.294118
0.647059 0.666667 0.333333
0.698039 0.615686 0.325490
0.745098 0.627451 0.349020
0.298039 0.862745 0.301961
0.294118 0.854902 0.301961
0.294118 0.858824 0.294118
0.396078 0.843137 0.321569
0.501961 0.792157 0.337255
0.584314 0.768627 0.360784
0.678431 0.784314 0.403922
0.752941 0.784314 0.450980
0.800000 0.741176 0.450980
0.294118 0.854902 0.301961
0.301961 0.866667 0.305882
0.298039 0.862745 0.301961
0.364706 0.854902 0.313726
0.501961 0.827451 0.352941
0.611765 0.815686 0.396078
0.674510 0.819608 0.431373
0.756863 0.827451 0.486275
0.839216 0.847059 0.564706
0.043137 0.035294 0.125490
0.094118 0.035294 0.094118
0.188235 0.050980 0.101961
0.309804 0.070588 0.121569
0.466682 0.101961 0.160784
0.521569 0.113725 0.192157
0.521569 0.109804 0.168627
0.537255 0.113725 0.125490
0.537255 0.113725 0.117647
0.039216 0.086275 0.086275
0.094118 0.078431 0.086275
0.266667 0.074510 0.074510
0.368627 0.086275 0.105882
0.466682 0.101961 0.149020
0.525490 0.113725 0.180392
0.537255 0.117647 0.172549
0.576471 0.117647 0.117647
0.564706 0.121569 0.117647
0.062745 0.196078 0.066667
0.074510 0.184314 0.062745
0.180392 0.196078 0.082353
0.286275 0.160784 0.090196
0.462760 0.160784 0.117647
0.639231 0.141176 0.176471
0.619608 0.137255 0.172549
0.572549 0.176471 0.137255
0.572549 0.176471 0.137255
0.105882 0.321584 0.101961
0.113725 0.329412 0.105882
0.176471 0.290196 0.109804
0.294118 0.305882 0.129412
0.403922 0.274510 0.141176
0.537255 0.270588 0.160784
0.658824 0.262760 0.176471
0.623529 0.266667 0.172549
0.623529 0.262745 0.172549
0.164706 0.486290 0.156863
0.156863 0.474525 0.152941
0.188235 0.411780 0.137255
0.301961 0.419608 0.164706
0.431373 0.439216 0.188235
0.509804 0.392172 0.192157
0.631373 0.400000 0.215686
0.662745 0.384314 0.219608
0.654902 0.368627 0.211765
0.223529 0.682338 0.219608
0.211765 0.658824 0.211765
0.235294 0.627436 0.207843
0.321569 0.556848 0.203922
0.435294 0.537255 0.219608
0.537255 0.568627 0.254902
0.607843 0.505882 0.250980
0.698039 0.509804 0.274510
0.698039 0.482338 0.266667
0.286275 0.839216 0.286275
0.270588 0.811765 0.270588
0.286275 0.780392 0.262745
0.364706 0.713710 0.262745
0.462745 0.666667 0.274510
0.560769 0.658824 0.294118
0.639216 0.658824 0.325490
0.717647 0.643137 0.345098
0.745098 0.611765 0.341176
0.294118 0.850980 0.298039
0.298039 0.854902 0.309804
0.301961 0.858824 0.298039
0.403922 0.839216 0.321569
0.521584 0.803922 0.349020
0.600000 0.780392 0.372549
0.698039 0.796078 0.423529
0.764706 0.788235 0.458824
0.811765 0.756863 0.470588
0.301961 0.862745 0.309804
0.301961 0.862745 0.309804
0.298039 0.862745 0.301961
0.376471 0.847059 0.317647
0.501961 0.823529 0.349020
0.603922 0.800000 0.384314
0.701961 0.827451 0.447059
0.768627 0.835294 0.498039
0.839216 0.847059 0.560784
0.054902 0.047059 0.250980
0.086275 0.050980 0.219608
0.164706 0.050980 0.160784
0.298039 0.078431 0.184314
0.470588 0.113725 0.215686
0.529412 0.121569 0.227451
0.513726 0.117647 0.203922
0.529412 0.113725 0.168627
0.533333 0.113725 0.164706
0.050980 0.074510 0.223529
0.094118 0.078431 0.286275
0.196078 0.066667 0.188235
0.317647 0.082353 0.188235
0.478431 0.113725 0.211765
0.525490 0.117647 0.219608
0.537255 0.125490 0.219608
0.588235 0.125490 0.168627
0.588235 0.125490 0.164706
0.070588 0.164706 0.164706
0.070588 0.172549 0.164706
0.200000 0.184314 0.188235
0.447074 0.156863 0.180392
0.584329 0.149020 0.211765
0.588251 0.137255 0.223545
0.584314 0.133333 0.219608
0.729412 0.184314 0.172549
0.709804 0.180392 0.168627
0.098039 0.305898 0.121569
0.105882 0.329412 0.121569
0.164706 0.305882 0.109804
0.298039 0.294118 0.129412
0.423545 0.270588 0.141176
0.650950 0.282353 0.188235
0.745098 0.258839 0.203922
0.686275 0.274510 0.188235
0.686275 0.270588 0.184314
0.156863 0.490211 0.156863
0.156863 0.474525 0.152941
0.184314 0.423545 0.145098
0.294118 0.415702 0.160784
0.423529 0.439216 0.188235
0.521553 0.403922 0.196078
0.647059 0.396094 0.219608
0.690196 0.388235 0.227451
0.682353 0.384314 0.223529
0.219608 0.682338 0.219608
0.215686 0.654902 0.211765
0.231373 0.623514 0.203922
0.321569 0.556848 0.203922
0.423545 0.541176 0.219608
0.537255 0.564706 0.250980
0.600000 0.505882 0.247059
0.713726 0.513726 0.282353
0.705882 0.490196 0.266667
0.286275 0.839200 0.294118
0.274510 0.811765 0.286275
0.274510 0.796078 0.270588
0.337270 0.729397 0.258824
0.470588 0.670588 0.274510
0.560769 0.666667 0.301961
0.643137 0.670588 0.329412
0.741176 0.647059 0.356863
0.756863 0.627451 0.352941
0.313726 0.839216 0.396078
0.309804 0.835294 0.380392
0.309804 0.858824 0.356863
0.349020 0.870588 0.317647
0.513726 0.835294 0.360784
0.607843 0.800000 0.384314
0.701961 0.803922 0.431373
0.780392 0.800000 0.478431
0.819608 0.772549 0.486275
0.309804 0.839216 0.384314
0.309804 0.843137 0.372549
0.309804 0.850980 0.360784
0.329412 0.882353 0.317647
0.470603 0.858824 0.360784
0.596078 0.831373 0.396078
0.705882 0.835294 0.454902
0.776471 0.843137 0.505882
0.854902 0.858824 0.584314
0.078431 0.066667 0.411765
0.078431 0.058824 0.376486
0.137255 0.062745 0.294133
0.282353 0.086275 0.270588
0.478431 0.121569 0.294118
0.513726 0.125490 0.282353
0.505882 0.121569 0.266667
0.505882 0.113725 0.239216
0.513726 0.121569 0.235294
0.078431 0.070588 0.431373
0.082353 0.066667 0.411765
0.125490 0.058824 0.294133
0.282353 0.086275 0.274510
0.458839 0.113725 0.278431
0.505882 0.125490 0.282353
0.521569 0.125490 0.266667
0.580392 0.141176 0.258824
0.572549 0.137255 0.247059
0.074510 0.121569 0.345113
0.082353 0.133333 0.341176
0.192157 0.145098 0.478431
0.345098 0.113725 0.325490
0.486290 0.129412 0.298039
0.521569 0.125490 0.282353
0.556863 0.137255 0.274510
0.717647 0.184314 0.270604
0.709804 0.184314 0.262745
0.113725 0.274525 0.278431
0.117647 0.274510 0.290196
0.133333 0.309804 0.309804
0.337255 0.321569 0.321569
0.600000 0.294118 0.313726
0.768627 0.258839 0.309804
0.788235 0.247059 0.305882
0.807843 0.278431 0.258824
0.807843 0.266667 0.247059
0.156863 0.466682 0.223529
0.152941 0.447074 0.211765
0.160784 0.482368 0.200000
0.270588 0.443153 0.164706
0.435309 0.423545 0.192157
0.584298 0.403937 0.215686
0.760769 0.411765 0.266667
0.768627 0.392172 0.266667
0.768627 0.380407 0.258824
0.223529 0.686259 0.223529
0.219608 0.686259 0.223529
0.215686 0.643137 0.203922
0.298054 0.552926 0.196078
0.427451 0.545083 0.219608
0.549020 0.564706 0.254902
0.635294 0.517647 0.262745
0.760784 0.529412 0.313726
0.764706 0.513710 0.309804
0.290196 0.811765 0.341176
0.278431 0.800000 0.325490
0.278431 0.811765 0.298039
0.337255 0.780377 0.278431
0.478431 0.705867 0.290196
0.564691 0.674510 0.305882
0.650980 0.666667 0.333333
0.788235 0.686275 0.407843
0.796078 0.662745 0.400000
0.341176 0.819608 0.501961
0.333333 0.811765 0.486275
0.337255 0.831373 0.466667
0.368627 0.882353 0.439216
0.466682 0.882353 0.419623
0.611765 0.854902 0.450980
0.717647 0.831373 0.474510
0.796078 0.815686 0.509804
0.835294 0.788235 0.521569
0.337255 0.819608 0.486275
0.333333 0.811765 0.486275
0.345098 0.839216 0.478431
0.352941 0.866667 0.431373
0.458839 0.890196 0.427466
0.596078 0.882353 0.486275
0.698039 0.850980 0.490211
0.800000 0.862745 0.564706
0.878431 0.870588 0.639216
0.094118 0.074510 0.533333
0.101961 0.082353 0.549020
0.101961 0.074510 0.537255
0.223529 0.086275 0.415702
0.443153 0.121569 0.392172
0.486275 0.129412 0.380407
0.498039 0.133333 0.364706
0.498039 0.125490 0.325490
0.498039 0.125490 0.325490
0.090196 0.070588 0.525490
0.098039 0.074510 0.537255
0.101961 0.082353 0.545098
0.219608 0.086275 0.423545
0.443137 0.125490 0.388235
0.505882 0.137255 0.392172
0.505882 0.133333 0.364721
0.572549 0.152941 0.368627
0.564706 0.152941 0.364706
0.094118 0.078431 0.560784
0.094118 0.082353 0.568627
0.113725 0.086275 0.568627
0.219608 0.090196 0.435309
0.447059 0.125490 0.396078
0.498039 0.133333 0.384329
0.541176 0.145098 0.384314
0.662745 0.196078 0.396094
0.682353 0.203922 0.392172
0.109804 0.188235 0.486290
0.113725 0.211765 0.466682
0.125490 0.235294 0.466682
0.317647 0.254917 0.607858
0.513741 0.184314 0.478447
0.631373 0.188235 0.443153
0.650980 0.196078 0.419623
0.780392 0.290196 0.411780
0.784314 0.294133 0.403937
0.164706 0.400000 0.407858
0.172549 0.415686 0.415686
0.168627 0.411780 0.411780
0.223529 0.458839 0.458839
0.490211 0.482368 0.470588
0.705867 0.450996 0.478431
0.827451 0.427466 0.427466
0.827451 0.427466 0.403937
0.831373 0.415702 0.403937
0.227451 0.603922 0.400015
0.239216 0.631357 0.415702
0.235294 0.623514 0.407858
0.250980 0.670573 0.345113
0.419623 0.643137 0.313756
0.576471 0.600000 0.317662
0.745098 0.560769 0.345098
0.811765 0.568627 0.403937
0.807843 0.537255 0.392172
0.313726 0.784314 0.470603
0.313726 0.780392 0.470588
0.305882 0.788235 0.439231
0.305882 0.819593 0.352956
0.435294 0.788220 0.333333
0.576455 0.717647 0.329412
0.686275 0.690196 0.364706
0.819608 0.694118 0.478431
0.807843 0.662745 0.447059
0.360784 0.796078 0.580392
0.356863 0.792157 0.568627
0.376471 0.827451 0.572549
0.431373 0.866667 0.576471
0.537270 0.882353 0.592157
0.686275 0.878431 0.643137
0.737255 0.847059 0.568643
0.835294 0.835294 0.600000
0.858824 0.815686 0.607843
0.364706 0.807843 0.572549
0.368627 0.811765 0.576471
0.372549 0.823529 0.572549
0.435294 0.870588 0.588235
0.545113 0.882353 0.600015
0.682353 0.890196 0.670588
0.760784 0.886275 0.674525
0.835294 0.878431 0.662745
0.898039 0.886275 0.713726
0.105882 0.078431 0.552941
0.105882 0.078431 0.552941
0.105882 0.082353 0.564706
0.129427 0.082353 0.541176
0.380407 0.121569 0.486275
0.486275 0.145098 0.486275
0.482353 0.141176 0.470588
0.494118 0.141176 0.454902
0.494118 0.141176 0.458808
0.105882 0.082353 0.564706
0.105882 0.082353 0.564706
0.105882 0.078431 0.552941
0.121584 0.082353 0.541176
0.368643 0.117647 0.474510
0.486275 0.145098 0.486275
0.501961 0.149020 0.486275
0.549020 0.164706 0.482353
0.556863 0.168627 0.482353
0.105882 0.082353 0.568627
0.105882 0.086275 0.572549
0.101961 0.078431 0.556863
0.125490 0.090196 0.564691
0.364721 0.117647 0.478431
0.482353 0.145098 0.482353
0.525490 0.160784 0.509804
0.639216 0.231373 0.537255
0.650980 0.231373 0.529397
0.109804 0.098039 0.611765
0.109804 0.109819 0.639216
0.105882 0.133349 0.627451
0.196094 0.133349 0.658854
0.364721 0.125490 0.505882
0.505882 0.152941 0.505882
0.572549 0.188235 0.529412
0.729412 0.333333 0.572534
0.741176 0.333333 0.552941
0.168627 0.325505 0.611749
0.172549 0.341192 0.607828
0.180392 0.368643 0.596063
0.200000 0.403937 0.631373
0.494118 0.450996 0.701946
0.674495 0.372580 0.623529
0.745113 0.396094 0.600000
0.776471 0.462745 0.588220
0.776486 0.439231 0.576455
0.254902 0.572534 0.584298
0.254902 0.568612 0.584298
0.254902 0.572534 0.580377
0.258824 0.588235 0.576471
0.411780 0.627436 0.627436
0.643122 0.643122 0.631373
0.780392 0.615686 0.615671
0.803922 0.611749 0.599985
0.800000 0.588235 0.572549
0.352941 0.756863 0.623514
0.368627 0.772549 0.635279
0.360784 0.760784 0.623529
0.364706 0.768627 0.611749
0.490211 0.800000 0.615671
0.654887 0.788235 0.643122
0.768627 0.760784 0.584298
0.839216 0.729412 0.592142
0.831373 0.705882 0.580377
0.396078 0.792157 0.666667
0.392157 0.784314 0.662745
0.411765 0.811765 0.662745
0.482353 0.847059 0.682353
0.619608 0.878431 0.729412
0.756848 0.882353 0.772534
0.811765 0.874510 0.749004
0.866667 0.866667 0.717647
0.874510 0.843137 0.705882
0.388235 0.788235 0.647059
0.392157 0.792157 0.650980
0.407843 0.811765 0.654902
0.466667 0.847059 0.678431
0.603937 0.866667 0.721569
0.749020 0.894118 0.784314
0.823529 0.898039 0.807843
0.858824 0.890196 0.764706
0.909804 0.901961 0.788235
0.117647 0.090196 0.592157
0.117647 0.090196 0.576471
0.129412 0.086275 0.560784
0.160784 0.090196 0.556863
0.329427 0.113725 0.494118
0.470588 0.137255 0.470588
0.474510 0.137255 0.474510
0.478431 0.141176 0.478431
0.474510 0.141176 0.474510
0.117647 0.101961 0.623529
0.125490 0.101961 0.615686
0.129412 0.094118 0.592157
0.164706 0.098039 0.572549
0.329427 0.121569 0.521569
0.498039 0.149020 0.498039
0.486275 0.145098 0.486275
0.533333 0.168627 0.533333
0.537255 0.176471 0.537255
0.117647 0.149020 0.639216
0.121569 0.149020 0.654902
0.141176 0.129412 0.686275
0.172549 0.109804 0.615686
0.317662 0.121569 0.541176
0.517647 0.160784 0.517647
0.517647 0.160784 0.517647
0.611765 0.247059 0.611765
0.639216 0.274510 0.635294
0.133333 0.215686 0.623529
0.141176 0.235294 0.635294
0.160784 0.258824 0.670588
0.200000 0.227451 0.772549
0.345113 0.168627 0.654887
0.549020 0.184314 0.549020
0.576471 0.207843 0.576471
0.701961 0.396078 0.678431
0.698039 0.388235 0.670588
0.176471 0.333333 0.639216
0.192157 0.372549 0.650980
0.196078 0.388251 0.658824
0.223529 0.419623 0.705882
0.490211 0.478447 0.800000
0.607843 0.309834 0.686290
0.682353 0.368643 0.682353
0.749020 0.533333 0.713726
0.756863 0.529412 0.698039
0.250980 0.521553 0.674510
0.262745 0.537240 0.682353
0.266667 0.533333 0.690196
0.286275 0.564706 0.709804
0.427482 0.619608 0.772549
0.647059 0.647059 0.760784
0.768627 0.639200 0.749020
0.784314 0.658808 0.745098
0.780392 0.631373 0.713726
0.400000 0.733333 0.741176
0.396078 0.737255 0.737255
0.396078 0.737255 0.737255
0.407843 0.745098 0.745098
0.501976 0.776471 0.756863
0.662730 0.772549 0.764706
0.815686 0.815686 0.815686
0.839216 0.788235 0.788235
0.839216 0.788235 0.780392
0.454902 0.800000 0.756863
0.447059 0.796078 0.749020
0.470588 0.815686 0.760784
0.541176 0.847059 0.776471
0.666667 0.874510 0.815686
0.772549 0.882353 0.835294
0.870588 0.898039 0.870588
0.890196 0.890196 0.827451
0.890196 0.870588 0.815686
0.447059 0.796078 0.745098
0.439216 0.796078 0.737255
0.458824 0.811765 0.741176
0.529412 0.847059 0.764706
0.658839 0.870588 0.811765
0.780392 0.894118 0.839216
0.862745 0.901961 0.878431
0.886275 0.905882 0.854902
0.909804 0.905882 0.854902
0.129412 0.156863 0.670588
0.133333 0.101961 0.615686
0.196078 0.109804 0.592157
0.274510 0.113725 0.541176
0.403937 0.129412 0.498039
0.478431 0.141176 0.478431
0.482353 0.141176 0.482353
0.470588 0.137255 0.470588
0.470588 0.137255 0.470588
0.149020 0.254902 0.647059
0.203922 0.250980 0.764706
0.223529 0.156863 0.701961
0.329412 0.164706 0.654902
0.431388 0.164706 0.592157
0.552941 0.184314 0.552941
0.549020 0.180392 0.549020
0.549020 0.180392 0.545098
0.549020 0.180392 0.549020
0.172549 0.325490 0.639216
0.203922 0.345098 0.717647
0.309804 0.360784 0.819608
0.341192 0.258824 0.784314
0.482353 0.266667 0.713726
0.627436 0.282353 0.650980
0.631373 0.266667 0.631373
0.635294 0.270588 0.631373
0.635294 0.270588 0.631373
0.207843 0.415686 0.654902
0.223529 0.427451 0.698039
0.313726 0.486275 0.772549
0.439216 0.494118 0.803922
0.498039 0.407843 0.788235
0.635294 0.407843 0.725490
0.701961 0.427451 0.701961
0.701961 0.415686 0.698039
0.698039 0.415686 0.698039
0.231373 0.478431 0.662745
0.250980 0.501961 0.690196
0.325490 0.568627 0.760784
0.450980 0.611765 0.788235
0.596078 0.635294 0.784314
0.643137 0.564706 0.768627
0.749020 0.572549 0.749020
0.749020 0.572564 0.749020
0.749020 0.564721 0.745098
0.290196 0.588220 0.694118
0.301961 0.600000 0.709804
0.345098 0.631373 0.749020
0.458824 0.678431 0.788235
0.607843 0.725490 0.811765
0.717647 0.737255 0.807843
0.764706 0.698024 0.788235
0.792157 0.698039 0.792157
0.788235 0.698039 0.788235
0.411765 0.741176 0.760784
0.403922 0.733333 0.756863
0.443137 0.749020 0.784314
0.525490 0.776471 0.807843
0.650980 0.803922 0.835294
0.764691 0.835279 0.850980
0.858824 0.858824 0.878431
0.858824 0.827451 0.854902
0.874510 0.854902 0.874510
0.478431 0.796078 0.792157
0.474510 0.796078 0.792157
0.517647 0.815686 0.811765
0.611765 0.835294 0.835294
0.733333 0.878431 0.874510
0.811765 0.890196 0.886275
0.886275 0.913725 0.909804
0.941176 0.941176 0.941176
0.929412 0.925490 0.921569
0.470588 0.792157 0.788235
0.474510 0.792157 0.788235
0.513726 0.815686 0.811765
0.576486 0.835294 0.827451
0.698039 0.866667 0.858824
0.788235 0.890196 0.878431
0.878431 0.909804 0.905882
0.937255 0.937255 0.937255
0.925490 0.925490 0.905882
0.145098 0.192157 0.682353
0.152941 0.117647 0.647059
0.196078 0.109804 0.592157
0.278431 0.113725 0.545098
0.396094 0.133333 0.513726
0.490196 0.145098 0.490196
0.482353 0.145098 0.482353
0.474510 0.137255 0.474510
0.474510 0.137255 0.474510
0.168627 0.286275 0.662745
0.207843 0.282353 0.760784
0.243137 0.184314 0.741176
0.317647 0.176471 0.678431
0.435309 0.180392 0.619608
0.560784 0.196078 0.560784
0.556863 0.188235 0.556863
0.549020 0.180392 0.549020
0.537255 0.176471 0.537255
0.184314 0.360784 0.643137
0.219608 0.380392 0.725490
0.321569 0.392157 0.807843
0.356863 0.282353 0.796078
0.482353 0.286275 0.737255
0.615686 0.301961 0.670588
0.643137 0.286275 0.643137
0.643137 0.278431 0.639216
0.635294 0.270588 0.635294
0.219608 0.439216 0.658824
0.254902 0.486275 0.721569
0.337255 0.521569 0.780392
0.458839 0.525505 0.796078
0.486290 0.415702 0.788235
0.619608 0.431373 0.737255
0.701961 0.435309 0.701961
0.701961 0.423545 0.701961
0.698039 0.411765 0.694118
0.250980 0.517662 0.666667
0.278431 0.552956 0.709804
0.380392 0.635294 0.772549
0.474525 0.643153 0.788235
0.623529 0.662745 0.792157
0.643137 0.588251 0.772549
0.760784 0.615686 0.760784
0.752941 0.584314 0.749020
0.749020 0.564721 0.745098
0.321569 0.631373 0.713726
0.345098 0.658824 0.737255
0.419608 0.705882 0.776471
0.549020 0.756848 0.811765
0.694118 0.792142 0.827451
0.772534 0.803906 0.835294
0.780392 0.741161 0.807843
0.800000 0.721569 0.796078
0.796078 0.709804 0.792157
0.423529 0.745098 0.772549
0.427451 0.749020 0.772549
0.486275 0.784314 0.803922
0.603922 0.819608 0.831373
0.721569 0.847059 0.854902
0.815686 0.870588 0.878431
0.894118 0.898039 0.905882
0.890196 0.870588 0.886275
0.870588 0.847059 0.870588
0.478431 0.796078 0.792157
0.478431 0.796078 0.792157
0.525490 0.815686 0.811765
0.619623 0.839216 0.839216
0.749020 0.878431 0.874510
0.823529 0.890196 0.890196
0.898039 0.917647 0.913725
0.945098 0.945098 0.941176
0.937255 0.937255 0.937255
0.482353 0.796078 0.792157
0.482353 0.796078 0.796078
0.509804 0.811765 0.807843
0.600000 0.839216 0.835294
0.729412 0.878431 0.874510
0.792157 0.886275 0.882353
0.882353 0.913725 0.909804
0.937255 0.937255 0.937255
0.949020 0.949020 0.949020
