tools/luts_backup/Kodak Elite Chrome 200_CIN.cube
# (C) 2014 VisionColor & Patchflyer [www.vision-color.com]
# Generator: VC Patchmatch v.2.1.1 [64/53]
# All work and no play makes Jack a dull boy.
# LUT generated from: Kodak Elite Chrome 200_Cineon
LUT_3D_SIZE 9
0.090181 0.090181 0.090181
0.196933 0.089174 0.094209
0.259037 0.093294 0.104860
0.298741 0.102144 0.109804
0.339086 0.113741 0.113741
0.380468 0.127382 0.129183
0.426307 0.148592 0.148592
0.458564 0.156741 0.156741
0.478401 0.156863 0.156863
0.110658 0.199771 0.087037
0.215671 0.215885 0.105959
0.286473 0.219059 0.126558
0.339239 0.215366 0.142702
0.379767 0.218997 0.153933
0.413489 0.221866 0.160342
0.445930 0.225528 0.167330
0.470344 0.228794 0.169680
0.494240 0.246525 0.181125
0.135195 0.276127 0.110811
0.217838 0.291569 0.127016
0.294713 0.304784 0.147341
0.369177 0.318334 0.177981
0.415991 0.313481 0.193271
0.452125 0.309728 0.200931
0.475624 0.311223 0.208499
0.493935 0.306004 0.200778
0.511315 0.311070 0.207340
0.152560 0.330816 0.135317
0.216892 0.349554 0.148653
0.270146 0.361975 0.159060
0.371832 0.388830 0.198215
0.452979 0.403174 0.235080
0.496620 0.409674 0.254673
0.521782 0.406561 0.265476
0.541466 0.404944 0.270390
0.547051 0.384924 0.259861
0.170443 0.388220 0.158694
0.229282 0.412909 0.174594
0.277256 0.429267 0.185977
0.351110 0.440986 0.206241
0.464942 0.476478 0.262882
0.527337 0.486091 0.295659
0.563897 0.492287 0.314092
0.584283 0.492348 0.328588
0.595666 0.485756 0.326940
0.197757 0.450446 0.191714
0.251652 0.470130 0.207645
0.299992 0.480903 0.217624
0.362310 0.489815 0.232273
0.465492 0.513695 0.272862
0.541985 0.533684 0.321324
0.581628 0.542351 0.343969
0.610224 0.549828 0.364202
0.612848 0.536187 0.356481
0.225895 0.501244 0.221073
0.269963 0.510857 0.231754
0.310246 0.518517 0.239963
0.370336 0.526909 0.254368
0.472938 0.545647 0.293187
0.551812 0.566949 0.339208
0.590326 0.572869 0.359228
0.618982 0.581933 0.382422
0.637964 0.585412 0.400000
0.246342 0.534386 0.241672
0.281834 0.542229 0.248600
0.330785 0.547997 0.258152
0.393133 0.557946 0.276951
0.484901 0.572900 0.312596
0.565301 0.593408 0.356085
0.600275 0.603113 0.374609
0.622461 0.606348 0.391485
0.643122 0.611597 0.411688
0.262730 0.560754 0.254917
0.294286 0.561883 0.257023
0.359014 0.571649 0.274174
0.431891 0.581842 0.296300
0.505882 0.592523 0.331487
0.570642 0.616480 0.363561
0.609644 0.628351 0.391760
0.627405 0.631922 0.410132
0.643122 0.635279 0.423499
0.100099 0.092073 0.201389
0.197024 0.093538 0.189517
0.263890 0.106477 0.188388
0.311070 0.118776 0.190433
0.351781 0.126040 0.192538
0.391943 0.137606 0.199832
0.433600 0.156649 0.215915
0.466194 0.166354 0.221164
0.485023 0.168154 0.222507
0.110231 0.198856 0.193637
0.225437 0.215152 0.215000
0.305669 0.141939 0.145388
0.338323 0.118257 0.118196
0.379461 0.127443 0.127535
0.424201 0.149386 0.149447
0.457038 0.160006 0.156741
0.476631 0.170077 0.168887
0.494575 0.232547 0.230320
0.132082 0.279728 0.209537
0.173434 0.322515 0.156893
0.350530 0.361944 0.201236
0.416022 0.312901 0.194247
0.437781 0.281590 0.187106
0.459297 0.270329 0.184604
0.477699 0.260288 0.180850
0.497719 0.271824 0.197482
0.503075 0.288121 0.242832
0.143984 0.338140 0.217197
0.170871 0.387701 0.161593
0.280034 0.425696 0.186954
0.462257 0.474006 0.263890
0.506706 0.434760 0.268711
0.519738 0.402991 0.263432
0.527794 0.381292 0.254582
0.529229 0.355444 0.241917
0.522942 0.348852 0.262730
0.163729 0.396490 0.226688
0.200076 0.451881 0.192782
0.282902 0.478218 0.214389
0.395392 0.496223 0.243229
0.541711 0.533867 0.321294
0.573693 0.519585 0.331182
0.590570 0.503807 0.334569
0.591608 0.483742 0.329320
0.583917 0.464332 0.333471
0.194064 0.455177 0.248234
0.223270 0.499062 0.220890
0.290684 0.515373 0.235874
0.372793 0.527337 0.256077
0.516594 0.557214 0.317266
0.590570 0.573083 0.358770
0.614069 0.570397 0.376562
0.620569 0.553521 0.374701
0.618952 0.536309 0.384771
0.219883 0.502037 0.267124
0.246189 0.534844 0.241398
0.301915 0.543297 0.252293
0.378119 0.554711 0.271153
0.504906 0.576806 0.322637
0.587366 0.599634 0.368109
0.620752 0.605463 0.390570
0.638819 0.602228 0.410010
0.638422 0.584253 0.423682
0.242802 0.535210 0.282750
0.267491 0.558923 0.261265
0.321324 0.564019 0.269413
0.405676 0.575372 0.292943
0.505821 0.593347 0.333165
0.583581 0.618616 0.376623
0.618524 0.627070 0.402869
0.639429 0.630579 0.418097
0.644099 0.614649 0.435645
0.259709 0.561517 0.288579
0.309941 0.568109 0.299077
0.366918 0.573632 0.311955
0.436377 0.582818 0.329595
0.510979 0.598230 0.359106
0.577020 0.620844 0.394965
0.608667 0.630304 0.417884
0.630365 0.634638 0.431250
0.646540 0.635340 0.440345
0.107454 0.102022 0.264866
0.192325 0.103792 0.263371
0.261814 0.110597 0.257023
0.318822 0.129244 0.256596
0.360235 0.138643 0.254307
0.403265 0.151217 0.261112
0.442390 0.166506 0.270207
0.472969 0.174350 0.273594
0.484260 0.172335 0.272496
0.124910 0.197879 0.273045
0.145632 0.143679 0.303014
0.313268 0.158846 0.307256
0.359716 0.138918 0.254459
0.400305 0.148836 0.243137
0.437873 0.162783 0.242283
0.468635 0.169650 0.242222
0.484260 0.179629 0.245396
0.493935 0.228092 0.278386
0.137758 0.265202 0.278538
0.185885 0.316991 0.333745
0.322210 0.316503 0.324010
0.400610 0.248814 0.244724
0.421149 0.188113 0.186526
0.455085 0.162173 0.162173
0.476204 0.177462 0.175296
0.492409 0.229038 0.228489
0.500237 0.278843 0.283146
0.174350 0.346075 0.304021
0.190311 0.405646 0.312840
0.246708 0.409308 0.249760
0.459174 0.460517 0.304875
0.507073 0.398688 0.275792
0.506523 0.336934 0.228351
0.507195 0.307591 0.214237
0.507866 0.305364 0.243473
0.524559 0.343053 0.299870
0.187076 0.407843 0.313359
0.199863 0.460639 0.298924
0.240848 0.484504 0.239628
0.370703 0.508049 0.265660
0.565881 0.552697 0.354101
0.597711 0.528435 0.349981
0.588983 0.478630 0.327001
0.572625 0.442908 0.321630
0.572290 0.441016 0.345892
0.207309 0.465919 0.331518
0.222354 0.503716 0.303410
0.247776 0.532891 0.244053
0.348913 0.548882 0.265415
0.535653 0.584070 0.340276
0.618738 0.602991 0.390845
0.631891 0.581964 0.397162
0.621118 0.545739 0.390234
0.618372 0.529809 0.401495
0.229740 0.508873 0.344457
0.243381 0.538231 0.307744
0.269932 0.556573 0.261906
0.363348 0.568627 0.282475
0.504036 0.592767 0.335149
0.601587 0.621912 0.390906
0.637659 0.628321 0.417029
0.644434 0.603876 0.433387
0.635615 0.579492 0.432197
0.250797 0.542962 0.355016
0.271550 0.562615 0.319005
0.312139 0.568627 0.301183
0.395483 0.577081 0.317418
0.497658 0.595941 0.353674
0.585779 0.623407 0.400183
0.621759 0.633295 0.426184
0.645838 0.634791 0.441077
0.649134 0.616663 0.453956
0.284520 0.572412 0.375006
0.317540 0.573419 0.361120
0.363897 0.576959 0.339544
0.447364 0.585657 0.361669
0.516594 0.601495 0.389136
0.584466 0.625452 0.424689
0.614862 0.635279 0.438087
0.635096 0.638453 0.451057
0.650935 0.639216 0.462898
0.110872 0.106691 0.298924
0.190341 0.108186 0.307469
0.257237 0.117769 0.311009
0.321202 0.135317 0.311009
0.367987 0.147982 0.308537
0.407050 0.156863 0.306127
0.445319 0.171603 0.315373
0.471412 0.175204 0.313359
0.482368 0.167727 0.308415
0.138369 0.208408 0.322972
0.117403 0.116579 0.329046
0.254917 0.125460 0.357275
0.374121 0.158236 0.358923
0.410834 0.162051 0.325170
0.443793 0.169894 0.312840
0.471290 0.175753 0.305852
0.482795 0.179538 0.300938
0.489326 0.224735 0.316503
0.152926 0.271519 0.332219
0.168185 0.283177 0.380072
0.247013 0.258335 0.395605
0.411017 0.271977 0.399725
0.443793 0.207279 0.321965
0.468910 0.178317 0.286809
0.484718 0.185367 0.279332
0.491096 0.223941 0.293065
0.496864 0.269078 0.318212
0.176608 0.328893 0.346960
0.217472 0.394537 0.414343
0.283940 0.409094 0.425666
0.415076 0.418738 0.417273
0.481819 0.336706 0.327276
0.476539 0.256703 0.256641
0.490425 0.230838 0.231632
0.502647 0.279789 0.284459
0.533288 0.343542 0.344060
0.224826 0.413031 0.385565
0.261479 0.474128 0.428046
0.277470 0.499763 0.412085
0.315312 0.479622 0.320195
0.536919 0.526055 0.396124
0.564233 0.467247 0.349752
0.547570 0.393790 0.293843
0.547356 0.389349 0.320378
0.581048 0.437110 0.384070
0.254490 0.475563 0.413855
0.270573 0.518944 0.426032
0.267369 0.545525 0.386603
0.297246 0.533654 0.302495
0.491081 0.564263 0.354971
0.609857 0.591516 0.412177
0.628870 0.567468 0.407507
0.618189 0.528832 0.401984
0.625605 0.528405 0.433936
0.272770 0.519432 0.429511
0.282567 0.552941 0.425147
0.286992 0.568322 0.378912
0.313756 0.566735 0.303197
0.461173 0.585534 0.341070
0.599298 0.625757 0.410163
0.643885 0.632807 0.441138
0.644099 0.597864 0.445228
0.645655 0.580072 0.461860
0.292454 0.557671 0.442847
0.308324 0.577234 0.434699
0.320684 0.577295 0.387366
0.365057 0.576715 0.342351
0.484016 0.591913 0.373724
0.582788 0.624414 0.422522
0.626001 0.637629 0.445106
0.650263 0.638453 0.463874
0.650782 0.613550 0.476112
0.323583 0.584710 0.465553
0.335668 0.583947 0.436927
0.350103 0.580224 0.384649
0.430610 0.590509 0.392676
0.517510 0.604944 0.421576
0.581933 0.629694 0.453010
0.621027 0.645167 0.461830
0.636988 0.639643 0.466773
0.650935 0.637293 0.484077
0.117525 0.113741 0.327459
0.187900 0.113252 0.346654
0.252659 0.122164 0.356786
0.313695 0.135958 0.359594
0.374243 0.156466 0.358709
0.417487 0.169528 0.358068
0.448463 0.178347 0.356329
0.471931 0.178347 0.353399
0.482216 0.172274 0.348882
0.149203 0.224765 0.368475
0.122072 0.111208 0.356878
0.234867 0.131075 0.397162
0.335088 0.152621 0.409949
0.421729 0.175235 0.403571
0.452766 0.183566 0.379065
0.470954 0.178927 0.360235
0.481880 0.182254 0.352300
0.488563 0.225772 0.357824
0.167483 0.284611 0.381415
0.181186 0.292515 0.428565
0.182956 0.196811 0.414130
0.334478 0.218296 0.456336
0.464576 0.244938 0.448432
0.473762 0.189364 0.382986
0.481849 0.186526 0.352148
0.489143 0.226169 0.347784
0.503899 0.279423 0.368566
0.181521 0.333165 0.389349
0.200961 0.362493 0.436439
0.243076 0.373877 0.466712
0.334112 0.359106 0.476234
0.495094 0.378027 0.482887
0.494514 0.277363 0.383169
0.489479 0.228489 0.331182
0.502190 0.273686 0.342657
0.535149 0.332189 0.384131
0.217899 0.396063 0.415808
0.259495 0.455787 0.473030
0.304692 0.488350 0.504234
0.370214 0.489265 0.501030
0.499886 0.503502 0.496071
0.545617 0.414603 0.403464
0.513603 0.315999 0.316701
0.534081 0.343816 0.346380
0.578302 0.423651 0.423651
0.268681 0.472297 0.453590
0.313695 0.522484 0.498116
0.353918 0.562371 0.523857
0.359167 0.552422 0.485176
0.400198 0.534722 0.386404
0.588495 0.571405 0.456199
0.611658 0.527382 0.416571
0.609125 0.498039 0.417609
0.627161 0.524132 0.474281
0.305241 0.523186 0.482246
0.342412 0.563867 0.509361
0.362066 0.587701 0.513298
0.346471 0.584649 0.453223
0.375463 0.569146 0.357275
0.576913 0.614313 0.430823
0.640955 0.624079 0.459022
0.647211 0.591241 0.466804
0.650446 0.583581 0.499519
0.335912 0.564446 0.502159
0.364233 0.590570 0.517388
0.368322 0.592096 0.491096
0.358434 0.584833 0.424781
0.427710 0.590967 0.390906
0.557565 0.621302 0.442206
0.626734 0.644495 0.462745
0.650935 0.638086 0.482612
0.650935 0.613581 0.505150
0.366674 0.594110 0.521569
0.381201 0.595758 0.505272
0.374945 0.591302 0.466682
0.401984 0.595850 0.440375
0.473213 0.605982 0.449409
0.556664 0.624018 0.486336
0.611688 0.641230 0.488807
0.638636 0.645991 0.481209
0.650935 0.635401 0.496345
0.121279 0.111025 0.356939
0.192111 0.125521 0.386938
0.258213 0.135286 0.402258
0.314977 0.146822 0.408911
0.371130 0.160067 0.411627
0.423896 0.177798 0.404303
0.459449 0.191348 0.404669
0.476295 0.187839 0.399207
0.482338 0.172641 0.383459
0.165927 0.248295 0.413703
0.127260 0.109865 0.388159
0.226230 0.135622 0.428840
0.315068 0.157351 0.453285
0.400854 0.184604 0.456214
0.461799 0.198062 0.447974
0.478492 0.191043 0.422980
0.485969 0.186709 0.400702
0.497292 0.239475 0.406073
0.186313 0.309728 0.434119
0.202304 0.310582 0.467018
0.140352 0.127794 0.421180
0.280201 0.169711 0.474769
0.411490 0.207034 0.492134
0.484230 0.209110 0.471534
0.490242 0.201511 0.428565
0.500389 0.242527 0.417914
0.521965 0.307836 0.433021
0.194736 0.349310 0.434852
0.220371 0.375433 0.479896
0.238468 0.375280 0.507927
0.279133 0.320485 0.493324
0.423941 0.338308 0.531792
0.524407 0.332082 0.511009
0.506950 0.257359 0.441047
0.523308 0.305791 0.433204
0.557519 0.368170 0.460426
0.212436 0.390967 0.442420
0.237522 0.431403 0.487556
0.266331 0.453285 0.520165
0.323903 0.454078 0.524895
0.424277 0.454765 0.542779
0.558801 0.463767 0.548577
0.543633 0.352636 0.457038
0.550774 0.358434 0.436347
0.593774 0.442908 0.489387
0.260777 0.455848 0.473426
0.309636 0.510399 0.526879
0.364935 0.555627 0.574212
0.388861 0.548211 0.566613
0.464546 0.550317 0.564202
0.562554 0.555871 0.557702
0.594476 0.486366 0.477363
0.579278 0.424140 0.424994
0.629053 0.525628 0.522789
0.316747 0.522454 0.513115
0.369421 0.568689 0.555413
0.414649 0.601587 0.581384
0.435004 0.609033 0.580194
0.442359 0.596613 0.546304
0.491890 0.580560 0.468330
0.624903 0.605280 0.503014
0.647852 0.582208 0.498756
0.652064 0.585321 0.544060
0.364019 0.568292 0.541741
0.407385 0.602380 0.566430
0.428199 0.611261 0.567773
0.436469 0.612329 0.552422
0.441047 0.608179 0.515755
0.479835 0.608942 0.454963
0.609949 0.639765 0.490974
0.650782 0.635645 0.498329
0.652979 0.620203 0.543969
0.401740 0.603937 0.560113
0.424598 0.610986 0.560174
0.435340 0.612085 0.551995
0.461250 0.616358 0.550042
0.488899 0.617517 0.526543
0.544823 0.627344 0.530114
0.594965 0.639216 0.532830
0.634485 0.648829 0.525811
0.652491 0.643793 0.531853
0.126528 0.108522 0.388220
0.192538 0.126253 0.416663
0.257847 0.142916 0.440589
0.315618 0.156405 0.454444
0.375341 0.175784 0.458015
0.424994 0.193301 0.456367
0.463142 0.201236 0.450538
0.479835 0.192172 0.438392
0.483497 0.177157 0.417365
0.187900 0.275059 0.454414
0.127932 0.108278 0.416266
0.220157 0.136934 0.451179
0.300298 0.162387 0.480964
0.383368 0.190799 0.491615
0.451423 0.205875 0.484932
0.482216 0.200839 0.470100
0.492409 0.199313 0.450965
0.505974 0.252506 0.452094
0.215427 0.342535 0.477546
0.213748 0.320104 0.495125
0.158328 0.155428 0.452796
0.268681 0.188907 0.492470
0.378058 0.225193 0.523186
0.468544 0.236088 0.511131
0.500786 0.216159 0.488106
0.513573 0.265263 0.474861
0.535729 0.324163 0.487282
0.221012 0.377172 0.479927
0.240726 0.393896 0.513848
0.252720 0.379889 0.529717
0.253788 0.290776 0.508293
0.364431 0.311131 0.543908
0.492409 0.319829 0.547082
0.525811 0.288182 0.511559
0.541833 0.332982 0.505089
0.574090 0.396399 0.518486
0.229038 0.411353 0.482673
0.252720 0.437324 0.516899
0.276402 0.450629 0.542504
0.310826 0.443793 0.551568
0.358144 0.414603 0.551537
0.512200 0.439490 0.589105
0.572534 0.404776 0.557397
0.576806 0.403693 0.532280
0.607691 0.474769 0.548669
0.257267 0.455451 0.496803
0.292149 0.493141 0.538109
0.322637 0.514824 0.566735
0.347662 0.513695 0.571801
0.411475 0.518181 0.582879
0.509941 0.524376 0.593256
0.606836 0.522210 0.596338
0.607569 0.474708 0.546899
0.635004 0.538933 0.573083
0.307836 0.509544 0.526635
0.367773 0.559380 0.578546
0.418769 0.594263 0.615320
0.449287 0.604730 0.623713
0.470954 0.593133 0.613489
0.539086 0.596796 0.609857
0.604883 0.592126 0.598444
0.634150 0.550317 0.549035
0.647700 0.584802 0.590295
0.372473 0.568597 0.564843
0.423804 0.606104 0.600458
0.449683 0.614801 0.605768
0.470466 0.616205 0.606256
0.501915 0.622766 0.605005
0.527550 0.627344 0.591119
0.560754 0.626459 0.549310
0.647578 0.637415 0.550164
0.654658 0.621363 0.592157
0.422675 0.612024 0.590326
0.444160 0.613489 0.591791
0.462684 0.615717 0.593317
0.495949 0.621942 0.594812
0.528862 0.628656 0.594781
0.560662 0.635004 0.590967
0.590692 0.642664 0.584283
0.628473 0.650874 0.581994
0.654902 0.650935 0.582818
0.126833 0.106661 0.415290
0.192782 0.125643 0.439551
0.257420 0.150393 0.466255
0.312810 0.166476 0.486000
0.371252 0.184237 0.491646
0.429847 0.205631 0.491890
0.464485 0.204318 0.479835
0.482338 0.202396 0.470649
0.489754 0.186740 0.458473
0.196231 0.286259 0.483955
0.146456 0.137331 0.448920
0.229587 0.165743 0.476448
0.297520 0.190555 0.506676
0.374853 0.214633 0.522576
0.448920 0.234195 0.520531
0.478004 0.216892 0.497108
0.498482 0.210086 0.486519
0.518761 0.274266 0.487373
0.232151 0.362371 0.509270
0.228244 0.331823 0.516838
0.246952 0.280827 0.505791
0.307866 0.291814 0.523949
0.391241 0.310918 0.552514
0.474556 0.317662 0.554864
0.507378 0.294011 0.524285
0.524224 0.281407 0.509514
0.548943 0.341588 0.518059
0.244266 0.401648 0.515160
0.262364 0.411017 0.538231
0.292363 0.401343 0.543053
0.321416 0.378088 0.541802
0.399695 0.391913 0.568475
0.495308 0.402106 0.588464
0.545556 0.377325 0.560845
0.555779 0.357183 0.540307
0.585351 0.420264 0.556207
0.250278 0.431861 0.517449
0.274083 0.451362 0.543481
0.312474 0.459510 0.557183
0.357153 0.462409 0.569543
0.397528 0.451179 0.578363
0.499397 0.470619 0.609216
0.571160 0.456245 0.595514
0.592157 0.434669 0.576196
0.617273 0.494606 0.587762
0.271275 0.466804 0.525444
0.300206 0.493294 0.556786
0.330480 0.498146 0.565301
0.378912 0.509789 0.580285
0.440894 0.523247 0.603082
0.488594 0.513420 0.613062
0.581231 0.519219 0.621546
0.621088 0.500816 0.603937
0.636408 0.547631 0.604273
0.309483 0.510246 0.547723
0.351354 0.542168 0.583062
0.381231 0.549706 0.592248
0.416632 0.556970 0.602045
0.468025 0.569421 0.616480
0.522148 0.576623 0.627863
0.571618 0.569451 0.628260
0.637842 0.564477 0.623529
0.649805 0.588159 0.616938
0.368475 0.559838 0.577386
0.421118 0.597681 0.618799
0.451972 0.608820 0.627375
0.475349 0.611780 0.629877
0.505913 0.615564 0.634150
0.546319 0.628595 0.643244
0.585382 0.632593 0.640803
0.634791 0.627253 0.628382
0.658228 0.626276 0.628321
0.431220 0.611811 0.613886
0.452674 0.613947 0.615106
0.472633 0.615534 0.617334
0.507591 0.623224 0.621576
0.544793 0.632715 0.626795
0.575769 0.639399 0.624506
0.597894 0.645624 0.621759
0.631220 0.655818 0.627192
0.659205 0.655299 0.627039
0.121584 0.101961 0.439216
0.194339 0.130861 0.460426
0.256199 0.155276 0.486275
0.306401 0.174014 0.512535
0.368750 0.196323 0.519585
0.427558 0.215610 0.521019
0.463874 0.210513 0.507927
0.478950 0.192538 0.489815
0.494118 0.192172 0.482368
0.203220 0.295171 0.504967
0.251316 0.288518 0.507927
0.293156 0.292210 0.518425
0.335485 0.299046 0.533684
0.404181 0.313787 0.556634
0.464454 0.318303 0.559991
0.497627 0.307897 0.538231
0.510613 0.287388 0.516930
0.524498 0.284153 0.509453
0.242863 0.376257 0.533257
0.282902 0.378485 0.536248
0.319036 0.378851 0.541314
0.364538 0.386236 0.556420
0.435401 0.400946 0.583551
0.496559 0.404822 0.590112
0.537011 0.389227 0.573236
0.553155 0.369848 0.554162
0.557092 0.356542 0.541009
0.260746 0.421180 0.544060
0.301823 0.429572 0.549554
0.346960 0.443336 0.562310
0.397467 0.452277 0.578912
0.462898 0.466529 0.597742
0.520684 0.474006 0.612055
0.562646 0.463600 0.600549
0.585107 0.444709 0.584741
0.592126 0.436316 0.577935
0.266667 0.450996 0.545068
0.313207 0.465126 0.557061
0.364782 0.481117 0.572931
0.427222 0.502647 0.599847
0.490059 0.513695 0.615534
0.541955 0.521599 0.624628
0.581140 0.517113 0.621973
0.607111 0.509972 0.615290
0.621546 0.503655 0.605859
0.286870 0.483406 0.553948
0.324254 0.491249 0.562707
0.375219 0.508690 0.579339
0.446754 0.532219 0.605920
0.510063 0.549340 0.623835
0.557610 0.560601 0.630915
0.591272 0.560235 0.632715
0.621210 0.557885 0.630121
0.639704 0.551415 0.622553
0.324651 0.523186 0.576165
0.355749 0.524132 0.577844
0.396429 0.537285 0.590539
0.461982 0.559747 0.613977
0.522545 0.576867 0.628473
0.563989 0.590112 0.637446
0.599115 0.592584 0.641535
0.627405 0.592798 0.641321
0.654505 0.591913 0.635554
0.369329 0.559777 0.595697
0.398016 0.565576 0.601953
0.437110 0.578790 0.614893
0.483040 0.588983 0.624842
0.531548 0.601099 0.634821
0.572412 0.613794 0.642145
0.603906 0.625513 0.650477
0.634577 0.627344 0.655818
0.659205 0.627253 0.652186
0.427466 0.600000 0.623499
0.451484 0.608789 0.627497
0.476173 0.611872 0.630671
0.506218 0.617243 0.633814
0.545068 0.629389 0.641413
0.580621 0.637201 0.651331
0.605890 0.645899 0.655482
0.632380 0.656031 0.659388
0.662715 0.662715 0.662715
