tools/luts_backup/Kodak Vision3 50D 5203 (DP)_FPE.cube
# (C) 2014 VisionColor & Patchflyer [www.vision-color.com]
# Generator: VC Patchmatch v.2.1.1 [64/53]
# All work and no play makes Jack a dull boy.
# LUT generated from: Kodak Vision3 50D 5203 (DP)_FPE
LUT_3D_SIZE 9
0.034607 0.038911 0.039475
0.035172 0.033631 0.033661
0.046723 0.035111 0.031724
0.067750 0.037507 0.031067
0.106126 0.041642 0.033265
0.118227 0.042237 0.033249
0.174029 0.043046 0.034043
0.290822 0.043961 0.040192
0.324788 0.043885 0.041947
0.033555 0.076341 0.039200
0.055085 0.082872 0.038453
0.097261 0.051591 0.032532
0.114794 0.044221 0.033265
0.140337 0.043351 0.033097
0.168673 0.043015 0.033738
0.211368 0.043107 0.035996
0.296315 0.044038 0.040467
0.329824 0.043931 0.042222
0.035340 0.115496 0.046647
0.034012 0.121935 0.047379
0.120592 0.149737 0.055024
0.344121 0.140139 0.042679
0.400259 0.099062 0.044388
0.358938 0.061601 0.042298
0.326528 0.048646 0.041566
0.486213 0.057069 0.048966
0.350271 0.044312 0.043305
0.131334 0.239292 0.067643
0.117906 0.238819 0.066590
0.066926 0.229664 0.059785
0.297612 0.296300 0.063340
0.588373 0.253803 0.057588
0.610773 0.154330 0.055619
0.523033 0.082719 0.050477
0.432685 0.050690 0.046876
0.549355 0.069108 0.052567
0.435187 0.416297 0.074464
0.425772 0.415259 0.075242
0.339727 0.399283 0.077836
0.286183 0.381811 0.073259
0.657862 0.463355 0.095277
0.789273 0.346975 0.080110
0.719005 0.192630 0.062303
0.544732 0.079881 0.051804
0.763836 0.202777 0.065675
0.761685 0.584482 0.123980
0.742351 0.572534 0.112657
0.722454 0.572992 0.114305
0.562890 0.527611 0.096590
0.609155 0.530648 0.100328
0.842329 0.511894 0.129122
0.895354 0.471214 0.128008
0.877012 0.386023 0.097093
0.889708 0.383200 0.098940
0.912963 0.681773 0.168673
0.904250 0.672724 0.161898
0.886290 0.665232 0.160479
0.817441 0.640833 0.148989
0.729961 0.607599 0.131579
0.828595 0.635508 0.152575
0.902068 0.604837 0.174716
0.934539 0.569924 0.199557
0.936324 0.532021 0.183551
0.943816 0.724483 0.195117
0.942885 0.723018 0.193881
0.940093 0.721798 0.192676
0.926528 0.719905 0.194125
0.882872 0.697017 0.181140
0.894347 0.702602 0.192233
0.929854 0.700999 0.221454
0.950652 0.662150 0.262119
0.950088 0.634226 0.271061
0.954009 0.753628 0.229999
0.953414 0.752361 0.228397
0.952911 0.752163 0.227848
0.950271 0.757473 0.232715
0.936660 0.758007 0.231373
0.930236 0.756603 0.243290
0.949065 0.753323 0.281498
0.959945 0.726909 0.312413
0.958801 0.706386 0.343893
0.026169 0.030533 0.040345
0.063783 0.038895 0.075441
0.099901 0.041444 0.066163
0.095521 0.038880 0.043687
0.086595 0.038880 0.033387
0.105455 0.041596 0.033295
0.142199 0.042969 0.033112
0.251377 0.043671 0.038102
0.314900 0.043977 0.041413
0.030533 0.097887 0.123430
0.056703 0.080003 0.095369
0.149386 0.057572 0.054841
0.139712 0.045457 0.035492
0.160311 0.044038 0.033631
0.176898 0.043122 0.034195
0.197452 0.042939 0.035294
0.256275 0.043824 0.038361
0.346639 0.044205 0.043107
0.031327 0.141726 0.072511
0.063828 0.147601 0.065431
0.166110 0.182971 0.061158
0.389609 0.145953 0.045136
0.442023 0.099413 0.046769
0.436790 0.072145 0.045991
0.372259 0.051743 0.043854
0.331365 0.044968 0.042252
0.491814 0.056809 0.049348
0.119051 0.252567 0.059648
0.157824 0.253117 0.064485
0.215503 0.281834 0.060868
0.399405 0.338735 0.066621
0.636637 0.250767 0.059495
0.608454 0.143069 0.055543
0.589761 0.109667 0.054582
0.539620 0.075975 0.051606
0.605692 0.093675 0.055695
0.460365 0.438727 0.067613
0.439857 0.424292 0.066865
0.480095 0.440833 0.071000
0.453605 0.437217 0.070848
0.694850 0.484291 0.101961
0.798444 0.374090 0.085496
0.788968 0.270283 0.071595
0.731106 0.188556 0.063050
0.730144 0.176318 0.062776
0.764706 0.585260 0.116838
0.761578 0.583642 0.115541
0.745724 0.575662 0.112932
0.655009 0.551720 0.100999
0.731502 0.576104 0.122728
0.863951 0.567330 0.150652
0.895720 0.489403 0.135012
0.877287 0.380819 0.095750
0.859022 0.324681 0.084138
0.922210 0.680140 0.158892
0.915953 0.676646 0.156283
0.908888 0.670039 0.152895
0.860639 0.649668 0.142596
0.822843 0.640574 0.146334
0.898665 0.662989 0.178119
0.934218 0.639094 0.226291
0.937652 0.570504 0.201541
0.933013 0.517037 0.168673
0.945190 0.720485 0.183856
0.944152 0.720256 0.185458
0.940597 0.714443 0.176959
0.927352 0.710216 0.177005
0.886809 0.692866 0.172244
0.893187 0.699535 0.186679
0.930526 0.710506 0.223346
0.946471 0.674342 0.258244
0.949874 0.636164 0.262226
0.952956 0.750988 0.222873
0.952773 0.750759 0.223850
0.952865 0.751385 0.225483
0.950744 0.754086 0.228809
0.938506 0.754681 0.227100
0.922362 0.740139 0.218219
0.934020 0.748989 0.249348
0.952804 0.727153 0.280919
0.958572 0.703792 0.314107
0.026200 0.030625 0.048615
0.034226 0.034363 0.075563
0.072297 0.039841 0.091554
0.117556 0.043412 0.097719
0.146731 0.044068 0.083360
0.159899 0.042954 0.054887
0.139086 0.041947 0.036118
0.224613 0.043153 0.036683
0.295567 0.043977 0.040436
0.030152 0.046647 0.108293
0.038132 0.039551 0.099001
0.140520 0.044709 0.121294
0.199710 0.044572 0.103960
0.233738 0.043870 0.072343
0.221973 0.042741 0.041413
0.176638 0.042405 0.034318
0.216434 0.043168 0.036255
0.289525 0.043961 0.040131
0.035157 0.183948 0.241428
0.035355 0.168826 0.217487
0.153582 0.158236 0.182986
0.329046 0.130495 0.119570
0.385168 0.079774 0.058671
0.399786 0.053651 0.044816
0.336889 0.045853 0.042435
0.281453 0.043992 0.039704
0.308675 0.043977 0.041093
0.037217 0.259434 0.216510
0.036286 0.239139 0.162387
0.195224 0.287419 0.147097
0.438041 0.340032 0.108202
0.619669 0.251026 0.068162
0.633310 0.152819 0.057130
0.602548 0.106676 0.055299
0.566140 0.087495 0.053208
0.509529 0.060380 0.050034
0.160723 0.391836 0.126421
0.220066 0.391485 0.109850
0.360082 0.424964 0.132631
0.550179 0.473899 0.098970
0.724971 0.474495 0.099977
0.819791 0.362036 0.084810
0.781079 0.250889 0.069276
0.746792 0.201968 0.064485
0.717769 0.166171 0.061753
0.602258 0.565087 0.122530
0.621103 0.566033 0.117479
0.643977 0.568414 0.122942
0.721523 0.580484 0.122774
0.797955 0.589303 0.124392
0.889845 0.552514 0.128985
0.915755 0.485817 0.117571
0.897902 0.407263 0.100725
0.869978 0.339300 0.086992
0.881926 0.691554 0.173495
0.872312 0.678157 0.163256
0.882109 0.670863 0.153750
0.885649 0.665293 0.151019
0.886488 0.658518 0.146471
0.920836 0.662974 0.159258
0.938933 0.637385 0.176242
0.945174 0.585031 0.188968
0.927443 0.494469 0.145388
0.945724 0.735119 0.181994
0.944671 0.731838 0.180468
0.941054 0.723369 0.176516
0.934386 0.711772 0.170123
0.932387 0.704234 0.164721
0.937530 0.706905 0.170336
0.946822 0.706004 0.207202
0.952956 0.682475 0.255924
0.950378 0.607355 0.227481
0.954223 0.752178 0.192691
0.954391 0.750027 0.192020
0.954116 0.749660 0.193072
0.951843 0.748043 0.190875
0.944976 0.742611 0.187076
0.938796 0.742031 0.191028
0.946075 0.747707 0.221271
0.950683 0.729412 0.268635
0.956802 0.699092 0.300053
0.027390 0.031876 0.068910
0.028290 0.032776 0.076188
0.039155 0.036088 0.088945
0.078111 0.040208 0.104845
0.119783 0.043397 0.109743
0.161761 0.044511 0.101427
0.205081 0.044297 0.086290
0.289982 0.042100 0.043336
0.314839 0.042741 0.041016
0.028412 0.033814 0.082139
0.029068 0.033738 0.090227
0.062776 0.038499 0.126467
0.142504 0.044312 0.128588
0.205921 0.044709 0.119371
0.248844 0.044007 0.103105
0.254856 0.043565 0.073396
0.226841 0.041398 0.037278
0.279194 0.043931 0.039597
0.035416 0.129335 0.237156
0.036790 0.120760 0.236759
0.041779 0.112535 0.214588
0.283436 0.098421 0.190570
0.374578 0.058915 0.137972
0.407370 0.046311 0.095064
0.394629 0.044831 0.053208
0.298665 0.041489 0.039918
0.284367 0.043915 0.039857
0.044373 0.299657 0.377279
0.044480 0.293034 0.381338
0.047639 0.296376 0.356573
0.318868 0.312337 0.318959
0.529747 0.264088 0.236149
0.556176 0.146166 0.125628
0.522225 0.064927 0.054627
0.473350 0.050538 0.048737
0.396628 0.046571 0.045350
0.045274 0.374441 0.387121
0.043000 0.359152 0.332464
0.062837 0.383307 0.296529
0.386481 0.450935 0.270863
0.654078 0.492012 0.223911
0.785107 0.408896 0.160861
0.764569 0.280751 0.085130
0.741497 0.191287 0.064286
0.710002 0.158434 0.061112
0.133974 0.473610 0.264118
0.171466 0.482612 0.254643
0.331518 0.515770 0.235676
0.542550 0.565209 0.245304
0.777646 0.623346 0.208759
0.878126 0.588861 0.175113
0.914336 0.500114 0.134646
0.890532 0.379721 0.094926
0.844617 0.291310 0.078233
0.671611 0.660044 0.274861
0.680018 0.653223 0.244846
0.718746 0.657496 0.223758
0.768368 0.666835 0.223239
0.852628 0.685420 0.217014
0.919249 0.684871 0.184878
0.945068 0.647974 0.171115
0.950942 0.572335 0.146654
0.938109 0.499580 0.126101
0.908263 0.762463 0.301015
0.903685 0.749111 0.268803
0.914336 0.742138 0.237415
0.920409 0.736522 0.216388
0.927626 0.735149 0.203494
0.938354 0.725200 0.180652
0.951537 0.701457 0.179904
0.953506 0.666712 0.184512
0.952880 0.627741 0.199603
0.949554 0.794858 0.284489
0.951766 0.790448 0.261341
0.951141 0.785962 0.248646
0.947829 0.779614 0.244694
0.947265 0.770596 0.224964
0.948363 0.754986 0.190112
0.955230 0.737423 0.187930
0.956344 0.710002 0.208103
0.956619 0.680934 0.256779
0.028580 0.032975 0.084749
0.028458 0.032868 0.082979
0.031403 0.034501 0.103624
0.050980 0.037324 0.123445
0.072755 0.039307 0.122438
0.117632 0.043091 0.121675
0.199741 0.044663 0.120577
0.354635 0.043870 0.089616
0.425132 0.046250 0.053712
0.029282 0.033906 0.096208
0.029343 0.033509 0.099702
0.038071 0.035981 0.124453
0.082185 0.039689 0.143938
0.131655 0.043488 0.142061
0.186358 0.044785 0.140719
0.226017 0.044465 0.122301
0.284306 0.043595 0.069429
0.282628 0.042267 0.039429
0.036591 0.103136 0.237720
0.036530 0.086885 0.232624
0.036347 0.071275 0.222553
0.147601 0.071015 0.226764
0.295781 0.049317 0.193530
0.368765 0.045014 0.155306
0.356527 0.043977 0.116564
0.362844 0.044099 0.071199
0.320623 0.041169 0.040330
0.046448 0.263111 0.415305
0.045502 0.250965 0.408057
0.043748 0.237552 0.391058
0.071611 0.244388 0.363333
0.441215 0.250324 0.328649
0.537530 0.161395 0.239292
0.522301 0.063935 0.135897
0.486412 0.049317 0.060288
0.419913 0.044785 0.044907
0.052018 0.392004 0.525261
0.052049 0.396063 0.521691
0.053620 0.412634 0.513359
0.109239 0.457404 0.497505
0.510155 0.486931 0.472831
0.673503 0.436530 0.397513
0.695155 0.302037 0.273106
0.649592 0.152804 0.113771
0.649485 0.109682 0.057740
0.054322 0.453193 0.522347
0.055146 0.459205 0.514565
0.061219 0.479316 0.476738
0.148119 0.520653 0.426810
0.560296 0.590219 0.425055
0.793469 0.627741 0.402319
0.878141 0.570718 0.355734
0.869932 0.453315 0.230274
0.838849 0.331548 0.106920
0.252552 0.591379 0.428931
0.249805 0.583963 0.413046
0.310201 0.596078 0.410407
0.473976 0.616663 0.369863
0.668681 0.666621 0.394263
0.857282 0.716991 0.384115
0.928603 0.689784 0.343771
0.942641 0.611322 0.261707
0.933379 0.515145 0.172992
0.737469 0.736645 0.464805
0.760952 0.725658 0.391028
0.760784 0.720516 0.371679
0.778256 0.721401 0.353048
0.831846 0.736370 0.358541
0.900633 0.759731 0.360708
0.947188 0.744152 0.321660
0.955322 0.683848 0.243259
0.953124 0.627649 0.200809
0.885939 0.796460 0.457725
0.905440 0.800534 0.431647
0.914015 0.794797 0.386892
0.915663 0.788434 0.361913
0.920775 0.785367 0.335195
0.933028 0.787549 0.311940
0.950530 0.770230 0.234730
0.956405 0.720928 0.198383
0.957214 0.696223 0.217990
0.029709 0.033951 0.110750
0.029435 0.033631 0.101640
0.029709 0.033768 0.107362
0.032105 0.034562 0.126268
0.046998 0.036881 0.134569
0.051377 0.037186 0.132113
0.137270 0.043641 0.145144
0.441230 0.046860 0.159899
0.497108 0.049439 0.129168
0.029770 0.034028 0.115099
0.029755 0.033936 0.114275
0.030533 0.034012 0.129793
0.050248 0.037263 0.156573
0.093309 0.039704 0.173709
0.105364 0.040543 0.165606
0.146075 0.043473 0.158114
0.262119 0.044160 0.128176
0.431418 0.046693 0.072190
0.037110 0.092241 0.244190
0.035096 0.057099 0.210559
0.034226 0.043839 0.202014
0.076692 0.045533 0.225116
0.201770 0.044221 0.234668
0.236973 0.044526 0.206134
0.278370 0.044511 0.180255
0.378347 0.044678 0.138720
0.411063 0.045808 0.063569
0.043046 0.213062 0.385901
0.044099 0.202564 0.386297
0.044907 0.204944 0.400015
0.043809 0.192416 0.382498
0.227451 0.203876 0.367803
0.445197 0.159075 0.324742
0.513680 0.068147 0.227192
0.502617 0.049378 0.140200
0.497154 0.048844 0.080171
0.052888 0.363027 0.543099
0.052735 0.354238 0.533806
0.052674 0.359213 0.532723
0.054902 0.373541 0.524956
0.235019 0.428672 0.515175
0.588800 0.436439 0.489845
0.670329 0.341253 0.402060
0.668070 0.187839 0.253864
0.629328 0.084504 0.112093
0.058137 0.447547 0.603387
0.059159 0.457115 0.606516
0.065278 0.491432 0.609552
0.093080 0.533471 0.607721
0.306706 0.605585 0.610544
0.665858 0.625559 0.600580
0.775982 0.593072 0.555306
0.793851 0.488106 0.445121
0.806577 0.379126 0.303716
0.081254 0.559426 0.601572
0.075257 0.545922 0.612696
0.082368 0.556085 0.592752
0.121065 0.586023 0.570047
0.307851 0.633585 0.546883
0.690272 0.691478 0.559579
0.864851 0.721202 0.557275
0.917510 0.678614 0.512657
0.920012 0.607492 0.422965
0.451026 0.697124 0.567834
0.405402 0.673381 0.534051
0.385351 0.663600 0.523903
0.435035 0.663233 0.503563
0.563989 0.682979 0.492897
0.747600 0.734691 0.521187
0.898833 0.770382 0.514763
0.951095 0.737926 0.480095
0.954406 0.700679 0.429648
0.728405 0.767956 0.578042
0.764294 0.775402 0.564233
0.767956 0.764126 0.517968
0.773999 0.761028 0.500954
0.796216 0.763806 0.478264
0.846845 0.778958 0.455482
0.904341 0.793210 0.449027
0.950545 0.774624 0.374685
0.963119 0.747860 0.374945
0.030426 0.034363 0.143252
0.030045 0.034150 0.134539
0.029984 0.034134 0.133501
0.030930 0.034104 0.143954
0.032410 0.034623 0.152209
0.038010 0.035996 0.157778
0.124956 0.040635 0.216007
0.429480 0.047761 0.228138
0.532021 0.051545 0.194400
0.029892 0.034058 0.130480
0.029892 0.034028 0.129610
0.030091 0.034150 0.134951
0.036545 0.035798 0.166751
0.068559 0.039155 0.194797
0.080095 0.039277 0.196353
0.069245 0.038743 0.178729
0.231907 0.044083 0.206332
0.529305 0.051438 0.183703
0.035828 0.066514 0.222324
0.035142 0.056504 0.211124
0.033112 0.038819 0.186313
0.041657 0.038590 0.217426
0.144533 0.041855 0.260807
0.202579 0.042191 0.252705
0.184726 0.041825 0.224262
0.335027 0.044572 0.215381
0.481407 0.048768 0.157534
0.042435 0.190997 0.370932
0.042496 0.175311 0.359670
0.042817 0.163058 0.356390
0.043900 0.157382 0.378622
0.077394 0.160723 0.366903
0.317815 0.136690 0.361379
0.389670 0.072190 0.306691
0.500587 0.051942 0.240543
0.540642 0.052201 0.169924
0.051667 0.328267 0.526741
0.051743 0.326650 0.527199
0.051698 0.326772 0.527794
0.050950 0.323888 0.522866
0.077058 0.365835 0.525170
0.371130 0.377874 0.507851
0.564599 0.356344 0.485832
0.675700 0.243427 0.385077
0.661265 0.097063 0.223651
0.057359 0.421103 0.611109
0.058259 0.426474 0.617716
0.058854 0.438285 0.615183
0.067292 0.478340 0.621469
0.153689 0.534966 0.621592
0.500648 0.585580 0.629267
0.677043 0.585718 0.618936
0.760739 0.533761 0.565759
0.789349 0.415366 0.452628
0.067399 0.510552 0.656611
0.074800 0.535164 0.667826
0.079576 0.547845 0.665965
0.105867 0.582376 0.666972
0.239780 0.645777 0.677638
0.542657 0.700969 0.694224
0.772900 0.718105 0.692775
0.842741 0.695537 0.664042
0.861280 0.641596 0.602686
0.188647 0.676234 0.684153
0.138613 0.641810 0.679835
0.121538 0.624598 0.668101
0.150515 0.641733 0.658686
0.244572 0.677119 0.653742
0.485801 0.719371 0.650370
0.777737 0.756634 0.654017
0.904112 0.777325 0.657938
0.926970 0.759380 0.639292
0.474723 0.751431 0.673579
0.537072 0.749966 0.646204
0.416281 0.712123 0.613092
0.417136 0.716869 0.622034
0.510689 0.723384 0.600504
0.629969 0.734173 0.576074
0.776440 0.773571 0.585824
0.920409 0.810575 0.584894
0.956100 0.801923 0.595682
0.030930 0.034882 0.154513
0.030884 0.034852 0.153826
0.031144 0.034974 0.157366
0.032517 0.035248 0.172152
0.032975 0.034989 0.178714
0.033570 0.035370 0.182971
0.102220 0.040482 0.237751
0.337728 0.045212 0.273121
0.509087 0.050568 0.244038
0.030762 0.034714 0.151003
0.030503 0.034424 0.144808
0.030549 0.034470 0.146029
0.032517 0.034791 0.171374
0.056535 0.039307 0.213703
0.073274 0.040330 0.225742
0.118486 0.040558 0.241245
0.227024 0.042878 0.243549
0.534905 0.051682 0.230274
0.034089 0.047120 0.199527
0.034028 0.047013 0.198657
0.033387 0.040421 0.190997
0.035386 0.037186 0.210239
0.070588 0.041306 0.252934
0.152682 0.041840 0.271336
0.179751 0.041611 0.260471
0.250950 0.043336 0.252018
0.516426 0.050935 0.227680
0.042176 0.174853 0.354223
0.042252 0.168475 0.351415
0.041993 0.150210 0.339879
0.042023 0.119448 0.334768
0.043153 0.127764 0.368734
0.146792 0.125200 0.365377
0.327764 0.084245 0.348165
0.434760 0.055161 0.316274
0.558740 0.053025 0.247211
0.048280 0.295979 0.493935
0.049088 0.299733 0.505226
0.049500 0.293782 0.505821
0.049119 0.280125 0.497765
0.052445 0.308705 0.517082
0.179202 0.369757 0.534676
0.434669 0.343420 0.511345
0.582361 0.311711 0.486488
0.680644 0.138125 0.346853
0.056672 0.400412 0.610864
0.058717 0.420142 0.627863
0.058335 0.417090 0.620737
0.062242 0.454200 0.627802
0.110933 0.503807 0.627680
0.406592 0.570062 0.647150
0.573953 0.563943 0.632044
0.671565 0.551766 0.622599
0.772946 0.479240 0.561334
0.063279 0.472969 0.663966
0.074815 0.528847 0.681117
0.074937 0.527962 0.678019
0.110124 0.579751 0.684016
0.278920 0.638697 0.696498
0.503410 0.673945 0.707042
0.704326 0.697688 0.712230
0.776562 0.701015 0.711208
0.830259 0.674891 0.684123
0.108598 0.615152 0.715679
0.114839 0.619974 0.712856
0.134035 0.631388 0.710857
0.173114 0.651698 0.712963
0.316762 0.697307 0.726024
0.518746 0.737758 0.742977
0.709606 0.763882 0.753353
0.838270 0.772839 0.750164
0.874128 0.765133 0.741161
0.289219 0.729931 0.741512
0.315007 0.738399 0.733028
0.222797 0.697215 0.711376
0.219867 0.695201 0.718669
0.354253 0.740978 0.734005
0.454673 0.761105 0.733822
0.589746 0.773434 0.716960
0.832914 0.801266 0.719295
0.914504 0.818601 0.743847
0.031662 0.035294 0.163638
0.031601 0.035248 0.162966
0.031861 0.035447 0.166018
0.033280 0.035630 0.181277
0.033143 0.035386 0.188083
0.033967 0.035676 0.190646
0.063890 0.039872 0.225925
0.215290 0.042145 0.270024
0.421759 0.047547 0.278721
0.032181 0.035782 0.169848
0.032013 0.035569 0.167681
0.032685 0.035996 0.175341
0.053605 0.039338 0.231601
0.068925 0.040726 0.245106
0.055406 0.039338 0.224475
0.175967 0.041810 0.265965
0.365332 0.045579 0.281971
0.482185 0.050050 0.262242
0.038590 0.089433 0.271717
0.032715 0.036805 0.177646
0.032120 0.036408 0.170825
0.033799 0.037018 0.190631
0.054994 0.040146 0.261738
0.074235 0.041535 0.275349
0.158328 0.041993 0.282383
0.351888 0.045426 0.291249
0.504265 0.050629 0.266148
0.042908 0.196612 0.380407
0.040757 0.131838 0.312718
0.040696 0.123629 0.310079
0.042344 0.122805 0.340230
0.043168 0.115023 0.369268
0.083024 0.131456 0.370962
0.248905 0.114000 0.382406
0.398001 0.092897 0.370550
0.568475 0.067216 0.333013
0.047990 0.292271 0.489586
0.047532 0.281834 0.484932
0.048096 0.277760 0.490929
0.048325 0.269230 0.495537
0.048661 0.277668 0.506325
0.154986 0.367407 0.546731
0.348196 0.351736 0.529534
0.516289 0.344030 0.526421
0.638392 0.306981 0.493446
0.056718 0.399405 0.617411
0.059800 0.427482 0.641077
0.058824 0.417502 0.628000
0.059281 0.430732 0.626062
0.069291 0.454139 0.620356
0.361303 0.557855 0.651835
0.532128 0.568536 0.649744
0.631876 0.567025 0.643412
0.713466 0.557290 0.638361
0.062104 0.455756 0.665019
0.066575 0.492241 0.675319
0.136034 0.598703 0.703593
0.234989 0.630594 0.710506
0.365576 0.653269 0.715511
0.547555 0.675959 0.721340
0.694774 0.696254 0.725414
0.761563 0.707851 0.726894
0.796628 0.707012 0.721370
0.076280 0.544137 0.703243
0.084535 0.568750 0.710018
0.230518 0.673869 0.737743
0.276173 0.678813 0.737148
0.468437 0.721202 0.754376
0.588312 0.733776 0.757885
0.726864 0.754162 0.765087
0.827665 0.773312 0.770764
0.851514 0.776394 0.764889
0.169726 0.672236 0.745937
0.192874 0.686793 0.748531
0.286488 0.721355 0.759991
0.397971 0.745113 0.768673
0.395544 0.740566 0.764706
0.454704 0.749050 0.765911
0.624079 0.777234 0.779690
0.813016 0.808194 0.795193
0.877714 0.812207 0.794354
