tools/luts_backup/Kodak Vision3 50D 5203 (DP)_CIN.cube
# (C) 2014 VisionColor & Patchflyer [www.vision-color.com]
# Generator: VC Patchmatch v.2.1.1 [64/53]
# All work and no play makes Jack a dull boy.
# LUT generated from: Kodak Vision3 50D 5203 (DP)_Cineon
LUT_3D_SIZE 17
0.101381 0.101381 0.101381
0.109224 0.080598 0.091035
0.103059 0.071412 0.075196
0.128817 0.071748 0.070344
0.158541 0.071748 0.066651
0.179477 0.071473 0.063874
0.208042 0.070253 0.059205
0.240421 0.069398 0.054170
0.263096 0.069154 0.050904
0.275547 0.068696 0.048737
0.278172 0.068635 0.048310
0.288579 0.068513 0.046815
0.337438 0.068299 0.040253
0.401495 0.069825 0.034241
0.434394 0.070924 0.032349
0.447303 0.071534 0.032715
0.460029 0.072236 0.033326
0.108522 0.184024 0.108522
0.150240 0.184298 0.096468
0.174746 0.130587 0.072755
0.151736 0.086976 0.069215
0.175418 0.074311 0.064546
0.206027 0.071290 0.059571
0.229679 0.069825 0.055665
0.253880 0.069306 0.052247
0.276860 0.068818 0.048646
0.294286 0.068605 0.046021
0.308141 0.068666 0.044221
0.326329 0.068238 0.041505
0.359289 0.068238 0.037537
0.404669 0.069947 0.033997
0.434730 0.070985 0.032349
0.449134 0.071656 0.032807
0.462562 0.072328 0.033417
0.130251 0.236240 0.082246
0.145693 0.238071 0.075654
0.173159 0.230533 0.076967
0.228672 0.181125 0.064424
0.239261 0.136049 0.056306
0.252049 0.103120 0.053498
0.270085 0.083345 0.050202
0.287663 0.074708 0.047333
0.302892 0.070588 0.044923
0.317052 0.069001 0.042908
0.332525 0.068177 0.040558
0.348791 0.067842 0.038392
0.369818 0.068513 0.036469
0.403998 0.070527 0.034180
0.438239 0.072084 0.032624
0.452796 0.071931 0.032990
0.464088 0.072450 0.033509
0.136385 0.265385 0.081147
0.142306 0.265904 0.081849
0.135592 0.268803 0.082155
0.194186 0.259983 0.100282
0.280003 0.229618 0.089876
0.330205 0.206271 0.050752
0.363653 0.187167 0.032563
0.381567 0.160098 0.030304
0.384833 0.127138 0.032807
0.379736 0.100404 0.035248
0.376745 0.083558 0.036072
0.382208 0.075502 0.035676
0.399512 0.074769 0.034730
0.441688 0.087251 0.033478
0.494362 0.108034 0.033265
0.484596 0.086305 0.034363
0.466407 0.072602 0.033631
0.152590 0.299626 0.119020
0.154971 0.301640 0.120150
0.149996 0.310979 0.122438
0.151949 0.316075 0.123110
0.261265 0.304234 0.154086
0.350408 0.287419 0.137972
0.404578 0.269566 0.084962
0.443366 0.252567 0.043275
0.464027 0.228672 0.025269
0.467292 0.197162 0.023407
0.459113 0.162799 0.026429
0.449500 0.131960 0.029847
0.450202 0.112917 0.032349
0.486549 0.126772 0.031708
0.554894 0.175937 0.027741
0.546868 0.149355 0.031373
0.479042 0.077211 0.034363
0.205844 0.345006 0.157443
0.204074 0.345098 0.156985
0.201389 0.354101 0.156619
0.187259 0.362219 0.153506
0.196719 0.362036 0.153597
0.320012 0.355779 0.180728
0.408484 0.346319 0.174441
0.462379 0.323491 0.124636
0.502953 0.299992 0.067689
0.527306 0.272511 0.032944
0.531456 0.240223 0.022248
0.522454 0.208103 0.022553
0.510735 0.178775 0.025177
0.514366 0.160189 0.028199
0.552544 0.176577 0.027283
0.575677 0.189456 0.027070
0.525383 0.121828 0.033509
0.285893 0.389929 0.190005
0.281376 0.387945 0.188602
0.277562 0.392767 0.187594
0.262852 0.398932 0.182132
0.237369 0.402106 0.171695
0.249638 0.401038 0.171633
0.368902 0.405585 0.195254
0.459937 0.395270 0.198093
0.517143 0.368078 0.149233
0.556939 0.339345 0.088029
0.578607 0.305531 0.044663
0.579309 0.267659 0.023468
0.561700 0.227787 0.022553
0.531579 0.178775 0.026246
0.522576 0.140963 0.031434
0.581781 0.201266 0.025879
0.596155 0.212345 0.026368
0.361395 0.431586 0.214389
0.357977 0.429755 0.214511
0.353674 0.431586 0.214939
0.340764 0.434607 0.213077
0.316655 0.435889 0.204990
0.299138 0.436164 0.195804
0.334127 0.438056 0.201602
0.441825 0.451240 0.215488
0.520195 0.431739 0.215915
0.571221 0.403128 0.168231
0.601373 0.369284 0.104143
0.615595 0.327108 0.054124
0.607782 0.279500 0.025971
0.563302 0.214832 0.024506
0.509560 0.133867 0.032197
0.583978 0.211673 0.026520
0.649866 0.290410 0.039796
0.426886 0.471534 0.222873
0.425940 0.470832 0.223941
0.423682 0.471839 0.225223
0.414496 0.473793 0.229191
0.392615 0.472450 0.229587
0.366064 0.468666 0.224674
0.371649 0.469154 0.222202
0.425498 0.478004 0.223423
0.515007 0.484138 0.239170
0.576318 0.459876 0.234714
0.614618 0.430961 0.193347
0.634455 0.390585 0.122148
0.640711 0.343465 0.068009
0.623255 0.293843 0.042344
0.574411 0.230701 0.039353
0.613153 0.264942 0.042802
0.675807 0.355962 0.089982
0.485603 0.509178 0.228550
0.483436 0.508263 0.224216
0.482155 0.509087 0.220737
0.480613 0.511772 0.227756
0.466270 0.511559 0.235233
0.437522 0.505455 0.238712
0.416785 0.498421 0.237400
0.439429 0.501305 0.235080
0.495109 0.511498 0.237888
0.570245 0.499092 0.259159
0.619257 0.483558 0.263279
0.646784 0.461311 0.235111
0.656641 0.419684 0.164797
0.659998 0.386297 0.120638
0.653162 0.367239 0.113573
0.661189 0.368673 0.116320
0.690333 0.412695 0.162493
0.539757 0.545373 0.247532
0.534264 0.542718 0.234257
0.529564 0.542016 0.218723
0.531731 0.543694 0.223941
0.524620 0.543633 0.236240
0.503090 0.539147 0.244358
0.472358 0.529503 0.246250
0.461433 0.522850 0.244511
0.488319 0.526390 0.243778
0.539086 0.534173 0.254887
0.603082 0.509422 0.275486
0.646754 0.509728 0.299046
0.662470 0.496162 0.286442
0.666987 0.466072 0.242481
0.676204 0.458610 0.234974
0.685359 0.457633 0.237385
0.697230 0.459113 0.242313
0.581964 0.574914 0.270665
0.576928 0.571862 0.260410
0.570825 0.569757 0.240269
0.569390 0.568780 0.241917
0.562768 0.566979 0.251255
0.547387 0.562799 0.257481
0.523125 0.555200 0.258000
0.498695 0.546136 0.255467
0.499611 0.543053 0.254429
0.527489 0.547173 0.258701
0.567529 0.551385 0.271153
0.617090 0.529168 0.292882
0.653834 0.533165 0.325017
0.664729 0.521691 0.320592
0.677394 0.508385 0.309087
0.691035 0.503990 0.307408
0.699184 0.496437 0.299443
0.609674 0.594751 0.287327
0.606836 0.592828 0.284031
0.602930 0.590600 0.275456
0.598810 0.588220 0.274723
0.591241 0.585504 0.277531
0.578759 0.581811 0.278355
0.561242 0.576135 0.275547
0.540825 0.569390 0.270604
0.530083 0.564660 0.268315
0.541314 0.565148 0.271550
0.566094 0.569146 0.280034
0.594659 0.568811 0.292302
0.629664 0.553552 0.316869
0.658869 0.549004 0.341283
0.677119 0.539239 0.345342
0.692744 0.531548 0.343267
0.699489 0.524804 0.339635
0.629938 0.608301 0.302495
0.628565 0.607538 0.301305
0.626612 0.606348 0.299351
0.623407 0.604761 0.297948
0.616938 0.602716 0.297887
0.606317 0.599603 0.298039
0.592523 0.595178 0.295476
0.575830 0.589624 0.289433
0.562921 0.585107 0.284947
0.565118 0.584131 0.287785
0.581140 0.586480 0.297215
0.602319 0.587793 0.308843
0.625391 0.580621 0.324590
0.653040 0.569177 0.348363
0.678065 0.562158 0.363500
0.693874 0.555505 0.366217
0.700679 0.548882 0.365728
0.643732 0.616449 0.317021
0.643030 0.616114 0.316258
0.642298 0.615747 0.315465
0.641138 0.615259 0.314549
0.637995 0.614954 0.313970
0.630793 0.614527 0.313695
0.618799 0.612024 0.312993
0.603235 0.607599 0.309422
0.589685 0.602899 0.304784
0.586938 0.600763 0.306127
0.597223 0.601984 0.314946
0.614496 0.603265 0.327489
0.634028 0.598291 0.342290
0.655238 0.589197 0.358434
0.680171 0.579675 0.374975
0.695216 0.574365 0.381170
0.700832 0.568475 0.384863
0.657404 0.623713 0.332708
0.656611 0.623255 0.331792
0.656062 0.622889 0.330938
0.655695 0.622614 0.330541
0.654322 0.622492 0.330663
0.649439 0.622889 0.331304
0.639948 0.623438 0.330388
0.626856 0.621149 0.327184
0.611933 0.616907 0.322606
0.605005 0.614343 0.323033
0.611902 0.615045 0.332464
0.626368 0.615991 0.346288
0.643946 0.611627 0.359686
0.663996 0.604150 0.371283
0.683680 0.596338 0.385107
0.696254 0.591485 0.393927
0.698940 0.586145 0.403082
0.669337 0.629847 0.346593
0.668879 0.629694 0.346197
0.667750 0.629206 0.345312
0.666896 0.628931 0.344671
0.666285 0.629053 0.344640
0.664271 0.629602 0.345129
0.657771 0.630793 0.345861
0.645411 0.631739 0.344915
0.631525 0.629206 0.340826
0.623163 0.626398 0.340063
0.626123 0.626459 0.348821
0.637690 0.626917 0.361364
0.655390 0.622522 0.373999
0.675074 0.615808 0.385473
0.689998 0.609430 0.396216
0.697597 0.604334 0.403418
0.697993 0.598352 0.413123
0.050568 0.065675 0.111055
0.151797 0.070863 0.169070
0.199985 0.065888 0.154604
0.206821 0.063600 0.127230
0.193637 0.062745 0.094331
0.183078 0.066957 0.075074
0.194491 0.069642 0.064057
0.223484 0.069459 0.057008
0.246311 0.069368 0.053468
0.262272 0.069276 0.051118
0.275944 0.068757 0.048707
0.293217 0.068482 0.046113
0.332250 0.068269 0.040772
0.387915 0.069306 0.035187
0.426795 0.070588 0.032593
0.445319 0.071473 0.032654
0.461036 0.072297 0.033356
0.079133 0.197665 0.187228
0.151125 0.164492 0.173495
0.201785 0.108003 0.135622
0.195560 0.077089 0.095277
0.195102 0.070405 0.070985
0.217960 0.069917 0.059236
0.235142 0.069337 0.054963
0.247898 0.069245 0.053101
0.264042 0.069184 0.050782
0.282200 0.068727 0.047852
0.299504 0.068605 0.045350
0.317418 0.068421 0.042817
0.340612 0.067903 0.039429
0.377081 0.068788 0.035981
0.420447 0.070436 0.032990
0.449134 0.071656 0.032837
0.464973 0.072541 0.033539
0.095430 0.255375 0.137331
0.159182 0.238468 0.133455
0.201328 0.239139 0.118288
0.259220 0.195834 0.094820
0.278691 0.156435 0.066896
0.288273 0.115023 0.050782
0.300816 0.088991 0.045777
0.318120 0.079103 0.043061
0.332952 0.075746 0.040864
0.340551 0.072358 0.039734
0.346136 0.069276 0.038911
0.356298 0.068208 0.037659
0.372412 0.068635 0.036316
0.398230 0.069856 0.034516
0.433661 0.071473 0.032685
0.472084 0.081819 0.033600
0.482124 0.082063 0.034180
0.127565 0.289281 0.100679
0.176761 0.278111 0.108888
0.185550 0.279606 0.108705
0.217716 0.276432 0.126314
0.299413 0.244755 0.123537
0.351354 0.217899 0.073976
0.384253 0.194705 0.039368
0.403906 0.171298 0.028992
0.415595 0.153506 0.028016
0.415686 0.130343 0.030610
0.405615 0.100862 0.033570
0.398230 0.081147 0.034730
0.402045 0.073274 0.034485
0.417304 0.071931 0.033417
0.446418 0.076509 0.032898
0.480201 0.088258 0.034089
0.487800 0.085725 0.034455
0.160555 0.318944 0.114778
0.183810 0.310918 0.121370
0.193729 0.315312 0.130434
0.187350 0.322301 0.135012
0.251926 0.319799 0.162783
0.353155 0.301091 0.162112
0.419318 0.276890 0.105409
0.459998 0.256474 0.053620
0.479042 0.237461 0.029908
0.484565 0.216556 0.022858
0.481178 0.184451 0.024109
0.469306 0.147127 0.028199
0.456916 0.115816 0.031891
0.458869 0.101015 0.033051
0.491951 0.118746 0.032319
0.539483 0.155795 0.029755
0.536461 0.138491 0.032013
0.211398 0.354559 0.148470
0.212772 0.346441 0.149477
0.232059 0.352514 0.156252
0.231235 0.361852 0.159457
0.229099 0.367010 0.163241
0.319554 0.367315 0.189578
0.418769 0.356329 0.188388
0.482338 0.326757 0.129152
0.516960 0.300114 0.072602
0.533806 0.277714 0.040101
0.540429 0.251835 0.023621
0.537804 0.222507 0.022187
0.526787 0.193729 0.024353
0.519768 0.170047 0.027161
0.540551 0.176883 0.026734
0.592004 0.217258 0.024079
0.596765 0.213321 0.025360
0.291203 0.396124 0.181247
0.280278 0.386297 0.179782
0.294102 0.389868 0.180636
0.293828 0.396765 0.181003
0.282200 0.402502 0.182162
0.300633 0.407294 0.191928
0.385992 0.414160 0.207248
0.475013 0.402380 0.207492
0.530877 0.369055 0.149569
0.561913 0.340261 0.092454
0.580682 0.313161 0.053910
0.589105 0.285481 0.030060
0.585718 0.257084 0.023529
0.575586 0.230015 0.023102
0.576898 0.216922 0.023590
0.610834 0.240024 0.022980
0.633539 0.261418 0.023499
0.368536 0.437720 0.206027
0.358892 0.430762 0.205295
0.361578 0.430640 0.202884
0.357733 0.433448 0.201205
0.338933 0.434913 0.203861
0.333959 0.438758 0.207004
0.369055 0.445472 0.215854
0.450660 0.456519 0.223270
0.523400 0.438605 0.223453
0.571069 0.409201 0.178851
0.600244 0.380636 0.121782
0.618006 0.350637 0.079393
0.625605 0.319326 0.048508
0.620050 0.284627 0.030243
0.609094 0.255436 0.024384
0.625544 0.265751 0.025483
0.656275 0.303929 0.039521
0.434974 0.477455 0.218601
0.430060 0.474159 0.217441
0.427802 0.472511 0.217655
0.420783 0.473274 0.218418
0.401984 0.472175 0.222904
0.379461 0.470039 0.225132
0.391211 0.473976 0.227237
0.439307 0.483284 0.229129
0.513695 0.490639 0.242741
0.570123 0.468620 0.241978
0.607050 0.443442 0.212543
0.631678 0.414359 0.159869
0.644587 0.381704 0.109514
0.647395 0.343191 0.070085
0.638605 0.305623 0.044999
0.646143 0.309468 0.049195
0.672419 0.356146 0.087999
0.491798 0.513512 0.226810
0.488411 0.512139 0.219516
0.486824 0.511193 0.220951
0.481666 0.510918 0.225284
0.467033 0.509728 0.231510
0.442267 0.505425 0.236301
0.430365 0.502892 0.238224
0.458259 0.508507 0.238712
0.505989 0.517449 0.244297
0.567224 0.512779 0.265812
0.609247 0.493416 0.268406
0.637049 0.470130 0.247318
0.654658 0.439918 0.199985
0.662928 0.406012 0.144350
0.663355 0.373938 0.106416
0.668757 0.374731 0.110170
0.687617 0.413062 0.161822
0.542199 0.547265 0.241917
0.537408 0.545892 0.222721
0.535668 0.546410 0.219242
0.533898 0.546044 0.221958
0.525231 0.543420 0.229129
0.503929 0.538445 0.238499
0.481514 0.532372 0.244785
0.484779 0.531121 0.247898
0.514397 0.535637 0.252018
0.557031 0.541863 0.266636
0.608057 0.528588 0.291630
0.640925 0.513939 0.300084
0.660792 0.492287 0.282078
0.670436 0.466194 0.245457
0.677028 0.444556 0.210254
0.684443 0.443519 0.211322
0.696071 0.461585 0.245533
0.582605 0.575494 0.263340
0.578271 0.573999 0.244022
0.575525 0.575555 0.231937
0.573999 0.576440 0.228275
0.570489 0.572931 0.228641
0.553155 0.566644 0.240208
0.528984 0.558495 0.250828
0.514916 0.551965 0.256535
0.524102 0.550317 0.260441
0.551232 0.554498 0.268894
0.590723 0.557183 0.288273
0.635523 0.544579 0.319860
0.663569 0.530907 0.328771
0.675746 0.512993 0.313512
0.680568 0.500938 0.299260
0.689906 0.496559 0.295659
0.698360 0.499794 0.303899
0.609949 0.594965 0.281773
0.607385 0.593530 0.274418
0.605371 0.594018 0.261448
0.603082 0.594903 0.251865
0.598779 0.591150 0.251286
0.585718 0.586206 0.258824
0.565515 0.579461 0.265446
0.546288 0.572320 0.268193
0.540459 0.567834 0.270115
0.552941 0.568017 0.275273
0.578637 0.572808 0.286900
0.611170 0.571954 0.307897
0.647303 0.561608 0.338628
0.670924 0.546654 0.347082
0.680720 0.536858 0.343572
0.690761 0.531884 0.342199
0.698665 0.527977 0.342748
0.629572 0.608179 0.299229
0.628412 0.607538 0.298131
0.627192 0.607141 0.292454
0.625208 0.606806 0.284520
0.619318 0.604181 0.285252
0.608423 0.600427 0.288914
0.594079 0.595880 0.290105
0.577111 0.590204 0.287053
0.564019 0.585382 0.283970
0.565484 0.584009 0.286809
0.580835 0.586297 0.296300
0.602136 0.588678 0.309087
0.626368 0.582879 0.326513
0.653651 0.572656 0.351720
0.675746 0.562646 0.362951
0.690944 0.556725 0.365637
0.699489 0.551049 0.366247
0.642634 0.615961 0.314946
0.642329 0.615808 0.314916
0.641871 0.615564 0.314031
0.640894 0.615167 0.312047
0.637781 0.614649 0.311467
0.630793 0.614038 0.311589
0.619287 0.611597 0.311345
0.604150 0.607355 0.308415
0.589532 0.602289 0.303197
0.583917 0.599359 0.302647
0.591577 0.599878 0.309880
0.607446 0.602045 0.321111
0.626398 0.599420 0.335241
0.646540 0.591028 0.351415
0.670802 0.580743 0.370245
0.691157 0.574639 0.378058
0.700252 0.569451 0.381567
0.656031 0.622827 0.330510
0.655726 0.622583 0.330144
0.655421 0.622492 0.329900
0.655177 0.622339 0.329778
0.653956 0.622126 0.329747
0.649500 0.622217 0.329992
0.640650 0.622583 0.328923
0.628229 0.620630 0.325872
0.612634 0.616297 0.321050
0.601770 0.612665 0.318669
0.604395 0.612268 0.324437
0.617060 0.613886 0.336553
0.632929 0.612360 0.350500
0.652033 0.605585 0.362524
0.672480 0.597559 0.375525
0.691554 0.590875 0.388373
0.699367 0.586847 0.396582
0.667628 0.629175 0.345190
0.666987 0.628931 0.344732
0.666468 0.628809 0.344335
0.666316 0.628779 0.344213
0.666377 0.628870 0.344396
0.665095 0.629206 0.344701
0.659480 0.630030 0.345251
0.647852 0.630976 0.344579
0.633387 0.628717 0.339940
0.621302 0.624750 0.335210
0.619196 0.623133 0.339330
0.627588 0.623957 0.350927
0.641505 0.622400 0.363134
0.660365 0.616022 0.374792
0.679622 0.608820 0.386999
0.692897 0.602899 0.397742
0.698421 0.598962 0.406653
0.035615 0.058473 0.126680
0.113069 0.067964 0.194827
0.199557 0.072450 0.218906
0.239994 0.073213 0.215366
0.252171 0.070954 0.200229
0.254978 0.067720 0.177249
0.248264 0.063569 0.140780
0.235996 0.061677 0.097780
0.239231 0.063996 0.069612
0.249149 0.067628 0.056733
0.262364 0.069062 0.051484
0.280003 0.068666 0.048127
0.305638 0.068482 0.044434
0.350378 0.068238 0.038605
0.402838 0.069917 0.034150
0.434730 0.070924 0.032380
0.452522 0.071839 0.032959
0.044770 0.120668 0.188479
0.112001 0.087312 0.199252
0.227695 0.082490 0.227695
0.271580 0.076081 0.217258
0.286107 0.070375 0.195926
0.285008 0.064820 0.162875
0.269322 0.060548 0.115511
0.251865 0.062318 0.074678
0.251957 0.067048 0.057557
0.264347 0.068849 0.051545
0.282994 0.068757 0.047791
0.304234 0.068605 0.044709
0.329290 0.068116 0.040986
0.360510 0.068116 0.037263
0.401099 0.069917 0.034302
0.434028 0.070924 0.032441
0.456123 0.072023 0.033143
0.064302 0.268528 0.255436
0.126925 0.245457 0.246647
0.198215 0.212009 0.234714
0.272282 0.178317 0.206058
0.304387 0.137942 0.168276
0.308995 0.098146 0.119722
0.301579 0.082277 0.074189
0.308721 0.077028 0.051453
0.323796 0.072999 0.043214
0.335241 0.070008 0.040375
0.340002 0.068574 0.039643
0.346319 0.067994 0.038727
0.358373 0.067964 0.037354
0.377905 0.068879 0.035889
0.406806 0.070314 0.033997
0.448615 0.072206 0.032898
0.476600 0.075715 0.034333
0.084169 0.315068 0.223941
0.128847 0.297704 0.203708
0.194064 0.276005 0.196231
0.251865 0.282200 0.181918
0.325017 0.252323 0.162844
0.371038 0.228855 0.120790
0.400946 0.203250 0.072480
0.416754 0.177615 0.041413
0.427161 0.157870 0.030213
0.433265 0.140810 0.029297
0.429999 0.119539 0.031403
0.418006 0.095949 0.033539
0.409369 0.078340 0.034272
0.412573 0.071656 0.033661
0.432044 0.072084 0.032715
0.500237 0.115602 0.033051
0.564019 0.181949 0.027314
0.120577 0.342107 0.180179
0.154025 0.334142 0.167971
0.217777 0.319951 0.172854
0.246098 0.327214 0.167147
0.295995 0.329870 0.172824
0.377356 0.305058 0.165286
0.433417 0.279423 0.115511
0.467903 0.255955 0.065309
0.488136 0.234592 0.034760
0.499031 0.217044 0.023346
0.504509 0.198154 0.022889
0.498604 0.171939 0.025727
0.479622 0.135225 0.030030
0.461433 0.100740 0.032624
0.461006 0.086519 0.033234
0.501274 0.114473 0.033631
0.560143 0.176516 0.027924
0.191257 0.371283 0.160647
0.206027 0.368200 0.158907
0.253300 0.358587 0.173342
0.280461 0.364172 0.175265
0.285588 0.370977 0.173739
0.346380 0.377203 0.185092
0.433265 0.357061 0.181735
0.492287 0.326665 0.124239
0.526055 0.297063 0.071199
0.543359 0.270008 0.035798
0.551263 0.247471 0.022400
0.555749 0.230137 0.022156
0.550378 0.211002 0.023651
0.532189 0.178866 0.026581
0.519677 0.151675 0.029450
0.541070 0.165713 0.028351
0.592157 0.212894 0.024659
0.279301 0.404364 0.177279
0.279423 0.401984 0.176638
0.301213 0.395819 0.187625
0.328130 0.400916 0.190249
0.331365 0.407874 0.186740
0.340612 0.413214 0.190311
0.411597 0.423072 0.202731
0.492287 0.402960 0.196323
0.545922 0.368414 0.133272
0.572839 0.330526 0.078325
0.585840 0.297353 0.038376
0.593683 0.278294 0.024903
0.598230 0.265873 0.023774
0.591272 0.245212 0.023346
0.580041 0.221836 0.023743
0.589593 0.221103 0.023865
0.625605 0.252049 0.022827
0.361852 0.444648 0.197818
0.356146 0.440223 0.196170
0.361242 0.435706 0.201816
0.382300 0.439643 0.205051
0.388006 0.446387 0.198978
0.384283 0.449012 0.198734
0.406867 0.453498 0.206790
0.475654 0.463142 0.222385
0.542657 0.441169 0.213931
0.584466 0.406271 0.159045
0.607233 0.367147 0.100023
0.620996 0.339406 0.066545
0.630610 0.325887 0.053376
0.632868 0.306600 0.041505
0.628229 0.282292 0.031525
0.630976 0.273198 0.027283
0.650660 0.292149 0.029725
0.433387 0.484932 0.203952
0.428595 0.481392 0.203189
0.426337 0.477394 0.205966
0.436255 0.478218 0.211063
0.441474 0.483711 0.209628
0.431647 0.484504 0.206760
0.432105 0.484169 0.213443
0.461494 0.488075 0.223362
0.528466 0.494270 0.244053
0.579065 0.472877 0.239689
0.611627 0.444450 0.205859
0.633967 0.414664 0.156359
0.647089 0.392905 0.123461
0.654231 0.370474 0.097154
0.655909 0.342824 0.071489
0.657557 0.326818 0.058076
0.666346 0.335180 0.066163
0.489296 0.518181 0.207095
0.487922 0.517876 0.207187
0.485786 0.515038 0.206607
0.487251 0.513420 0.210758
0.486549 0.515312 0.213901
0.475257 0.515038 0.214603
0.463142 0.512261 0.221256
0.477516 0.513634 0.231754
0.512978 0.519371 0.245518
0.570672 0.517327 0.268376
0.608545 0.499153 0.270054
0.634730 0.478309 0.254475
0.653376 0.454871 0.222400
0.664912 0.430091 0.182666
0.670039 0.401617 0.139559
0.672175 0.380194 0.112154
0.678859 0.382696 0.116426
0.536706 0.548638 0.215244
0.532158 0.550317 0.223178
0.535027 0.548302 0.209781
0.533989 0.545953 0.211276
0.530114 0.544213 0.214359
0.517266 0.541619 0.218967
0.500877 0.537835 0.226932
0.504234 0.537682 0.240146
0.530480 0.542504 0.256168
0.564416 0.546319 0.273259
0.606531 0.535485 0.294102
0.635248 0.520958 0.301152
0.654749 0.503227 0.292546
0.669062 0.481636 0.268162
0.678706 0.456306 0.230655
0.683711 0.433295 0.193942
0.690547 0.429664 0.189639
0.580255 0.577447 0.231693
0.564935 0.578698 0.256504
0.575097 0.576959 0.220432
0.573724 0.575525 0.217990
0.570153 0.572564 0.216953
0.558770 0.568200 0.219821
0.540795 0.562371 0.229831
0.533593 0.559136 0.245914
0.549279 0.561425 0.264561
0.575494 0.566003 0.282109
0.604517 0.563439 0.302007
0.637263 0.552850 0.325139
0.658808 0.539361 0.332555
0.672755 0.521874 0.322606
0.683467 0.504143 0.303899
0.690974 0.485786 0.280278
0.696651 0.477302 0.268956
0.612024 0.597986 0.253056
0.599420 0.599756 0.271580
0.605890 0.596368 0.243015
0.603754 0.596094 0.235782
0.599268 0.593561 0.230045
0.590600 0.588830 0.227756
0.573297 0.583032 0.236515
0.559228 0.577630 0.251713
0.562646 0.576349 0.269657
0.581018 0.579309 0.287022
0.605158 0.581262 0.306371
0.632105 0.576684 0.330602
0.661006 0.569116 0.355840
0.676936 0.555596 0.357580
0.684047 0.540124 0.347631
0.693416 0.525933 0.335454
0.698695 0.518425 0.329381
0.632868 0.610834 0.274540
0.629755 0.611658 0.276432
0.629175 0.609430 0.272068
0.626459 0.608972 0.262852
0.619898 0.606714 0.252872
0.610742 0.602045 0.251926
0.596979 0.597223 0.258366
0.581201 0.591730 0.266209
0.573663 0.588220 0.276188
0.581476 0.588830 0.289921
0.600000 0.592584 0.306828
0.622858 0.593256 0.327459
0.645869 0.588647 0.349523
0.669856 0.579705 0.368933
0.680598 0.567071 0.368383
0.690944 0.555993 0.364660
0.699062 0.547601 0.362554
0.645045 0.617456 0.298283
0.644617 0.617304 0.299809
0.643641 0.616693 0.301305
0.642084 0.616327 0.296818
0.637385 0.615290 0.287388
0.629908 0.613458 0.287449
0.618891 0.610742 0.291203
0.604578 0.606744 0.293431
0.591119 0.602106 0.293675
0.586969 0.599786 0.298070
0.595972 0.601343 0.309300
0.612970 0.604578 0.324071
0.631922 0.603052 0.342107
0.650477 0.596155 0.357031
0.669734 0.584833 0.370794
0.687037 0.575769 0.376165
0.698482 0.569512 0.379705
0.656947 0.623407 0.319310
0.656489 0.623133 0.321019
0.656123 0.622919 0.323003
0.655604 0.622644 0.323827
0.653284 0.622187 0.322515
0.648737 0.621942 0.322332
0.640620 0.622003 0.322240
0.628840 0.620081 0.320867
0.613581 0.615930 0.317601
0.601312 0.612024 0.315099
0.601495 0.611139 0.319646
0.612726 0.612757 0.330877
0.627588 0.613062 0.344915
0.644648 0.607477 0.358221
0.663661 0.599695 0.368963
0.684504 0.591241 0.383032
0.697841 0.587274 0.391302
0.666773 0.629084 0.340703
0.666285 0.628901 0.341009
0.666163 0.628779 0.341558
0.666285 0.628809 0.342138
0.666285 0.628931 0.342870
0.665003 0.629053 0.343267
0.659663 0.629511 0.343816
0.648524 0.630243 0.343084
0.634394 0.628107 0.338445
0.620813 0.623652 0.332372
0.614893 0.620935 0.332921
0.620874 0.621241 0.342931
0.632258 0.621546 0.355077
0.648646 0.616724 0.366705
0.667903 0.609461 0.378027
0.685573 0.602533 0.390051
0.697322 0.598779 0.399603
0.032136 0.061006 0.144137
0.086946 0.066865 0.197360
0.161746 0.072480 0.227420
0.210117 0.075349 0.237003
0.244205 0.077821 0.240970
0.264775 0.077119 0.235416
0.279301 0.075013 0.223056
0.288304 0.070558 0.200137
0.292393 0.065064 0.167391
0.289281 0.060456 0.125475
0.274815 0.061646 0.082078
0.272740 0.066346 0.056794
0.289891 0.068238 0.047669
