tools/luts_backup/Kodak Elite Chrome 200_VS.cube
# (C) 2014 VisionColor & Patchflyer [www.vision-color.com]
# Generator: VC Patchmatch v.2.1.1 [64/53]
# All work and no play makes Jack a dull boy.
# LUT generated from: Kodak Elite Chrome 200_VisionSpace
LUT_3D_SIZE 17
0.029999 0.029999 0.029999
0.065766 0.027070 0.027100
0.091768 0.031922 0.033661
0.111086 0.035035 0.038697
0.131624 0.037995 0.042695
0.150546 0.042115 0.046082
0.165011 0.044648 0.047913
0.182437 0.048035 0.049531
0.203494 0.053223 0.053223
0.223453 0.056977 0.057588
0.247532 0.063416 0.064210
0.277348 0.073671 0.073701
0.305303 0.079927 0.079927
0.330053 0.085298 0.085298
0.348943 0.088472 0.088472
0.360815 0.089662 0.089662
0.376867 0.091188 0.091188
0.038361 0.066133 0.029541
0.071290 0.071290 0.038880
0.105257 0.076539 0.046357
0.130526 0.077668 0.051881
0.152956 0.076173 0.054932
0.176150 0.078126 0.059693
0.195224 0.081270 0.063478
0.212406 0.084443 0.067201
0.232639 0.087556 0.070710
0.252750 0.091554 0.073548
0.273136 0.097383 0.078431
0.296941 0.102296 0.084504
0.320684 0.105715 0.089082
0.341833 0.112001 0.094423
0.363073 0.117159 0.099001
0.378241 0.124239 0.103059
0.395331 0.125643 0.105501
0.050782 0.098573 0.041260
0.080812 0.107240 0.049195
0.114656 0.114809 0.056214
0.142306 0.118532 0.062470
0.169528 0.120912 0.068818
0.194278 0.119173 0.074189
0.217990 0.121065 0.078981
0.238071 0.123751 0.083070
0.260227 0.126650 0.088075
0.280858 0.128695 0.091402
0.298802 0.131685 0.094911
0.320806 0.135744 0.100221
0.340520 0.137606 0.102815
0.357855 0.139559 0.104799
0.375006 0.143374 0.108003
0.390906 0.151125 0.112428
0.415259 0.161776 0.120974
0.064820 0.132906 0.053468
0.091341 0.141787 0.060243
0.122316 0.149233 0.067414
0.152346 0.155612 0.074006
0.181918 0.161776 0.082521
0.213626 0.168795 0.091127
0.240909 0.170413 0.098299
0.264591 0.171450 0.103243
0.288426 0.172915 0.107820
0.312413 0.174746 0.112795
0.332006 0.175937 0.117037
0.350011 0.177890 0.120699
0.368048 0.179355 0.122805
0.383551 0.179202 0.123171
0.396490 0.179110 0.123445
0.412116 0.183658 0.127993
0.440345 0.198764 0.139620
0.075685 0.164004 0.064759
0.099550 0.171695 0.070588
0.128969 0.181796 0.078370
0.157321 0.188663 0.084657
0.190951 0.199405 0.094697
0.230930 0.210178 0.107851
0.265782 0.218112 0.118044
0.293400 0.219394 0.125399
0.318456 0.216739 0.129519
0.344030 0.216129 0.133394
0.364569 0.216251 0.137697
0.383124 0.218235 0.142794
0.399847 0.220462 0.146029
0.415564 0.221225 0.147097
0.425971 0.217838 0.144259
0.433722 0.215091 0.143008
0.456336 0.225589 0.152499
0.085267 0.190921 0.074922
0.107668 0.199954 0.080446
0.132815 0.211673 0.088533
0.158724 0.220066 0.095308
0.188327 0.230900 0.104463
0.234134 0.246342 0.118654
0.281621 0.260227 0.134829
0.320317 0.266026 0.146242
0.353491 0.269169 0.155215
0.382361 0.269871 0.161898
0.404639 0.267643 0.165255
0.423774 0.267704 0.169924
0.443885 0.271855 0.176120
0.461128 0.272892 0.178927
0.472847 0.269078 0.177584
0.474220 0.260838 0.172457
0.484474 0.258183 0.173587
0.094850 0.220645 0.086213
0.116732 0.232853 0.092805
0.139773 0.243992 0.100160
0.161654 0.253483 0.106142
0.182864 0.261082 0.111757
0.224186 0.276829 0.125765
0.283818 0.300908 0.147036
0.343725 0.321660 0.169436
0.386740 0.327398 0.182559
0.426642 0.336431 0.195865
0.456916 0.341466 0.205173
0.476997 0.337865 0.208438
0.499184 0.340734 0.216709
0.517662 0.343694 0.223056
0.529839 0.341436 0.224094
0.532158 0.330663 0.219425
0.532708 0.315373 0.211582
0.105318 0.253391 0.098665
0.128786 0.270481 0.106844
0.150759 0.282567 0.114382
0.171298 0.295872 0.121492
0.191440 0.301060 0.125460
0.217441 0.309606 0.133089
0.277989 0.336309 0.156680
0.349538 0.370123 0.185672
0.411826 0.390967 0.210208
0.462104 0.399725 0.227848
0.504173 0.412146 0.244114
0.529137 0.416052 0.252140
0.550744 0.415290 0.259129
0.571954 0.419287 0.268742
0.581872 0.416678 0.270695
0.585870 0.406638 0.267948
0.588861 0.398947 0.263981
0.117891 0.289586 0.111360
0.142977 0.311070 0.121859
0.163638 0.325444 0.130098
0.185977 0.343725 0.139803
0.206455 0.351415 0.145205
0.230045 0.356207 0.149722
0.277134 0.373724 0.167025
0.355184 0.411063 0.199374
0.427726 0.443626 0.231846
0.481392 0.454871 0.251804
0.533501 0.469520 0.273472
0.568750 0.482338 0.288304
0.592981 0.487282 0.299138
0.613977 0.493751 0.309667
0.624140 0.490166 0.310674
0.627253 0.479149 0.308110
0.634760 0.478126 0.309575
0.131960 0.332647 0.127016
0.158236 0.356909 0.140200
0.180606 0.371435 0.148684
0.204196 0.387823 0.158755
0.225315 0.399115 0.165866
0.248142 0.405219 0.171420
0.288640 0.417517 0.183200
0.357626 0.445197 0.209812
0.438880 0.484718 0.247837
0.507912 0.511162 0.280339
0.553674 0.518212 0.296422
0.592859 0.535576 0.316960
0.624537 0.547173 0.328313
0.648615 0.555932 0.335912
0.662379 0.556146 0.339025
0.665675 0.548394 0.337804
0.664729 0.535973 0.334112
0.151522 0.381231 0.147829
0.175051 0.402960 0.160006
0.197879 0.417884 0.168490
0.221347 0.430549 0.177218
0.242832 0.438880 0.183413
0.266941 0.447883 0.191104
0.306950 0.459724 0.203800
0.365087 0.481697 0.224308
0.445426 0.517235 0.260197
0.522164 0.549920 0.298436
0.579309 0.567010 0.324468
0.611414 0.573541 0.333715
0.644160 0.589960 0.344915
0.669551 0.601038 0.353643
0.689204 0.607721 0.362188
0.694606 0.603052 0.362249
0.686152 0.581231 0.352361
0.172976 0.431128 0.169162
0.192905 0.445075 0.177218
0.213352 0.458534 0.185550
0.235721 0.472084 0.193820
0.255650 0.479316 0.200015
0.279728 0.488472 0.207797
0.322210 0.500877 0.222354
0.380499 0.518944 0.243259
0.455772 0.549340 0.275883
0.538369 0.581353 0.314672
0.597620 0.604212 0.339635
0.631678 0.611353 0.348821
0.656580 0.616602 0.355077
0.682612 0.632502 0.367407
0.703212 0.641505 0.376959
0.714412 0.646448 0.382086
0.713558 0.628443 0.376318
0.190280 0.477150 0.187289
0.209537 0.487800 0.193973
0.229618 0.498573 0.202579
0.250126 0.509789 0.210178
0.268742 0.515709 0.216129
0.291295 0.523552 0.223362
0.332433 0.535393 0.237583
0.393896 0.552728 0.260716
0.471519 0.580621 0.293370
0.552926 0.610407 0.330480
0.609461 0.630915 0.349218
0.647944 0.643397 0.360845
0.669886 0.646601 0.367559
0.693049 0.655268 0.377722
0.713497 0.666346 0.387976
0.726711 0.670680 0.396307
0.739223 0.674037 0.406378
0.206577 0.516991 0.204471
0.222995 0.523125 0.209598
0.242374 0.533043 0.217350
0.262882 0.540917 0.224765
0.281621 0.545769 0.230625
0.305699 0.553216 0.238010
0.348150 0.565454 0.253483
0.409522 0.584436 0.278111
0.486656 0.608270 0.308873
0.571054 0.636011 0.343999
0.624201 0.655116 0.358984
0.660914 0.666957 0.371099
0.684016 0.674464 0.380621
0.704372 0.678279 0.388220
0.718837 0.684047 0.395514
0.734066 0.691432 0.407538
0.749966 0.699062 0.422889
0.220340 0.544549 0.217197
0.235782 0.551232 0.222965
0.253697 0.561090 0.229496
0.276829 0.566857 0.236301
0.301427 0.574456 0.244694
0.327672 0.584833 0.255039
0.371588 0.595941 0.271824
0.431464 0.611353 0.295048
0.501289 0.631128 0.322515
0.584421 0.656947 0.352026
0.640436 0.678218 0.368505
0.670497 0.688258 0.381018
0.694667 0.698146 0.391058
0.712337 0.704219 0.398749
0.725673 0.706172 0.406134
0.737819 0.710170 0.416144
0.753475 0.716915 0.429999
0.231632 0.573358 0.228794
0.249699 0.574609 0.233341
0.269444 0.584985 0.240696
0.295048 0.592248 0.248753
0.324834 0.599725 0.258671
0.358404 0.609766 0.272007
0.403357 0.619776 0.290227
0.460883 0.634485 0.311772
0.527810 0.652491 0.339300
0.599435 0.677394 0.359808
0.652644 0.700343 0.379065
0.681758 0.712154 0.391852
0.704738 0.719356 0.401160
0.720943 0.724117 0.410346
0.731411 0.727077 0.417487
0.741451 0.728084 0.425025
0.755795 0.729488 0.434791
0.245151 0.594446 0.239658
0.259159 0.594781 0.242130
0.273686 0.597284 0.246006
0.305394 0.608148 0.257908
0.340307 0.617945 0.271092
0.381781 0.629389 0.286748
0.429786 0.640864 0.304234
0.485023 0.652155 0.326085
0.543969 0.667750 0.345800
0.606104 0.691615 0.364996
0.656489 0.715236 0.384588
0.689113 0.728450 0.399023
0.715694 0.737514 0.412940
0.729335 0.742702 0.423804
0.739559 0.744808 0.433356
0.750149 0.749508 0.441077
0.760281 0.751186 0.450965
0.033051 0.029877 0.066346
0.060395 0.028992 0.053834
0.090333 0.034943 0.056336
0.112184 0.037659 0.058991
0.134707 0.042634 0.061982
0.153872 0.046021 0.064485
0.171420 0.049073 0.067109
0.189242 0.052949 0.069612
0.208316 0.056214 0.072328
0.228183 0.059358 0.075410
0.251804 0.065858 0.082033
0.280247 0.075410 0.092470
0.309453 0.083467 0.099672
0.334752 0.089570 0.105409
0.351141 0.090822 0.107118
0.367071 0.095064 0.109163
0.379370 0.096406 0.111849
0.035248 0.064302 0.057771
0.073091 0.070253 0.064729
0.120699 0.045624 0.045472
0.134401 0.041382 0.045655
0.148775 0.041657 0.046418
0.165957 0.046296 0.048066
0.182589 0.049470 0.049775
0.201785 0.052918 0.053162
0.223362 0.056886 0.057557
0.247562 0.063661 0.064363
0.274662 0.072511 0.072633
0.302068 0.080140 0.079957
0.328710 0.086366 0.086061
0.346593 0.089082 0.088350
0.361791 0.093324 0.090883
0.378576 0.095857 0.095521
0.408972 0.121035 0.121004
0.047913 0.102663 0.066163
0.063233 0.125521 0.053010
0.139406 0.140169 0.073671
0.167544 0.118898 0.069490
0.188083 0.105135 0.068971
0.205997 0.101045 0.071015
0.223545 0.100832 0.073915
0.240574 0.099947 0.074922
0.258366 0.100679 0.077028
0.277806 0.102358 0.081178
0.298650 0.106600 0.085603
0.322667 0.111696 0.090883
0.344793 0.115419 0.096132
0.362646 0.119570 0.098909
0.379553 0.126040 0.104097
0.397772 0.133181 0.110597
0.426734 0.157931 0.135927
0.059297 0.136110 0.073365
0.078187 0.163027 0.066224
0.125185 0.177249 0.077058
0.188632 0.196445 0.094423
0.218265 0.178378 0.096010
0.239414 0.166873 0.096773
0.258488 0.160922 0.098604
0.277287 0.155245 0.099733
0.295079 0.151095 0.100740
0.314336 0.152255 0.105013
0.334051 0.154269 0.109224
0.349615 0.154238 0.109682
0.365118 0.153811 0.110536
0.380896 0.154604 0.112642
0.397803 0.160372 0.117891
0.421485 0.171878 0.127932
0.444404 0.191501 0.149752
0.071565 0.170321 0.085603
0.086305 0.191379 0.075288
0.123201 0.206241 0.084962
0.166506 0.223484 0.097993
0.233982 0.247105 0.118807
0.273136 0.235996 0.125704
0.297154 0.225925 0.127718
0.319280 0.217502 0.129793
0.340581 0.211002 0.131991
0.356603 0.206241 0.133028
0.372564 0.205234 0.135531
0.387488 0.203555 0.136690
0.398444 0.199863 0.134615
0.409155 0.197635 0.133455
0.422614 0.198795 0.135775
0.440345 0.205447 0.143954
0.454170 0.213321 0.157717
0.082551 0.199619 0.097353
0.095216 0.220035 0.086122
0.127779 0.237980 0.095613
0.162051 0.254978 0.107057
0.202609 0.268711 0.118654
0.285801 0.303685 0.149203
0.335180 0.298558 0.160708
0.365148 0.289372 0.164767
0.388617 0.280400 0.167117
0.405432 0.269780 0.167117
0.418585 0.262882 0.167330
0.433722 0.260685 0.169619
0.445472 0.255222 0.168246
0.453162 0.248417 0.164157
0.460792 0.242710 0.161898
0.465675 0.237919 0.161990
0.470008 0.239628 0.171572
0.091768 0.227268 0.106691
0.105928 0.254337 0.098940
0.135622 0.273625 0.108705
0.167697 0.294102 0.119966
0.197421 0.304326 0.128664
0.254917 0.326574 0.148623
0.352193 0.372442 0.188174
0.399710 0.363531 0.198611
0.438041 0.357794 0.206821
0.464851 0.352193 0.211307
0.480934 0.342763 0.212070
0.496925 0.339529 0.215885
0.511193 0.335195 0.218326
0.517021 0.323110 0.212924
0.519127 0.310079 0.206882
0.517449 0.298344 0.202029
0.513664 0.295018 0.206943
0.102876 0.258579 0.117220
0.120211 0.293889 0.113680
0.147860 0.315648 0.124941
0.178042 0.337285 0.136110
0.207340 0.350225 0.144930
0.244968 0.362097 0.156039
0.329976 0.397604 0.188510
0.427207 0.442374 0.232731
0.474876 0.435355 0.243717
0.515770 0.436530 0.256626
0.541192 0.434318 0.263584
0.558740 0.428763 0.266575
0.573144 0.424735 0.271000
0.581079 0.414420 0.269749
0.580774 0.399619 0.263890
0.580041 0.388113 0.258732
0.575616 0.378012 0.258030
0.116579 0.295628 0.131014
0.133516 0.335058 0.129061
0.164157 0.360601 0.143160
0.194278 0.382300 0.155550
0.222660 0.396460 0.164675
0.254459 0.405219 0.172946
0.316487 0.430533 0.194461
0.412802 0.472007 0.236027
0.509743 0.512398 0.281407
0.548821 0.506874 0.291600
0.581476 0.511681 0.304601
0.606012 0.514275 0.314397
0.623041 0.511269 0.316960
0.633234 0.504738 0.317143
0.634119 0.489342 0.312688
0.632959 0.476127 0.308507
0.634730 0.463371 0.304814
0.132265 0.338750 0.146914
0.149599 0.380621 0.146853
0.181003 0.403845 0.161013
0.211856 0.426551 0.174166
0.236789 0.437781 0.182376
0.266575 0.446357 0.190738
0.321019 0.467231 0.209842
0.404166 0.500755 0.242435
0.504158 0.540764 0.289525
0.581506 0.571313 0.325994
0.605676 0.564538 0.329747
0.634302 0.572839 0.337560
0.658045 0.577905 0.344274
0.671778 0.574395 0.346319
0.673518 0.560174 0.342840
0.668666 0.544121 0.337255
0.672328 0.528710 0.332830
0.150576 0.384649 0.164279
0.170108 0.429175 0.167422
0.196780 0.446418 0.178225
0.225772 0.466926 0.190249
0.249760 0.477272 0.198459
0.276341 0.486336 0.206607
0.327825 0.503502 0.224765
0.405325 0.529412 0.254063
0.502083 0.567193 0.297642
0.585061 0.598627 0.335546
0.631434 0.613214 0.349401
0.651942 0.612512 0.352911
0.676265 0.620935 0.362005
0.696193 0.625208 0.369757
0.701289 0.616571 0.368811
0.695735 0.600519 0.361913
0.693874 0.579583 0.356146
0.170748 0.431708 0.183474
0.188510 0.473426 0.185977
0.212589 0.489357 0.195438
0.236637 0.503319 0.205539
0.261967 0.513634 0.214206
0.287205 0.521019 0.221378
0.334539 0.535515 0.238071
0.410849 0.558068 0.267277
0.504555 0.591516 0.306889
0.591165 0.624872 0.344457
0.640375 0.641291 0.358648
0.669581 0.646632 0.367407
0.688746 0.649073 0.374731
0.709285 0.658900 0.384314
0.722957 0.662745 0.390356
0.726467 0.655055 0.390112
0.719326 0.630823 0.384131
0.189334 0.476387 0.202487
0.204685 0.511925 0.202335
0.227024 0.524712 0.210788
0.249577 0.535302 0.220127
0.275212 0.545281 0.228946
0.300969 0.553246 0.236362
0.345251 0.565332 0.252110
0.419028 0.586053 0.280919
0.510903 0.613977 0.318700
0.597238 0.645167 0.351293
0.649378 0.664546 0.366827
0.679225 0.673609 0.378759
0.701534 0.678157 0.387427
0.717586 0.680323 0.393591
0.731502 0.687831 0.405585
0.744564 0.687861 0.416083
0.741146 0.674922 0.416144
0.206119 0.515129 0.219211
0.220310 0.544915 0.217288
0.239597 0.552239 0.223301
0.262364 0.562951 0.232120
0.289891 0.572381 0.241550
0.318914 0.582238 0.251713
0.361639 0.593805 0.268009
0.432059 0.611109 0.294957
0.521065 0.636164 0.330755
0.603708 0.665461 0.357519
0.656062 0.685176 0.375525
0.686915 0.695766 0.388098
0.709010 0.702113 0.397009
0.724544 0.705287 0.405829
0.736690 0.706294 0.414282
0.749599 0.710292 0.426551
0.751583 0.700404 0.434669
0.219699 0.544488 0.232090
0.232822 0.572503 0.230076
0.252201 0.575616 0.234287
0.274357 0.584283 0.242161
0.305058 0.594079 0.253025
0.342351 0.604608 0.267033
0.387610 0.616480 0.284947
0.450370 0.632776 0.308110
0.535378 0.655787 0.341894
0.612161 0.683833 0.364172
0.665522 0.705898 0.384771
0.694820 0.715602 0.396796
0.715816 0.721157 0.405585
0.729854 0.725399 0.416236
0.741451 0.728298 0.425361
0.752651 0.726558 0.433051
0.754849 0.720088 0.441566
0.233371 0.573754 0.246128
0.245121 0.593683 0.241856
0.261479 0.594415 0.244846
0.283879 0.599817 0.251530
0.318700 0.610651 0.264256
0.362646 0.621424 0.280400
0.411444 0.633234 0.297826
0.471626 0.647852 0.321386
0.543984 0.670924 0.346197
0.612512 0.697353 0.367193
0.664668 0.718196 0.388678
0.699489 0.730983 0.403510
0.720913 0.738216 0.417853
0.732479 0.740200 0.427314
0.743221 0.742306 0.436133
0.756863 0.747127 0.446723
0.756588 0.730037 0.445228
0.245548 0.600427 0.253910
0.259037 0.605585 0.255375
0.278355 0.607538 0.259983
0.306310 0.614374 0.269352
0.342168 0.624323 0.280980
0.380468 0.634302 0.292943
0.429267 0.644617 0.310033
0.484321 0.658839 0.328130
0.546700 0.679011 0.346197
0.609400 0.701869 0.367956
0.659998 0.720943 0.389288
0.691310 0.732448 0.406470
0.714534 0.738857 0.421851
0.729397 0.743526 0.432776
0.740108 0.744717 0.440040
0.750576 0.746700 0.448768
0.760616 0.750851 0.459663
0.035035 0.031922 0.094240
0.060060 0.033478 0.087129
0.088350 0.036286 0.083925
0.113161 0.039857 0.084260
0.137758 0.045930 0.087434
0.160250 0.051728 0.089723
0.179110 0.055055 0.092378
0.197055 0.057771 0.094301
0.217655 0.061677 0.096895
0.238590 0.065156 0.100130
0.261692 0.071565 0.105623
0.288579 0.080262 0.114565
0.315190 0.086976 0.121584
0.341222 0.093935 0.127108
0.361028 0.096956 0.129397
0.373083 0.099184 0.131014
0.388464 0.100679 0.132692
0.041688 0.062837 0.096620
0.050690 0.047303 0.124636
0.110903 0.051026 0.107576
0.136080 0.046723 0.087953
0.157595 0.049500 0.081575
0.176150 0.052918 0.080659
0.193271 0.055085 0.079377
0.212222 0.058106 0.079866
0.232700 0.061372 0.081483
0.255131 0.067445 0.086732
0.282170 0.076387 0.094697
0.308690 0.082918 0.101137
0.334081 0.089235 0.107362
0.354803 0.093996 0.111818
0.368322 0.096223 0.113497
0.384466 0.100984 0.118471
0.408789 0.122469 0.137942
0.050385 0.099275 0.095735
0.065400 0.120974 0.123384
0.124819 0.115419 0.115267
0.183627 0.081056 0.080232
0.185061 0.065309 0.067079
0.189639 0.056245 0.057099
0.204135 0.055421 0.055390
0.223331 0.057771 0.057771
0.246525 0.063355 0.063386
0.274235 0.071290 0.071534
0.302953 0.080140 0.080171
0.327001 0.086610 0.085634
0.347112 0.090303 0.088685
0.361181 0.091066 0.090944
0.378485 0.099367 0.098695
0.404608 0.120302 0.119600
0.429084 0.146700 0.145144
0.063020 0.135317 0.107973
0.073365 0.164401 0.115602
0.091371 0.177401 0.079805
0.190524 0.189303 0.106386
0.229038 0.164981 0.102571
0.246677 0.142153 0.093507
0.259586 0.127565 0.088197
0.273808 0.119905 0.086763
0.290227 0.118929 0.088777
0.307836 0.119600 0.091646
0.327306 0.119905 0.094087
0.345342 0.121920 0.096925
0.364904 0.125612 0.101747
0.383398 0.132082 0.106783
0.402716 0.141573 0.115663
0.425605 0.158450 0.135622
0.444343 0.179232 0.158602
0.074647 0.168917 0.118715
0.084169 0.199222 0.116732
0.101106 0.214176 0.091524
0.159060 0.235203 0.107027
0.255253 0.266758 0.137423
0.302037 0.242741 0.137026
0.318547 0.216129 0.129854
0.328710 0.197116 0.124422
0.340246 0.186770 0.122408
0.352819 0.182437 0.122499
0.366949 0.178470 0.121920
0.380011 0.174533 0.120851
0.391302 0.171359 0.120790
0.407080 0.174563 0.125124
0.427192 0.184787 0.135256
0.443366 0.194736 0.150362
0.449287 0.199161 0.165011
0.084749 0.200076 0.129122
0.092958 0.228550 0.121096
0.106203 0.249516 0.098695
0.157809 0.281987 0.116793
0.208652 0.300694 0.131838
0.343053 0.360357 0.183719
0.380865 0.323430 0.180362
0.398383 0.295598 0.174899
0.404883 0.268925 0.166323
0.410773 0.253010 0.161837
0.418036 0.242344 0.158297
0.427253 0.234958 0.155184
0.433814 0.226871 0.151125
0.438758 0.219059 0.147524
0.447700 0.219730 0.151400
0.454231 0.221500 0.160250
0.456580 0.219730 0.170413
0.093477 0.229282 0.135592
0.103609 0.259861 0.128481
0.117494 0.289158 0.112184
0.164279 0.325231 0.130434
0.207431 0.346258 0.144442
0.278355 0.373327 0.168521
0.422873 0.439063 0.230442
0.458366 0.401556 0.227787
0.481437 0.379614 0.226108
0.489479 0.353872 0.218509
0.494972 0.335592 0.213626
0.499489 0.321340 0.208988
0.501610 0.308064 0.202670
0.500114 0.290730 0.193362
0.497353 0.276524 0.187564
0.493111 0.269718 0.188846
0.491646 0.267399 0.196109
0.104494 0.262181 0.144106
0.117464 0.297063 0.139559
0.133639 0.336522 0.129976
0.175784 0.368688 0.147890
0.216129 0.390723 0.161532
0.266423 0.408881 0.177371
0.368154 0.449638 0.215763
0.507637 0.511528 0.280949
0.535103 0.480156 0.278325
0.559258 0.464714 0.279210
0.569268 0.447745 0.276829
0.574487 0.428641 0.272770
0.575860 0.410636 0.266575
0.574060 0.393698 0.259098
0.568261 0.372457 0.249699
0.562737 0.357809 0.246036
0.555840 0.346181 0.243717
0.118532 0.300877 0.156405
0.132296 0.337926 0.151247
0.153536 0.383581 0.148989
0.190799 0.413550 0.166232
0.226841 0.433356 0.178714
0.266636 0.446662 0.190524
0.346029 0.475242 0.218509
0.468894 0.527077 0.272557
0.578958 0.567315 0.324468
0.598444 0.549661 0.324010
0.620996 0.544198 0.326665
0.634852 0.531746 0.325872
0.638758 0.514229 0.321447
0.635828 0.496300 0.315251
0.631281 0.473167 0.307225
0.630182 0.457328 0.301915
0.620539 0.437400 0.293126
0.136019 0.344823 0.173220
0.149752 0.382147 0.166842
0.170840 0.428321 0.167452
0.204044 0.452338 0.181491
0.239109 0.473243 0.195163
0.271214 0.485054 0.205051
0.336568 0.505028 0.227207
0.446403 0.545983 0.272526
0.559670 0.588403 0.324834
0.630976 0.611444 0.348852
0.647944 0.602594 0.349523
0.669032 0.602777 0.354253
0.681056 0.593835 0.355169
0.680476 0.577768 0.349767
0.674464 0.552224 0.340703
0.673640 0.534981 0.335271
0.673121 0.521492 0.332525
0.154025 0.389013 0.189487
0.169863 0.430121 0.185916
0.187167 0.472694 0.185702
0.216464 0.489998 0.196414
0.249180 0.508659 0.209628
0.277775 0.518547 0.218570
0.335164 0.536492 0.239048
0.431876 0.567803 0.277378
0.549233 0.607385 0.328191
0.626978 0.635554 0.354223
0.670192 0.646967 0.367681
0.685267 0.643854 0.371984
0.702632 0.645472 0.378302
0.710628 0.638483 0.378698
0.705653 0.615442 0.370245
0.699672 0.594781 0.362799
0.703304 0.581964 0.361913
0.171939 0.433021 0.204807
0.188022 0.474342 0.203891
0.204807 0.512657 0.202762
0.228550 0.524620 0.211276
0.259770 0.538109 0.222751
0.290196 0.548638 0.232700
0.340642 0.565057 0.251591
0.428885 0.591028 0.286625
0.539437 0.623743 0.331975
0.624140 0.656519 0.359380
0.674006 0.671321 0.376501
0.700526 0.676173 0.386481
0.714229 0.676234 0.391241
0.728267 0.678096 0.400488
0.733577 0.670741 0.403693
0.727687 0.651576 0.397528
0.722866 0.630823 0.394324
0.190585 0.478035 0.223026
0.204959 0.514092 0.220310
0.220554 0.545403 0.217319
0.241245 0.552911 0.224125
0.271885 0.564080 0.234653
0.307713 0.576074 0.246799
0.353429 0.589166 0.263828
0.432059 0.611109 0.295323
0.537667 0.640620 0.338140
0.624308 0.672297 0.363348
0.675380 0.691066 0.383154
0.705684 0.700374 0.395422
0.723323 0.704585 0.404456
0.735225 0.702022 0.412055
0.745663 0.701534 0.422492
0.747097 0.689570 0.425818
0.742184 0.672938 0.426062
0.207279 0.515038 0.238041
0.220401 0.546777 0.234775
0.233005 0.571832 0.229862
0.253025 0.575708 0.235050
0.284642 0.586572 0.245670
0.324834 0.598474 0.260075
0.372137 0.610712 0.277928
0.443015 0.629450 0.305028
0.538857 0.656001 0.342412
0.622477 0.686275 0.366552
0.676905 0.709468 0.389654
0.707637 0.719936 0.402319
0.726558 0.724330 0.414679
0.740902 0.727901 0.425238
0.749874 0.721553 0.430304
0.753780 0.714748 0.439979
0.753170 0.700679 0.447120
0.221592 0.545678 0.250340
0.233097 0.572839 0.246830
0.246494 0.592309 0.241947
0.265446 0.594415 0.246830
0.297704 0.603204 0.257237
0.341283 0.614801 0.272465
0.393103 0.628290 0.292058
0.457633 0.644404 0.315557
0.543740 0.669398 0.345769
0.623056 0.698512 0.369757
0.676417 0.720699 0.393286
0.706752 0.732357 0.408667
0.727077 0.737026 0.423194
0.741024 0.740139 0.433234
0.754360 0.744076 0.442176
0.756374 0.729671 0.445441
0.756924 0.722469 0.456336
0.234958 0.573754 0.262791
0.245060 0.594537 0.257633
0.259800 0.605341 0.255192
0.281651 0.608148 0.261173
0.315099 0.615473 0.272312
0.356298 0.626856 0.284428
0.407080 0.639887 0.301427
0.468360 0.652583 0.323644
0.542977 0.676081 0.344610
0.617533 0.703822 0.371374
0.668605 0.722957 0.392950
0.700374 0.734829 0.413336
0.722560 0.742702 0.429023
0.735866 0.744595 0.438361
0.747005 0.746609 0.447883
0.760525 0.749935 0.459236
0.758938 0.731899 0.459724
0.244846 0.595819 0.266270
0.260044 0.608301 0.268193
0.270207 0.618280 0.261326
0.297215 0.621515 0.269108
0.331701 0.630579 0.279698
0.378851 0.640681 0.295811
0.423255 0.649989 0.309117
0.479255 0.662837 0.324376
0.547707 0.683284 0.345861
0.615228 0.706264 0.373510
0.666804 0.725277 0.399542
0.696742 0.736538 0.419928
0.715755 0.741787 0.432868
0.731624 0.747341 0.445258
0.744808 0.749783 0.455787
0.753353 0.750607 0.463172
0.764950 0.752163 0.470863
0.038514 0.035126 0.116457
0.060731 0.036622 0.113313
0.086549 0.038544 0.109377
0.113313 0.041932 0.108888
0.137179 0.047578 0.110323
0.163027 0.054719 0.113771
0.183261 0.058900 0.115389
0.202762 0.062531 0.116854
0.224521 0.066682 0.119875
0.248081 0.071809 0.124392
0.272007 0.078157 0.129946
0.297276 0.085664 0.137270
0.322026 0.090944 0.142184
