tools/luts_backup/Kodak Gold Gen.6 200_CIN.cube
# (C) 2014 VisionColor & Patchflyer [www.vision-color.com]
# Generator: VC Patchmatch v.2.1.1 [64/53]
# All work and no play makes Jack a dull boy.
# LUT generated from: Kodak Gold Gen.6 200_Cineon
LUT_3D_SIZE 9
0.086275 0.086275 0.086275
0.169924 0.089967 0.089967
0.295048 0.106050 0.105959
0.372107 0.112459 0.109133
0.398138 0.105989 0.105867
0.429969 0.105867 0.105867
0.476844 0.109651 0.118288
0.522240 0.112734 0.139651
0.572534 0.117647 0.160769
0.113069 0.149660 0.087343
0.187655 0.157290 0.090608
0.289067 0.174441 0.097383
0.373053 0.193118 0.103578
0.426184 0.209262 0.106172
0.464454 0.218631 0.117891
0.503471 0.222904 0.131258
0.544091 0.225498 0.142947
0.587304 0.228336 0.167239
0.149966 0.229679 0.093599
0.226017 0.241184 0.095369
0.304356 0.255161 0.097658
0.379889 0.274144 0.103395
0.445258 0.301274 0.107973
0.491402 0.324987 0.119265
0.525078 0.332067 0.131044
0.560967 0.330755 0.137026
0.600671 0.336156 0.147646
0.221073 0.330358 0.100038
0.293156 0.340917 0.101839
0.362921 0.354955 0.103273
0.416999 0.367590 0.105959
0.469032 0.391974 0.108553
0.511070 0.414588 0.120211
0.543755 0.417273 0.127169
0.580652 0.416907 0.127413
0.611749 0.415045 0.130953
0.286534 0.423407 0.105989
0.349432 0.434943 0.107912
0.407233 0.440925 0.109010
0.456519 0.449195 0.109773
0.492134 0.458686 0.110048
0.528344 0.475410 0.119997
0.560601 0.484474 0.124819
0.597864 0.481575 0.121401
0.615534 0.472175 0.117647
0.351293 0.491890 0.111269
0.395422 0.498909 0.118807
0.438666 0.503258 0.122255
0.479072 0.507530 0.118868
0.514946 0.512596 0.115267
0.543633 0.519036 0.117037
0.579156 0.529595 0.119905
0.604028 0.524285 0.117800
0.615656 0.515526 0.117647
0.402594 0.539269 0.115785
0.432776 0.540459 0.125948
0.465095 0.544915 0.130861
0.496956 0.548974 0.124300
0.534020 0.553185 0.115602
0.563256 0.558587 0.116365
0.588861 0.562982 0.117647
0.608423 0.552239 0.117647
0.615656 0.549493 0.117647
0.425879 0.579919 0.117586
0.459815 0.580530 0.117739
0.492409 0.583185 0.121370
0.522148 0.587640 0.118410
0.555932 0.593256 0.117647
0.579004 0.594263 0.117647
0.604395 0.591455 0.117647
0.614374 0.590723 0.117647
0.615656 0.584863 0.117647
0.376471 0.607813 0.117647
0.474434 0.611811 0.117647
0.499001 0.614984 0.117647
0.532464 0.615656 0.117647
0.561028 0.615656 0.117647
0.588739 0.615656 0.117647
0.607202 0.615656 0.117647
0.611749 0.615656 0.117647
0.611749 0.615656 0.117647
0.087343 0.087343 0.153292
0.142641 0.090547 0.172702
0.252232 0.095369 0.190341
0.331823 0.098909 0.198611
0.383978 0.105898 0.200290
0.429145 0.106386 0.203128
0.474922 0.109682 0.215457
0.511681 0.110780 0.223880
0.560174 0.117494 0.249638
0.105928 0.155276 0.150973
0.184512 0.167880 0.177432
0.342565 0.136324 0.135561
0.398779 0.109224 0.108064
0.429084 0.106142 0.106477
0.475959 0.109285 0.118502
0.523552 0.112581 0.140139
0.565728 0.130404 0.172885
0.580072 0.219669 0.260655
0.160586 0.261173 0.164675
0.223819 0.310094 0.117739
0.383459 0.341253 0.131777
0.442908 0.300542 0.110109
0.481788 0.287602 0.120241
0.516289 0.280156 0.133486
0.550774 0.268528 0.141848
0.584405 0.274205 0.170504
0.598535 0.342077 0.269780
0.230350 0.359319 0.172396
0.285252 0.420325 0.107118
0.402991 0.437934 0.111879
0.490913 0.456489 0.115206
0.515343 0.435370 0.121157
0.543969 0.414313 0.126894
0.576104 0.399023 0.130312
0.603113 0.396826 0.153689
0.607141 0.424201 0.265629
0.299840 0.439704 0.184298
0.351415 0.491676 0.112673
0.423621 0.502129 0.122927
0.491432 0.507652 0.117311
0.545434 0.519860 0.116670
0.569055 0.507256 0.122683
0.596551 0.490974 0.120821
0.612818 0.473487 0.138338
0.609064 0.479011 0.257450
0.359411 0.498238 0.190738
0.399725 0.539117 0.115541
0.450385 0.543694 0.127810
0.498604 0.548638 0.122286
0.547509 0.553887 0.116518
0.589349 0.562188 0.117647
0.606287 0.543114 0.118074
0.616938 0.527886 0.134524
0.617945 0.521477 0.241001
0.380987 0.536919 0.174380
0.419898 0.578546 0.117281
0.471351 0.580255 0.120699
0.514244 0.586023 0.120363
0.558953 0.591455 0.117861
0.591028 0.592584 0.117952
0.612146 0.590051 0.118044
0.618311 0.572137 0.133059
0.626886 0.558373 0.241276
0.368841 0.573114 0.136690
0.392645 0.604883 0.117708
0.475898 0.608148 0.118288
0.519341 0.611811 0.124117
0.559625 0.613397 0.129305
0.595789 0.615442 0.134890
0.614832 0.614740 0.136172
0.616541 0.614649 0.136782
0.625727 0.600793 0.228550
0.332311 0.604669 0.118166
0.394690 0.608789 0.120760
0.465675 0.613703 0.133883
0.516197 0.617578 0.169436
0.548638 0.616358 0.199222
0.577874 0.621698 0.232822
0.610132 0.626856 0.246921
0.626795 0.627008 0.252689
0.627008 0.627008 0.250675
0.094972 0.094972 0.236332
0.143801 0.096864 0.259251
0.223087 0.096895 0.270848
0.303227 0.098054 0.277226
0.372869 0.103914 0.291936
0.430182 0.106386 0.291905
0.476448 0.109682 0.304295
0.508141 0.110353 0.308568
0.543938 0.113710 0.320775
0.103944 0.162112 0.235752
0.115450 0.118868 0.287236
0.274296 0.120180 0.318212
0.372229 0.104952 0.289342
0.429572 0.106477 0.263859
0.474861 0.109316 0.260105
0.511315 0.111849 0.261570
0.550439 0.129793 0.278752
0.570336 0.220920 0.336248
0.151400 0.267216 0.253056
0.207126 0.338994 0.328679
0.301091 0.294987 0.294255
0.405066 0.232578 0.240085
0.466926 0.165377 0.170718
0.520195 0.119783 0.145510
0.562585 0.137575 0.177371
0.580499 0.220157 0.260899
0.598871 0.345769 0.359564
0.220829 0.371557 0.271031
0.290562 0.445472 0.284489
0.364813 0.435462 0.232853
0.482887 0.459968 0.260777
0.527855 0.421546 0.188449
0.563531 0.361196 0.143893
0.591546 0.343389 0.170932
0.602716 0.379187 0.268070
0.615503 0.446632 0.380713
0.296239 0.452186 0.288853
0.352270 0.498512 0.250309
0.396948 0.517906 0.163943
0.490608 0.530419 0.182834
0.567834 0.542992 0.180331
0.596216 0.510643 0.130739
0.611780 0.475624 0.149996
0.610590 0.470649 0.255528
0.612726 0.491737 0.369818
0.350896 0.500481 0.286137
0.370001 0.538811 0.216281
0.415839 0.574945 0.117617
0.496681 0.581018 0.126680
0.567926 0.587854 0.126833
0.612696 0.588006 0.126497
0.618585 0.549157 0.145785
0.620539 0.529259 0.238041
0.618799 0.527489 0.353307
0.368444 0.541497 0.266026
0.356542 0.574304 0.164797
0.398962 0.602777 0.117952
0.495644 0.607599 0.122591
0.558740 0.612970 0.134615
0.606104 0.615259 0.144472
0.618250 0.613825 0.147433
0.626154 0.583246 0.243198
0.630762 0.567346 0.348272
0.353704 0.575463 0.223178
0.338170 0.603540 0.132204
0.400061 0.609827 0.128115
0.488167 0.614160 0.154788
0.540581 0.616297 0.193851
0.585046 0.622034 0.236210
0.621363 0.626459 0.248142
0.626245 0.626490 0.250431
0.634119 0.607416 0.354314
0.330816 0.608545 0.172519
0.373327 0.611902 0.179446
0.428931 0.611872 0.196384
0.490608 0.614221 0.245182
0.529046 0.616022 0.283818
0.567498 0.621912 0.337591
0.601831 0.629816 0.361883
0.631037 0.634546 0.367193
0.634577 0.634577 0.365667
0.098024 0.098024 0.292699
0.135042 0.098085 0.320378
0.206851 0.098207 0.333349
0.286107 0.098116 0.332555
0.363958 0.101961 0.349615
0.428351 0.105928 0.353216
0.469947 0.109682 0.360204
0.503349 0.110353 0.366186
0.537255 0.113710 0.372992
0.106874 0.167544 0.309209
0.099794 0.100557 0.336278
0.194095 0.105135 0.371374
0.334325 0.105135 0.362158
0.421912 0.106050 0.364446
0.469245 0.109224 0.359258
0.505852 0.110872 0.356023
0.539086 0.128908 0.361822
0.569940 0.223545 0.394934
0.151827 0.270481 0.333898
0.152316 0.274052 0.391913
0.187900 0.207126 0.371496
0.358892 0.212222 0.391241
0.453223 0.152804 0.361120
0.506859 0.118471 0.333165
0.542565 0.137667 0.327733
0.571771 0.225559 0.362310
0.606012 0.364752 0.425940
0.203189 0.365972 0.358526
0.243015 0.437873 0.441871
0.311681 0.435004 0.432319
0.405432 0.407416 0.404517
0.474647 0.354772 0.353582
0.530663 0.278889 0.293873
0.577386 0.227436 0.265324
0.600885 0.348638 0.362158
0.628138 0.463905 0.452308
0.263249 0.446906 0.377111
0.301549 0.499184 0.407202
0.364050 0.524407 0.383368
0.445991 0.507317 0.351598
0.538964 0.523766 0.374151
0.571832 0.490303 0.308186
0.606500 0.447547 0.271763
0.614801 0.471107 0.374884
0.626703 0.508629 0.451392
0.312993 0.502708 0.384741
0.363714 0.544610 0.362432
0.367254 0.575738 0.269306
0.431281 0.561944 0.226856
0.538903 0.575738 0.287160
0.606470 0.582391 0.297993
0.622431 0.546685 0.247669
0.619013 0.527550 0.352331
0.623011 0.536095 0.435859
0.368322 0.546380 0.367559
0.373938 0.580377 0.312474
0.347234 0.604486 0.201129
0.403449 0.607630 0.134676
0.525017 0.614527 0.190234
0.596704 0.622705 0.252720
0.627466 0.625635 0.259678
0.633448 0.586908 0.350988
0.633722 0.573754 0.433600
0.379248 0.581659 0.337102
0.360937 0.610681 0.267460
0.373724 0.613886 0.226261
0.429358 0.612787 0.200595
0.513512 0.614923 0.266697
0.567620 0.621973 0.333135
0.619196 0.632441 0.362554
0.634302 0.634302 0.363714
0.641382 0.611048 0.438880
0.365332 0.619410 0.298009
0.384161 0.619959 0.300603
0.419623 0.617700 0.312718
0.464820 0.615412 0.335698
0.515496 0.619104 0.383856
0.561181 0.625513 0.422889
0.602014 0.634150 0.445167
0.635920 0.642329 0.445686
0.641443 0.641443 0.442176
0.098268 0.098268 0.337102
0.126009 0.101869 0.357702
0.194308 0.105745 0.372900
0.265232 0.105837 0.378546
0.335302 0.103792 0.360906
0.409277 0.105867 0.377447
0.455177 0.107881 0.396185
0.499794 0.110323 0.413214
0.537255 0.113710 0.421576
0.109407 0.176913 0.369024
0.104829 0.104829 0.392706
0.153536 0.105867 0.400824
0.256657 0.105867 0.401923
0.380652 0.106142 0.406226
0.449134 0.107790 0.413336
0.496345 0.110475 0.418219
0.537163 0.126864 0.422065
0.568963 0.220279 0.441382
0.152163 0.276280 0.395361
0.131655 0.249882 0.442664
0.120638 0.149752 0.431250
0.246799 0.149844 0.431678
0.419257 0.156313 0.454231
0.492378 0.117220 0.435859
0.535485 0.134310 0.422553
0.570550 0.225589 0.432593
0.600031 0.355688 0.452430
0.200778 0.362127 0.417426
0.207889 0.395697 0.478859
0.211978 0.377264 0.491218
0.285649 0.320165 0.450050
0.439399 0.337743 0.466957
0.511131 0.264088 0.437659
0.569757 0.236637 0.413245
0.603693 0.358251 0.441321
0.621546 0.450385 0.470344
0.243259 0.439368 0.443153
0.269261 0.498177 0.511833
0.291997 0.517815 0.530175
0.390906 0.502342 0.504295
0.478431 0.486152 0.482338
0.532250 0.453040 0.445609
0.591455 0.411002 0.408118
0.626123 0.459419 0.448737
0.623377 0.505852 0.488228
0.280186 0.496223 0.453803
0.313603 0.538476 0.473335
0.330190 0.576288 0.467430
0.390845 0.567498 0.446799
0.489906 0.550622 0.437491
0.575586 0.564080 0.454185
0.603326 0.531701 0.402152
0.621973 0.526116 0.438270
0.621942 0.539147 0.487495
0.334234 0.541924 0.446082
0.348821 0.582086 0.438758
0.359472 0.613458 0.409140
0.389899 0.618982 0.346151
0.459815 0.597589 0.306081
0.563867 0.608972 0.395972
0.631037 0.621210 0.408957
0.636164 0.586023 0.434485
0.630976 0.578943 0.495216
0.359197 0.581994 0.425910
0.359075 0.616663 0.409003
0.387274 0.624811 0.389410
0.416480 0.622766 0.371984
0.465797 0.616144 0.336278
0.546990 0.623499 0.406165
0.612787 0.636988 0.443183
0.640620 0.640620 0.441871
0.643885 0.613703 0.501732
0.356725 0.623499 0.409552
0.384985 0.624475 0.403754
0.406775 0.625116 0.423865
0.452613 0.624994 0.444221
0.511742 0.629145 0.469947
0.559136 0.632715 0.489143
0.601984 0.637659 0.501030
0.633722 0.646754 0.503532
0.647059 0.647059 0.505730
0.105715 0.105715 0.393194
0.115511 0.105776 0.393591
0.176394 0.105867 0.403601
0.231876 0.105867 0.407050
0.307988 0.105867 0.386633
0.382116 0.105867 0.402777
0.443397 0.107179 0.433417
0.493019 0.109804 0.450874
0.535149 0.113710 0.460365
0.107362 0.183139 0.424140
0.107790 0.107790 0.449042
0.124605 0.107759 0.441840
0.212100 0.106630 0.435889
0.321523 0.106600 0.435035
0.435187 0.109773 0.477394
0.488869 0.110048 0.474128
0.527276 0.122469 0.469337
0.557488 0.204471 0.472358
0.146273 0.284337 0.450629
0.115023 0.245335 0.491127
0.110201 0.119051 0.489906
0.151415 0.116030 0.467750
0.318441 0.116640 0.477394
0.475257 0.120729 0.526726
0.520226 0.128847 0.492531
0.554040 0.204959 0.476265
0.586511 0.335760 0.471504
0.195499 0.372503 0.472084
0.168978 0.379248 0.518730
0.127901 0.337667 0.549035
0.164080 0.248829 0.491402
0.333181 0.255085 0.496834
0.485206 0.270222 0.526024
0.545373 0.211444 0.489784
0.584314 0.332799 0.475013
0.608515 0.431403 0.481636
0.233371 0.441444 0.492287
0.226474 0.477607 0.544793
0.191608 0.490150 0.579736
0.267323 0.457725 0.549340
0.379263 0.422934 0.515160
0.499641 0.437278 0.528862
0.568872 0.385458 0.482765
0.613367 0.437537 0.478218
0.612299 0.496101 0.507500
0.269474 0.497841 0.512078
0.251469 0.534844 0.561425
0.200900 0.560754 0.584222
0.284352 0.555016 0.562097
0.437583 0.545800 0.554559
0.527825 0.535668 0.536095
0.577264 0.511193 0.500511
0.622492 0.506340 0.488624
0.618097 0.541558 0.519707
0.301946 0.539757 0.501091
0.282780 0.575891 0.518791
0.247837 0.602716 0.525078
0.281270 0.611658 0.516075
0.393149 0.604120 0.505852
0.525658 0.590387 0.503441
0.608759 0.601190 0.511040
0.630549 0.578515 0.494362
0.626398 0.579217 0.529961
0.315373 0.579583 0.487770
0.281865 0.609674 0.496925
0.312352 0.619745 0.496010
0.362890 0.624964 0.493812
0.435767 0.628412 0.493278
0.512993 0.627619 0.467933
0.600793 0.637903 0.500511
0.647181 0.646265 0.506554
0.639826 0.615808 0.543694
0.296483 0.617151 0.478157
0.327886 0.622003 0.484901
0.364599 0.625208 0.492897
0.422095 0.628016 0.511742
0.506340 0.635218 0.536797
0.554314 0.640558 0.541161
0.596826 0.643671 0.545434
0.634058 0.650690 0.549767
0.650874 0.650874 0.553002
0.106996 0.106996 0.449348
0.107546 0.106996 0.442725
0.152499 0.106935 0.443671
0.213626 0.105898 0.435401
0.282078 0.106447 0.431281
0.361700 0.107210 0.444984
0.434638 0.109651 0.479652
0.487160 0.109804 0.492744
0.525048 0.113710 0.497322
0.109773 0.197940 0.480293
0.110109 0.110445 0.491188
0.111482 0.109987 0.470954
0.166873 0.109743 0.466041
0.277241 0.109560 0.471809
0.387427 0.110780 0.499031
0.476387 0.113710 0.528771
0.516808 0.123384 0.518212
0.538293 0.190494 0.497963
0.127626 0.294133 0.502373
0.113680 0.251987 0.533898
0.112978 0.136263 0.521874
0.115450 0.128695 0.490547
0.239551 0.132692 0.504509
0.388190 0.131685 0.528161
0.500023 0.135225 0.561700
0.532647 0.197696 0.518334
0.564752 0.313359 0.504570
0.171298 0.380072 0.519890
0.131136 0.379370 0.563439
0.117556 0.328008 0.578119
0.116518 0.216190 0.535271
0.211261 0.222599 0.535821
0.394934 0.226505 0.556634
0.511528 0.221378 0.572106
0.553155 0.309117 0.523919
0.585443 0.420325 0.521355
0.210941 0.451240 0.535424
0.171939 0.476783 0.578759
0.130556 0.477272 0.604425
0.140917 0.424414 0.594965
0.219532 0.358480 0.548363
0.402930 0.380056 0.569360
0.524498 0.380545 0.580652
0.577661 0.414160 0.534173
0.591943 0.491157 0.537865
0.240421 0.500511 0.554223
0.197482 0.522515 0.593378
0.165469 0.536492 0.617151
0.189334 0.525872 0.616693
0.315297 0.510979 0.601099
0.444373 0.492897 0.574639
0.542565 0.498116 0.578393
0.591913 0.489845 0.537591
0.604028 0.537255 0.554681
0.253910 0.534081 0.562219
0.192721 0.563317 0.586847
0.137850 0.578424 0.605920
0.150011 0.587610 0.613306
0.291615 0.593317 0.613733
0.476387 0.588800 0.608606
0.570428 0.578546 0.582330
0.609003 0.552209 0.536767
0.633539 0.580072 0.570123
0.262547 0.575952 0.540642
0.207065 0.599664 0.554406
0.216068 0.608057 0.562524
0.265110 0.614710 0.570459
0.353628 0.627039 0.584344
0.481880 0.639826 0.587121
0.563928 0.630884 0.556664
0.641382 0.637415 0.563104
0.644068 0.616602 0.582269
0.232486 0.610468 0.526635
0.249699 0.611688 0.535088
0.290471 0.617029 0.541924
0.372656 0.627741 0.566857
0.481544 0.641718 0.590051
0.542168 0.646571 0.593103
0.588190 0.647852 0.592187
0.626703 0.650843 0.591546
0.650935 0.650935 0.592035
0.109804 0.109804 0.490791
0.109865 0.109804 0.476204
0.124605 0.109804 0.469306
0.183169 0.109743 0.465766
0.259556 0.109651 0.467414
0.344793 0.109743 0.487160
0.416724 0.110811 0.510918
0.478279 0.113558 0.527184
0.520409 0.114260 0.536858
0.112398 0.212345 0.519615
0.113069 0.127413 0.524590
0.110170 0.120668 0.493874
0.126864 0.123629 0.490883
0.235889 0.125399 0.503777
0.341680 0.124239 0.516655
0.424933 0.126223 0.541161
0.501060 0.128145 0.564660
0.527306 0.199557 0.532219
0.115633 0.311742 0.550683
0.116426 0.257176 0.560571
0.115297 0.210178 0.536370
0.136965 0.201450 0.522423
0.245350 0.219516 0.540948
0.360906 0.216129 0.551751
0.442817 0.212009 0.565332
0.510582 0.210361 0.573602
0.543572 0.310552 0.543206
0.134493 0.397894 0.568383
0.118074 0.388006 0.595209
0.123171 0.349523 0.580591
0.145266 0.306889 0.557336
0.242557 0.318120 0.566705
0.372534 0.330724 0.583825
0.464179 0.332891 0.593011
0.528588 0.327306 0.598291
0.562737 0.416175 0.568566
0.166720 0.467689 0.578790
0.124361 0.482918 0.606622
0.138643 0.458717 0.605463
0.176638 0.428443 0.595209
0.225925 0.395239 0.584772
0.365072 0.411048 0.597314
0.472419 0.418189 0.610407
0.547112 0.423072 0.620386
0.575463 0.484657 0.578241
0.194675 0.505302 0.586816
0.155489 0.523217 0.618280
0.166354 0.514122 0.618341
0.230838 0.505455 0.616022
0.308537 0.497505 0.618311
0.355169 0.473945 0.611505
0.485908 0.484413 0.621180
0.567590 0.487587 0.627741
0.594446 0.533440 0.588434
0.196536 0.532097 0.598138
0.150729 0.554009 0.618006
0.186252 0.552209 0.620356
0.257877 0.554986 0.623987
0.354009 0.565026 0.633478
0.438056 0.563714 0.638239
0.507713 0.545556 0.627527
0.590997 0.548730 0.628260
0.629114 0.579400 0.606348
0.194553 0.564752 0.586236
0.130709 0.579248 0.609003
0.135988 0.588037 0.616541
0.207797 0.602838 0.623590
0.297246 0.619135 0.629480
0.417914 0.636042 0.639460
0.535546 0.632380 0.642878
0.615167 0.615320 0.618585
0.654078 0.615869 0.615717
0.180056 0.600549 0.570123
0.190585 0.603204 0.576928
0.240513 0.610895 0.594720
0.313512 0.624475 0.616999
0.441352 0.639399 0.631525
0.530785 0.648615 0.635035
0.581720 0.650935 0.630854
0.620417 0.655299 0.621637
0.655299 0.655299 0.620569
0.113710 0.113710 0.529412
0.110353 0.110353 0.502983
0.109804 0.109804 0.486946
0.127718 0.109804 0.490730
0.225376 0.109804 0.503777
0.309606 0.110323 0.509972
0.377050 0.113588 0.526604
0.441657 0.114351 0.552605
0.505852 0.117647 0.572534
0.114687 0.212070 0.550225
0.113832 0.209689 0.536858
0.119478 0.194705 0.518425
0.169558 0.207767 0.530175
0.264469 0.221012 0.546563
0.349218 0.215549 0.550835
0.411078 0.208316 0.556359
0.461128 0.206241 0.567224
0.508873 0.208743 0.570092
0.117647 0.319493 0.592981
0.118105 0.312779 0.569390
0.139956 0.304448 0.556817
0.198886 0.312810 0.560327
0.293095 0.329198 0.575311
0.373571 0.336614 0.585748
0.435065 0.335149 0.588922
0.485298 0.336828 0.597375
0.529137 0.328893 0.597925
0.117647 0.419867 0.603998
0.123995 0.402045 0.594232
0.155520 0.389960 0.583246
0.221286 0.395056 0.583520
0.309850 0.408453 0.590845
0.391852 0.415442 0.599756
0.457527 0.419013 0.607477
0.504662 0.423194 0.616541
0.547051 0.426673 0.622827
0.117647 0.488075 0.609644
0.139406 0.469612 0.607874
0.188052 0.456764 0.603723
0.275456 0.464912 0.607874
0.351003 0.474220 0.611749
0.428016 0.479408 0.615900
0.484688 0.483009 0.621515
0.520348 0.480964 0.622187
0.568597 0.486427 0.627558
0.136812 0.517662 0.619623
0.155215 0.508385 0.617517
0.228672 0.503197 0.614557
0.324987 0.513573 0.623377
0.405097 0.520775 0.628931
0.475349 0.531121 0.633539
0.521782 0.535424 0.635737
0.555261 0.532708 0.636469
0.587396 0.533837 0.637171
0.145418 0.541192 0.623499
0.184360 0.535302 0.620203
0.259037 0.540581 0.623743
0.355688 0.553918 0.632319
0.439002 0.566155 0.640894
0.505089 0.572229 0.646998
0.555444 0.579980 0.650324
0.593500 0.582116 0.650446
0.623285 0.581109 0.647700
0.127382 0.562280 0.617639
0.172915 0.563928 0.620142
0.243168 0.569696 0.622980
0.341680 0.588098 0.633722
0.436561 0.600336 0.641138
0.514336 0.608789 0.647578
0.570611 0.615015 0.650843
0.614099 0.618647 0.654444
0.652216 0.618585 0.654444
0.117647 0.580377 0.615656
0.129244 0.584375 0.613855
0.208896 0.602380 0.623652
0.291478 0.618097 0.629419
0.415442 0.639185 0.641138
0.514336 0.647578 0.647578
0.577264 0.650843 0.650843
0.616236 0.654444 0.654444
0.658808 0.658808 0.658808
