tools/luts_backup/Kodak Vision3 50D 5203 (NEG)_VS.cube
# (C) 2014 VisionColor & Patchflyer [www.vision-color.com]
# Generator: VC Patchmatch v.2.1.1 [64/53]
# All work and no play makes Jack a dull boy.
# LUT generated from: Kodak Vision3 50D 5203 (NEG)_Cineon
LUT_3D_SIZE 17
0.023758 0.023758 0.023758
0.060777 0.025956 0.024369
0.089448 0.029358 0.029511
0.120272 0.034455 0.035584
0.154528 0.040726 0.041657
0.192981 0.047135 0.047761
0.232822 0.052888 0.053315
0.270756 0.057801 0.058045
0.306310 0.062379 0.062257
0.340429 0.067063 0.066072
0.376516 0.072786 0.070573
0.417655 0.080873 0.076967
0.454658 0.091341 0.084840
0.486488 0.101930 0.092622
0.510369 0.109682 0.098787
0.528344 0.109545 0.101366
0.540108 0.103929 0.104005
0.042084 0.049638 0.028992
0.072282 0.053925 0.030213
0.107958 0.064179 0.035966
0.140841 0.071778 0.042832
0.174151 0.078172 0.049073
0.209277 0.084443 0.055390
0.246265 0.090791 0.061769
0.283757 0.097948 0.067674
0.319448 0.104067 0.072343
0.353735 0.108675 0.076402
0.390982 0.115160 0.081865
0.433005 0.126329 0.090013
0.469993 0.140581 0.099641
0.501472 0.154665 0.109056
0.526192 0.165225 0.116976
0.544045 0.163729 0.120470
0.554437 0.145785 0.119081
0.046983 0.100649 0.044511
0.077745 0.102235 0.049454
0.121309 0.111696 0.052049
0.160906 0.119310 0.054871
0.194278 0.127184 0.060822
0.227726 0.133867 0.067048
0.263096 0.141054 0.073716
0.299794 0.148531 0.079698
0.335592 0.154543 0.084428
0.369787 0.158175 0.088396
0.406195 0.163561 0.093736
0.447669 0.174487 0.102327
0.484993 0.190738 0.113649
0.516762 0.209461 0.125414
0.543175 0.228229 0.136736
0.562722 0.239048 0.145022
0.575479 0.233906 0.148043
0.065553 0.153841 0.069413
0.089906 0.156497 0.069718
0.121736 0.162844 0.072282
0.168399 0.173342 0.074800
0.209613 0.180468 0.075990
0.242741 0.184115 0.078721
0.275380 0.188693 0.083879
0.313527 0.197848 0.090974
0.354162 0.207523 0.097642
0.392218 0.213184 0.103197
0.430014 0.218830 0.109804
0.469184 0.230457 0.119371
0.505760 0.247608 0.131701
0.537377 0.269780 0.146212
0.565423 0.294087 0.161212
0.587350 0.316457 0.175555
0.604471 0.329519 0.186603
0.084535 0.208225 0.092515
0.106432 0.213123 0.088884
0.132876 0.217655 0.089906
0.166491 0.224338 0.092348
0.212726 0.233127 0.094209
0.252796 0.238956 0.095781
0.284260 0.237095 0.095521
0.320439 0.242252 0.100908
0.367224 0.256794 0.110536
0.414023 0.270054 0.120333
0.458000 0.281025 0.130739
0.496651 0.294865 0.142763
0.531273 0.312535 0.156329
0.561517 0.334813 0.172137
0.588571 0.360876 0.190021
0.612299 0.390066 0.209812
0.631983 0.416190 0.228779
0.098741 0.260380 0.110094
0.121401 0.268986 0.105303
0.150332 0.275212 0.106569
0.179156 0.280247 0.107942
0.214176 0.285451 0.110323
0.257115 0.291478 0.112078
0.295201 0.294408 0.114168
0.329397 0.292683 0.115145
0.376318 0.304494 0.124422
0.431373 0.324712 0.138949
0.481773 0.342290 0.153674
0.521874 0.359197 0.168536
0.555978 0.378546 0.184863
0.585672 0.399359 0.201678
0.610651 0.424582 0.220935
0.635355 0.456565 0.244129
0.656138 0.489799 0.268849
0.112596 0.311879 0.125505
0.134813 0.322271 0.121050
0.165286 0.329549 0.122057
0.194568 0.335454 0.123491
0.225452 0.340368 0.126009
0.262730 0.345495 0.129351
0.306020 0.352224 0.133074
0.345220 0.354696 0.137240
0.389990 0.361517 0.145144
0.445335 0.378973 0.159426
0.498924 0.398840 0.176822
0.541405 0.418143 0.194202
0.575525 0.437598 0.211765
0.604395 0.457160 0.229114
0.629038 0.479896 0.248157
0.652338 0.509896 0.271565
0.674266 0.544106 0.299138
0.127932 0.364019 0.142885
0.145785 0.375113 0.138598
0.175235 0.381826 0.140017
0.204715 0.388983 0.141283
0.235355 0.394644 0.143862
0.271534 0.400366 0.147738
0.314748 0.407767 0.152468
0.360678 0.415839 0.158755
0.405768 0.422354 0.168246
0.459602 0.436713 0.183703
0.510750 0.451987 0.199130
0.553216 0.468071 0.215793
0.587228 0.484245 0.232303
0.616114 0.501854 0.249119
0.640620 0.521462 0.266987
0.661784 0.543679 0.286900
0.681971 0.569741 0.312139
0.144350 0.416922 0.163485
0.156283 0.426734 0.159899
0.179309 0.434440 0.160922
0.207874 0.442771 0.163195
0.238361 0.448783 0.165545
0.273991 0.453849 0.169009
0.317693 0.460563 0.173404
0.365972 0.468971 0.179187
0.415320 0.477668 0.188113
0.466697 0.488228 0.203235
0.520790 0.503136 0.222019
0.559213 0.512596 0.234836
0.591302 0.520745 0.246616
0.619394 0.530724 0.259403
0.642878 0.543801 0.273579
0.664027 0.559121 0.290532
0.682246 0.577585 0.311330
0.161746 0.470527 0.187427
0.171771 0.478233 0.185595
0.183688 0.487434 0.182574
0.207523 0.495918 0.186740
0.238621 0.504067 0.190982
0.272709 0.508476 0.194583
0.313726 0.512673 0.198199
0.362524 0.517830 0.201846
0.412253 0.524086 0.207874
0.464652 0.531929 0.218051
0.517494 0.541390 0.235080
0.562097 0.551049 0.252277
0.591089 0.552300 0.259220
0.617197 0.553292 0.266255
0.640574 0.558938 0.276600
0.663691 0.570596 0.291325
0.683497 0.587655 0.311772
0.177951 0.518791 0.211185
0.186633 0.524041 0.209339
0.195697 0.530480 0.207019
0.207889 0.538659 0.205447
0.235233 0.546670 0.211566
0.272526 0.554177 0.218875
0.312963 0.558526 0.224506
0.358221 0.561746 0.228183
0.408392 0.564828 0.231342
0.458183 0.569390 0.237018
0.507851 0.574792 0.246876
0.555367 0.581506 0.262409
0.591730 0.584848 0.273976
0.615732 0.581277 0.277852
0.640650 0.581765 0.285176
0.667048 0.592599 0.300923
0.691234 0.611917 0.324376
0.192599 0.558587 0.233509
0.200931 0.562722 0.231937
0.209171 0.567483 0.229816
0.218433 0.573266 0.228153
0.234989 0.580896 0.229328
0.270756 0.588663 0.239094
0.315267 0.595117 0.248356
0.360128 0.598550 0.253971
0.406989 0.600702 0.256519
0.457237 0.602899 0.259449
0.505989 0.606592 0.266545
0.552422 0.610529 0.277302
0.591287 0.613260 0.288533
0.622080 0.614084 0.297673
0.647395 0.613504 0.304128
0.675654 0.622782 0.319997
0.702785 0.642191 0.345785
0.207630 0.590829 0.254475
0.215198 0.593927 0.252308
0.223377 0.598077 0.250721
0.233875 0.603769 0.251759
0.247318 0.611337 0.253773
0.275914 0.619364 0.261326
0.323095 0.625895 0.272786
0.371649 0.630167 0.279454
0.419959 0.632609 0.282338
0.468986 0.634730 0.285023
0.520333 0.638834 0.292958
0.568490 0.643915 0.305562
0.607065 0.646922 0.316381
0.636530 0.647440 0.323888
0.663722 0.650004 0.333639
0.689387 0.656367 0.346868
0.713939 0.670115 0.368994
0.223453 0.618967 0.276265
0.230289 0.621637 0.272984
0.239231 0.625544 0.272145
0.252293 0.631769 0.275547
0.270619 0.640757 0.282490
0.279774 0.657252 0.272755
0.336202 0.660060 0.289631
0.402609 0.659998 0.306691
0.458320 0.661707 0.313710
0.506859 0.665003 0.318029
0.556725 0.669856 0.328893
0.602060 0.675517 0.344045
0.637232 0.679149 0.355596
0.663966 0.680613 0.362737
0.685008 0.682033 0.368368
0.706065 0.686702 0.378286
0.723857 0.693385 0.390723
0.237507 0.640070 0.297139
0.244800 0.642863 0.294423
0.255360 0.647654 0.293614
0.271229 0.654673 0.297368
0.281956 0.671504 0.292500
0.298344 0.692958 0.282170
0.367208 0.696651 0.300786
0.449393 0.695079 0.326268
0.520119 0.694850 0.349920
0.568383 0.698329 0.362234
0.607660 0.702281 0.372015
0.642390 0.705837 0.382345
0.670390 0.708370 0.390417
0.691249 0.709850 0.395544
0.708324 0.710826 0.399847
0.722133 0.711925 0.402914
0.733425 0.713588 0.406180
0.247822 0.656184 0.314794
0.256977 0.659983 0.313832
0.271275 0.667048 0.314992
0.290333 0.676432 0.316701
0.284184 0.702983 0.286351
0.342611 0.715114 0.299153
0.431708 0.719005 0.326894
0.517357 0.722652 0.350729
0.578347 0.726955 0.367437
0.616464 0.729976 0.377508
0.648356 0.731746 0.386130
0.675898 0.733501 0.393957
0.696590 0.734661 0.399588
0.713573 0.734585 0.404837
0.726299 0.734417 0.409354
0.736522 0.733715 0.413184
0.743114 0.731319 0.416083
0.255116 0.669566 0.328481
0.266514 0.674571 0.328649
0.285039 0.682948 0.331579
0.298482 0.697551 0.323064
0.301656 0.723766 0.290913
0.380896 0.728466 0.314244
0.472267 0.731884 0.340627
0.549355 0.736858 0.363027
0.601267 0.742077 0.378836
0.637369 0.746303 0.390417
0.666880 0.748867 0.399313
0.690166 0.750713 0.406134
0.708705 0.751095 0.410788
0.723171 0.750698 0.413825
0.735378 0.749996 0.415778
0.746120 0.750362 0.418051
0.755550 0.751110 0.420493
0.028214 0.018570 0.028656
0.053452 0.024643 0.032151
0.083421 0.028412 0.039216
0.113787 0.033066 0.046052
0.146075 0.038758 0.051194
0.181735 0.044190 0.056306
0.221607 0.050141 0.062242
0.261128 0.055268 0.067414
0.298085 0.059236 0.071077
0.334325 0.064485 0.074601
0.371588 0.070863 0.079026
0.411780 0.077226 0.084855
0.449439 0.084184 0.091615
0.481621 0.091463 0.098146
0.507103 0.098619 0.104784
0.527001 0.103120 0.109575
0.541024 0.105882 0.112718
0.036133 0.042481 0.045945
0.051911 0.048936 0.048081
0.112154 0.048173 0.041550
0.147616 0.048981 0.046189
0.182986 0.052979 0.052628
0.219837 0.057923 0.057877
0.256352 0.062593 0.062409
0.290898 0.066880 0.066361
0.325505 0.072419 0.070878
0.362112 0.079393 0.076265
0.400610 0.087785 0.082612
0.439216 0.097795 0.090059
0.471839 0.108080 0.097856
0.498894 0.115953 0.104875
0.519158 0.118883 0.109804
0.535744 0.119860 0.113924
0.552209 0.134798 0.120928
0.044099 0.090654 0.066102
0.060380 0.121782 0.059342
0.134447 0.129000 0.066468
0.176959 0.121920 0.063798
0.208820 0.119570 0.067643
0.242374 0.120195 0.072618
0.276753 0.122911 0.077348
0.309972 0.125414 0.081117
0.342458 0.128222 0.084947
0.379507 0.134188 0.090806
0.420127 0.143786 0.098573
0.458137 0.156725 0.107805
0.490806 0.170397 0.117494
0.516304 0.179553 0.125170
0.536294 0.181079 0.130083
0.551125 0.176761 0.132586
0.565316 0.188357 0.138445
0.064851 0.142977 0.091188
0.078065 0.187304 0.086397
0.123156 0.191684 0.087465
0.186206 0.202213 0.090288
0.230793 0.192309 0.085969
0.261418 0.187228 0.088060
0.296529 0.188632 0.093141
0.332143 0.190585 0.097505
0.365377 0.191638 0.101305
0.400305 0.195743 0.106798
0.440833 0.205356 0.115434
0.477760 0.219455 0.126040
0.511360 0.236881 0.138109
0.539178 0.254704 0.150301
0.560311 0.265324 0.158877
0.573159 0.264088 0.162264
0.581582 0.256855 0.161379
0.082597 0.199268 0.115801
0.099092 0.240681 0.110674
0.131106 0.248890 0.104967
0.178012 0.257465 0.107942
0.235050 0.266255 0.110704
0.275959 0.256550 0.107836
0.311437 0.252049 0.109407
0.352758 0.256504 0.115572
0.393744 0.261662 0.122286
0.433173 0.267994 0.129931
0.472541 0.277836 0.139910
0.508034 0.292500 0.152270
0.540017 0.311849 0.166659
0.568582 0.334432 0.182315
0.589639 0.352880 0.195712
0.602396 0.355795 0.200763
0.602380 0.328420 0.189578
0.097658 0.253895 0.135897
0.113420 0.289372 0.123293
0.145678 0.299794 0.120165
0.187304 0.308766 0.123232
0.231693 0.318700 0.127871
0.285069 0.328222 0.132601
0.325887 0.321294 0.132952
0.368261 0.320333 0.136065
0.415885 0.329046 0.145602
0.462776 0.340124 0.157244
0.503609 0.352712 0.169757
0.539315 0.368215 0.184161
0.569802 0.388220 0.200763
0.596429 0.410559 0.218326
0.618341 0.432975 0.235477
0.631327 0.438575 0.242313
0.624704 0.398047 0.221805
0.112535 0.310521 0.149462
0.128161 0.336263 0.135744
0.157977 0.346059 0.134524
0.197009 0.355200 0.137438
0.235325 0.364126 0.141848
0.281636 0.376150 0.148638
0.336080 0.387961 0.155947
0.381796 0.386877 0.161334
0.431174 0.392264 0.170245
0.482506 0.403845 0.183795
0.526589 0.418845 0.199207
0.562737 0.435340 0.215183
0.593484 0.454353 0.232486
0.618738 0.474876 0.250370
0.640436 0.496910 0.268605
0.652888 0.504036 0.277424
0.643412 0.457969 0.251469
0.129076 0.368872 0.162203
0.142672 0.381964 0.150835
0.167590 0.391211 0.149645
0.202045 0.399863 0.152132
0.239475 0.407996 0.156313
0.280537 0.419181 0.163165
0.329946 0.433127 0.171298
0.386221 0.446494 0.181186
0.440360 0.453483 0.194232
0.493050 0.462486 0.208515
0.537285 0.472953 0.222324
0.574777 0.486137 0.237354
0.605859 0.501671 0.253239
0.631312 0.519814 0.270726
0.652369 0.536965 0.287190
0.664790 0.543053 0.296666
0.655848 0.500435 0.271748
0.146426 0.422354 0.179095
0.157916 0.429618 0.172030
0.173816 0.438621 0.167758
0.205325 0.447333 0.171038
0.241062 0.454917 0.174334
0.280400 0.462425 0.179568
0.326024 0.474754 0.187884
0.378164 0.489204 0.197559
0.435157 0.503075 0.209720
0.492882 0.513542 0.227192
0.540887 0.520760 0.242176
0.576806 0.524865 0.251850
0.607309 0.531868 0.263264
0.632807 0.541939 0.276707
0.653422 0.552666 0.290242
0.665797 0.555032 0.297917
0.657847 0.516411 0.275029
0.163180 0.472419 0.200031
0.173816 0.480232 0.197024
0.184192 0.489128 0.193179
0.205035 0.499229 0.192889
0.240574 0.507698 0.197955
0.279255 0.512489 0.202350
0.322057 0.517403 0.207462
0.370901 0.525994 0.214603
0.423072 0.536995 0.224720
0.479561 0.548608 0.237690
0.535027 0.556710 0.254673
0.576272 0.560281 0.267552
0.605005 0.558831 0.273274
0.631800 0.561639 0.282429
0.653239 0.567330 0.293431
0.666331 0.565942 0.298466
0.655467 0.522255 0.272084
0.179019 0.518791 0.223148
0.188556 0.525307 0.221714
0.197894 0.532006 0.219501
0.208927 0.540749 0.215717
0.235554 0.550546 0.218784
0.278737 0.558328 0.227131
0.321874 0.561990 0.232471
0.366644 0.564706 0.236362
0.416312 0.569680 0.241566
0.470314 0.578729 0.252354
0.527626 0.588907 0.268620
0.575189 0.594385 0.284062
0.609003 0.594400 0.292515
0.635645 0.592508 0.297795
0.659678 0.597009 0.308812
0.676310 0.597772 0.316289
0.665782 0.556283 0.289036
0.193881 0.558648 0.245624
0.202792 0.563638 0.244526
0.211231 0.568597 0.242634
0.221347 0.574456 0.241871
0.235492 0.583795 0.238972
0.274022 0.592538 0.248096
0.323430 0.598795 0.257206
0.368353 0.601053 0.261448
0.414771 0.602655 0.263996
0.466819 0.606149 0.269169
0.526925 0.615976 0.286168
0.582406 0.626398 0.307515
0.620905 0.630228 0.320104
0.648371 0.629572 0.325811
0.671611 0.632136 0.334630
0.691310 0.636622 0.345174
0.688670 0.613611 0.327352
0.209461 0.590997 0.267674
0.217243 0.594415 0.265858
0.225803 0.598672 0.265019
0.236988 0.604486 0.267231
0.251255 0.612299 0.269505
0.269062 0.625086 0.264775
0.322911 0.630625 0.278035
0.379080 0.632654 0.287831
0.426764 0.634211 0.289937
0.475929 0.636454 0.292973
0.531624 0.642557 0.305257
0.593210 0.654276 0.331380
0.638025 0.661967 0.351171
0.667842 0.665644 0.361975
0.688228 0.666682 0.366705
0.705592 0.670390 0.375204
0.709850 0.661265 0.367834
0.225605 0.619272 0.290150
0.232273 0.621866 0.286732
0.241474 0.625605 0.286564
0.255039 0.631937 0.291249
0.274418 0.640681 0.300572
0.271916 0.660014 0.280568
0.316335 0.667918 0.282109
0.397833 0.663539 0.308659
0.459052 0.663691 0.319356
0.510475 0.666346 0.326680
0.561959 0.671534 0.339193
0.611337 0.679301 0.358282
0.654582 0.687755 0.376211
0.684855 0.693004 0.387228
0.706264 0.696132 0.394202
0.719463 0.696925 0.397009
0.726162 0.693401 0.396643
0.240085 0.640421 0.312215
0.247410 0.643076 0.309712
0.258122 0.647761 0.309560
0.274464 0.654856 0.314275
0.288228 0.669978 0.315679
0.280278 0.698589 0.284962
0.348562 0.702220 0.301930
0.435050 0.700618 0.320363
0.512459 0.699214 0.344610
0.566918 0.701106 0.362051
0.608331 0.704494 0.374014
0.644587 0.708339 0.383734
0.675410 0.712642 0.391760
0.701091 0.716426 0.398566
0.720256 0.719356 0.403906
0.733333 0.719661 0.408179
0.739940 0.718303 0.410483
0.251148 0.656870 0.331456
0.260471 0.660716 0.330861
0.274876 0.667399 0.332815
0.293690 0.676966 0.335180
0.290547 0.700343 0.310933
0.326436 0.719875 0.305470
0.416205 0.723156 0.329229
0.503777 0.725444 0.351370
0.571725 0.728862 0.368719
0.614481 0.731777 0.379644
0.647913 0.733639 0.388769
0.675639 0.735607 0.396826
0.697749 0.736706 0.402853
0.716258 0.737926 0.407843
0.731670 0.738888 0.411872
0.743618 0.739345 0.414801
0.751781 0.738048 0.415885
0.258808 0.670130 0.346014
0.270298 0.675090 0.346441
0.289097 0.683406 0.350347
0.303563 0.697688 0.344503
0.292653 0.726482 0.302770
0.364553 0.733593 0.317525
0.456291 0.735607 0.341421
0.537453 0.739010 0.363210
0.594980 0.744091 0.380240
0.635538 0.747784 0.394751
0.665782 0.750195 0.406271
0.690349 0.751842 0.413809
0.708812 0.752453 0.417792
0.724407 0.752316 0.419455
0.737423 0.752697 0.420218
0.749096 0.753429 0.422553
0.759197 0.754360 0.425330
0.026459 0.018280 0.054963
0.050629 0.022904 0.055177
0.077516 0.027558 0.057069
0.108843 0.032364 0.063981
0.139101 0.037201 0.069490
0.173297 0.042359 0.074754
0.212787 0.048371 0.081300
0.254383 0.054353 0.086946
0.293858 0.059358 0.090715
0.330968 0.064103 0.092958
0.368277 0.069947 0.095140
0.408225 0.076448 0.098833
0.446326 0.082872 0.103853
0.478355 0.089021 0.108904
0.503517 0.095125 0.114504
0.524010 0.099840 0.119478
0.540246 0.104997 0.124224
0.032136 0.038300 0.077668
0.042588 0.030900 0.078843
0.090562 0.039811 0.074434
0.133532 0.044862 0.070817
0.169482 0.049912 0.072526
0.207370 0.054978 0.075624
0.245823 0.059754 0.078798
0.282780 0.064225 0.081315
0.319341 0.069596 0.083909
0.356283 0.075685 0.087190
0.394629 0.082033 0.091691
0.434394 0.089387 0.097505
0.467292 0.097002 0.104463
0.494926 0.103929 0.111192
0.516228 0.109590 0.116930
0.534051 0.114565 0.122087
0.548165 0.120043 0.125948
0.044999 0.075669 0.088914
0.058183 0.093400 0.110384
0.100038 0.085298 0.084611
0.168185 0.080522 0.063371
0.206638 0.074662 0.065370
0.242344 0.073548 0.069688
0.277974 0.075761 0.073457
0.311528 0.079423 0.076951
0.346456 0.085542 0.081743
0.384268 0.094362 0.088426
0.423529 0.104662 0.096254
0.457511 0.114290 0.103716
0.486885 0.122545 0.110872
0.509728 0.127459 0.116854
0.529366 0.131594 0.122271
0.545007 0.139742 0.127504
0.557290 0.145678 0.131197
0.064271 0.135775 0.116289
0.080247 0.168185 0.130282
0.083635 0.180407 0.095476
0.185443 0.189273 0.100328
0.238422 0.175647 0.091997
0.271351 0.165866 0.092531
0.304173 0.160372 0.094499
0.336736 0.157870 0.097108
0.371511 0.159869 0.101717
0.409506 0.167681 0.108995
0.448829 0.179507 0.118303
0.482368 0.192004 0.128069
0.510460 0.202167 0.136721
0.531212 0.206226 0.142672
0.547707 0.204517 0.145846
0.559945 0.202686 0.148028
0.570123 0.200137 0.149294
0.080705 0.192447 0.140383
0.096727 0.229160 0.147814
0.107378 0.255879 0.115175
0.178134 0.266743 0.120760
0.247395 0.275471 0.125444
0.296208 0.259678 0.118730
0.333349 0.252003 0.119799
0.370291 0.247883 0.122850
0.405890 0.246387 0.127398
0.443580 0.251514 0.135302
0.480400 0.263203 0.145800
0.513741 0.277913 0.157382
0.540352 0.292973 0.168948
0.561288 0.302190 0.177340
0.573709 0.298695 0.179736
0.579293 0.282109 0.175189
0.583871 0.260319 0.169284
0.095140 0.246876 0.161349
0.112688 0.288365 0.158099
0.131136 0.316762 0.132387
0.186770 0.328115 0.137133
0.245426 0.340581 0.143832
0.305715 0.350835 0.150942
0.354620 0.339361 0.150469
0.400290 0.336080 0.153933
0.444068 0.337652 0.161288
0.484367 0.343008 0.170626
0.519127 0.353872 0.182422
0.549966 0.369360 0.196124
0.576715 0.386603 0.210468
0.596033 0.398398 0.221180
0.606577 0.395041 0.223224
0.605646 0.364965 0.210285
0.600793 0.323568 0.193103
0.110796 0.305653 0.178012
0.130617 0.347738 0.168093
0.147021 0.365347 0.148531
0.192355 0.375616 0.151888
0.246967 0.387076 0.158160
0.299840 0.402991 0.167941
0.359228 0.416602 0.177340
0.413535 0.413230 0.184573
0.465812 0.415183 0.193362
0.511772 0.422141 0.205692
0.549401 0.433234 0.219028
0.580026 0.448875 0.234531
0.606210 0.466087 0.250248
0.624994 0.478355 0.262654
0.634897 0.474968 0.264500
0.631510 0.441291 0.247654
0.620951 0.388373 0.221347
0.128267 0.366690 0.191821
0.147845 0.400381 0.182376
0.160845 0.410010 0.168643
0.194553 0.420325 0.168032
0.245869 0.430945 0.173877
0.295018 0.442496 0.181659
0.348714 0.459449 0.192996
0.408652 0.474495 0.204715
0.467781 0.478279 0.218067
0.520699 0.482338 0.230900
0.561791 0.489815 0.243626
0.594278 0.502205 0.258427
0.621378 0.517464 0.274189
0.641154 0.529458 0.287709
0.652003 0.527337 0.291096
0.648798 0.496254 0.274983
0.637598 0.443992 0.246891
0.148455 0.427726 0.207782
0.163363 0.446769 0.200702
0.174777 0.453925 0.190555
0.196475 0.465751 0.185733
0.242283 0.476081 0.191897
0.292149 0.484276 0.198642
0.341161 0.497505 0.208240
0.395071 0.511757 0.219608
0.454795 0.524773 0.232547
0.514351 0.530129 0.247929
0.559762 0.531456 0.259571
0.594095 0.534905 0.269108
0.622705 0.542367 0.281086
0.642954 0.549020 0.292287
0.654795 0.545953 0.295552
0.653895 0.520455 0.282933
0.646647 0.479912 0.261204
0.169024 0.485893 0.228244
0.178744 0.492256 0.221332
0.188632 0.498009 0.213626
0.201678 0.508965 0.207218
0.238224 0.519219 0.210971
0.287144 0.525902 0.217456
0.335897 0.532433 0.224659
0.386404 0.543435 0.234760
0.442008 0.555093 0.246769
0.504280 0.567452 0.263569
0.556344 0.570886 0.277440
0.593759 0.568994 0.285069
0.622889 0.568719 0.291356
0.644205 0.568902 0.298680
0.655222 0.560021 0.298054
0.653269 0.531868 0.282643
0.649653 0.501747 0.266911
0.186069 0.530571 0.248768
0.192737 0.531685 0.241398
0.201114 0.535866 0.235279
0.212772 0.544366 0.232029
0.233845 0.556542 0.228290
0.282032 0.564385 0.237537
0.331975 0.569177 0.244038
0.381353 0.575021 0.251698
0.435660 0.583597 0.261769
0.497169 0.594980 0.278370
0.561624 0.607691 0.302098
0.603281 0.610101 0.313313
0.631449 0.607111 0.316396
0.654047 0.605463 0.320592
0.667475 0.597726 0.320317
0.664454 0.567773 0.301503
0.655268 0.530282 0.277455
0.199847 0.565026 0.267231
0.205844 0.565942 0.260746
0.213855 0.569650 0.257404
0.224689 0.575814 0.257099
0.239750 0.585290 0.254749
0.271412 0.596719 0.255100
0.328069 0.601785 0.266255
0.380453 0.605509 0.272328
0.436683 0.611612 0.281010
0.498405 0.620844 0.295689
0.566506 0.634760 0.322911
0.619074 0.645762 0.346899
0.650614 0.647929 0.355566
0.669810 0.644923 0.354955
0.685527 0.641367 0.355642
0.687175 0.623743 0.342061
0.674342 0.584161 0.309834
0.213687 0.593606 0.285771
0.219562 0.595056 0.280324
0.228061 0.599115 0.279545
0.240024 0.605051 0.283070
0.255390 0.612879 0.287144
0.264057 0.628016 0.273899
0.308766 0.637446 0.274739
0.381826 0.636866 0.293751
0.445624 0.640650 0.305303
0.512566 0.648981 0.321401
0.578286 0.660304 0.345357
0.631830 0.671443 0.369131
0.668528 0.678340 0.382254
0.690593 0.680369 0.388098
0.703410 0.677592 0.387198
0.708644 0.669856 0.382330
0.700099 0.643183 0.357305
0.228489 0.620066 0.306050
0.235248 0.622507 0.302770
0.244190 0.625986 0.302388
0.258412 0.632334 0.308110
0.278798 0.641108 0.319493
0.278828 0.658595 0.305333
0.290562 0.677592 0.275166
0.383383 0.671031 0.301640
0.467750 0.668498 0.328725
0.538384 0.676509 0.348653
0.599863 0.687831 0.366217
0.647211 0.697322 0.378134
0.682246 0.703838 0.387350
0.707240 0.707546 0.394461
0.721065 0.707179 0.399145
0.727459 0.702220 0.401740
0.723629 0.687892 0.396521
0.243870 0.641337 0.329839
0.251133 0.643961 0.327291
0.261830 0.648432 0.327276
0.278767 0.655238 0.333394
0.293065 0.670451 0.336767
0.287373 0.696117 0.314199
0.333532 0.706691 0.310796
0.421424 0.705058 0.323293
0.506355 0.704295 0.340810
0.572808 0.708614 0.359289
0.624949 0.715343 0.376349
0.665232 0.720974 0.390036
0.695262 0.724895 0.399756
0.717647 0.727321 0.406424
0.732601 0.728450 0.410391
0.742123 0.726833 0.411490
0.744076 0.720958 0.408591
0.255421 0.657908 0.349905
0.264546 0.661616 0.349294
0.279240 0.668177 0.351995
0.298451 0.677577 0.356268
0.296880 0.699733 0.337438
0.314580 0.722759 0.319310
0.406210 0.724941 0.345098
0.494133 0.726757 0.360937
0.566125 0.730312 0.373709
0.614374 0.734096 0.384237
0.651194 0.736980 0.398367
0.681849 0.739727 0.411505
0.705501 0.741772 0.420218
0.724422 0.743175 0.424964
0.738811 0.744152 0.426917
0.749920 0.744610 0.428046
0.757183 0.742733 0.425940
0.263828 0.671534 0.365621
0.275074 0.676112 0.366369
0.294163 0.683970 0.371756
0.310704 0.697063 0.369635
0.299474 0.723842 0.331960
0.350866 0.736721 0.329335
0.443793 0.737881 0.350347
0.526116 0.740475 0.369787
0.588327 0.744686 0.388739
0.633494 0.748501 0.406516
0.665904 0.751232 0.419760
0.691218 0.753384 0.430274
0.711223 0.754498 0.436576
0.727840 0.755154 0.440467
0.741375 0.756176 0.442527
0.753262 0.757000 0.443107
0.763302 0.757839 0.444678
0.027298 0.020188 0.082856
0.046403 0.022232 0.080507
0.072847 0.026596 0.083024
0.101671 0.030900 0.086107
0.132494 0.035691 0.092561
0.165728 0.040558 0.097993
0.205615 0.046662 0.105165
0.247486 0.052552 0.111467
0.288518 0.057954 0.115511
0.327749 0.063783 0.118379
0.365835 0.069780 0.119356
0.405325 0.076020 0.120317
0.444129 0.082536 0.122637
