tools/luts_backup/Kodak Vision3 50D 5203 (NEG)_FC.cube
# (C) 2014 VisionColor & Patchflyer [www.vision-color.com]
# Generator: VC Patchmatch v.2.1.1 [64/53]
# All work and no play makes Jack a dull boy.
# LUT generated from: BMD Film to Kodak Vision3 50D 5203 (NEG)_Cineon
LUT_3D_SIZE 17
0.020325 0.020325 0.020325
0.056672 0.020706 0.018494
0.096101 0.019715 0.019944
0.141283 0.020310 0.021942
0.191959 0.022721 0.023896
0.256413 0.024659 0.025376
0.331594 0.026139 0.026612
0.410727 0.027314 0.027573
0.486519 0.028412 0.028275
0.558633 0.029770 0.028763
0.632517 0.031785 0.029526
0.709545 0.035065 0.030991
0.780468 0.040375 0.033433
0.840864 0.046113 0.036194
0.882628 0.049943 0.038407
0.920470 0.048554 0.039826
0.943999 0.043290 0.043366
0.032868 0.039643 0.021210
0.065858 0.040696 0.010224
0.106813 0.045106 0.010239
0.147738 0.048081 0.013703
0.196017 0.049973 0.016709
0.251225 0.052171 0.019715
0.315984 0.054276 0.022385
0.388968 0.056809 0.024140
0.461219 0.058717 0.024979
0.533089 0.059800 0.025711
0.607065 0.062058 0.027131
0.683085 0.067613 0.029297
0.752667 0.076204 0.032547
0.811994 0.085039 0.035889
0.862516 0.091371 0.038834
0.905226 0.088548 0.041489
0.939300 0.073121 0.044785
0.028519 0.078538 0.025971
0.052506 0.079591 0.021942
0.097078 0.083421 0.013794
0.147372 0.085603 0.011917
0.192187 0.088930 0.014282
0.243748 0.091218 0.017060
0.303120 0.093935 0.019883
0.372259 0.096803 0.021820
0.442847 0.098772 0.022736
0.513008 0.099184 0.023453
0.585458 0.100710 0.024750
0.661387 0.106096 0.027131
0.733730 0.117357 0.031098
0.793423 0.131365 0.035096
0.846113 0.146212 0.038590
0.887755 0.154208 0.041871
0.924346 0.147753 0.045274
0.028061 0.127901 0.032349
0.046510 0.128847 0.025299
0.075425 0.131273 0.021286
0.127428 0.135012 0.017563
0.182239 0.136645 0.015442
0.234424 0.136110 0.015610
0.288518 0.137087 0.017472
0.356313 0.141680 0.019516
0.432731 0.147051 0.020798
0.510094 0.148928 0.022126
0.584085 0.150423 0.023941
0.656672 0.157412 0.027054
0.726406 0.170245 0.031373
0.791287 0.190265 0.036225
0.847745 0.213596 0.041077
0.890913 0.236133 0.046143
0.928450 0.248798 0.051240
0.026123 0.189242 0.034684
0.045136 0.189685 0.027680
0.068421 0.190631 0.022858
0.102190 0.192981 0.020157
0.160037 0.194018 0.017807
0.217792 0.193240 0.016739
0.271519 0.186526 0.016190
0.336355 0.187396 0.017762
0.419043 0.198260 0.019654
0.506661 0.208042 0.021637
0.586282 0.215106 0.025162
0.662272 0.225635 0.029511
0.733043 0.240879 0.034394
0.799390 0.263462 0.039841
0.854887 0.292271 0.046342
0.900084 0.327016 0.053513
0.926467 0.358999 0.062730
0.022171 0.259022 0.033936
0.042374 0.262257 0.026886
0.067659 0.263432 0.022644
0.095872 0.262272 0.020371
0.138155 0.261265 0.019165
0.196780 0.258946 0.017151
0.255055 0.253620 0.017014
0.319020 0.246052 0.017304
0.402167 0.253269 0.019409
0.499107 0.272663 0.023453
0.585275 0.288380 0.028122
0.666682 0.303960 0.033463
0.741604 0.323903 0.039384
0.807446 0.346609 0.045914
0.861250 0.376318 0.053361
0.905104 0.417044 0.064118
0.922087 0.460166 0.076600
0.019669 0.335866 0.032792
0.039399 0.341085 0.026307
0.065995 0.340276 0.022446
0.094469 0.339391 0.020447
0.129595 0.337209 0.019821
0.178622 0.335088 0.019821
0.242206 0.333471 0.019562
0.308202 0.327672 0.020615
0.389120 0.329030 0.023041
0.486641 0.344289 0.026856
0.579156 0.362280 0.032136
0.663981 0.381598 0.037995
0.740993 0.402716 0.044495
0.807904 0.424781 0.051270
0.863111 0.451972 0.060136
0.901503 0.489189 0.071550
0.921889 0.532616 0.086900
0.019608 0.418402 0.034058
0.036011 0.423667 0.029465
0.060227 0.422370 0.025742
0.087480 0.421393 0.023346
0.121324 0.419287 0.022507
0.165850 0.416693 0.022492
0.227573 0.415686 0.022721
0.300786 0.416297 0.023453
0.379477 0.415274 0.026856
0.474815 0.425422 0.031861
0.564706 0.437430 0.036103
0.650797 0.450706 0.041642
0.730220 0.466300 0.047547
0.799741 0.485130 0.053849
0.858839 0.507729 0.062531
0.897505 0.535149 0.073365
0.921065 0.573388 0.088823
0.020752 0.502586 0.038590
0.032090 0.508736 0.035431
0.050706 0.508949 0.033371
0.074647 0.509575 0.030838
0.105348 0.505577 0.029129
0.145983 0.500694 0.028305
0.205417 0.497154 0.027436
0.280003 0.496696 0.027253
0.363256 0.497078 0.028748
0.454368 0.500282 0.034379
0.548394 0.510292 0.041001
0.629938 0.514580 0.044602
0.708324 0.517617 0.048615
0.780453 0.524590 0.053529
0.843732 0.539925 0.060197
0.892180 0.560555 0.069627
0.917464 0.586587 0.083223
0.022202 0.583978 0.046265
0.030426 0.588998 0.043641
0.043015 0.592126 0.041962
0.061112 0.594202 0.041077
0.088014 0.593500 0.039490
0.123995 0.586435 0.038407
0.175387 0.578454 0.037156
0.246372 0.572503 0.034821
0.328984 0.569818 0.033829
0.421347 0.569238 0.035157
0.515297 0.572305 0.041535
0.605829 0.577066 0.048386
0.677623 0.570596 0.049928
0.751125 0.563729 0.052262
0.820508 0.565713 0.056992
0.883757 0.579858 0.065034
0.913725 0.603387 0.078080
0.023224 0.661295 0.054719
0.030411 0.664698 0.052216
0.039475 0.667811 0.050584
0.053025 0.669779 0.050706
0.074556 0.670726 0.051667
0.110826 0.668330 0.052705
0.156100 0.659678 0.052689
0.216449 0.650706 0.049348
0.295995 0.642664 0.044205
0.382818 0.637186 0.041962
0.472694 0.633616 0.043000
0.564675 0.633021 0.048768
0.647440 0.628473 0.054078
0.719234 0.614237 0.054353
0.795056 0.606409 0.057343
0.870604 0.615793 0.065690
0.912566 0.644999 0.080430
0.024643 0.731365 0.063920
0.031159 0.733440 0.061372
0.040009 0.734417 0.060105
0.051270 0.734340 0.060761
0.069596 0.732616 0.064149
0.102968 0.731456 0.068498
0.150011 0.727138 0.070741
0.205188 0.719448 0.069047
0.273686 0.711269 0.062516
0.358816 0.702770 0.055955
0.445792 0.696742 0.053574
0.531487 0.691905 0.055543
0.619410 0.685893 0.059617
0.702129 0.676768 0.063127
0.779202 0.665812 0.064790
0.862425 0.673701 0.072999
0.913542 0.703792 0.090303
0.027314 0.794537 0.073182
0.034073 0.794430 0.070451
0.043656 0.794171 0.070359
0.056550 0.792203 0.074128
0.074723 0.788693 0.081910
0.107240 0.784741 0.090959
0.156237 0.779568 0.095155
0.213336 0.774456 0.092256
0.281254 0.768994 0.082780
0.360815 0.762325 0.074510
0.450385 0.757305 0.071397
0.538369 0.753857 0.074113
0.624140 0.749218 0.076860
0.705837 0.740719 0.077928
0.786648 0.735912 0.081605
0.865507 0.738582 0.087968
0.913069 0.761685 0.105257
0.031632 0.848402 0.085985
0.040024 0.846555 0.083558
0.050553 0.844923 0.084367
0.067414 0.840513 0.092454
0.094560 0.835340 0.107927
0.131716 0.828305 0.123766
0.188067 0.821500 0.129824
0.257389 0.819715 0.123369
0.332967 0.819059 0.110002
0.412207 0.817288 0.100420
0.496452 0.815579 0.098940
0.586084 0.814496 0.104295
0.670481 0.812543 0.107836
0.744518 0.807294 0.108186
0.814206 0.802853 0.108064
0.874846 0.805615 0.113313
0.913649 0.814847 0.123415
0.038102 0.886473 0.101595
0.046998 0.884367 0.099779
0.060548 0.882689 0.101930
0.082643 0.877821 0.112062
0.121294 0.871046 0.133303
0.179675 0.863218 0.160815
0.254734 0.858701 0.173190
0.343084 0.861387 0.166140
0.431357 0.867613 0.151614
0.505272 0.870069 0.144320
0.580880 0.867964 0.143908
0.658885 0.865538 0.147005
0.729992 0.863325 0.148669
0.795010 0.861143 0.148318
0.850919 0.858717 0.146441
0.886168 0.858183 0.144411
0.914534 0.858396 0.143282
0.042039 0.916457 0.115312
0.052949 0.915251 0.115740
0.071321 0.913771 0.120958
0.102205 0.909621 0.132494
0.151263 0.902525 0.153872
0.231327 0.893339 0.180728
0.337896 0.888472 0.198215
0.449973 0.891524 0.204517
0.537118 0.896056 0.203555
0.602884 0.898680 0.198917
0.669688 0.898177 0.198413
0.732250 0.897002 0.199924
0.789822 0.896254 0.200031
0.838193 0.894575 0.195346
0.872648 0.892760 0.188830
0.898192 0.890715 0.181765
0.918761 0.886397 0.169970
0.043809 0.942428 0.125490
0.057527 0.941375 0.127794
0.082734 0.935470 0.137362
0.121279 0.927428 0.150561
0.180804 0.917769 0.168246
0.268727 0.910246 0.186221
0.383169 0.910750 0.197375
0.488838 0.914778 0.205035
0.573877 0.918013 0.214817
0.644419 0.919219 0.225864
0.708247 0.920012 0.233433
0.765408 0.919997 0.236835
0.813962 0.919203 0.235981
0.854276 0.917327 0.230503
0.880354 0.916091 0.221118
0.905348 0.915831 0.214054
0.927001 0.915969 0.211521
0.026719 0.015473 0.027176
0.051743 0.018799 0.029648
0.091127 0.018158 0.032822
0.133532 0.018875 0.035294
0.180133 0.020981 0.036042
0.238392 0.022797 0.036652
0.311482 0.024353 0.038148
0.391577 0.025574 0.039216
0.471260 0.026291 0.039414
0.546639 0.028046 0.039048
0.622263 0.030457 0.039261
0.700053 0.032471 0.040818
0.775341 0.035096 0.043229
0.841718 0.038361 0.045624
0.887449 0.041733 0.048463
0.922484 0.043549 0.050492
0.943297 0.044373 0.051652
0.028870 0.034104 0.037140
0.040391 0.037873 0.037186
0.108751 0.033768 0.026322
0.167941 0.030198 0.027039
0.224247 0.030426 0.030045
0.292103 0.031281 0.031250
0.365148 0.032090 0.031922
0.440696 0.032959 0.032395
0.513146 0.034745 0.033082
0.587060 0.037659 0.034302
0.660212 0.041474 0.035920
0.728908 0.046510 0.038224
0.794507 0.051637 0.040925
0.847791 0.055299 0.043931
0.889265 0.055848 0.046647
0.922286 0.055329 0.049348
0.936950 0.064607 0.050553
0.026841 0.070512 0.047684
0.041581 0.092210 0.040589
0.104051 0.096849 0.024933
0.168597 0.085878 0.020035
0.220981 0.080339 0.022660
0.280644 0.077867 0.025528
0.346395 0.077089 0.027451
0.416541 0.076371 0.028458
0.484932 0.076127 0.029587
0.559152 0.078248 0.031571
0.633829 0.082933 0.034073
0.702510 0.090349 0.037171
0.765850 0.098466 0.040681
0.819821 0.103593 0.043824
0.868559 0.103090 0.046769
0.906233 0.098283 0.049378
0.927977 0.106447 0.050553
0.024979 0.118853 0.053651
0.036362 0.158160 0.044480
0.069780 0.159777 0.032807
0.137896 0.162707 0.023911
0.210422 0.145708 0.019715
0.266941 0.136751 0.021210
0.332769 0.133944 0.023560
0.403952 0.132082 0.025559
0.473243 0.129900 0.027039
0.543557 0.130632 0.029282
0.616098 0.135653 0.032303
0.685267 0.145190 0.035966
0.749340 0.158114 0.040269
0.807599 0.173083 0.044678
0.855589 0.181888 0.048127
0.892576 0.178820 0.050660
0.919173 0.169696 0.051209
0.023560 0.178668 0.058427
0.032425 0.225238 0.043732
0.059953 0.228092 0.034119
0.104280 0.230777 0.028153
0.175677 0.230747 0.023972
0.246342 0.210117 0.021164
0.313817 0.199420 0.021988
0.391760 0.199100 0.024475
0.470878 0.199954 0.026963
0.546242 0.202396 0.029847
0.618799 0.208423 0.033692
0.690440 0.220371 0.038285
0.756527 0.238087 0.043732
0.816159 0.261250 0.049424
0.862470 0.281117 0.054429
0.898390 0.282307 0.057404
0.921813 0.247623 0.054856
0.020706 0.248051 0.060853
0.030991 0.292134 0.040467
0.058289 0.296971 0.033173
0.095872 0.299275 0.028779
0.146715 0.302525 0.027222
0.220996 0.303166 0.026062
0.293385 0.284138 0.025910
0.375296 0.275425 0.026474
0.463905 0.279240 0.029572
0.548608 0.287297 0.033539
0.627451 0.297581 0.038224
0.700587 0.312383 0.044022
0.768902 0.334020 0.050553
0.825437 0.359472 0.058442
0.870939 0.386557 0.066682
0.906142 0.391485 0.070527
0.923888 0.335225 0.062898
0.018387 0.330694 0.056275
0.031495 0.363134 0.038819
0.056596 0.366293 0.033433
0.091112 0.367803 0.029618
0.132555 0.369131 0.028641
0.191302 0.375357 0.029007
0.273304 0.379019 0.029557
0.356039 0.366567 0.031815
0.449378 0.364691 0.034424
0.540612 0.371008 0.039017
0.626566 0.384329 0.044404
0.704280 0.401129 0.050294
0.772900 0.422507 0.058412
0.829984 0.446708 0.067597
0.876371 0.473106 0.076631
0.903136 0.480629 0.082277
0.918410 0.417136 0.071244
0.018540 0.423835 0.051530
0.032212 0.434806 0.039902
0.053300 0.437186 0.035859
0.082399 0.438209 0.032227
0.121462 0.437705 0.030961
0.169970 0.442115 0.031601
0.237934 0.450340 0.032334
0.328817 0.456901 0.033631
0.426078 0.454368 0.039200
0.520729 0.455772 0.044251
0.608713 0.460716 0.048554
0.690852 0.470100 0.054276
0.763973 0.486244 0.061891
0.825727 0.506752 0.070649
0.875044 0.526619 0.079759
0.900465 0.532982 0.086625
0.915221 0.475257 0.075257
0.020523 0.508675 0.052003
0.032136 0.511452 0.045594
0.047990 0.513390 0.042206
0.072374 0.515160 0.038575
0.107179 0.512169 0.036439
0.151583 0.510018 0.036011
0.210849 0.514809 0.036637
0.288884 0.522728 0.037430
0.384085 0.529290 0.039414
0.487282 0.531090 0.046342
0.579934 0.530358 0.052873
0.661189 0.527108 0.056107
0.740581 0.528756 0.061021
0.808576 0.538521 0.067903
0.864012 0.551781 0.075486
0.895994 0.552819 0.081483
0.909529 0.497215 0.071672
0.022446 0.584283 0.057755
0.031266 0.588998 0.053880
0.042588 0.592676 0.051453
0.061479 0.594644 0.049821
0.091737 0.594476 0.047868
0.131991 0.587518 0.046464
0.185672 0.581994 0.045090
0.255619 0.582879 0.043931
0.339529 0.588342 0.044572
0.437263 0.593606 0.046815
0.537240 0.593072 0.054520
0.629129 0.587625 0.060655
0.708186 0.576516 0.061799
0.784665 0.572549 0.066041
0.848905 0.576303 0.072206
0.889937 0.571069 0.076280
0.901900 0.506004 0.065553
0.023453 0.659098 0.066133
0.031037 0.663996 0.063401
0.040284 0.667536 0.061509
0.053925 0.669963 0.060594
0.078004 0.670604 0.061631
0.119722 0.668070 0.062364
0.168490 0.658747 0.061204
0.229114 0.650645 0.057664
0.307866 0.646036 0.054261
0.399237 0.647456 0.054856
0.499214 0.651362 0.059861
0.597482 0.648569 0.066926
0.684031 0.637781 0.069871
0.762203 0.625971 0.070771
0.837217 0.625345 0.076524
0.887053 0.621592 0.081605
0.899214 0.555505 0.068467
0.024933 0.729809 0.075776
0.031739 0.732219 0.072877
0.040925 0.733227 0.071839
0.052857 0.732830 0.072908
0.072435 0.731273 0.076036
0.110307 0.729641 0.081437
0.162829 0.725628 0.081880
0.217792 0.718425 0.077531
0.287495 0.709361 0.071000
0.374807 0.703853 0.065446
0.478080 0.705791 0.070909
0.585016 0.710918 0.081590
0.678401 0.707164 0.086427
0.758022 0.696834 0.086610
0.832944 0.693339 0.089967
0.887144 0.695323 0.096361
0.903853 0.648920 0.084627
0.027893 0.792981 0.087404
0.034836 0.793408 0.084749
0.044694 0.793133 0.084901
0.058320 0.790860 0.090120
0.077806 0.787243 0.098024
0.112200 0.781918 0.107362
0.165423 0.776699 0.110277
0.226764 0.771969 0.104036
0.294133 0.766659 0.093385
0.373831 0.760647 0.083742
0.469474 0.758022 0.084520
0.585077 0.764889 0.099794
0.690013 0.768429 0.110933
0.774990 0.766842 0.114900
0.843030 0.762112 0.114107
0.888533 0.764324 0.119341
0.909819 0.740612 0.111055
0.032578 0.846830 0.101259
0.040803 0.845075 0.098421
0.051438 0.843107 0.099458
0.068666 0.838575 0.109026
0.096468 0.832609 0.126024
0.132479 0.823743 0.142824
0.188724 0.818296 0.148867
0.261448 0.816754 0.138079
0.338918 0.816770 0.123323
0.419532 0.816236 0.113558
0.505653 0.814633 0.113893
0.603845 0.816373 0.124239
0.707485 0.821042 0.138460
0.793881 0.823148 0.145968
0.859907 0.823713 0.148318
0.893034 0.822446 0.146715
0.914931 0.811872 0.142748
0.039261 0.885130 0.118700
0.048081 0.882841 0.116808
0.061753 0.880674 0.119280
0.084382 0.875593 0.130220
0.123445 0.867002 0.155901
0.178378 0.859174 0.183734
0.251774 0.854810 0.197391
0.340993 0.858198 0.186343
0.431830 0.865629 0.168994
0.508934 0.868391 0.160800
0.586358 0.866804 0.161471
0.665721 0.865049 0.166918
0.743236 0.864561 0.173999
0.816403 0.865705 0.181201
0.868757 0.866514 0.185000
0.899855 0.865385 0.181918
0.919554 0.862043 0.175586
0.043763 0.915328 0.135561
0.054841 0.913985 0.135958
0.073152 0.911818 0.142321
0.105074 0.906340 0.155795
0.152209 0.898070 0.176532
0.229175 0.890837 0.205005
0.332799 0.885695 0.222004
0.441886 0.888502 0.225406
0.532982 0.894011 0.222507
0.604410 0.897124 0.218326
0.672297 0.897292 0.220203
0.734691 0.896422 0.223285
0.792767 0.896117 0.225025
0.844755 0.895735 0.224353
0.879072 0.895811 0.223270
0.905943 0.895338 0.220447
0.926574 0.892439 0.212924
0.045762 0.941131 0.148272
0.059602 0.939300 0.150637
0.085237 0.932982 0.160861
0.124620 0.923995 0.175677
0.180285 0.915709 0.191943
0.266285 0.908522 0.210040
0.375204 0.908202 0.219165
0.480446 0.912398 0.224704
0.570459 0.915999 0.234501
0.644526 0.917678 0.247669
0.708797 0.918730 0.257282
0.765728 0.919432 0.261723
0.814328 0.918837 0.260792
0.855177 0.917311 0.256306
0.882689 0.916869 0.250614
0.907652 0.917372 0.246418
0.929229 0.917861 0.246372
0.026291 0.014221 0.065202
0.053178 0.015122 0.060441
0.085344 0.016632 0.056428
0.126513 0.017777 0.058701
0.169131 0.019272 0.059876
0.223651 0.020981 0.060288
0.292241 0.022919 0.061616
0.373419 0.024704 0.062043
0.458091 0.026078 0.061112
0.536309 0.027481 0.059190
0.612146 0.029541 0.056931
0.689403 0.031739 0.055924
0.766644 0.033814 0.056535
0.835248 0.036210 0.057511
0.882994 0.038804 0.059373
0.918685 0.040696 0.061448
0.941680 0.043168 0.063340
0.024079 0.031479 0.074083
0.038285 0.023651 0.084398
0.089876 0.027070 0.068742
0.147982 0.027131 0.058091
0.203922 0.027970 0.054841
0.270024 0.029068 0.053162
0.344488 0.029923 0.051926
0.424643 0.030838 0.050202
0.500740 0.032624 0.048615
0.575265 0.034958 0.047623
0.651438 0.037308 0.047837
0.725444 0.040299 0.049256
0.795575 0.043610 0.051667
0.850843 0.046769 0.054383
0.890181 0.049256 0.056855
0.922148 0.051469 0.059251
0.941024 0.054307 0.060426
0.026673 0.059800 0.073915
0.037308 0.071122 0.088945
0.074937 0.062364 0.061906
0.170184 0.053727 0.035676
0.243412 0.045670 0.035401
0.314397 0.042145 0.037903
0.390417 0.041154 0.038651
0.464500 0.041535 0.038834
0.536171 0.043778 0.039658
0.608896 0.047990 0.041627
0.680476 0.052674 0.043961
0.745998 0.057176 0.046479
0.805997 0.061036 0.049271
0.852415 0.062882 0.052186
0.891005 0.064485 0.055039
0.918029 0.069596 0.056626
0.938628 0.073182 0.057465
0.023590 0.111650 0.084962
0.031983 0.140307 0.088350
0.055619 0.140932 0.064988
0.142077 0.147311 0.043946
0.231830 0.127810 0.030457
0.297139 0.114549 0.031678
0.367727 0.106142 0.033326
0.438636 0.101152 0.034562
0.512642 0.100053 0.036271
0.584985 0.103441 0.038911
0.653010 0.110246 0.042206
0.719097 0.118410 0.045869
0.776791 0.124895 0.049439
0.827512 0.126375 0.052506
0.871183 0.123110 0.054932
0.902724 0.120104 0.056596
0.928389 0.116655 0.057740
0.021332 0.170626 0.089723
0.028824 0.210056 0.084657
0.047517 0.232441 0.055146
0.104051 0.239307 0.042679
0.189288 0.238102 0.037201
0.279133 0.210437 0.030564
0.355306 0.196170 0.031220
0.432334 0.186740 0.033005
0.507591 0.180880 0.035325
0.579309 0.182040 0.038819
0.648112 0.190326 0.042939
0.713054 0.202045 0.047303
0.771771 0.215518 0.051728
0.821851 0.223117 0.055268
0.860746 0.217350 0.057725
0.890959 0.197711 0.057725
0.920012 0.173144 0.057969
0.018524 0.236927 0.092897
0.026535 0.290059 0.074357
0.047074 0.319768 0.048356
0.092241 0.324529 0.040665
0.156283 0.328420 0.037797
0.241566 0.329915 0.037263
0.334646 0.303243 0.036469
0.426246 0.290486 0.037049
0.512093 0.285710 0.039979
0.587808 0.287068 0.043992
0.660349 0.295888 0.048905
0.726818 0.311147 0.054643
0.785473 0.329870 0.061707
0.831617 0.342123 0.067155
0.867994 0.334936 0.069093
0.894804 0.293599 0.065339
0.917601 0.242176 0.061006
0.016663 0.319875 0.089754
0.026856 0.381033 0.065080
0.046952 0.394614 0.048539
0.083101 0.396857 0.041779
0.139361 0.398627 0.039124
0.206485 0.409674 0.039963
0.296895 0.416281 0.040742
0.399100 0.398398 0.044282
0.499962 0.390509 0.046662
0.587594 0.390311 0.051545
0.665751 0.399786 0.058152
0.735790 0.416709 0.065827
0.794232 0.436347 0.073976
0.840803 0.450034 0.081163
0.875792 0.443488 0.083207
0.900725 0.395361 0.076265
0.920577 0.322499 0.067109
0.017121 0.415900 0.083360
0.028717 0.463920 0.063401
0.045380 0.465339 0.053223
0.073976 0.467857 0.047562
0.123018 0.468711 0.043671
0.180941 0.472206 0.043198
0.255390 0.484154 0.044709
0.352132 0.492332 0.046006
0.461891 0.483848 0.052842
0.561563 0.477958 0.058259
0.649180 0.478492 0.063767
0.726802 0.488426 0.070680
0.790982 0.504891 0.079103
0.841764 0.517906 0.087098
0.878889 0.512947 0.090181
0.898665 0.470481 0.083848
0.914931 0.397955 0.072709
0.019699 0.513329 0.079713
0.030381 0.536034 0.067292
0.044175 0.535531 0.059602
0.065782 0.537728 0.055543
0.105943 0.539193 0.052064
0.160281 0.536171 0.050492
0.223651 0.541772 0.051316
0.306081 0.549752 0.052857
0.406928 0.556374 0.054719
0.515801 0.550896 0.061631
0.612543 0.540841 0.067033
0.697398 0.536736 0.070451
0.771191 0.540978 0.076310
0.829557 0.547478 0.083162
0.871214 0.539940 0.086305
0.893446 0.503288 0.081621
0.909010 0.448325 0.073442
0.022827 0.601251 0.082307
0.031174 0.604364 0.073259
0.042710 0.603586 0.067292
0.059480 0.605371 0.064897
0.091707 0.607172 0.063432
0.140337 0.602884 0.061067
0.200855 0.600336 0.060182
0.273106 0.605097 0.061219
0.363027 0.610788 0.062806
0.470649 0.616388 0.067643
0.572747 0.609766 0.073487
0.663142 0.596475 0.075944
0.745541 0.587320 0.077211
0.813703 0.580514 0.081224
0.860014 0.563241 0.082170
0.884916 0.519478 0.075700
0.901976 0.478401 0.069886
0.025040 0.676387 0.089082
0.031754 0.672587 0.080919
0.041444 0.670970 0.075334
0.055665 0.672496 0.074464
0.081239 0.672404 0.075273
0.126680 0.669963 0.075593
0.183108 0.663157 0.073701
0.250034 0.659815 0.072648
0.335164 0.661784 0.072587
0.438804 0.667124 0.077745
0.553429 0.675319 0.089067
0.648066 0.669139 0.092592
0.729549 0.654810 0.090578
0.803922 0.643320 0.090562
0.858351 0.623270 0.090211
0.882765 0.574289 0.080308
0.894041 0.517098 0.069001
0.027024 0.737545 0.097261
0.032639 0.734432 0.089754
0.042039 0.732906 0.086961
0.054871 0.732387 0.088716
0.075425 0.730526 0.091997
0.115511 0.727001 0.097200
0.172595 0.722927 0.095872
0.237507 0.718761 0.090623
0.322179 0.716686 0.087541
0.425040 0.718975 0.090394
0.542062 0.726833 0.106828
0.652979 0.732906 0.121370
0.737270 0.729213 0.121996
0.805936 0.718578 0.115801
0.863828 0.705989 0.113130
0.887083 0.669322 0.101061
0.893690 0.599481 0.080232
0.029557 0.794766 0.106645
0.035935 0.792172 0.100572
0.045716 0.791623 0.100664
0.059907 0.789166 0.106905
0.080659 0.784772 0.116564
0.114397 0.778180 0.125505
0.168322 0.773114 0.127886
0.238544 0.770275 0.119539
0.325750 0.769207 0.111482
0.434775 0.772274 0.113954
0.548745 0.777356 0.129442
0.662242 0.784970 0.148394
0.754757 0.789395 0.157900
0.824506 0.788525 0.156207
0.869383 0.779400 0.147692
0.892805 0.760266 0.136660
0.901427 0.705379 0.109102
0.033982 0.845685 0.119387
0.042176 0.843626 0.116411
0.052720 0.841337 0.117266
0.070436 0.836271 0.127199
0.099474 0.829633 0.148592
0.135134 0.820554 0.166995
0.189227 0.814099 0.171664
0.265064 0.813291 0.158450
0.358358 0.817304 0.141802
0.468925 0.823117 0.145068
0.581094 0.828946 0.163409
0.684672 0.834394 0.181781
0.772671 0.839109 0.194018
0.841291 0.842206 0.199130
0.878401 0.839506 0.193256
0.899825 0.828702 0.179446
0.910353 0.798123 0.153124
0.041306 0.883970 0.140429
0.050034 0.881636 0.138003
0.063767 0.879042 0.140551
0.087312 0.872557 0.153826
0.126711 0.864790 0.181674
0.180240 0.855833 0.210803
0.250355 0.851133 0.223560
0.338613 0.854871 0.211337
0.434974 0.864118 0.190402
0.531212 0.867964 0.189319
0.629084 0.869444 0.206851
0.717815 0.871550 0.223789
0.793240 0.873640 0.234180
0.853086 0.874784 0.237797
0.884642 0.875288 0.237079
0.907607 0.872282 0.228183
0.920256 0.862791 0.208240
0.046159 0.914366 0.159838
0.057237 0.912673 0.160098
0.075990 0.910048 0.166690
0.108446 0.903944 0.182406
0.155596 0.896071 0.204562
0.226978 0.888197 0.232578
0.329229 0.883299 0.251926
0.435859 0.885832 0.250935
0.529198 0.891905 0.244709
0.609155 0.895552 0.242664
0.683650 0.896773 0.254994
0.751049 0.897810 0.268070
0.811292 0.898970 0.276158
0.858946 0.899504 0.276631
0.888121 0.900069 0.274174
0.911849 0.899855 0.270237
0.928786 0.896239 0.261570
0.048631 0.940490 0.174960
0.062501 0.937026 0.177340
0.088380 0.930358 0.189105
0.127825 0.921263 0.204562
0.181201 0.912795 0.218524
0.262669 0.906661 0.237095
0.368887 0.905440 0.245823
0.472358 0.909545 0.248631
0.562539 0.914321 0.258366
0.643076 0.916426 0.273976
0.710430 0.917662 0.288273
0.769360 0.918700 0.298741
0.819852 0.918975 0.303532
0.860121 0.918868 0.304891
0.887663 0.919478 0.303380
0.911986 0.920027 0.299092
0.932921 0.920592 0.297154
0.025101 0.014130 0.113329
0.048310 0.013718 0.101549
0.079255 0.015137 0.094926
0.115938 0.016266 0.090547
0.157656 0.017639 0.091539
0.209812 0.019074 0.091966
0.278248 0.021363 0.093202
0.357107 0.023194 0.093614
0.443366 0.024704 0.091783
0.525277 0.026627 0.089189
0.603708 0.028626 0.084535
0.680323 0.030823 0.079942
0.758129 0.033066 0.076875
