tools/luts_backup/Kodak Vision3 500T 5219 (NEG)_VS.cube
# (C) 2014 VisionColor & Patchflyer [www.vision-color.com]
# Generator: VC Patchmatch v.2.1.1 [64/53]
# All work and no play makes Jack a dull boy.
# LUT generated from: BMD Film to Kodak Vision3 500T 5219 (NEG)_VisionSpace
LUT_3D_SIZE 17
0.031373 0.031373 0.031373
0.070588 0.031373 0.031373
0.101961 0.031373 0.027451
0.141176 0.035294 0.031373
0.211765 0.058824 0.047059
0.278431 0.090196 0.062745
0.349020 0.125490 0.082353
0.403922 0.149020 0.094118
0.462745 0.149020 0.101961
0.490196 0.137255 0.101961
0.505882 0.137255 0.105882
0.505882 0.117647 0.098039
0.501961 0.109804 0.094118
0.501961 0.101961 0.094118
0.494118 0.098039 0.090196
0.498039 0.101961 0.090196
0.494118 0.094118 0.090196
0.047059 0.047059 0.031373
0.066667 0.039216 0.031373
0.109804 0.039216 0.031373
0.149020 0.043137 0.035294
0.219608 0.066667 0.047059
0.282353 0.094118 0.062745
0.345098 0.129412 0.082353
0.423529 0.160784 0.101961
0.462745 0.152941 0.101961
0.494118 0.145098 0.105882
0.517647 0.149020 0.109804
0.513726 0.133333 0.101961
0.513726 0.125490 0.101961
0.513726 0.129412 0.101961
0.517647 0.129412 0.105882
0.513726 0.129412 0.101961
0.521569 0.137255 0.105882
0.078431 0.086275 0.035294
0.090196 0.086275 0.039216
0.121569 0.074510 0.039216
0.156863 0.078431 0.043137
0.227451 0.094118 0.054902
0.290196 0.117647 0.070588
0.352941 0.145098 0.086275
0.423529 0.168627 0.101961
0.466667 0.164706 0.109804
0.494118 0.156863 0.109804
0.521569 0.152941 0.109804
0.521569 0.141176 0.109804
0.509804 0.129412 0.101961
0.521569 0.137255 0.105882
0.521569 0.141176 0.105882
0.529412 0.152941 0.113725
0.529412 0.156863 0.113725
0.086275 0.141176 0.050980
0.109804 0.145098 0.058824
0.149020 0.152941 0.062745
0.180392 0.141176 0.066667
0.247059 0.149020 0.074510
0.309804 0.164706 0.090196
0.364721 0.180392 0.098039
0.435309 0.200000 0.113725
0.494118 0.211765 0.125490
0.521569 0.203922 0.125490
0.537255 0.192157 0.121569
0.533333 0.172549 0.117647
0.529412 0.156863 0.113725
0.529412 0.156863 0.113725
0.529412 0.156863 0.113725
0.533333 0.160784 0.117647
0.533333 0.164706 0.113725
0.082353 0.200000 0.070588
0.101961 0.200000 0.070588
0.152941 0.207843 0.078431
0.219608 0.223529 0.094118
0.262745 0.200000 0.090196
0.321569 0.207843 0.101961
0.388251 0.227451 0.117647
0.466682 0.254902 0.133333
0.517662 0.262745 0.145098
0.560784 0.278431 0.152941
0.572549 0.262745 0.149020
0.564706 0.231388 0.141176
0.560784 0.219608 0.133333
0.556863 0.207843 0.129412
0.549020 0.196078 0.129412
0.552941 0.192157 0.129412
0.556863 0.200000 0.129412
0.082353 0.247059 0.078431
0.094118 0.254902 0.082353
0.149020 0.262745 0.094118
0.231373 0.282353 0.109804
0.333333 0.317647 0.133333
0.349035 0.278431 0.125490
0.415702 0.290196 0.137255
0.486290 0.305898 0.152941
0.556863 0.333333 0.168627
0.596078 0.349020 0.180392
0.607843 0.345098 0.180392
0.607843 0.317662 0.172549
0.592157 0.290196 0.160784
0.588235 0.278431 0.156863
0.580392 0.262745 0.152941
0.576471 0.250980 0.149020
0.572549 0.243137 0.145098
0.101961 0.317662 0.101961
0.113725 0.325505 0.105882
0.160800 0.321584 0.113725
0.254902 0.352956 0.133333
0.349020 0.372564 0.152941
0.447059 0.411765 0.176471
0.450996 0.364706 0.164706
0.513741 0.368643 0.172549
0.576471 0.392157 0.188235
0.615686 0.403922 0.200000
0.631373 0.407843 0.203922
0.635294 0.392172 0.200000
0.623529 0.372564 0.192157
0.623529 0.364706 0.188235
0.623529 0.356863 0.188235
0.607843 0.337255 0.176471
0.603922 0.321569 0.172549
0.141176 0.431388 0.141176
0.164721 0.423545 0.141176
0.223545 0.431388 0.149020
0.298054 0.439231 0.164706
0.376486 0.450996 0.180392
0.462745 0.470588 0.196078
0.545113 0.482368 0.211765
0.556878 0.443153 0.203922
0.607843 0.454917 0.215686
0.650980 0.474510 0.235294
0.654902 0.474525 0.231373
0.658824 0.478447 0.239216
0.654902 0.458839 0.227451
0.650980 0.443153 0.223529
0.654902 0.447059 0.223529
0.647059 0.427466 0.215686
0.643137 0.415702 0.207843
0.207843 0.556878 0.184314
0.239216 0.564721 0.188235
0.294118 0.556878 0.196078
0.376486 0.568643 0.211765
0.439231 0.572564 0.223529
0.509819 0.576486 0.239231
0.525505 0.529427 0.223545
0.643153 0.596094 0.282368
0.658824 0.552956 0.270604
0.674510 0.552956 0.270604
0.686275 0.560800 0.282368
0.698039 0.572564 0.290196
0.690196 0.552956 0.278447
0.686275 0.545113 0.274525
0.686275 0.545113 0.274510
0.674510 0.525505 0.262760
0.674510 0.509819 0.254902
0.262745 0.631357 0.231373
0.282353 0.635294 0.231373
0.333333 0.639200 0.227451
0.439216 0.662730 0.254902
0.517647 0.678416 0.274510
0.584314 0.682338 0.298039
0.658808 0.698024 0.337240
0.658839 0.658824 0.317647
0.745083 0.733303 0.399985
0.721569 0.658808 0.345083
0.721569 0.654887 0.341176
0.729412 0.666651 0.352926
0.721569 0.650980 0.341176
0.729412 0.662730 0.349004
0.717647 0.639200 0.333333
0.713726 0.627436 0.325490
0.709804 0.619593 0.317647
0.294118 0.686275 0.270588
0.313726 0.690196 0.270588
0.368627 0.690196 0.278431
0.466667 0.705882 0.282353
0.556863 0.717647 0.305882
0.639216 0.733333 0.345098
0.698039 0.745098 0.380392
0.745098 0.756848 0.411749
0.756863 0.756863 0.419608
0.768627 0.760784 0.427451
0.760784 0.741176 0.411765
0.752941 0.721569 0.396078
0.752941 0.721569 0.396078
0.745098 0.717647 0.388235
0.745098 0.713726 0.388235
0.749020 0.713726 0.388235
0.745098 0.701961 0.380392
0.313726 0.721569 0.290196
0.329412 0.713726 0.286275
0.396078 0.717647 0.301961
0.498039 0.733333 0.317647
0.584314 0.737255 0.325490
0.662745 0.752941 0.368627
0.717647 0.764706 0.400000
0.756863 0.768627 0.423529
0.772549 0.772549 0.435294
0.776471 0.776471 0.439216
0.776471 0.776471 0.439216
0.776471 0.772549 0.435294
0.764706 0.752941 0.419608
0.768627 0.756863 0.423529
0.768627 0.760784 0.427451
0.760784 0.749020 0.415686
0.768627 0.756863 0.423529
0.325490 0.733333 0.286275
0.345098 0.729412 0.290196
0.411765 0.733333 0.305882
0.509804 0.737255 0.325490
0.611765 0.752941 0.352941
0.686275 0.760784 0.384314
0.733333 0.768627 0.411765
0.764706 0.780392 0.435294
0.772549 0.772549 0.435294
0.772549 0.772549 0.435294
0.780392 0.780392 0.443137
0.776471 0.776471 0.439216
0.776471 0.776471 0.439216
0.772549 0.768627 0.435294
0.772549 0.772549 0.435294
0.776471 0.772549 0.439216
0.768627 0.768627 0.431373
0.329412 0.737255 0.282353
0.349020 0.733333 0.286275
0.419608 0.737255 0.301961
0.521569 0.745098 0.329412
0.615686 0.749020 0.352941
0.690196 0.760784 0.388235
0.737255 0.768627 0.415686
0.764706 0.776471 0.435294
0.772549 0.776471 0.439216
0.772549 0.772549 0.435294
0.780392 0.780392 0.443137
0.780392 0.780392 0.443137
0.780392 0.780392 0.443137
0.780392 0.780392 0.443137
0.772549 0.772549 0.435294
0.772549 0.772549 0.435294
0.772549 0.772549 0.435294
0.337255 0.741176 0.278431
0.352941 0.733333 0.274510
0.427451 0.741176 0.298039
0.533333 0.745098 0.325490
0.627451 0.752941 0.356863
0.694118 0.764706 0.392157
0.749020 0.772549 0.423529
0.768627 0.776471 0.435294
0.772549 0.776471 0.439216
0.776471 0.776471 0.439216
0.772549 0.772549 0.435294
0.776471 0.776471 0.443137
0.776471 0.776471 0.439216
0.776471 0.776471 0.439216
0.776471 0.776471 0.443137
0.772549 0.772549 0.435294
0.776471 0.776471 0.443137
0.333333 0.737255 0.262745
0.352941 0.733333 0.270588
0.431373 0.741176 0.290196
0.541176 0.749020 0.325490
0.631373 0.756863 0.360784
0.709804 0.768627 0.396078
0.752941 0.772549 0.427451
0.764706 0.768627 0.431373
0.776471 0.776471 0.443137
0.776471 0.776471 0.439216
0.772549 0.772549 0.435294
0.776471 0.776471 0.439216
0.780392 0.780392 0.443137
0.772549 0.772549 0.435294
0.772549 0.772549 0.439216
0.776471 0.776471 0.439216
0.776471 0.776471 0.439216
0.345098 0.733333 0.258824
0.360784 0.729412 0.262745
0.431373 0.741176 0.286275
0.541176 0.745098 0.321569
0.639216 0.760784 0.360784
0.705882 0.760784 0.396078
0.752941 0.772549 0.423529
0.768627 0.776471 0.435294
0.772549 0.776471 0.439216
0.776471 0.776471 0.443137
0.776471 0.776471 0.439216
0.780392 0.780392 0.443137
0.776471 0.776471 0.443137
0.776471 0.776471 0.443137
0.776471 0.776471 0.443137
0.780392 0.780392 0.443137
0.776471 0.776471 0.439216
0.035294 0.027451 0.043137
0.054902 0.031373 0.047059
0.098039 0.027451 0.039216
0.133333 0.027451 0.039216
0.215686 0.047059 0.043137
0.278431 0.066667 0.054902
0.345098 0.090196 0.074510
0.419608 0.121569 0.098039
0.478431 0.125490 0.105882
0.498039 0.113725 0.098039
0.498039 0.105882 0.094118
0.501961 0.094118 0.090196
0.494118 0.086275 0.086275
0.498039 0.086275 0.086275
0.490196 0.086275 0.090196
0.490196 0.086275 0.086275
0.494118 0.086275 0.094118
0.047059 0.043137 0.043137
0.058824 0.047059 0.043137
0.109804 0.039216 0.039216
0.152941 0.043137 0.035294
0.223529 0.070588 0.047059
0.278431 0.098039 0.066667
0.349020 0.125490 0.082353
0.419608 0.145098 0.098039
0.478431 0.152941 0.105882
0.505882 0.145098 0.109804
0.509804 0.141176 0.105882
0.513726 0.121569 0.101961
0.498039 0.094118 0.086275
0.498039 0.094118 0.090196
0.498039 0.090196 0.086275
0.494118 0.086275 0.086275
0.494118 0.086275 0.086275
0.070588 0.082353 0.039216
0.086275 0.086275 0.039216
0.117647 0.086275 0.043137
0.160784 0.086275 0.047059
0.227451 0.098039 0.058824
0.294118 0.121569 0.074510
0.349035 0.149020 0.086275
0.423529 0.172549 0.105882
0.470588 0.168627 0.109804
0.498039 0.160784 0.109804
0.517647 0.160784 0.113725
0.529412 0.152941 0.113725
0.517647 0.133333 0.105882
0.513726 0.125490 0.101961
0.509804 0.121569 0.098039
0.513726 0.121569 0.101961
0.513726 0.117647 0.101961
0.082353 0.141176 0.050980
0.098039 0.145098 0.054902
0.133333 0.152941 0.058824
0.172549 0.141176 0.062745
0.250980 0.156863 0.078431
0.309804 0.172549 0.090196
0.372549 0.184314 0.101961
0.439231 0.203922 0.113725
0.498039 0.219608 0.129412
0.525490 0.207843 0.129412
0.545098 0.203922 0.129412
0.537255 0.180392 0.121569
0.537255 0.164706 0.117647
0.525490 0.152941 0.109804
0.525490 0.156863 0.113725
0.533333 0.152941 0.113725
0.533333 0.160784 0.113725
0.074510 0.192157 0.066667
0.094118 0.192157 0.066667
0.145098 0.203922 0.078431
0.203922 0.219608 0.090196
0.258824 0.207843 0.094118
0.325490 0.219608 0.105882
0.388251 0.235294 0.121569
0.466667 0.262745 0.137255
0.521569 0.274510 0.145098
0.568627 0.286275 0.156863
0.576471 0.274510 0.152941
0.568627 0.235309 0.141176
0.560784 0.219608 0.137255
0.556863 0.211765 0.133333
0.556863 0.203922 0.133333
0.545098 0.196078 0.125490
0.552941 0.196078 0.129412
0.082353 0.258824 0.082353
0.090196 0.250980 0.082353
0.145098 0.258824 0.094118
0.219608 0.274510 0.105882
0.321569 0.305882 0.129412
0.349035 0.290196 0.129412
0.419623 0.301961 0.141176
0.490211 0.313741 0.156863
0.545113 0.329427 0.164706
0.596078 0.356863 0.180392
0.615686 0.352941 0.184314
0.603922 0.329412 0.172549
0.588235 0.290211 0.156863
0.588235 0.278447 0.156863
0.584314 0.270588 0.152941
0.572549 0.250980 0.145098
0.576471 0.247059 0.145098
0.101961 0.317662 0.101961
0.105882 0.317662 0.105882
0.164706 0.329427 0.113725
0.243153 0.341192 0.129412
0.341176 0.376471 0.149020
0.427466 0.400015 0.172549
0.454917 0.376471 0.168627
0.521584 0.384314 0.180392
0.580407 0.396094 0.192157
0.619608 0.411765 0.203922
0.635294 0.411780 0.203922
0.635294 0.400015 0.203922
0.635294 0.380407 0.196078
0.619608 0.360800 0.188235
0.623529 0.352956 0.188235
0.619608 0.345098 0.180392
0.615686 0.337255 0.180392
0.137255 0.423545 0.141176
0.152941 0.439231 0.145098
0.211780 0.427466 0.149020
0.298054 0.443153 0.164706
0.380407 0.458839 0.180392
0.458824 0.478447 0.200000
0.529427 0.482368 0.211765
0.560800 0.450996 0.207843
0.615686 0.466682 0.219608
0.650980 0.486275 0.239216
0.658824 0.482368 0.239216
0.666667 0.482368 0.239216
0.654902 0.462760 0.227466
0.650980 0.450996 0.223545
0.650980 0.447074 0.223529
0.650980 0.431388 0.215686
0.650980 0.431388 0.215686
0.196078 0.552956 0.184314
0.219608 0.549035 0.188235
0.274525 0.545113 0.188235
0.372564 0.568643 0.211765
0.450996 0.580407 0.227451
0.505898 0.580407 0.239231
0.533349 0.533349 0.227466
0.619623 0.576486 0.266682
0.650996 0.549035 0.262760
0.682353 0.564721 0.282368
0.686275 0.568643 0.282368
0.698039 0.576486 0.294118
0.690196 0.568643 0.286290
0.690196 0.560800 0.282368
0.682353 0.541192 0.270604
0.686275 0.537270 0.270604
0.678431 0.521584 0.262745
0.258808 0.643122 0.239216
0.278431 0.639200 0.239216
0.325490 0.639216 0.231373
0.431373 0.658808 0.250980
0.505882 0.670573 0.270588
0.580392 0.682338 0.298039
0.643122 0.690181 0.325475
0.654902 0.658824 0.313726
0.745083 0.729381 0.396063
0.729397 0.674495 0.352926
0.729412 0.670573 0.356847
0.729412 0.666651 0.352941
0.725490 0.670573 0.352941
0.725490 0.662730 0.349020
0.721569 0.647044 0.337255
0.721569 0.650965 0.337255
0.717647 0.635279 0.329397
0.290196 0.690196 0.270588
0.309804 0.698039 0.282353
0.364706 0.698039 0.290196
0.458824 0.701961 0.282353
0.552941 0.717647 0.305882
0.619608 0.733333 0.337255
0.690196 0.741176 0.372549
0.733333 0.749020 0.400000
0.760784 0.756863 0.419608
0.772549 0.768627 0.435294
0.752941 0.733333 0.403922
0.760784 0.733333 0.407843
0.752941 0.729412 0.396078
0.752941 0.725490 0.396078
0.749020 0.717647 0.392157
0.752941 0.721553 0.396078
0.745098 0.709804 0.388235
0.309804 0.717647 0.286275
0.321569 0.717647 0.294118
0.392157 0.725490 0.309804
0.494118 0.733333 0.325490
0.580392 0.741176 0.329412
0.654902 0.749020 0.360784
0.709804 0.760784 0.396078
0.749020 0.768627 0.423529
0.768627 0.772549 0.431373
0.772549 0.772549 0.439216
0.772549 0.772549 0.435294
0.776471 0.772549 0.439216
0.764706 0.760784 0.423529
0.768627 0.760784 0.427451
0.768627 0.760784 0.427451
0.764706 0.756863 0.423529
0.764706 0.752941 0.419608
0.325490 0.733333 0.290196
0.333333 0.729412 0.294118
0.407843 0.737255 0.313726
0.509804 0.741176 0.337255
0.607843 0.752941 0.360784
0.678431 0.760784 0.384314
0.729412 0.768627 0.411765
0.756863 0.772549 0.423529
0.772549 0.776471 0.439216
0.776471 0.776471 0.443137
0.776471 0.776471 0.439216
0.776471 0.776471 0.439216
0.772549 0.772549 0.435294
0.772549 0.772549 0.435294
0.776471 0.776471 0.435294
0.776471 0.772549 0.439216
0.772549 0.772549 0.435294
0.325490 0.741176 0.286275
0.345098 0.737255 0.294118
0.411765 0.741176 0.309804
0.513726 0.741176 0.333333
0.611765 0.749020 0.356863
0.690196 0.764706 0.396078
0.733333 0.768627 0.415686
0.764706 0.772549 0.431373
0.776471 0.776471 0.443137
0.772549 0.776471 0.439216
0.780392 0.780392 0.447059
0.772549 0.772549 0.435294
0.776471 0.776471 0.439216
0.772549 0.772549 0.435294
0.776471 0.776471 0.439216
0.772549 0.772549 0.435294
0.776471 0.776471 0.439216
0.329412 0.737255 0.278431
0.345098 0.737255 0.286275
0.415686 0.741176 0.305882
0.513726 0.745098 0.333333
0.615686 0.752941 0.360784
0.694118 0.760784 0.388235
0.741176 0.772549 0.419608
0.768627 0.776471 0.435294
0.776471 0.776471 0.443137
0.772549 0.772549 0.435294
0.780392 0.780392 0.443137
0.780392 0.780392 0.447059
0.780392 0.780392 0.443137
0.776471 0.776471 0.439216
0.776471 0.776471 0.439216
0.776471 0.776471 0.439216
0.772549 0.772549 0.435294
0.333333 0.733333 0.266667
0.352941 0.737255 0.282353
0.427451 0.741176 0.305882
0.525490 0.749020 0.329412
0.627451 0.756863 0.364706
0.698039 0.764706 0.396078
0.745098 0.772549 0.419608
0.764706 0.772549 0.435294
0.776471 0.776471 0.439216
0.776471 0.776471 0.439216
0.772549 0.772549 0.435294
0.776471 0.776471 0.439216
0.776471 0.776471 0.443137
0.776471 0.776471 0.439216
0.776471 0.776471 0.443137
0.780392 0.780392 0.447059
0.776471 0.776471 0.443137
0.337255 0.729412 0.258824
0.360784 0.741176 0.274510
0.427451 0.737255 0.294118
0.537255 0.745098 0.325490
0.635294 0.752941 0.360784
0.705882 0.764706 0.396078
0.749020 0.772549 0.423529
0.764706 0.772549 0.431373
0.776471 0.780392 0.443137
0.776471 0.776471 0.439216
0.768627 0.768627 0.435294
0.776471 0.776471 0.439216
0.776471 0.776471 0.443137
0.780392 0.780392 0.443137
0.776471 0.776471 0.439216
0.776471 0.776471 0.443137
0.784314 0.784314 0.447059
0.027451 0.015686 0.062745
0.043137 0.019608 0.066667
0.066667 0.023529 0.066667
0.117647 0.027451 0.086275
0.176471 0.035294 0.094118
0.239216 0.047059 0.101961
0.294118 0.058824 0.117647
0.372549 0.078431 0.141176
0.443137 0.101961 0.160784
0.490196 0.109804 0.172549
0.478431 0.090196 0.145098
0.466667 0.086275 0.145098
0.470588 0.086275 0.145098
0.478431 0.086275 0.137255
0.490196 0.090196 0.133333
0.490196 0.090196 0.141176
0.490196 0.090196 0.141176
0.035294 0.023529 0.074510
0.050980 0.031373 0.082353
0.090196 0.035294 0.078431
0.121569 0.027451 0.082353
0.200000 0.043137 0.090196
0.258824 0.054902 0.098039
0.321569 0.074510 0.113725
0.407843 0.101961 0.133333
0.474510 0.121569 0.156863
0.505882 0.117647 0.152941
0.498039 0.101961 0.141176
0.486275 0.090196 0.141176
0.486275 0.090196 0.145098
0.486275 0.090196 0.133333
0.494118 0.090196 0.125490
0.490196 0.090196 0.121569
0.490196 0.086275 0.125490
0.050980 0.074510 0.090196
0.062745 0.082353 0.082353
0.105882 0.094118 0.082353
0.184314 0.082353 0.078431
0.250980 0.098039 0.086275
0.313726 0.121569 0.098039
0.368627 0.137255 0.113725
0.443137 0.164706 0.133333
0.509804 0.180392 0.149020
0.549020 0.176471 0.152941
0.568627 0.172549 0.156863
0.568627 0.145098 0.152941
0.529412 0.105882 0.149020
0.501961 0.090196 0.125490
0.498039 0.090196 0.117647
0.498039 0.090196 0.113725
0.490196 0.086275 0.117647
0.054902 0.137255 0.094118
0.062745 0.137255 0.086275
0.121569 0.152941 0.078431
0.176471 0.149020 0.082353
0.250980 0.152941 0.082353
0.309804 0.160784 0.086275
0.368643 0.180392 0.101961
0.431388 0.196078 0.109804
0.494118 0.207843 0.125490
0.525490 0.203922 0.125490
0.549020 0.203922 0.129412
0.549020 0.196078 0.125490
0.537255 0.168627 0.117647
0.529412 0.152941 0.113725
0.517647 0.133333 0.101961
0.513726 0.117647 0.098039
0.505882 0.101961 0.094118
0.066667 0.188235 0.101961
0.070588 0.200000 0.082353
0.117647 0.200000 0.082353
0.184314 0.211765 0.086275
0.262745 0.211765 0.098039
0.329412 0.223529 0.105882
0.388235 0.235294 0.117647
0.454917 0.254902 0.133333
0.509819 0.262745 0.141176
0.556863 0.278431 0.152941
0.572549 0.266667 0.152941
0.572549 0.239216 0.145098
0.556863 0.215686 0.133333
0.552941 0.196078 0.129412
0.545098 0.188235 0.125490
0.545098 0.184314 0.121569
0.545098 0.180392 0.121569
0.082353 0.243137 0.109804
0.082353 0.250980 0.094118
0.117647 0.274510 0.098039
0.196078 0.278431 0.105882
0.301961 0.301961 0.125490
0.349020 0.286275 0.129412
0.403937 0.294133 0.137255
0.482368 0.317647 0.156863
0.545113 0.337255 0.168627
0.592157 0.356863 0.180392
0.619608 0.356863 0.188235
0.611765 0.333333 0.176471
0.596078 0.298054 0.160784
0.580392 0.274525 0.152941
0.576471 0.262745 0.149020
0.572549 0.247059 0.145098
0.572549 0.239216 0.145098
0.101961 0.301976 0.129412
0.098039 0.305898 0.121569
0.125490 0.329427 0.113725
0.231373 0.356863 0.133333
0.329412 0.372564 0.149020
0.411780 0.392172 0.164706
0.447074 0.376471 0.168627
0.509819 0.380407 0.176471
0.572564 0.396078 0.188235
0.619608 0.415686 0.203922
0.643137 0.415686 0.211765
0.639216 0.403922 0.203922
0.631373 0.388235 0.196078
0.623529 0.368643 0.192157
0.615686 0.356863 0.184314
0.619608 0.345098 0.184314
0.607843 0.321584 0.172549
0.133333 0.396094 0.176471
0.137255 0.415702 0.172549
0.176471 0.427466 0.156863
0.262760 0.431388 0.156863
0.372549 0.462760 0.180392
0.447074 0.482368 0.200000
0.537270 0.498054 0.215686
0.560800 0.462760 0.211765
0.603937 0.462760 0.215686
0.639216 0.466682 0.227451
0.658824 0.482368 0.239216
0.662745 0.474525 0.235294
0.658824 0.466682 0.231373
0.654902 0.454917 0.227451
0.654902 0.447074 0.223529
0.647059 0.431388 0.215686
0.647059 0.423545 0.211765
0.180392 0.537270 0.223529
0.192157 0.545113 0.215686
0.239231 0.545113 0.203922
0.345113 0.560800 0.207843
0.431388 0.564721 0.219608
0.482368 0.576486 0.235294
0.560800 0.580407 0.247074
0.627466 0.584329 0.270604
0.658824 0.572564 0.274525
0.678431 0.564721 0.278447
0.698039 0.580392 0.294118
0.698039 0.572564 0.290196
0.690196 0.564721 0.286290
0.690196 0.556878 0.282368
0.686275 0.549035 0.274525
0.682353 0.537270 0.266682
0.678431 0.521584 0.262745
0.239216 0.631357 0.262745
0.250980 0.643122 0.262745
0.298039 0.643122 0.254902
0.400000 0.647044 0.243137
0.486275 0.662730 0.262745
0.549020 0.670573 0.282353
0.631373 0.690181 0.317647
0.658824 0.662745 0.317647
0.729397 0.713710 0.380377
0.725475 0.674495 0.352926
0.729412 0.670573 0.352941
0.729412 0.666651 0.352941
0.729412 0.666651 0.352941
0.721569 0.658808 0.345098
0.721569 0.654887 0.345083
0.721569 0.647044 0.337255
0.717647 0.635279 0.333318
0.278431 0.690196 0.294118
0.282353 0.694118 0.290196
0.325490 0.694118 0.294118
0.439216 0.705882 0.305882
0.521569 0.709804 0.294118
0.596078 0.721569 0.321569
0.674510 0.737255 0.364706
0.725490 0.749020 0.396078
0.756863 0.756863 0.415686
0.768627 0.764706 0.427451
0.760784 0.741176 0.411765
0.756863 0.733333 0.403922
0.752941 0.725490 0.396078
0.752941 0.729412 0.403922
0.756863 0.725490 0.400000
0.756863 0.725490 0.400000
0.749020 0.713710 0.388235
0.294118 0.717647 0.301961
0.301961 0.725490 0.301961
0.364706 0.733333 0.321569
0.470588 0.737255 0.345098
0.560784 0.741176 0.341176
0.639216 0.745098 0.356863
0.698039 0.752941 0.388235
0.745098 0.768627 0.419608
0.760784 0.764706 0.427451
0.772549 0.772549 0.435294
0.776471 0.772549 0.439216
0.772549 0.768627 0.435294
0.772549 0.764706 0.427451
0.768627 0.756863 0.423529
0.768627 0.760784 0.427451
0.768627 0.764706 0.427451
0.764706 0.752941 0.423529
0.301961 0.737255 0.305882
0.313726 0.741176 0.309804
0.380392 0.737255 0.329412
0.501961 0.749020 0.364706
0.580392 0.752941 0.376471
0.662745 0.756863 0.396078
0.721569 0.768627 0.411765
0.752941 0.772549 0.427451
0.768627 0.772549 0.431373
0.772549 0.772549 0.435294
0.772549 0.772549 0.435294
0.776471 0.776471 0.443137
0.780392 0.780392 0.443137
0.776471 0.772549 0.439216
0.772549 0.772549 0.435294
0.776471 0.776471 0.439216
0.776471 0.772549 0.435294
0.305882 0.741176 0.298039
0.321569 0.749020 0.309804
0.388235 0.745098 0.333333
0.501961 0.752941 0.364706
0.603922 0.760784 0.392157
0.678431 0.764706 0.415686
0.725490 0.764706 0.419608
0.760784 0.772549 0.427451
0.772549 0.776471 0.435294
0.772549 0.772549 0.439216
0.772549 0.772549 0.439216
0.772549 0.772549 0.435294
0.776471 0.776471 0.443137
0.776471 0.776471 0.439216
0.776471 0.776471 0.443137
0.776471 0.776471 0.443137
0.780392 0.780392 0.443137
0.313726 0.745098 0.298039
0.325490 0.741176 0.301961
0.400000 0.749020 0.333333
0.513726 0.752941 0.364706
0.607843 0.756863 0.392157
0.682353 0.760784 0.411765
0.741176 0.772549 0.427451
0.764706 0.776471 0.435294
0.776471 0.776471 0.439216
0.776471 0.776471 0.439216
0.780392 0.780392 0.443137
0.776471 0.776471 0.439216
0.772549 0.772549 0.435294
0.776471 0.776471 0.443137
0.772549 0.772549 0.435294
0.776471 0.776471 0.443137
0.772549 0.772549 0.435294
0.321569 0.745098 0.294118
0.329412 0.741176 0.294118
0.400000 0.745098 0.329412
0.521569 0.752941 0.364706
0.611765 0.756863 0.392157
0.698039 0.768627 0.419608
0.741176 0.772549 0.423529
0.764706 0.772549 0.435294
0.772549 0.772549 0.435294
0.772549 0.772549 0.435294
0.776471 0.776471 0.443137
0.772549 0.772549 0.435294
0.776471 0.776471 0.443137
0.776471 0.776471 0.439216
0.776471 0.776471 0.439216
0.776471 0.776471 0.439216
0.776471 0.776471 0.443137
0.329412 0.733333 0.278431
0.337255 0.741176 0.286275
0.415686 0.749020 0.325490
0.533333 0.752941 0.364706
0.627451 0.756863 0.392157
0.698039 0.764706 0.411765
0.741176 0.768627 0.419608
0.768627 0.776471 0.435294
0.776471 0.776471 0.439216
0.780392 0.780392 0.443137
0.776471 0.776471 0.439216
0.776471 0.776471 0.439216
0.772549 0.772549 0.439216
0.776471 0.776471 0.435294
0.776471 0.776471 0.443137
0.772549 0.772549 0.435294
0.776471 0.776471 0.439216
0.011765 0.011765 0.086275
0.007843 0.007843 0.086275
0.027451 0.015686 0.098039
0.070588 0.019608 0.098039
0.152941 0.035294 0.133333
0.211765 0.047059 0.141176
0.258824 0.054902 0.149020
0.305898 0.062745 0.164706
0.392172 0.082353 0.203937
0.505867 0.141176 0.262745
0.501961 0.121569 0.239216
0.450980 0.090196 0.196078
0.466667 0.090196 0.188235
