tools/luts_backup/Kodak Ultramax 400_VS.cube
# (C) 2014 VisionColor & Patchflyer [www.vision-color.com]
# Generator: VC Patchmatch v.2.1.1 [64/53]
# All work and no play makes Jack a dull boy.
# LUT generated from: Kodak Ultramax 400_VisionSpace
LUT_3D_SIZE 5
0.025971 0.030152 0.025971
0.108614 0.034455 0.035554
0.240787 0.050660 0.060456
0.389410 0.064973 0.079561
0.525628 0.081819 0.103212
0.089448 0.129549 0.053010
0.228031 0.182559 0.073854
0.387854 0.235843 0.106386
0.507195 0.244144 0.129397
0.596551 0.231632 0.146731
0.297154 0.364050 0.119081
0.375494 0.416846 0.151461
0.512078 0.454475 0.180484
0.607813 0.468757 0.199863
0.628412 0.403723 0.190616
0.405615 0.535576 0.178866
0.478920 0.580194 0.212863
0.592981 0.604089 0.242222
0.667536 0.616846 0.267918
0.666346 0.575372 0.251255
0.383124 0.657526 0.213413
0.500999 0.674769 0.245151
0.620935 0.686061 0.281376
0.675776 0.686305 0.298833
0.698756 0.683284 0.305211
0.033631 0.033631 0.132784
0.116579 0.039643 0.133394
0.257328 0.054902 0.163607
0.379553 0.068086 0.194430
0.495430 0.084260 0.196536
0.099184 0.189548 0.175845
0.232914 0.223911 0.208408
0.384924 0.102632 0.117800
0.514488 0.090272 0.117647
0.674891 0.256626 0.260533
0.200412 0.417090 0.185367
0.382208 0.505455 0.194491
0.637751 0.589227 0.282536
0.633722 0.423880 0.212558
0.685176 0.469154 0.318578
0.296788 0.545892 0.234379
0.400000 0.652338 0.215976
0.623377 0.682948 0.291569
0.699702 0.685115 0.312352
0.715816 0.630701 0.375189
0.310643 0.655390 0.209842
0.465705 0.683925 0.299077
0.623621 0.705165 0.379705
0.685573 0.711940 0.396765
0.714015 0.700984 0.393896
0.041932 0.041932 0.267460
0.102022 0.045075 0.229923
0.233555 0.055329 0.239170
0.359136 0.069734 0.270512
0.459174 0.081880 0.255680
0.111757 0.204288 0.304234
0.060945 0.081300 0.342687
0.320958 0.106508 0.328771
0.456397 0.097414 0.260960
0.631739 0.265843 0.337682
0.205447 0.392065 0.386908
0.259403 0.511925 0.517510
0.487861 0.475349 0.464729
0.686976 0.323842 0.302113
0.706752 0.464332 0.411917
0.268528 0.565118 0.419532
0.278019 0.660029 0.375296
0.494759 0.677638 0.336156
0.719661 0.693324 0.395148
0.749233 0.663996 0.523552
0.271397 0.668574 0.364660
0.355352 0.730068 0.393057
0.611749 0.740261 0.513588
0.711208 0.747097 0.546319
0.767025 0.755886 0.534371
0.049714 0.058198 0.386053
0.076356 0.048310 0.342504
0.212131 0.060853 0.380529
0.317845 0.067872 0.330907
0.449531 0.087373 0.343999
0.111421 0.233829 0.459602
0.049622 0.057008 0.391302
0.152148 0.072969 0.421302
0.412329 0.111666 0.468238
0.555169 0.268376 0.448371
0.201480 0.416297 0.516320
0.151400 0.385672 0.573114
0.174060 0.270832 0.501411
0.546349 0.322225 0.602136
0.664546 0.482582 0.561669
0.235904 0.539239 0.549981
0.253300 0.621607 0.647395
0.379950 0.672541 0.692378
0.662959 0.654719 0.660761
0.734371 0.669245 0.667231
0.244633 0.652064 0.556329
0.378149 0.702724 0.643671
0.598611 0.757015 0.693355
0.731044 0.763027 0.715511
0.773861 0.767330 0.716945
0.047700 0.047700 0.393683
0.047547 0.047181 0.375402
0.139528 0.057984 0.420508
0.275883 0.074342 0.461219
0.418311 0.097871 0.474403
0.131930 0.327947 0.582605
0.100984 0.199405 0.464576
0.221317 0.244236 0.593057
0.383459 0.260166 0.596185
0.505241 0.278935 0.565881
0.147097 0.377600 0.579004
0.211353 0.395102 0.574365
0.335958 0.438468 0.686793
0.560479 0.473518 0.696193
0.655726 0.480415 0.689021
0.212009 0.534142 0.627436
0.315282 0.572351 0.655116
0.522057 0.646387 0.732448
0.675898 0.657099 0.733577
0.739681 0.661677 0.741970
0.261997 0.636378 0.655818
0.338964 0.679347 0.683314
0.509499 0.752407 0.752590
0.717983 0.763363 0.769131
0.791287 0.791287 0.791287
