tools/luts_backup/Kodak Vision3 200T 5213 (NEG)_FC.cube
# (C) 2014 VisionColor & Patchflyer [www.vision-color.com]
# Generator: VC Patchmatch v.2.1.1 [64/53]
# All work and no play makes Jack a dull boy.
# LUT generated from: Kodak Vision3 200T 5213 (NEG)_FC01
LUT_3D_SIZE 5
0.029297 0.029297 0.029297
0.075105 0.003265 0.003281
0.144961 0.000702 0.000702
0.222477 0.000092 0.000092
0.457923 0.000031 0.000031
0.033890 0.180102 0.010956
0.106737 0.183474 0.025711
0.391638 0.095933 0.000076
0.417166 0.017975 0.000015
0.508339 0.002167 0.000015
0.260441 0.528893 0.077317
0.209552 0.553643 0.075731
0.472892 0.546502 0.099977
0.964370 0.233387 0.008652
0.994247 0.234119 0.020829
0.753597 0.898299 0.171633
0.677043 0.880140 0.153841
0.459648 0.849210 0.131594
0.863279 0.795239 0.200000
0.993225 0.685603 0.228214
0.949447 0.974823 0.271534
0.943969 0.972457 0.267216
0.845716 0.964645 0.246555
0.927687 0.956695 0.308202
0.990997 0.926223 0.359747
0.001526 0.001419 0.060960
0.084810 0.000259 0.119905
0.135698 0.000137 0.111086
0.171511 0.000198 0.017395
0.401495 0.000031 0.000031
0.004349 0.259586 0.245441
0.162814 0.139345 0.182040
0.594751 0.065949 0.074784
0.460594 0.010895 0.000031
0.426154 0.000046 0.000031
0.165759 0.622904 0.122103
0.246830 0.551003 0.126757
0.563043 0.578805 0.103227
0.979751 0.304356 0.022736
0.983566 0.197589 0.004608
0.661585 0.927291 0.175494
0.643000 0.910521 0.138048
0.630121 0.903777 0.109071
0.943358 0.873014 0.208560
0.993454 0.637171 0.190036
0.948852 0.985107 0.208270
0.948714 0.984253 0.211139
0.874556 0.973892 0.192706
0.893416 0.961044 0.247196
0.987320 0.926146 0.324041
0.000290 0.000290 0.131136
0.036591 0.000076 0.177279
0.089296 0.000031 0.173144
0.169879 0.000031 0.173571
0.515480 0.000000 0.102358
0.000000 0.122591 0.389624
0.051835 0.052201 0.760845
0.336309 0.002564 0.431693
0.315679 0.000000 0.201480
0.412253 0.000015 0.025437
0.077668 0.792233 0.761273
0.176867 0.640818 0.657526
0.486625 0.474144 0.498619
0.898146 0.263127 0.302022
0.996811 0.117418 0.054704
0.361944 0.899245 0.449454
0.374044 0.891661 0.420386
0.548165 0.866255 0.365560
0.924910 0.875196 0.346563
0.994217 0.651896 0.218418
0.807080 0.977905 0.446372
0.839750 0.978469 0.380957
0.834546 0.975631 0.335653
0.921065 0.980209 0.263844
0.993683 0.950149 0.263355
0.000015 0.000015 0.265232
0.000076 0.000031 0.238422
0.045151 0.000015 0.305104
0.145068 0.000000 0.398093
0.614404 0.000000 0.489219
0.000000 0.061402 0.435416
0.000015 0.010086 0.398688
0.169772 0.000031 0.576608
0.178958 0.000000 0.402411
0.502739 0.000000 0.340368
0.004303 0.717891 0.985885
0.049348 0.583490 0.985458
0.236835 0.416037 0.914992
0.569772 0.264530 0.814710
0.988647 0.086244 0.519310
0.257649 0.953323 0.939605
0.310506 0.928954 0.928847
0.465675 0.886213 0.881071
0.818250 0.814084 0.812696
0.952331 0.673808 0.665904
0.607553 0.969879 0.803128
0.543603 0.955291 0.715236
0.579370 0.955200 0.684901
0.725765 0.955016 0.597757
0.981888 0.953658 0.617578
0.000015 0.000015 0.330602
0.000076 0.000015 0.339223
0.041535 0.000015 0.448707
0.105577 0.000000 0.498161
0.388403 0.000000 0.634562
0.000000 0.094850 0.599451
0.000015 0.003662 0.350118
0.103243 0.000000 0.732341
0.183474 0.000000 0.646860
0.524041 0.000000 0.682216
0.000488 0.587472 0.948043
0.001450 0.525933 0.979583
0.100725 0.364523 0.987640
0.432013 0.306752 0.952682
0.708232 0.209918 0.946792
0.167895 0.949035 0.987106
0.405066 0.899367 0.975525
0.534646 0.853986 0.956970
0.756924 0.801129 0.924544
0.859602 0.776257 0.892882
0.473564 0.983703 0.977142
0.549584 0.981735 0.973495
0.602243 0.964416 0.962051
0.732372 0.947829 0.943145
0.939605 0.933181 0.926497
