tools/luts_backup/Kodak Gold Gen.6 200_FPE.cube
# (C) 2014 VisionColor & Patchflyer [www.vision-color.com]
# Generator: VC Patchmatch v.2.1.1 [64/53]
# All work and no play makes Jack a dull boy.
# LUT generated from: Kodak Gold Gen.6 200_FPE
LUT_3D_SIZE 9
0.033173 0.035966 0.036301
0.051499 0.038010 0.035080
0.135607 0.049744 0.039200
0.221180 0.050858 0.038865
0.253727 0.047929 0.039292
0.297276 0.045563 0.040833
0.364050 0.044877 0.043427
0.427222 0.046326 0.046738
0.484016 0.049348 0.050126
0.034089 0.046311 0.037095
0.061799 0.054063 0.036805
0.145388 0.069078 0.037705
0.253880 0.080613 0.039368
0.340093 0.086641 0.041917
0.402350 0.086336 0.045228
0.460426 0.081147 0.048905
0.513939 0.074022 0.051606
0.559350 0.067994 0.053117
0.041444 0.077119 0.040604
0.094926 0.098451 0.040208
0.184894 0.119844 0.039063
0.301244 0.142718 0.041703
0.425116 0.170123 0.046632
0.515816 0.193866 0.050919
0.573098 0.198260 0.053635
0.621683 0.186389 0.056580
0.674647 0.181827 0.060365
0.075593 0.159701 0.041016
0.174975 0.196414 0.039216
0.311391 0.235248 0.042390
0.414603 0.259007 0.046174
0.529992 0.299367 0.054170
0.625589 0.337224 0.064118
0.683268 0.338720 0.069505
0.737301 0.330526 0.072923
0.774273 0.319631 0.074952
0.144152 0.282582 0.040711
0.273548 0.329625 0.043336
0.422019 0.369253 0.051514
0.549996 0.405188 0.063554
0.629480 0.423072 0.072648
0.713512 0.452293 0.084749
0.779034 0.467094 0.093843
0.830854 0.457099 0.098863
0.842634 0.435767 0.097337
0.269718 0.404700 0.048264
0.385626 0.439200 0.055848
0.502861 0.468330 0.066316
0.617060 0.497826 0.081102
0.717968 0.522255 0.097841
0.778546 0.532174 0.106188
0.851041 0.549157 0.117937
0.878050 0.536904 0.119341
0.886076 0.519615 0.117067
0.401450 0.491981 0.063401
0.484932 0.511330 0.071122
0.576516 0.535637 0.082292
0.672038 0.559518 0.096727
0.775738 0.583185 0.115053
0.844068 0.600275 0.128374
0.886900 0.606592 0.135149
0.901274 0.586542 0.133028
0.906188 0.581186 0.132753
0.458137 0.545388 0.074113
0.561227 0.568780 0.086137
0.660609 0.593866 0.100526
0.750774 0.617853 0.116091
0.835828 0.639765 0.133089
0.887861 0.650980 0.144030
0.918227 0.651316 0.150149
0.927230 0.649378 0.151324
0.925780 0.640101 0.149126
0.298848 0.529702 0.065019
0.604318 0.607187 0.096712
0.682216 0.628534 0.108766
0.780377 0.651240 0.125856
0.850889 0.665751 0.140063
0.904723 0.677272 0.152010
0.927245 0.683833 0.158480
0.932586 0.685450 0.159930
0.932586 0.685450 0.159930
0.029282 0.035340 0.047837
0.040162 0.037278 0.053361
0.099916 0.044923 0.061921
0.177646 0.049912 0.065797
0.244923 0.050584 0.063676
0.305684 0.048096 0.060853
0.370245 0.046845 0.062364
0.422858 0.047242 0.063523
0.482795 0.049088 0.071733
0.030701 0.048829 0.052781
0.056977 0.060258 0.063844
0.189197 0.058198 0.043244
0.255314 0.048539 0.039445
0.296101 0.045624 0.040803
0.362814 0.044800 0.043351
0.428779 0.046357 0.046799
0.482734 0.049500 0.051255
0.547967 0.070344 0.080354
0.036545 0.092988 0.060410
0.080308 0.144747 0.044724
0.332525 0.217197 0.044327
0.420111 0.169299 0.046479
0.473014 0.148165 0.048173
0.518700 0.131395 0.051179
0.554940 0.108293 0.053422
0.594263 0.103914 0.055375
0.660471 0.189731 0.088304
0.066804 0.185992 0.063645
0.142596 0.278065 0.040604
0.409842 0.362463 0.050553
0.623758 0.418296 0.071366
0.653040 0.376287 0.069810
0.680934 0.333425 0.069001
0.711025 0.297780 0.067842
0.741329 0.285542 0.069337
0.758190 0.334051 0.094270
0.141772 0.302770 0.057176
0.269642 0.404395 0.048295
0.460838 0.458625 0.062104
0.652461 0.505058 0.086702
0.782528 0.533364 0.106859
0.815122 0.509346 0.105867
0.838468 0.475181 0.102800
0.841749 0.438987 0.097704
0.822751 0.445670 0.107393
0.257191 0.412863 0.056306
0.393042 0.489906 0.062669
0.533883 0.524926 0.076524
0.677348 0.560006 0.097520
0.809049 0.590021 0.121218
0.886915 0.605188 0.134844
0.892378 0.570764 0.128435
0.895964 0.543465 0.123552
0.881590 0.533898 0.124025
0.316564 0.475654 0.059159
0.440208 0.540139 0.071916
0.595834 0.576440 0.090730
0.728466 0.611658 0.111864
0.842374 0.639155 0.134218
0.904067 0.653605 0.148226
0.925704 0.648692 0.150790
0.921752 0.621225 0.144701
0.912795 0.607553 0.143236
0.283131 0.500191 0.059815
0.349371 0.540475 0.067964
0.609476 0.605402 0.096864
0.744244 0.640894 0.118761
0.847715 0.665919 0.138994
0.914702 0.683665 0.155291
0.936446 0.689738 0.161944
0.937148 0.689479 0.162142
0.934936 0.679866 0.160220
0.175097 0.490455 0.057481
0.353826 0.545235 0.068986
0.572763 0.604089 0.093538
0.722957 0.647257 0.118639
0.810651 0.672038 0.136080
0.879454 0.697643 0.152163
0.928695 0.719005 0.166171
0.937972 0.725231 0.171511
0.938384 0.724926 0.171420
0.029770 0.036912 0.078706
0.038407 0.039078 0.093782
0.075608 0.043137 0.107729
0.148226 0.047593 0.116381
0.231739 0.047822 0.125185
0.313024 0.046067 0.120699
0.380758 0.045777 0.126513
0.425467 0.046433 0.126238
0.470848 0.047791 0.132601
0.030335 0.051255 0.088258
0.031083 0.040436 0.110384
0.116457 0.049393 0.148119
0.230823 0.048234 0.123079
0.310353 0.046983 0.098131
0.374426 0.046433 0.089036
0.426413 0.047166 0.085206
0.480156 0.048859 0.093172
0.544900 0.073503 0.153094
0.033448 0.103365 0.114870
0.042390 0.172183 0.191959
0.153399 0.155764 0.153460
0.294575 0.106600 0.091508
0.365408 0.057908 0.050111
0.426978 0.046784 0.047349
0.483070 0.049638 0.051652
0.548699 0.070527 0.080507
0.656580 0.202808 0.192279
0.045075 0.195697 0.134829
0.087816 0.301717 0.143679
0.273579 0.334325 0.087999
0.561929 0.416861 0.103166
0.645304 0.342672 0.068482
0.653376 0.233829 0.059754
0.668437 0.195087 0.060883
0.703349 0.250523 0.089036
0.775082 0.388708 0.245853
0.094316 0.313191 0.147402
0.210864 0.408164 0.094606
0.372259 0.464714 0.059373
0.638193 0.534951 0.090196
0.837537 0.579873 0.123079
0.858503 0.513878 0.112276
0.841718 0.442954 0.098238
0.816510 0.427863 0.103700
0.815427 0.484382 0.240421
0.190951 0.411688 0.135683
0.262394 0.469291 0.067231
0.429099 0.534340 0.070512
0.672816 0.595224 0.102281
0.862089 0.640970 0.138109
0.926650 0.647013 0.150729
0.909483 0.583001 0.134005
0.890532 0.549538 0.127367
0.862135 0.557610 0.218982
0.230915 0.472404 0.104204
0.233860 0.491844 0.058503
0.369741 0.544137 0.069337
0.671305 0.619959 0.106157
0.845563 0.665995 0.138521
0.927672 0.688746 0.159243
0.938018 0.689815 0.162341
0.927169 0.653040 0.154543
0.905577 0.640101 0.220691
0.195102 0.490898 0.069429
0.186358 0.495674 0.058579
0.368475 0.551278 0.070527
0.638239 0.622721 0.103746
0.788357 0.665583 0.131777
0.892729 0.701854 0.155337
0.936172 0.722210 0.169558
0.937987 0.724056 0.171099
0.932128 0.722026 0.242481
0.149920 0.492363 0.058717
0.265385 0.533974 0.066972
0.435737 0.580728 0.081743
0.616175 0.636500 0.113695
0.723445 0.671641 0.145418
0.820050 0.719448 0.213931
0.892164 0.754894 0.261509
0.932952 0.775586 0.277531
0.936446 0.776333 0.275120
0.029923 0.036194 0.111208
0.034165 0.036454 0.131884
0.061997 0.039338 0.149294
0.125612 0.043442 0.158358
0.220783 0.044144 0.177234
0.317494 0.044724 0.180713
0.377600 0.045457 0.184802
0.423407 0.047242 0.187915
0.467384 0.048737 0.191333
0.032242 0.052415 0.136217
0.030869 0.035523 0.141344
0.053559 0.039384 0.177951
0.179660 0.043809 0.187091
0.308385 0.044572 0.193179
0.376425 0.045396 0.183734
0.425986 0.047028 0.175540
0.473472 0.048798 0.178500
0.552712 0.075654 0.225803
0.035721 0.107439 0.182925
0.038071 0.108110 0.234211
0.042267 0.071183 0.190951
0.223941 0.096178 0.236316
0.360357 0.054871 0.190753
0.427756 0.046952 0.151324
0.478325 0.049256 0.141253
0.551797 0.076326 0.184360
0.687526 0.243153 0.298619
0.040009 0.198856 0.230732
0.047379 0.297978 0.356802
0.096422 0.326192 0.344228
0.328283 0.323201 0.306996
0.452583 0.239460 0.212650
0.513542 0.128786 0.119081
0.549050 0.074632 0.084657
0.661433 0.206744 0.196063
0.786999 0.421561 0.368322
0.053239 0.307164 0.264607
0.072694 0.394247 0.313359
0.174456 0.462348 0.279347
0.438209 0.488258 0.227756
0.693614 0.556832 0.273075
0.758694 0.477378 0.150790
0.782620 0.381811 0.105272
0.798489 0.440452 0.242649
0.828748 0.528923 0.398810
0.085176 0.400839 0.279789
0.165957 0.479850 0.242054
0.212696 0.506294 0.106020
0.441413 0.539956 0.082521
0.750820 0.630610 0.147982
0.901930 0.662791 0.171588
0.902708 0.585016 0.137469
0.862745 0.557565 0.217487
0.853239 0.591180 0.387671
0.176410 0.486946 0.251240
0.210361 0.522881 0.162325
0.177935 0.505257 0.064012
0.377813 0.553063 0.071229
0.743709 0.652857 0.123552
0.906523 0.709880 0.160998
0.937346 0.724666 0.171969
0.922362 0.680735 0.230671
0.899489 0.674495 0.402777
0.212894 0.530587 0.198627
0.181628 0.526299 0.101457
0.240314 0.536934 0.074662
0.435248 0.582315 0.082597
0.681712 0.656352 0.130343
0.822003 0.718212 0.207141
0.921691 0.766506 0.265980
0.936339 0.775082 0.271122
0.929610 0.752392 0.428534
0.176471 0.540368 0.136507
0.231678 0.559853 0.140063
0.343923 0.595468 0.157900
0.489281 0.637781 0.193805
0.633677 0.694072 0.289693
0.761059 0.745113 0.383627
0.861662 0.784787 0.445747
0.926253 0.810971 0.453666
0.934997 0.811109 0.446296
0.030915 0.035218 0.141558
0.032868 0.035798 0.158343
0.053651 0.039490 0.179278
0.101671 0.041398 0.193454
0.181018 0.043580 0.185946
0.288716 0.043580 0.206638
0.359640 0.044312 0.226703
0.422751 0.047150 0.242115
0.471626 0.049256 0.248783
0.033524 0.052201 0.183978
0.032914 0.035721 0.183352
0.040253 0.037369 0.196674
0.092103 0.040497 0.212039
0.242313 0.041718 0.234440
0.349508 0.043381 0.245319
0.418341 0.046906 0.247974
0.475685 0.050019 0.250584
0.554589 0.073655 0.285969
0.038239 0.109499 0.238300
0.038300 0.085054 0.271290
0.035416 0.042771 0.225010
0.083696 0.050523 0.242451
0.303273 0.051957 0.292851
0.414603 0.046830 0.269215
0.476570 0.050690 0.252522
0.557961 0.076539 0.274998
0.675822 0.231647 0.340200
0.040467 0.193194 0.292958
0.043702 0.229648 0.377340
0.044312 0.207645 0.381918
0.092882 0.172427 0.312963
0.377035 0.226368 0.365591
0.493050 0.124880 0.305013
0.560861 0.085451 0.252018
0.681514 0.234028 0.322225
0.764660 0.398642 0.395743
0.047486 0.299947 0.359045
0.055512 0.387274 0.472969
0.061830 0.425727 0.506462
0.218830 0.474174 0.477775
0.488807 0.481544 0.452766
0.602960 0.415976 0.370932
0.692302 0.320867 0.282048
0.780972 0.412039 0.360265
0.804654 0.521462 0.457679
0.057618 0.385840 0.385367
0.072480 0.457893 0.421668
0.083528 0.505241 0.415717
0.200504 0.545571 0.388998
0.536110 0.591577 0.395041
0.774060 0.655695 0.447288
0.826261 0.577646 0.321416
0.842451 0.569207 0.386603
0.834531 0.604898 0.487633
0.096712 0.471534 0.377997
0.108904 0.521126 0.369619
0.124361 0.549218 0.316182
0.226703 0.573220 0.210452
0.490669 0.609354 0.150607
0.780270 0.716808 0.325872
0.923461 0.765423 0.363943
0.910872 0.700587 0.409583
0.878508 0.698985 0.534035
0.127062 0.528008 0.348806
0.122408 0.551080 0.315648
0.187137 0.579385 0.283009
0.298375 0.609369 0.258869
0.492164 0.639429 0.194858
0.724041 0.728099 0.343389
0.887968 0.793835 0.443717
0.933806 0.809537 0.445457
0.919219 0.773938 0.570520
0.115923 0.552712 0.315892
0.177935 0.581018 0.308354
0.232837 0.608896 0.349233
0.381079 0.656214 0.398810
0.582254 0.722988 0.470039
0.731502 0.771023 0.531334
0.843961 0.805783 0.573068
0.912734 0.833982 0.589990
0.934752 0.840085 0.597955
0.032944 0.035813 0.183856
0.033524 0.035950 0.185306
0.047059 0.038666 0.202518
0.074174 0.040391 0.212451
0.144381 0.041779 0.206409
0.244953 0.041779 0.231174
0.339086 0.042481 0.267185
0.412558 0.045914 0.284001
0.470573 0.048829 0.293675
0.036332 0.052018 0.232090
0.034592 0.036423 0.225452
0.035492 0.036805 0.222187
0.060609 0.039750 0.233982
0.154040 0.040665 0.253452
0.317601 0.041611 0.310491
0.406836 0.045167 0.310689
0.464240 0.049134 0.305959
0.537621 0.065461 0.327565
0.039857 0.110964 0.293706
0.040696 0.077028 0.314519
0.037049 0.038285 0.261723
0.040055 0.038346 0.247959
0.144732 0.042069 0.292287
0.378042 0.043610 0.363912
0.458839 0.049226 0.334524
0.534173 0.066117 0.333776
0.645411 0.204456 0.365454
0.042496 0.199771 0.358129
0.044327 0.198993 0.410300
0.045502 0.148394 0.412131
0.040772 0.083009 0.315648
0.167544 0.114061 0.346502
0.441367 0.128008 0.414862
0.527214 0.070222 0.355413
0.640848 0.200092 0.369909
0.736263 0.372213 0.415457
0.047883 0.295216 0.418570
0.051728 0.337713 0.501427
0.051591 0.336904 0.536004
0.055177 0.325063 0.495293
0.212177 0.335180 0.449165
0.521935 0.399710 0.498939
0.646159 0.294545 0.404120
0.746609 0.380835 0.409491
0.772732 0.504372 0.487068
0.055573 0.386892 0.473121
0.055680 0.422156 0.551675
0.056214 0.423331 0.581186
0.062104 0.465599 0.565377
0.321263 0.573404 0.577569
0.604623 0.593576 0.568200
0.719676 0.542306 0.491600
0.803571 0.522850 0.458930
0.815229 0.611307 0.545068
0.065461 0.454658 0.467872
0.058808 0.476661 0.499001
0.055802 0.472786 0.505028
0.059831 0.499382 0.491997
0.171954 0.600137 0.493080
0.621729 0.686793 0.534890
0.845212 0.747982 0.582864
0.877760 0.697871 0.532097
0.857206 0.703227 0.598993
0.070375 0.498985 0.448585
0.058625 0.495186 0.459907
0.068330 0.525872 0.460029
0.110262 0.581796 0.464591
0.293660 0.662364 0.484901
0.588174 0.721965 0.466651
0.841306 0.805432 0.571557
0.934676 0.839124 0.599527
0.900023 0.786358 0.656260
0.062242 0.507713 0.429084
0.076539 0.540139 0.443412
0.112734 0.583886 0.463432
0.239307 0.653864 0.512505
0.530602 0.741634 0.593683
0.690120 0.785214 0.627085
0.815518 0.821790 0.661189
0.900603 0.850248 0.688350
0.930266 0.857984 0.701045
0.034607 0.036378 0.225559
0.034409 0.036286 0.220615
0.040482 0.037690 0.229587
0.061402 0.039734 0.233692
0.111925 0.040421 0.242466
0.207584 0.040757 0.269856
0.316091 0.041611 0.312535
0.403769 0.044602 0.330938
0.460578 0.048081 0.337346
0.039826 0.054780 0.285939
0.036820 0.037812 0.260502
0.035721 0.037095 0.243595
0.043748 0.038651 0.250050
0.102190 0.041413 0.277150
0.236576 0.042161 0.324987
0.378073 0.043366 0.364477
0.455161 0.048844 0.363821
0.508553 0.060212 0.359258
0.041962 0.112551 0.347539
0.042969 0.077134 0.353780
0.038834 0.040299 0.292699
0.037278 0.038834 0.264256
0.069612 0.042451 0.300008
0.234974 0.044587 0.354910
0.417792 0.046098 0.403052
0.504768 0.063386 0.387961
0.603616 0.174273 0.410224
0.044388 0.200076 0.411902
0.047425 0.191226 0.448432
0.046433 0.132952 0.426703
0.042817 0.059709 0.337728
0.047120 0.069963 0.341421
0.252430 0.081727 0.407721
0.467155 0.073106 0.445258
0.584939 0.170916 0.436469
0.690669 0.360021 0.478019
0.049378 0.297383 0.473701
0.050538 0.315740 0.524742
0.050721 0.305531 0.541695
0.049531 0.240681 0.500557
0.046555 0.182864 0.427893
0.262760 0.265126 0.490822
0.546105 0.285344 0.539361
0.674418 0.350744 0.497337
0.734905 0.509636 0.546288
0.053483 0.374166 0.525246
0.054566 0.378683 0.569635
0.055970 0.382132 0.595148
0.055314 0.376364 0.590280
0.068574 0.422324 0.587579
0.343923 0.476280 0.574670
0.622232 0.521996 0.606622
0.734234 0.506889 0.545068
0.778408 0.608240 0.604593
0.055802 0.422309 0.552254
0.056184 0.422141 0.583612
0.056123 0.417044 0.600458
0.057298 0.428077 0.612177
0.067842 0.504372 0.642191
0.410559 0.665965 0.685084
0.713146 0.695705 0.676997
0.800519 0.638132 0.585275
0.857603 0.706294 0.667842
0.057618 0.466911 0.533410
0.055116 0.453788 0.546731
0.056489 0.464332 0.558785
0.061631 0.497597 0.576883
0.092271 0.583185 0.611948
0.415900 0.739727 0.667704
0.716243 0.781826 0.658061
0.908553 0.833936 0.711009
0.897063 0.790555 0.724681
0.054658 0.468421 0.504906
0.056870 0.480812 0.519905
0.063172 0.512139 0.533639
0.112337 0.603845 0.586984
0.412726 0.742412 0.672602
0.637629 0.799603 0.717678
0.773861 0.827253 0.736355
0.870146 0.852003 0.758984
0.921004 0.863615 0.773938
0.036774 0.037766 0.260029
0.035920 0.037217 0.247745
0.036484 0.037522 0.243687
0.047623 0.039017 0.253254
0.087160 0.041138 0.269337
0.176120 0.041886 0.305638
0.280354 0.042191 0.340169
0.381704 0.043549 0.363210
0.453193 0.048035 0.379049
0.042069 0.059068 0.324193
0.038804 0.039551 0.291554
0.037385 0.038529 0.265614
0.036988 0.038590 0.262409
0.066880 0.041428 0.297200
0.168673 0.043030 0.333867
0.291127 0.044068 0.371817
0.416510 0.045457 0.403800
0.497719 0.064088 0.404623
0.044831 0.122469 0.398001
0.043946 0.077897 0.376333
0.042710 0.057374 0.335760
0.042069 0.055344 0.320226
0.064973 0.071183 0.351339
0.198459 0.074327 0.391760
0.332372 0.070787 0.421683
0.460777 0.067002 0.441794
0.572122 0.175952 0.464332
0.047929 0.212253 0.463706
0.048859 0.195331 0.476066
0.047303 0.154543 0.441825
0.044907 0.117876 0.400626
0.049485 0.141405 0.420127
0.203540 0.188342 0.471366
0.398749 0.201572 0.510262
0.529641 0.189151 0.524849
0.647089 0.359442 0.553903
0.049882 0.302724 0.518196
0.051087 0.311284 0.546334
0.050233 0.283055 0.530419
0.049348 0.250797 0.506477
0.049134 0.223285 0.483085
0.149783 0.297154 0.528969
0.420874 0.340841 0.578561
0.597040 0.359625 0.613474
0.699062 0.503487 0.611063
0.052979 0.356588 0.552377
0.054978 0.364797 0.586694
0.054383 0.356634 0.581933
0.054322 0.364706 0.582010
0.065858 0.394186 0.594400
0.105837 0.387747 0.582986
0.441993 0.460395 0.628260
0.659953 0.493919 0.669459
0.755047 0.608911 0.661036
0.055390 0.388846 0.579538
0.056794 0.396963 0.604257
0.057420 0.405509 0.609827
0.059709 0.439780 0.626688
0.089876 0.519341 0.660090
0.261952 0.590723 0.692210
0.507668 0.598138 0.690272
0.735378 0.633890 0.722255
0.840284 0.710292 0.726543
0.056260 0.424353 0.583932
0.056016 0.415351 0.602319
0.056886 0.423819 0.612772
0.060945 0.461784 0.636210
0.072038 0.530114 0.667872
0.193027 0.677791 0.723857
0.601785 0.779431 0.784298
0.824186 0.786389 0.772702
0.899809 0.789944 0.773739
0.055650 0.445319 0.565499
0.056580 0.451926 0.576410
0.061341 0.484260 0.610147
0.076127 0.548440 0.657618
0.263996 0.707866 0.721798
0.588312 0.802274 0.779309
0.750011 0.835096 0.800366
0.846235 0.856352 0.801419
0.918944 0.872511 0.820188
0.039094 0.039490 0.291386
0.037568 0.038300 0.270237
0.036530 0.037629 0.256687
0.037690 0.038514 0.261494
0.059648 0.040360 0.292134
0.128893 0.041794 0.318135
0.215961 0.042954 0.347601
0.315068 0.043992 0.381949
0.421210 0.045975 0.409354
0.043061 0.057725 0.346960
0.042695 0.057206 0.335973
0.041733 0.052399 0.314504
0.042725 0.059129 0.329091
0.079789 0.073121 0.362020
0.181674 0.073808 0.387686
0.276051 0.069474 0.405264
0.365911 0.066285 0.425055
0.457832 0.066316 0.437842
0.046464 0.122591 0.431205
0.045670 0.119768 0.411780
0.044846 0.115236 0.398688
0.045487 0.128801 0.408621
0.076493 0.165499 0.439567
0.203387 0.195560 0.475975
0.335851 0.203830 0.499260
0.442237 0.206973 0.521416
0.531533 0.191867 0.525673
0.049775 0.231952 0.502617
0.049317 0.212238 0.484840
0.048493 0.203067 0.472251
0.048966 0.222110 0.481605
0.072541 0.271015 0.509529
0.210803 0.312215 0.539971
0.380758 0.337133 0.569482
0.500572 0.356527 0.599145
0.597040 0.366400 0.618540
0.051484 0.316304 0.551446
0.050660 0.296757 0.539895
0.050050 0.287419 0.531685
0.057099 0.331075 0.557321
0.100359 0.385824 0.582376
0.272480 0.435584 0.609247
0.438422 0.457176 0.627268
0.541207 0.469017 0.642451
0.661952 0.491569 0.668620
0.054490 0.354116 0.582071
0.053773 0.347387 0.576104
0.054002 0.360861 0.578790
0.071397 0.427192 0.612070
0.182208 0.492729 0.641917
0.399542 0.552819 0.676722
0.545144 0.580148 0.695277
0.637049 0.586145 0.706386
0.718212 0.598520 0.721965
0.056275 0.381842 0.600946
0.056214 0.386038 0.598978
0.058640 0.423087 0.617838
0.090974 0.505989 0.652140
0.263096 0.595422 0.697230
0.490867 0.647959 0.733486
0.643412 0.684962 0.759396
0.745266 0.704692 0.776623
0.816175 0.713420 0.785672
0.056260 0.398322 0.603220
0.057832 0.413397 0.614160
0.060319 0.447776 0.630014
0.084199 0.538140 0.671794
0.249668 0.647562 0.715785
0.523583 0.722271 0.763119
0.698909 0.763333 0.796094
0.808637 0.788296 0.819516
0.890669 0.801068 0.834379
0.056260 0.413260 0.606744
0.056367 0.418814 0.608011
0.060990 0.461921 0.636378
0.070451 0.524041 0.665522
0.186999 0.678965 0.726726
0.528054 0.791562 0.788388
0.733013 0.835630 0.828702
0.831464 0.858900 0.851591
0.916259 0.880354 0.872343
