tools/luts_backup/Kodak Vision3 250D 5207 (NEG)_VS.cube
# (C) 2014 VisionColor & Patchflyer [www.vision-color.com]
# Generator: VC Patchmatch v.2.1.1 [64/53]
# All work and no play makes Jack a dull boy.
# LUT generated from: Kodak Vision3 250D 5207 (NEG)_VisionSpace
LUT_3D_SIZE 5
0.027771 0.030426 0.028229
0.158114 0.041901 0.036500
0.199985 0.039063 0.037140
0.263310 0.040040 0.038087
0.440345 0.048432 0.047150
0.113649 0.201572 0.083497
0.218326 0.216739 0.103273
0.357855 0.173831 0.073732
0.383093 0.059571 0.046143
0.459785 0.050690 0.048981
0.388083 0.431846 0.201236
0.365591 0.438743 0.203494
0.485740 0.449622 0.222354
0.612879 0.306661 0.127398
0.659663 0.326772 0.140261
0.705653 0.703456 0.371893
0.676326 0.684474 0.353185
0.576196 0.643458 0.312535
0.703639 0.648310 0.359960
0.759945 0.636774 0.383459
0.790463 0.776394 0.442573
0.787900 0.774289 0.441230
0.756466 0.764553 0.429389
0.781765 0.765347 0.434089
0.819608 0.765225 0.443061
0.026673 0.028565 0.123598
0.137942 0.035615 0.166995
0.194247 0.037140 0.167117
0.222507 0.038087 0.063142
0.403693 0.045319 0.044007
0.074098 0.213779 0.220829
0.222873 0.200046 0.209384
0.425208 0.179538 0.146242
0.415320 0.095705 0.056519
0.415076 0.046387 0.045106
0.345983 0.502510 0.240635
0.381445 0.483665 0.243168
0.543038 0.493492 0.241337
0.648585 0.371939 0.161578
0.639826 0.289174 0.123995
0.680690 0.724819 0.382544
0.669734 0.706752 0.350317
0.662928 0.695308 0.319066
0.753414 0.701991 0.392737
0.748196 0.607782 0.356420
0.792599 0.786618 0.425452
0.792294 0.784604 0.424384
0.763058 0.769009 0.408789
0.767361 0.763210 0.431922
0.803159 0.753933 0.433295
0.024659 0.026490 0.190799
0.052125 0.027161 0.203677
0.135470 0.032502 0.220157
0.220371 0.038209 0.218143
0.475563 0.053437 0.137346
0.062593 0.194217 0.360723
0.114809 0.135164 0.341680
0.292180 0.085328 0.300908
0.316533 0.043305 0.224979
0.402930 0.044862 0.065034
0.277562 0.573007 0.567849
0.302586 0.540200 0.551125
0.483604 0.480552 0.490013
0.714046 0.357351 0.358572
0.628931 0.261494 0.184985
0.462455 0.723995 0.456565
0.470115 0.724056 0.441825
0.593591 0.716274 0.411032
0.764035 0.731258 0.432013
0.771572 0.640803 0.394354
0.739223 0.796323 0.485023
0.750576 0.794003 0.450050
0.749050 0.788174 0.432258
0.779873 0.785214 0.442329
0.813504 0.775204 0.443915
0.022370 0.023743 0.315068
0.022431 0.023804 0.281773
0.049195 0.025513 0.302586
0.172091 0.035187 0.379736
0.516777 0.081758 0.433783
0.038209 0.091661 0.409613
0.026154 0.040925 0.353246
0.179629 0.039704 0.442817
0.197452 0.037293 0.378180
0.464485 0.062440 0.338201
0.214313 0.531228 0.650141
0.237934 0.481559 0.628901
0.310384 0.435416 0.675380
0.492546 0.339834 0.644099
0.609598 0.240620 0.424262
0.411261 0.740139 0.733486
0.422126 0.731716 0.733181
0.491218 0.725124 0.723995
0.717891 0.721706 0.721553
0.761593 0.689601 0.681666
0.647089 0.785061 0.719417
0.602502 0.770138 0.674281
0.635767 0.771756 0.666957
0.707362 0.782040 0.621210
0.812192 0.796384 0.649836
0.022522 0.023896 0.359472
0.022522 0.023865 0.358343
0.038392 0.025055 0.397986
0.117769 0.031281 0.446418
0.357641 0.061494 0.512932
0.050202 0.130526 0.512474
0.023072 0.026612 0.364233
0.100191 0.033753 0.500633
0.178317 0.038392 0.503868
0.434424 0.077729 0.519493
0.203616 0.544930 0.683040
0.173236 0.448814 0.646265
0.234394 0.389181 0.632654
0.402670 0.383017 0.726040
0.545357 0.324453 0.650980
0.410864 0.722835 0.753628
0.471473 0.733944 0.772244
0.554406 0.720974 0.765408
0.695674 0.718990 0.752377
0.726925 0.714076 0.742428
0.531182 0.788479 0.788357
0.587121 0.789609 0.785672
0.616663 0.781643 0.780606
0.696590 0.778134 0.777279
0.793088 0.792752 0.791348
