tools/luts_backup/Kodak Vision3 250D 5207 (NEG)_FC.cube
# (C) 2014 VisionColor & Patchflyer [www.vision-color.com]
# Generator: VC Patchmatch v.2.1.1 [64/53]
# All work and no play makes Jack a dull boy.
# LUT generated from: Kodak Vision3 250D 5207 (NEG)_FC01
LUT_3D_SIZE 9
0.023056 0.025788 0.023560
0.135012 0.022400 0.017121
0.200946 0.023117 0.016068
0.235660 0.019547 0.016541
0.287160 0.017029 0.014588
0.308171 0.016358 0.013916
0.427131 0.013458 0.011109
0.706844 0.009262 0.007919
0.781430 0.008881 0.007538
0.026612 0.071565 0.019959
0.100145 0.074769 0.014725
0.222629 0.069215 0.011322
0.346441 0.057572 0.009293
0.384161 0.023804 0.010285
0.419059 0.014038 0.011353
0.513741 0.011643 0.009323
0.705516 0.009567 0.007965
0.794339 0.008820 0.007477
0.053803 0.175540 0.022675
0.078538 0.183185 0.023026
0.174563 0.172030 0.032715
0.347189 0.157870 0.022843
0.451728 0.115785 0.008362
0.539864 0.057191 0.005783
0.646021 0.022644 0.007050
0.844327 0.050050 0.005447
0.818936 0.009110 0.007324
0.160006 0.281712 0.050294
0.162493 0.285863 0.049561
0.147631 0.303960 0.047532
0.250431 0.294057 0.052949
0.515648 0.251469 0.035874
0.699321 0.189395 0.007172
0.750317 0.091844 0.005005
0.814054 0.022644 0.006348
0.895720 0.067308 0.005188
0.340337 0.430594 0.061204
0.337758 0.431373 0.064057
0.296132 0.444923 0.065156
0.267781 0.444770 0.060670
0.512932 0.436988 0.066499
0.854475 0.373236 0.048096
0.916777 0.228122 0.007370
0.802991 0.073671 0.006287
0.975189 0.244648 0.008270
0.592294 0.654276 0.067414
0.542580 0.666163 0.042100
0.546319 0.667506 0.058030
0.418601 0.618173 0.069780
0.448676 0.580530 0.072114
0.823728 0.524941 0.080491
0.974380 0.562264 0.094301
0.986923 0.458503 0.065278
0.994629 0.446616 0.064408
0.858961 0.850965 0.091524
0.831632 0.838865 0.081575
0.784253 0.816205 0.085847
0.672587 0.785977 0.087037
0.556390 0.748486 0.082200
0.686748 0.740505 0.091371
0.905974 0.715053 0.108690
0.987182 0.713146 0.135668
0.995270 0.673411 0.137560
0.945296 0.924590 0.112184
0.943160 0.921752 0.111025
0.936675 0.915831 0.110521
0.890867 0.904830 0.113344
0.787564 0.888701 0.106310
0.823117 0.878019 0.117998
0.929717 0.868727 0.141329
0.987778 0.861295 0.175296
0.996338 0.850248 0.193378
0.983993 0.956741 0.138689
0.983429 0.955657 0.136660
0.982940 0.954543 0.135653
0.971893 0.952773 0.139391
0.928710 0.946471 0.136706
0.914702 0.941085 0.149554
0.969116 0.938674 0.187320
0.991531 0.936019 0.223362
0.997452 0.929763 0.239887
0.021500 0.023621 0.108583
0.108522 0.021210 0.109651
0.215030 0.016327 0.112490
0.230594 0.015900 0.076722
0.243412 0.017807 0.031388
0.281895 0.017105 0.015595
0.357916 0.015198 0.012787
0.617639 0.010178 0.008728
0.759472 0.008972 0.007630
0.012512 0.071077 0.092775
0.063966 0.066926 0.072175
0.278264 0.068009 0.039796
0.434104 0.060472 0.025315
0.392920 0.041123 0.015412
0.405234 0.022431 0.010727
0.489235 0.012100 0.009751
0.622415 0.010193 0.008743
0.820401 0.008896 0.007309
0.034379 0.197818 0.065095
0.065919 0.170565 0.050599
0.207538 0.182635 0.043320
0.474708 0.175677 0.032532
0.596155 0.126833 0.013519
0.627741 0.090898 0.006271
0.688029 0.034516 0.005875
0.736675 0.010773 0.007736
0.851026 0.046113 0.005463
0.139178 0.318929 0.040635
0.126818 0.316289 0.042832
0.199695 0.331365 0.040070
0.356115 0.331579 0.051438
0.649424 0.266377 0.029572
0.746563 0.172641 0.006790
0.811475 0.134051 0.004990
0.829892 0.073869 0.005203
0.915190 0.107469 0.004868
0.346303 0.490822 0.039094
0.311849 0.478157 0.040421
0.343908 0.498619 0.043549
0.346502 0.484718 0.048600
0.560922 0.469413 0.068330
0.841749 0.401572 0.055070
0.950408 0.315068 0.022614
0.951919 0.228275 0.007599
0.954971 0.211795 0.005631
0.567163 0.690242 0.038437
0.564752 0.696452 0.035828
0.549264 0.672145 0.039963
0.466438 0.646983 0.052430
0.563973 0.637049 0.078172
0.834607 0.625681 0.094545
0.961715 0.567086 0.095247
0.988342 0.442084 0.060136
0.993027 0.369604 0.034730
0.862989 0.880095 0.054948
0.833310 0.882399 0.049348
0.800626 0.878355 0.042771
0.701457 0.834119 0.047868
0.676738 0.788922 0.081651
0.850813 0.787671 0.110857
0.975494 0.809125 0.150683
0.989410 0.721950 0.141268
0.994598 0.655482 0.130602
0.945205 0.929671 0.094469
0.943572 0.926040 0.097932
0.931945 0.922911 0.084001
0.885557 0.905165 0.091829
0.786847 0.886198 0.096040
0.809918 0.876707 0.112078
0.922911 0.877531 0.141390
0.983978 0.864836 0.166949
0.994537 0.849699 0.187839
0.982879 0.954971 0.132250
0.982269 0.954360 0.132708
0.982864 0.954589 0.134173
0.974212 0.952255 0.136477
0.935882 0.944686 0.134707
0.882780 0.935851 0.131655
0.933532 0.929839 0.158434
0.983230 0.924056 0.190982
0.994507 0.921798 0.224704
0.018296 0.021164 0.185077
0.068299 0.016953 0.229496
0.162203 0.014694 0.222217
0.219074 0.012863 0.231434
0.260471 0.011948 0.203525
0.306127 0.012039 0.123293
0.333562 0.013642 0.043839
0.547204 0.010986 0.010422
0.716594 0.009201 0.007843
0.008255 0.073610 0.232670
0.038483 0.058198 0.221103
0.207294 0.048905 0.196506
0.346746 0.028977 0.192523
0.378347 0.016526 0.156939
0.408026 0.013092 0.084657
0.420066 0.013245 0.019394
0.528008 0.011414 0.009247
0.700771 0.009323 0.007950
0.008927 0.191272 0.205859
0.043137 0.188617 0.199374
0.175113 0.150820 0.159991
0.368902 0.134798 0.119554
0.569955 0.114946 0.077470
0.640330 0.089418 0.036927
0.654185 0.048631 0.007263
0.659525 0.012207 0.008148
0.734554 0.009094 0.007752
0.066209 0.364965 0.153429
0.088609 0.346136 0.136385
0.209415 0.303563 0.125444
0.364309 0.321553 0.096300
0.652735 0.265812 0.074907
0.850126 0.193179 0.038331
0.893751 0.148592 0.009247
0.871672 0.102693 0.005142
0.853391 0.049805 0.005463
0.240085 0.534585 0.099046
0.232822 0.517632 0.088716
0.304875 0.498863 0.104967
0.406302 0.508247 0.080278
0.603311 0.488579 0.062638
0.915221 0.417990 0.046067
0.962539 0.301564 0.014160
0.955383 0.248478 0.006027
0.956909 0.204059 0.005783
0.448249 0.725093 0.079866
0.456565 0.720790 0.075578
0.466392 0.704387 0.082383
0.525948 0.690364 0.076158
0.617105 0.672679 0.050141
0.874022 0.634134 0.054551
0.978378 0.601526 0.053834
0.991272 0.501778 0.050904
0.993774 0.404547 0.042161
0.744564 0.901244 0.105913
0.719173 0.884169 0.091783
0.733257 0.875044 0.070878
0.739971 0.864530 0.059113
0.731319 0.857557 0.038956
0.879164 0.838178 0.071260
0.971206 0.827161 0.108705
0.990341 0.759609 0.133425
0.994766 0.620142 0.111879
0.939467 0.954665 0.092653
0.936629 0.952636 0.089189
0.915480 0.944808 0.084337
0.881758 0.933165 0.077226
0.865385 0.934752 0.043961
0.912077 0.921950 0.066651
0.976074 0.913970 0.130358
0.988037 0.886931 0.172793
0.996872 0.806470 0.160342
0.984344 0.973770 0.091981
0.984771 0.972381 0.090211
0.984665 0.970993 0.091661
0.975280 0.966171 0.090730
0.942901 0.955581 0.087465
0.921859 0.949905 0.095674
0.951614 0.942916 0.134127
0.973312 0.922087 0.180163
0.991775 0.913603 0.209598
0.016175 0.018891 0.280735
0.026734 0.017868 0.278584
0.082811 0.014832 0.274479
0.160937 0.012894 0.267552
0.208957 0.012360 0.259281
0.274922 0.010941 0.254643
0.338933 0.009537 0.219379
0.576623 0.008423 0.079591
0.754757 0.008377 0.012451
0.012818 0.031754 0.292851
0.028779 0.029114 0.294011
0.129290 0.028092 0.321889
0.249088 0.020615 0.297215
0.333196 0.011078 0.289708
0.382620 0.008392 0.250935
0.425452 0.008530 0.185351
0.516243 0.010132 0.042649
0.672023 0.009567 0.008225
0.030823 0.193256 0.392447
0.065324 0.172808 0.383383
0.119280 0.131029 0.309209
0.303593 0.100404 0.278248
0.486519 0.073732 0.235325
0.567056 0.037934 0.205463
0.638086 0.020859 0.132601
0.667842 0.009430 0.025864
0.681575 0.009445 0.008179
0.030579 0.406012 0.349767
0.067750 0.383215 0.367437
0.156512 0.325658 0.323857
0.308461 0.279072 0.280095
0.574914 0.243778 0.225086
0.752041 0.180575 0.166995
0.824430 0.118059 0.093080
0.879286 0.076051 0.022385
0.812772 0.029129 0.006210
0.121035 0.597940 0.289052
0.149752 0.538369 0.247776
0.222919 0.506401 0.233433
0.354864 0.475547 0.220081
0.553048 0.494148 0.181033
0.868666 0.439185 0.158236
0.956359 0.314626 0.115053
0.986450 0.240970 0.049088
0.979217 0.206302 0.009369
0.292042 0.731746 0.204028
0.301686 0.728847 0.199619
0.348074 0.710643 0.181399
0.441962 0.696788 0.181216
0.616373 0.712444 0.157259
0.851118 0.706279 0.135088
0.975967 0.635935 0.116716
0.994110 0.473777 0.060960
0.992782 0.345708 0.018433
0.560174 0.886305 0.190555
0.552193 0.878386 0.170260
0.573281 0.874907 0.153750
0.612451 0.864820 0.158373
0.699535 0.860014 0.155261
0.868742 0.869947 0.124865
0.972702 0.874022 0.108385
0.995743 0.801297 0.079088
0.997986 0.692546 0.058320
0.852979 0.952560 0.216526
0.826291 0.944839 0.190616
0.841154 0.940826 0.160311
0.851011 0.939071 0.141588
0.868467 0.938811 0.130632
0.908705 0.942535 0.094652
0.982681 0.939040 0.088685
0.994171 0.911727 0.107027
0.997787 0.868742 0.133150
0.950515 0.976761 0.207721
0.958724 0.977996 0.191196
0.958160 0.976913 0.181277
0.940887 0.970718 0.172290
0.942123 0.968490 0.155825
0.948959 0.971756 0.102129
0.987396 0.969100 0.092851
0.994064 0.947234 0.126986
0.996841 0.910292 0.174731
0.014206 0.016907 0.388998
0.015488 0.017563 0.341436
0.047547 0.013733 0.393088
0.117266 0.010834 0.403479
0.156878 0.010605 0.359213
0.207706 0.011200 0.298772
0.306218 0.009720 0.300618
0.567819 0.007218 0.227481
0.823880 0.007034 0.102800
0.013199 0.018067 0.421500
0.017456 0.016587 0.390768
0.067720 0.013489 0.427512
0.166232 0.013245 0.419547
0.219989 0.010224 0.365393
0.284352 0.008835 0.356283
0.337987 0.008759 0.312459
0.482307 0.008103 0.173251
0.666102 0.009171 0.013993
0.001663 0.162646 0.560464
0.016373 0.131075 0.594751
0.071336 0.095277 0.519997
0.219715 0.072984 0.454566
0.398260 0.039582 0.420905
0.484688 0.012299 0.377493
0.504265 0.007507 0.276631
0.603647 0.007034 0.176028
0.716152 0.008469 0.031525
0.011109 0.386908 0.683406
0.044114 0.343389 0.651286
0.105882 0.292943 0.572869
0.203677 0.249729 0.499855
0.416587 0.210437 0.425208
0.582452 0.153765 0.356832
0.695720 0.082795 0.265614
0.854520 0.033600 0.142275
0.912581 0.013306 0.047669
0.077516 0.677394 0.662028
0.126574 0.621134 0.628305
0.179889 0.569345 0.591913
0.273228 0.523293 0.531212
0.467735 0.462974 0.479026
0.760464 0.417777 0.406775
0.892180 0.307485 0.308858
0.951507 0.203006 0.172717
0.988128 0.168383 0.071168
0.197360 0.802976 0.518517
0.210193 0.781888 0.496452
0.250721 0.740139 0.422736
0.321263 0.706233 0.378637
0.494743 0.684611 0.367285
0.750225 0.709239 0.339376
0.943771 0.674723 0.311696
0.981491 0.513024 0.235828
0.991043 0.373190 0.146777
0.393561 0.879286 0.384909
0.384237 0.875303 0.363180
0.407736 0.877104 0.367239
0.453941 0.863035 0.298024
0.586419 0.859083 0.309178
0.793393 0.870939 0.305943
0.942794 0.874144 0.282277
0.989273 0.822904 0.236561
0.995468 0.679454 0.182055
0.702907 0.948394 0.377966
0.696162 0.939895 0.287419
0.685847 0.936965 0.273121
0.691295 0.935897 0.257282
0.746120 0.933623 0.268559
0.855024 0.937987 0.273854
0.951858 0.939895 0.265126
0.991592 0.922469 0.195132
0.997848 0.880613 0.146807
0.866529 0.972778 0.365698
0.885801 0.974746 0.338384
0.890974 0.971588 0.293736
0.887419 0.967697 0.268788
0.890410 0.967361 0.243000
0.915862 0.967025 0.226352
0.957595 0.968063 0.164843
0.993149 0.960479 0.124102
0.997894 0.950820 0.129305
0.011978 0.013687 0.574121
0.012573 0.015091 0.490105
0.014664 0.014664 0.495811
0.052537 0.011307 0.530709
0.104479 0.010163 0.479255
0.114214 0.010376 0.438392
0.212497 0.009522 0.370321
0.663905 0.006973 0.455238
0.882689 0.006607 0.345647
0.011795 0.013748 0.587686
0.012070 0.013687 0.569192
0.027649 0.011948 0.611185
0.098878 0.009262 0.589746
0.171084 0.008225 0.560647
0.186084 0.008347 0.500496
0.226658 0.008377 0.436774
0.375402 0.008118 0.322805
0.784039 0.006851 0.162875
0.001022 0.115785 0.729320
0.002411 0.064988 0.749905
0.023407 0.046326 0.792523
0.150546 0.024262 0.756069
0.273594 0.015366 0.682063
0.301472 0.007568 0.566918
0.356878 0.007477 0.481102
0.549722 0.007187 0.369833
0.741588 0.006912 0.145449
0.000961 0.361379 0.853147
0.006683 0.306630 0.878309
0.042756 0.268818 0.849317
0.130877 0.220172 0.756390
0.299046 0.182483 0.666758
0.436393 0.118502 0.612375
0.575845 0.060365 0.555688
0.792920 0.020417 0.373205
0.934752 0.008835 0.199329
0.042359 0.640162 0.928649
0.073945 0.562295 0.893858
0.119738 0.528618 0.847990
0.179751 0.482597 0.797253
0.327916 0.427787 0.730602
0.535454 0.369726 0.653880
0.718166 0.295171 0.576059
0.897444 0.200381 0.401266
0.982559 0.148562 0.210895
0.163607 0.853147 0.846693
0.184146 0.832776 0.838697
0.233539 0.793500 0.804028
0.288594 0.765820 0.768231
0.412634 0.730205 0.727459
0.672541 0.685466 0.693599
0.877287 0.648829 0.637095
0.945357 0.527413 0.509499
0.981201 0.403800 0.334356
0.309789 0.910491 0.708492
0.291005 0.904662 0.748592
0.305730 0.891981 0.681392
0.345480 0.875593 0.622263
0.432364 0.859739 0.580209
0.667964 0.846723 0.575769
0.888624 0.863554 0.556115
0.974365 0.840986 0.502647
0.988006 0.755184 0.413367
0.564034 0.942367 0.628779
0.513176 0.932494 0.541924
0.495872 0.926787 0.534829
0.511421 0.922683 0.496300
0.575967 0.921157 0.460197
0.721736 0.926909 0.462943
0.896635 0.934157 0.461357
0.982788 0.928038 0.428244
0.992050 0.917205 0.378027
0.748379 0.965591 0.583535
0.773617 0.967269 0.541390
0.755886 0.960754 0.449729
0.754864 0.959472 0.424735
0.766888 0.960662 0.389044
0.818112 0.966934 0.359854
0.887861 0.962371 0.359213
0.959838 0.957717 0.306706
0.994232 0.962921 0.305348
0.010254 0.011597 0.781979
0.010681 0.012009 0.737163
0.010925 0.012253 0.706111
0.015808 0.011612 0.743450
0.041901 0.010071 0.733608
0.059251 0.009628 0.699992
0.201526 0.006744 0.745769
0.587411 0.007034 0.736599
0.903792 0.006943 0.661952
0.010925 0.012268 0.705974
0.010941 0.012284 0.704570
0.011154 0.012177 0.713176
0.054108 0.009277 0.774517
0.131304 0.007279 0.744289
0.149310 0.007263 0.717418
0.133303 0.008209 0.639292
0.293324 0.007034 0.612253
0.923018 0.006806 0.607385
0.001831 0.064881 0.820081
0.003403 0.049149 0.837324
0.006760 0.026184 0.837186
0.078004 0.013870 0.948684
0.211170 0.007355 0.888426
0.252064 0.006287 0.815152
0.242451 0.006607 0.719722
0.426246 0.006928 0.632807
0.767788 0.006912 0.466484
0.000519 0.306691 0.893248
0.000565 0.266285 0.875425
0.001053 0.241596 0.916808
0.043732 0.197635 0.949416
0.186435 0.152575 0.875990
0.323095 0.100069 0.872755
0.407874 0.041703 0.843503
0.650599 0.015976 0.802304
0.941711 0.007858 0.532845
0.009430 0.631266 0.980041
0.022766 0.583307 0.978408
0.056580 0.522713 0.965652
0.110246 0.455360 0.942931
0.227008 0.412055 0.900236
0.389410 0.352331 0.830152
0.504738 0.282963 0.790265
0.752712 0.209003 0.744045
0.974166 0.135271 0.479576
0.106996 0.831907 0.941192
0.138064 0.807904 0.941482
0.177264 0.764828 0.921782
0.232258 0.734997 0.903197
0.325948 0.700816 0.879667
0.532677 0.662379 0.853712
0.690959 0.604212 0.810636
0.850843 0.521859 0.769833
0.947295 0.410605 0.642969
0.247898 0.932586 0.909850
0.278904 0.912947 0.919738
0.289143 0.906126 0.902678
0.325002 0.889113 0.881865
0.416342 0.877775 0.869795
0.607813 0.865324 0.855512
0.837003 0.851011 0.845747
0.937591 0.823682 0.807553
0.968856 0.759274 0.733425
0.444236 0.953613 0.863737
0.389517 0.946685 0.871504
0.368811 0.941726 0.855512
0.389456 0.937560 0.824765
0.447959 0.930724 0.791897
0.594781 0.923369 0.759930
0.804120 0.918532 0.747387
0.945296 0.929458 0.739010
0.983078 0.922927 0.709972
0.629740 0.966293 0.811490
0.653971 0.964508 0.760586
0.558648 0.949920 0.712276
0.570352 0.953353 0.729091
0.608621 0.952651 0.679942
0.666773 0.952605 0.612711
0.779507 0.957000 0.578668
0.926802 0.959014 0.576806
0.985229 0.963714 0.620295
0.009781 0.011124 0.833936
0.009812 0.011139 0.831968
0.009827 0.011154 0.829908
0.012024 0.010575 0.884611
0.021256 0.009934 0.889220
0.032685 0.009277 0.888075
0.171649 0.006088 0.858473
0.414466 0.006058 0.867781
0.765057 0.007065 0.877806
0.009918 0.011261 0.818830
0.010239 0.011582 0.782681
0.010208 0.011551 0.786007
0.024079 0.010071 0.875273
0.103685 0.006760 0.850629
0.131670 0.006165 0.848493
0.179232 0.006058 0.853193
0.276982 0.006378 0.788067
0.881315 0.007431 0.878416
0.004929 0.031098 0.857450
0.004593 0.032654 0.856596
0.006912 0.022400 0.861891
0.022232 0.013001 0.986801
0.124575 0.007141 0.929839
0.199908 0.005966 0.894072
0.223636 0.005890 0.870268
0.305013 0.006165 0.815167
0.778714 0.007279 0.831937
0.000488 0.262119 0.919173
0.000473 0.249302 0.914748
0.000488 0.213291 0.902510
0.003632 0.151141 0.976394
0.095308 0.148806 0.966690
0.208728 0.107759 0.958328
0.329519 0.054475 0.966369
0.487877 0.020340 0.962005
0.877394 0.009827 0.921294
0.001572 0.607507 0.966873
0.004089 0.571710 0.983200
0.009827 0.512261 0.986938
0.037263 0.417792 0.982086
0.151049 0.383673 0.958358
0.290608 0.365164 0.922484
0.410895 0.310155 0.902388
0.535668 0.245075 0.890120
0.887251 0.133974 0.886091
0.053803 0.831464 0.980728
0.125795 0.812634 0.969375
0.139208 0.766674 0.964126
0.212421 0.731807 0.949584
0.293248 0.685283 0.934844
0.473274 0.662196 0.911910
0.601465 0.611887 0.885145
0.685939 0.550515 0.871168
0.871229 0.444389 0.851987
0.211719 0.933303 0.956298
0.291646 0.905882 0.949813
0.277653 0.898939 0.948363
0.337438 0.885298 0.937407
0.439048 0.866239 0.929808
0.584634 0.853971 0.921569
0.766278 0.837278 0.910475
0.844434 0.812985 0.893965
0.919844 0.774960 0.878401
0.373983 0.960220 0.944396
0.373602 0.953902 0.938689
0.386236 0.944457 0.936233
0.410040 0.940459 0.930541
0.502693 0.933730 0.925505
0.636851 0.930083 0.920668
0.787823 0.926680 0.913924
0.916320 0.921645 0.909895
0.957931 0.916533 0.902007
0.541985 0.970855 0.928420
0.560098 0.970901 0.913603
0.472923 0.962295 0.899886
0.469154 0.960388 0.912581
0.563973 0.961501 0.910277
0.623804 0.957549 0.896330
0.708293 0.955016 0.862577
0.883116 0.953994 0.856107
0.965927 0.959411 0.878904
0.009537 0.010880 0.854231
0.009552 0.010880 0.853986
0.009552 0.010880 0.853834
0.011856 0.010132 0.897688
0.027115 0.009125 0.899779
0.033341 0.008820 0.898131
0.117678 0.006226 0.868986
0.275959 0.005707 0.886503
0.531212 0.006195 0.899763
0.009232 0.010681 0.862684
0.009216 0.010544 0.863584
0.009033 0.010300 0.871199
0.088060 0.006363 0.886625
0.121172 0.005982 0.888975
0.097383 0.006577 0.880781
0.239063 0.005646 0.889204
0.443687 0.006027 0.887007
0.647913 0.006577 0.906538
0.000748 0.093797 0.882353
0.009033 0.011337 0.867506
0.009384 0.012894 0.855894
0.009369 0.012238 0.887175
0.092927 0.007462 0.947799
0.128740 0.006500 0.930999
0.197055 0.005615 0.902083
0.401343 0.005951 0.897414
0.693980 0.006653 0.924025
0.000534 0.323064 0.949950
0.000519 0.163027 0.896651
0.000534 0.157183 0.893553
0.002075 0.162219 0.984649
0.073655 0.146746 0.986740
0.172457 0.129732 0.976257
0.260243 0.095796 0.977447
0.379034 0.063645 0.976730
0.694682 0.051499 0.973053
0.001373 0.624720 0.977203
0.001617 0.546258 0.973312
0.006226 0.493767 0.986709
0.017594 0.428092 0.988739
0.096941 0.370703 0.985489
0.278828 0.383490 0.953872
0.367407 0.340475 0.935576
0.465217 0.299733 0.925368
0.640253 0.243320 0.914702
0.035630 0.898680 0.987900
0.154849 0.836316 0.977020
0.148486 0.766064 0.974426
0.190860 0.714153 0.968353
0.235889 0.653025 0.958129
0.458442 0.663661 0.936309
0.571878 0.637369 0.919921
0.660990 0.609201 0.904219
0.743023 0.556191 0.892714
0.176013 0.930816 0.977890
0.239872 0.902007 0.968582
0.376135 0.896361 0.958404
0.445151 0.882750 0.953658
0.506203 0.865156 0.946746
0.632975 0.854688 0.940917
0.766842 0.847181 0.933104
0.831785 0.839765 0.924361
0.867750 0.824445 0.911925
0.319097 0.955535 0.972183
0.338613 0.956146 0.967071
0.483192 0.945418 0.956283
0.483787 0.935912 0.953811
0.616342 0.932845 0.948791
0.692988 0.923232 0.945449
0.813947 0.920409 0.941649
0.906661 0.920272 0.937072
0.935134 0.925628 0.932128
0.459937 0.972808 0.963958
0.480262 0.973098 0.957519
0.541756 0.970657 0.955825
0.599405 0.962112 0.951141
0.589471 0.958755 0.948837
0.617700 0.952438 0.943114
0.736248 0.950790 0.941146
0.900847 0.954543 0.942168
0.956527 0.955596 0.944488
