tools/luts_backup/Kodak Vision3 50D 5203 (NEG)_CIN.cube
# (C) 2014 VisionColor & Patchflyer [www.vision-color.com]
# Generator: VC Patchmatch v.2.1.1 [64/53]
# All work and no play makes Jack a dull boy.
# LUT generated from: Kodak Vision3 50D 5203 (NEG)_Cineon
LUT_3D_SIZE 5
0.076951 0.076951 0.076951
0.288243 0.095644 0.098039
0.434394 0.115343 0.115023
0.529717 0.144015 0.130404
0.588434 0.150271 0.150408
0.142046 0.318593 0.157824
0.312139 0.336263 0.123934
0.452598 0.347402 0.123110
0.554238 0.381781 0.152743
0.619410 0.448524 0.205005
0.158587 0.473625 0.193668
0.285527 0.488121 0.171054
0.450874 0.496773 0.157244
0.563531 0.510277 0.186969
0.629572 0.534554 0.235630
0.182834 0.564294 0.260197
0.259373 0.570413 0.268193
0.422187 0.579248 0.258305
0.547158 0.580270 0.235050
0.633204 0.587320 0.264134
0.214939 0.611872 0.323293
0.361166 0.621683 0.351095
0.533837 0.636698 0.370474
0.602426 0.639292 0.379431
0.642695 0.638331 0.359823
0.087999 0.068452 0.246586
0.253239 0.079881 0.239521
0.418906 0.105135 0.255406
0.524178 0.126726 0.246601
0.590448 0.147189 0.245411
0.113802 0.273686 0.304784
0.310918 0.305562 0.316457
0.477791 0.214893 0.188800
0.555581 0.226383 0.202411
0.598337 0.228031 0.214237
0.150210 0.477974 0.345251
0.282368 0.515175 0.287251
0.497429 0.531136 0.287572
0.591928 0.516457 0.270512
0.618128 0.461570 0.253300
0.210544 0.576211 0.379065
0.304906 0.579904 0.383948
0.498604 0.593881 0.369696
0.607492 0.604273 0.405356
0.632136 0.573877 0.314290
0.297002 0.623194 0.451545
0.342718 0.621180 0.439643
0.524102 0.632975 0.459434
0.605173 0.641108 0.471382
0.647898 0.642832 0.473564
0.090303 0.086137 0.402564
0.260319 0.085634 0.399283
0.428336 0.101839 0.393866
0.531823 0.124712 0.388098
0.591684 0.142382 0.357977
0.097429 0.221592 0.437217
0.152331 0.150332 0.460441
0.494011 0.178836 0.447883
0.555459 0.191333 0.355062
0.599512 0.212909 0.335424
0.120104 0.440925 0.462669
0.255543 0.503899 0.509453
0.502831 0.502678 0.504158
0.574197 0.351080 0.321675
0.628214 0.448203 0.395407
0.260731 0.585977 0.515297
0.370703 0.593317 0.512810
0.535760 0.604761 0.531640
0.613382 0.608515 0.521233
0.643229 0.590143 0.475578
0.399649 0.634470 0.552804
0.433906 0.630915 0.545571
0.529427 0.634928 0.551446
0.610529 0.644526 0.558282
0.650889 0.646510 0.558038
0.092668 0.097154 0.510552
0.257496 0.095720 0.514412
0.460960 0.113054 0.515679
0.548211 0.133639 0.502129
0.600046 0.152926 0.494133
0.100191 0.182010 0.523400
0.145266 0.150103 0.528725
0.442832 0.166583 0.548104
0.575525 0.217594 0.547341
0.606180 0.231388 0.492012
0.116289 0.384817 0.538903
0.163409 0.304463 0.546960
0.261753 0.233677 0.544793
0.587625 0.395972 0.571481
0.631678 0.453422 0.559884
0.193591 0.556100 0.565713
0.341833 0.586557 0.592569
0.470985 0.593118 0.596231
0.597177 0.597360 0.596109
0.650309 0.591608 0.592218
0.336553 0.630625 0.593256
0.466514 0.635935 0.601816
0.547280 0.639979 0.601984
0.609903 0.645823 0.602869
0.652247 0.649790 0.603632
0.091661 0.098192 0.566064
0.213840 0.097139 0.568933
0.433921 0.117281 0.585016
0.558938 0.148013 0.590021
0.610010 0.172381 0.590204
0.098482 0.178210 0.573556
0.165103 0.167529 0.577783
0.401755 0.177371 0.593042
0.565072 0.229923 0.601358
0.619440 0.300969 0.606714
0.115343 0.316686 0.584268
0.173770 0.254841 0.584024
0.381292 0.256535 0.598459
0.579065 0.427314 0.621805
0.632975 0.501137 0.628504
0.153750 0.514534 0.605936
0.243885 0.481834 0.610483
0.462501 0.528603 0.627497
0.591272 0.570306 0.639857
0.646189 0.596994 0.643946
0.283955 0.621485 0.626551
0.390143 0.627207 0.630167
0.523766 0.637949 0.640528
0.603571 0.647395 0.647883
0.654994 0.653010 0.653834
