tools/luts_backup/Kodak Ektar 100_FPE.cube
# (C) 2014 VisionColor & Patchflyer [www.vision-color.com]
# Generator: VC Patchmatch v.2.1.1 [64/53]
# All work and no play makes Jack a dull boy.
# LUT generated from: Kodak Ektar 100_FPE
LUT_3D_SIZE 17
0.033692 0.031968 0.032746
0.042374 0.034989 0.034989
0.060304 0.039231 0.036942
0.088914 0.045014 0.039994
0.121386 0.051118 0.044053
0.163638 0.057877 0.047669
0.216068 0.062470 0.049851
0.267170 0.063416 0.051438
0.309255 0.062562 0.052094
0.346761 0.062577 0.053162
0.385489 0.063767 0.054215
0.426383 0.068177 0.057542
0.467826 0.077180 0.062409
0.502266 0.087785 0.065782
0.529030 0.095567 0.069184
0.535927 0.091096 0.070222
0.527443 0.077043 0.073335
0.036912 0.043198 0.040375
0.044053 0.044038 0.039719
0.065248 0.051408 0.041352
0.095506 0.060548 0.044755
0.128603 0.069337 0.048173
0.171695 0.077745 0.050217
0.228244 0.087633 0.051850
0.289067 0.097261 0.053696
0.339605 0.104097 0.054841
0.381186 0.105913 0.055741
0.424216 0.108782 0.056916
0.470039 0.118761 0.060487
0.515618 0.137270 0.064866
0.557748 0.161547 0.069291
0.590539 0.178073 0.074250
0.595605 0.166735 0.076570
0.572641 0.124239 0.080232
0.041550 0.065232 0.051331
0.049668 0.068467 0.049042
0.068742 0.076875 0.050111
0.103151 0.089204 0.052522
0.141146 0.102678 0.054414
0.185977 0.114870 0.055802
0.247562 0.130846 0.056016
0.317754 0.147189 0.055665
0.372564 0.157626 0.055451
0.415946 0.162081 0.055329
0.459525 0.167575 0.056168
0.508034 0.181888 0.060166
0.561227 0.209323 0.066224
0.610010 0.244923 0.072694
0.650126 0.280308 0.079591
0.674449 0.301320 0.085863
0.671504 0.284703 0.089418
0.044709 0.104402 0.071672
0.050523 0.105318 0.066575
0.066438 0.110567 0.063798
0.099596 0.122316 0.061707
0.144259 0.138277 0.060426
0.187701 0.149737 0.059220
0.242557 0.163256 0.056580
0.319188 0.186892 0.055680
0.390280 0.208972 0.055283
0.445487 0.220050 0.055573
0.495933 0.229129 0.057542
0.548287 0.249989 0.062867
0.601328 0.280232 0.069734
0.652445 0.320546 0.080125
0.694179 0.363134 0.091051
0.724971 0.402564 0.104463
0.748165 0.429526 0.119341
0.045518 0.148226 0.089998
0.054704 0.149187 0.081804
0.062547 0.148882 0.075837
0.084977 0.155383 0.073060
0.128145 0.167575 0.067506
0.177340 0.183078 0.062638
0.224369 0.190341 0.057969
0.288869 0.206577 0.054948
0.379553 0.241688 0.055253
0.460136 0.273030 0.057069
0.523339 0.293919 0.062089
0.582101 0.319799 0.068956
0.635996 0.351247 0.078157
0.684031 0.389013 0.090028
0.728191 0.432258 0.106386
0.764584 0.480064 0.128344
0.792493 0.526146 0.155810
0.042725 0.184451 0.097032
0.052461 0.190158 0.088151
0.062684 0.193225 0.082292
0.077394 0.196796 0.077501
0.107240 0.203845 0.073091
0.162814 0.218235 0.065736
0.213214 0.228458 0.060807
0.264240 0.234668 0.057404
0.355734 0.267872 0.056855
0.455924 0.312703 0.059709
0.535073 0.347051 0.067231
0.603311 0.380224 0.076753
0.663767 0.413779 0.088945
0.713726 0.447791 0.102998
0.757488 0.489906 0.126177
0.795956 0.542046 0.157382
0.825086 0.598367 0.199130
0.040223 0.215671 0.100847
0.049805 0.226047 0.091661
0.063798 0.233478 0.085649
0.077485 0.239872 0.081315
0.102083 0.250309 0.077562
0.142931 0.259220 0.073365
0.210300 0.278004 0.064332
0.268223 0.287709 0.060410
0.342046 0.308476 0.059693
0.448905 0.351934 0.064958
0.533852 0.389181 0.072282
0.607202 0.423011 0.083375
0.672404 0.457038 0.097490
0.728649 0.491539 0.115999
0.775494 0.531029 0.141390
0.810422 0.579843 0.176394
0.844404 0.643778 0.237049
0.040757 0.246036 0.109483
0.046311 0.261143 0.104814
0.056825 0.269490 0.097063
0.070695 0.277241 0.090059
0.093187 0.289204 0.085069
0.132570 0.304814 0.082063
0.195193 0.321050 0.074922
0.274846 0.343008 0.067353
0.349126 0.359716 0.064393
0.438041 0.391501 0.068971
0.526101 0.425772 0.078004
0.599069 0.454658 0.089311
0.666270 0.482414 0.102983
0.722988 0.512993 0.120790
0.775525 0.549737 0.145693
0.811109 0.590036 0.180636
0.843748 0.644694 0.240955
0.041779 0.275975 0.124544
0.045594 0.292180 0.124071
0.049546 0.300908 0.119738
0.056977 0.308919 0.113558
0.073136 0.321920 0.105699
0.104326 0.337591 0.098909
0.165209 0.359609 0.092241
0.247822 0.378897 0.079225
0.335576 0.398322 0.071458
0.424659 0.422400 0.073411
0.507164 0.450294 0.079774
0.575219 0.474357 0.090883
0.642084 0.494255 0.103944
0.698222 0.511589 0.115770
0.750607 0.538430 0.134417
0.794461 0.569360 0.162997
0.826627 0.606867 0.209842
0.043671 0.305821 0.146715
0.046616 0.321675 0.147036
0.047913 0.328359 0.144778
0.050416 0.336690 0.142824
0.055924 0.348806 0.137682
0.073625 0.365301 0.129732
0.117906 0.388800 0.121920
0.197009 0.412879 0.111589
0.285405 0.427436 0.092393
0.376440 0.443458 0.082094
0.473228 0.468299 0.085069
0.542092 0.487068 0.091264
0.595499 0.497078 0.098161
0.657237 0.505653 0.108751
0.710140 0.515984 0.118868
0.767254 0.540581 0.140597
0.812131 0.576516 0.181521
0.045747 0.340276 0.175296
0.047044 0.350530 0.174594
0.047776 0.355215 0.171817
0.049485 0.360662 0.170840
0.052140 0.368719 0.168688
0.058579 0.382376 0.166308
0.078630 0.406821 0.164263
0.140169 0.438056 0.162249
0.227588 0.460868 0.150500
0.316289 0.469963 0.119554
0.399069 0.477974 0.097459
0.492134 0.497307 0.094682
0.551141 0.504860 0.096986
0.603738 0.505837 0.101915
0.672419 0.513054 0.113313
0.748409 0.538628 0.136675
0.819333 0.587396 0.185763
0.048173 0.376303 0.207553
0.048676 0.377752 0.204456
0.049836 0.381506 0.202106
0.051041 0.384955 0.201648
0.052277 0.389319 0.201175
0.055222 0.397482 0.204334
0.065675 0.416037 0.208865
0.098924 0.450980 0.217960
0.167514 0.483940 0.220600
0.256031 0.500145 0.199115
0.345525 0.505562 0.155993
0.419928 0.504814 0.119921
0.511589 0.517906 0.108843
0.578073 0.524178 0.108736
0.651560 0.533898 0.122011
0.745693 0.564431 0.150576
0.835660 0.621363 0.215106
0.053468 0.408209 0.241276
0.053956 0.408637 0.237064
0.053910 0.408560 0.232212
0.054795 0.410666 0.231373
0.056001 0.414496 0.232944
0.058854 0.423285 0.244144
0.066239 0.438437 0.260517
0.085237 0.465492 0.277974
0.137346 0.501595 0.290715
0.209094 0.526650 0.279072
0.301488 0.535058 0.239963
0.396735 0.541024 0.191516
0.488121 0.547585 0.157427
0.589059 0.561242 0.146029
0.677012 0.580667 0.160678
0.772122 0.612375 0.191196
0.848508 0.656916 0.260594
0.059983 0.440665 0.281804
0.060594 0.440909 0.277028
0.060060 0.438743 0.268986
0.060456 0.439017 0.265461
0.062745 0.443412 0.268086
0.069535 0.457130 0.285359
0.080858 0.479271 0.318517
0.103273 0.504738 0.350240
0.147677 0.535348 0.371008
0.221241 0.561807 0.360693
0.308476 0.574945 0.322530
0.417533 0.585580 0.282445
0.520439 0.597086 0.246448
0.625345 0.616053 0.239109
0.726757 0.637217 0.245441
0.808225 0.667002 0.280278
0.855650 0.690105 0.315770
0.069963 0.470741 0.321736
0.070115 0.469642 0.317205
0.070436 0.469596 0.312154
0.071122 0.470390 0.309834
0.074372 0.476020 0.312642
0.085161 0.490333 0.329702
0.115724 0.525536 0.375921
0.169726 0.569436 0.432563
0.238865 0.601892 0.467750
0.327245 0.624506 0.464775
0.414969 0.635462 0.426123
0.502831 0.642618 0.381994
0.598489 0.656413 0.361608
0.683757 0.671031 0.357153
0.758984 0.687037 0.369238
0.826886 0.704158 0.376272
0.855909 0.713344 0.374838
0.073350 0.483635 0.346456
0.074708 0.485588 0.346120
0.075212 0.486030 0.344305
0.077150 0.489281 0.346517
0.089433 0.503670 0.357046
0.113313 0.527855 0.377997
0.166857 0.566751 0.419165
0.277684 0.621210 0.482216
0.414038 0.671839 0.542092
0.514794 0.701869 0.566003
0.584298 0.711742 0.543130
0.641917 0.715251 0.504601
0.705608 0.724727 0.493446
0.758694 0.732967 0.495140
0.801999 0.737652 0.486503
0.836851 0.742199 0.478691
0.855421 0.735058 0.447288
0.074006 0.490181 0.371847
0.074281 0.489738 0.367605
0.074968 0.491478 0.371359
0.083864 0.502037 0.377829
0.109483 0.529564 0.396872
0.164599 0.569848 0.425010
0.255314 0.611170 0.455924
0.379522 0.654734 0.492561
0.501167 0.695506 0.531594
0.596429 0.721325 0.557290
0.658488 0.736889 0.569635
0.708293 0.749950 0.578439
0.752285 0.758709 0.582620
0.789822 0.764828 0.581659
0.810040 0.761532 0.567437
0.837156 0.761639 0.547921
0.865888 0.769146 0.542870
0.033448 0.031601 0.032914
0.040208 0.033860 0.035065
0.058152 0.038392 0.037675
0.082185 0.043397 0.040665
0.110582 0.048737 0.044877
0.145068 0.053819 0.048508
0.193942 0.059678 0.052033
0.246967 0.062028 0.054307
0.289799 0.059922 0.053758
0.331212 0.059968 0.053635
0.374105 0.062715 0.055268
0.412360 0.063691 0.057862
0.451148 0.066377 0.062303
0.481483 0.070603 0.065324
0.509804 0.076158 0.070512
0.524285 0.079042 0.073304
0.531441 0.080797 0.074403
0.035752 0.040406 0.042145
0.040925 0.041337 0.042115
0.076905 0.045197 0.040528
0.117800 0.051194 0.044190
0.160143 0.057191 0.047272
0.211292 0.061936 0.049393
0.261692 0.062974 0.050828
0.304265 0.061784 0.051316
0.347402 0.061921 0.052873
0.387808 0.064012 0.054597
0.425559 0.068879 0.057557
0.465492 0.077592 0.061692
0.498787 0.086213 0.064714
0.525231 0.093477 0.069306
0.536233 0.092973 0.073472
0.538674 0.089708 0.077699
0.562997 0.117479 0.080003
0.038972 0.060319 0.057710
0.044053 0.084916 0.063508
0.083726 0.098405 0.058289
0.135668 0.099031 0.054139
0.182132 0.102846 0.053681
0.238560 0.109468 0.053620
0.298329 0.116732 0.054337
0.345663 0.119936 0.055009
0.388602 0.121065 0.055894
0.433570 0.124910 0.057450
0.478676 0.134066 0.060517
0.522957 0.151293 0.064958
0.563531 0.173709 0.069551
0.592172 0.187457 0.074342
0.599970 0.180026 0.077409
0.595407 0.159289 0.079942
0.617090 0.191882 0.082582
0.041474 0.095171 0.079149
0.044114 0.140597 0.086503
0.064637 0.144427 0.074784
0.123842 0.160754 0.065965
0.183917 0.156664 0.059571
0.240620 0.161196 0.056245
0.316533 0.176883 0.055665
0.381353 0.186862 0.055207
0.430549 0.190173 0.055131
0.477958 0.198032 0.056611
0.528389 0.214343 0.061341
0.576379 0.237690 0.067002
0.622827 0.270512 0.074403
0.661830 0.304326 0.082887
0.683970 0.323445 0.088640
0.689128 0.318471 0.093935
0.679576 0.299382 0.092073
0.040192 0.137743 0.103944
0.043198 0.182101 0.096330
0.056931 0.187808 0.085100
0.086488 0.195346 0.076326
0.162814 0.215900 0.064790
0.218219 0.206638 0.059174
0.291157 0.216388 0.055833
0.381415 0.242084 0.055634
0.455711 0.261982 0.056703
0.513710 0.277150 0.060227
0.568612 0.296544 0.066270
0.620340 0.322683 0.074220
0.667018 0.357031 0.085176
0.707591 0.397162 0.097627
0.739086 0.433738 0.114015
0.751156 0.443839 0.121645
0.728298 0.390112 0.109834
0.039673 0.178363 0.120211
0.041062 0.214954 0.101457
0.056565 0.227497 0.089876
0.076036 0.236713 0.082765
0.120562 0.253193 0.077256
0.212573 0.278630 0.065751
0.270314 0.267689 0.060548
0.361761 0.286824 0.058717
0.454124 0.317098 0.060334
0.531029 0.344228 0.066560
0.597192 0.371145 0.075105
0.653407 0.398718 0.085344
0.703410 0.432868 0.099397
0.745830 0.472343 0.120058
0.780240 0.515038 0.145006
0.794598 0.531273 0.159121
0.761395 0.458244 0.128878
0.038270 0.214420 0.130373
0.041276 0.247745 0.112276
0.049302 0.263233 0.103288
0.064988 0.273960 0.093782
0.097108 0.290242 0.086198
0.165454 0.314382 0.079850
0.274632 0.343114 0.069429
0.349371 0.341650 0.062943
0.442008 0.365652 0.066392
0.528771 0.394598 0.073701
0.604105 0.424094 0.083787
0.668833 0.453071 0.096788
0.724285 0.487755 0.115404
0.771115 0.525750 0.139940
0.805234 0.567361 0.170977
0.819791 0.588510 0.194903
0.783536 0.505959 0.149447
0.038987 0.244800 0.139834
0.042344 0.279606 0.127642
0.046784 0.293462 0.122408
0.051835 0.305806 0.117464
0.072435 0.321477 0.106676
0.122652 0.345800 0.098528
0.216419 0.373709 0.087022
0.327825 0.395956 0.072877
0.426596 0.412039 0.072114
0.509316 0.433402 0.078248
0.588769 0.458457 0.090501
0.658228 0.482521 0.102281
0.718242 0.510735 0.119768
0.770535 0.547219 0.145541
0.809110 0.584146 0.178058
0.826215 0.605936 0.209567
0.791730 0.528069 0.159442
0.041138 0.277409 0.155840
0.044938 0.311376 0.147982
0.046723 0.319875 0.145800
0.048661 0.332433 0.143908
0.054612 0.344320 0.137255
0.080171 0.368551 0.129503
0.150835 0.400504 0.120409
0.263249 0.426017 0.100038
0.370703 0.440818 0.082918
0.478553 0.463401 0.083894
0.550103 0.477378 0.089342
0.621714 0.494728 0.101167
0.685420 0.509209 0.112505
0.741665 0.532036 0.131930
0.786480 0.559670 0.157534
0.807904 0.573419 0.179690
0.773983 0.505089 0.143374
0.043275 0.311498 0.179095
0.046326 0.344396 0.176333
0.047364 0.349355 0.174090
0.048264 0.357198 0.172061
0.051743 0.365789 0.169116
0.059861 0.383062 0.166979
0.092500 0.416495 0.165515
0.182559 0.449668 0.156832
0.296757 0.468727 0.128725
0.399191 0.476265 0.097398
0.501350 0.492164 0.093202
0.570748 0.500740 0.096956
0.638514 0.507759 0.107164
0.701656 0.516915 0.119326
0.757580 0.534798 0.138445
0.786450 0.541756 0.156390
0.737377 0.458396 0.117327
0.045228 0.344198 0.205509
0.048096 0.375830 0.207340
0.049775 0.379889 0.205081
0.050568 0.383444 0.202487
0.052399 0.389136 0.201740
0.056168 0.399191 0.205035
0.071977 0.424735 0.212940
0.123049 0.465553 0.220539
0.220172 0.492424 0.206226
0.329412 0.504189 0.165377
0.427893 0.506188 0.120745
0.526818 0.516854 0.107408
0.596033 0.520775 0.107622
0.672786 0.529610 0.122744
0.744823 0.547463 0.141909
0.795331 0.562799 0.167773
0.738537 0.470237 0.121691
0.047868 0.377890 0.238926
0.053864 0.409384 0.242695
0.054032 0.407889 0.237186
0.054612 0.410346 0.232334
0.056184 0.414328 0.232288
0.058854 0.422370 0.241108
0.069200 0.442573 0.262455
0.101579 0.478737 0.283848
0.174441 0.515496 0.286030
0.277668 0.534813 0.253407
0.393210 0.542763 0.201480
0.501137 0.550820 0.162371
0.597009 0.560204 0.146365
0.674815 0.568261 0.150332
0.756039 0.590784 0.173754
0.818647 0.612558 0.208667
0.789029 0.551186 0.166354
0.052689 0.410101 0.275273
0.060655 0.441917 0.281910
0.060029 0.437781 0.275364
0.059876 0.437369 0.268315
0.062272 0.441901 0.268620
0.067918 0.452659 0.279286
0.080491 0.476661 0.313344
0.114443 0.513176 0.353323
0.181872 0.551080 0.371115
0.283314 0.575555 0.347158
0.403403 0.589822 0.300191
0.513008 0.597665 0.256901
0.628946 0.616190 0.243626
0.716396 0.628443 0.231876
0.785565 0.642405 0.240406
0.838026 0.661936 0.271290
0.832959 0.630579 0.242527
0.058015 0.440070 0.312871
0.069139 0.467491 0.316716
0.069291 0.467475 0.315236
0.068635 0.464927 0.308354
0.071565 0.469917 0.309133
0.079912 0.483726 0.320867
0.109422 0.516838 0.361105
0.170871 0.566293 0.421790
0.266239 0.608560 0.462272
0.372930 0.632975 0.454551
0.473426 0.644511 0.408133
0.570016 0.653330 0.370596
0.664775 0.666972 0.354131
0.750896 0.683955 0.360357
0.811109 0.691173 0.346471
0.846769 0.698375 0.347799
0.852293 0.688060 0.339513
0.065705 0.468482 0.353323
0.074311 0.484596 0.346990
0.074693 0.485695 0.347951
0.075288 0.486000 0.345830
0.081132 0.493584 0.349813
0.103151 0.516258 0.366155
0.152468 0.554849 0.401587
0.256245 0.611612 0.464530
0.399176 0.663981 0.525521
0.507515 0.694408 0.545693
0.584024 0.704479 0.518593
0.655390 0.711025 0.487297
0.722454 0.720119 0.478264
0.782742 0.728222 0.472999
0.823590 0.731991 0.464012
0.850294 0.728252 0.437263
0.856153 0.724163 0.424659
0.072679 0.489662 0.383749
0.077806 0.496269 0.376715
0.081926 0.500069 0.378485
0.082536 0.500771 0.378988
0.096406 0.515557 0.388739
0.132860 0.548119 0.409781
0.209216 0.591821 0.439979
0.335927 0.641321 0.484810
0.474586 0.688975 0.536095
0.586175 0.721691 0.570748
0.656977 0.739132 0.578515
0.712398 0.748959 0.574502
0.760418 0.755566 0.571221
0.796857 0.759686 0.564950
0.830869 0.762219 0.550774
0.859297 0.764385 0.535409
0.866880 0.754803 0.508492
0.073014 0.493614 0.401007
0.101564 0.528908 0.425147
0.118151 0.543511 0.434836
0.108537 0.535698 0.428748
0.116091 0.542367 0.431556
0.156786 0.570825 0.449409
0.236942 0.610086 0.478355
0.357153 0.654429 0.515160
0.484428 0.697154 0.556710
0.589242 0.729091 0.592660
0.661158 0.749523 0.613489
0.715618 0.762280 0.620645
0.759762 0.768292 0.621393
0.796460 0.772824 0.620859
0.820127 0.774060 0.613016
0.843580 0.775418 0.599100
0.865980 0.776654 0.573419
0.033967 0.032502 0.038514
0.041245 0.034577 0.039002
0.054932 0.037736 0.040894
0.077653 0.042649 0.046311
0.101854 0.046845 0.051026
0.133043 0.051743 0.056321
0.179156 0.057984 0.062394
0.235767 0.062165 0.066926
0.286580 0.062333 0.067643
0.327367 0.061372 0.065888
0.366629 0.062318 0.064530
0.405692 0.063905 0.064836
0.443931 0.064393 0.066148
0.473335 0.066789 0.067460
0.498955 0.070649 0.071061
0.515038 0.072938 0.074235
0.528817 0.078019 0.077852
0.034775 0.039857 0.048844
0.036072 0.035935 0.048600
0.064363 0.041749 0.052888
0.101411 0.048341 0.053620
0.137804 0.053513 0.055512
0.186313 0.059449 0.058122
0.240375 0.061784 0.058732
0.286793 0.060487 0.057282
0.330648 0.060777 0.056275
0.372717 0.062119 0.056947
0.410086 0.062760 0.058335
0.448203 0.065522 0.061921
0.480125 0.070298 0.065232
0.505928 0.074846 0.069657
0.522469 0.078889 0.073213
0.533364 0.083711 0.077211
0.540658 0.090639 0.080110
0.035782 0.054047 0.062974
0.036393 0.069276 0.083986
0.061250 0.062272 0.064958
0.119203 0.064088 0.054856
0.184009 0.066316 0.052277
0.249882 0.065827 0.051850
0.303014 0.063554 0.052262
0.343374 0.062028 0.052811
0.382361 0.063294 0.054124
0.424643 0.068940 0.057557
0.464057 0.076921 0.061860
0.495308 0.084443 0.064958
0.521614 0.091341 0.068574
0.534920 0.092576 0.072953
0.543023 0.095079 0.077668
0.557549 0.110628 0.080278
0.561898 0.116060 0.081117
0.037095 0.090791 0.092241
0.038239 0.123369 0.113298
0.053391 0.126894 0.093660
0.125841 0.148257 0.079057
0.212055 0.148043 0.063890
0.298695 0.152499 0.057084
0.362081 0.151492 0.055741
0.406378 0.147677 0.055833
0.447776 0.147692 0.057038
0.491783 0.156893 0.060380
0.537224 0.174472 0.065614
0.576608 0.195087 0.070329
0.606149 0.211444 0.075807
0.618631 0.210925 0.079240
0.617975 0.198642 0.081758
0.618952 0.195392 0.083833
0.614023 0.186618 0.085451
0.037980 0.131579 0.119127
0.037079 0.168811 0.129747
0.044099 0.192248 0.109621
0.078920 0.209094 0.093477
0.184848 0.235645 0.073945
0.270695 0.221592 0.060288
0.372442 0.236133 0.056168
0.449393 0.245228 0.056306
0.502632 0.248127 0.059312
0.553765 0.260441 0.064591
0.600839 0.282429 0.070481
0.644282 0.311681 0.079164
0.679713 0.340063 0.087709
0.702983 0.360571 0.096117
0.706355 0.354330 0.100206
0.690776 0.319982 0.096208
0.662730 0.268757 0.092271
0.036423 0.168811 0.138308
0.036942 0.208057 0.140902
0.041962 0.239338 0.115297
0.060334 0.260456 0.104051
0.117021 0.286564 0.090043
0.255039 0.321981 0.071015
0.343114 0.306127 0.060502
0.448280 0.323949 0.061418
0.529213 0.341680 0.066926
0.592615 0.358557 0.074052
0.644572 0.380270 0.082460
0.689845 0.408881 0.093904
0.728786 0.441550 0.109468
0.754192 0.467994 0.124300
0.761929 0.470695 0.130678
0.740597 0.418036 0.117708
0.706279 0.346181 0.103639
0.036088 0.205875 0.151965
0.038483 0.241810 0.151034
0.042008 0.276005 0.128084
0.049866 0.298253 0.121660
0.075746 0.320241 0.109041
0.163790 0.355215 0.095811
0.320867 0.390600 0.074189
0.424094 0.388876 0.069673
0.523186 0.407309 0.076234
0.599954 0.427665 0.084459
0.665248 0.450965 0.096452
0.719509 0.480354 0.112825
0.763790 0.515465 0.135470
0.793317 0.544717 0.159380
0.800626 0.548379 0.168032
0.774121 0.489067 0.142977
0.739696 0.409903 0.118746
0.037339 0.240482 0.165698
0.040803 0.276265 0.167681
0.044694 0.310948 0.150164
0.047944 0.326833 0.146441
0.054002 0.342123 0.138003
0.090562 0.373312 0.128328
0.210315 0.413413 0.112078
0.369192 0.440101 0.084352
0.484672 0.449165 0.080568
0.574762 0.465476 0.090211
0.650462 0.484535 0.102571
0.715053 0.511284 0.120226
0.766888 0.544244 0.144121
0.803861 0.575830 0.173602
0.815091 0.580606 0.187152
0.791806 0.526986 0.161074
0.756100 0.448936 0.128450
0.039643 0.273716 0.184009
0.042832 0.310063 0.188540
0.046296 0.344320 0.177264
0.047791 0.354101 0.174609
0.051240 0.364218 0.170199
0.060868 0.384176 0.165469
0.119387 0.428809 0.164569
0.257862 0.463401 0.141054
0.394842 0.475181 0.098711
0.515160 0.487205 0.092042
0.596109 0.494789 0.098299
0.672465 0.509422 0.111818
0.733989 0.530159 0.130358
0.779492 0.553613 0.153323
0.798306 0.557122 0.167254
0.780453 0.513298 0.149752
0.756802 0.458091 0.126421
0.041840 0.309590 0.211688
0.045274 0.344656 0.213962
0.048600 0.376776 0.207446
0.049973 0.380911 0.204990
0.051728 0.386877 0.201495
0.056336 0.398123 0.203937
0.078523 0.432227 0.214618
0.161578 0.480079 0.217487
0.301991 0.502708 0.178332
0.437476 0.510002 0.124529
0.537316 0.512566 0.103777
0.614542 0.514611 0.106477
0.694453 0.526787 0.122942
0.751873 0.537911 0.138567
0.773495 0.527779 0.145907
0.746624 0.472251 0.123903
0.737224 0.440772 0.113039
0.044572 0.346639 0.240284
0.047700 0.376928 0.244022
0.054047 0.409339 0.242741
0.054337 0.407813 0.235691
0.055634 0.412253 0.231983
0.058885 0.421912 0.239765
0.072816 0.447547 0.264759
0.122469 0.491890 0.287312
0.232364 0.530053 0.273426
0.375662 0.544030 0.216342
0.515099 0.556619 0.167773
0.597482 0.552071 0.136828
0.675486 0.555795 0.138277
0.748150 0.567056 0.155383
0.783536 0.559075 0.163546
0.750347 0.490059 0.131014
0.712764 0.430762 0.103792
0.047623 0.380865 0.271382
0.051789 0.408026 0.280674
0.059922 0.439689 0.281605
0.059678 0.436179 0.273640
0.060945 0.439139 0.269093
0.066682 0.449928 0.275914
0.081056 0.476539 0.310460
0.128145 0.521355 0.356405
0.227924 0.564508 0.366964
0.354147 0.584192 0.320912
0.494713 0.598062 0.269566
0.624079 0.616663 0.246143
0.700999 0.615885 0.213123
0.767208 0.621622 0.209537
0.811460 0.621576 0.220035
0.799969 0.574777 0.186374
0.731060 0.478599 0.125093
0.051347 0.411414 0.307042
0.057740 0.439963 0.319814
0.068269 0.466087 0.317510
0.067842 0.463813 0.313359
0.069230 0.465858 0.308797
0.076234 0.477333 0.315206
0.103807 0.509636 0.351202
0.171847 0.564019 0.415061
0.289937 0.612329 0.454520
0.411460 0.634928 0.433951
0.529091 0.648325 0.385565
0.643351 0.663432 0.357504
0.736263 0.678477 0.354940
0.797589 0.680842 0.323140
0.835767 0.680583 0.312856
0.836622 0.656840 0.286122
0.788205 0.573861 0.195941
0.057313 0.442664 0.344869
0.065705 0.468437 0.356847
0.074022 0.483879 0.347753
0.075059 0.485451 0.348501
0.076417 0.486931 0.345510
0.091951 0.504082 0.355596
0.133577 0.540902 0.388281
0.238056 0.602182 0.453101
0.392340 0.658442 0.514366
0.514138 0.689815 0.529351
0.606455 0.703502 0.499916
0.692027 0.713329 0.477226
0.762951 0.721416 0.466636
0.818738 0.729488 0.458793
0.844022 0.721157 0.417487
0.850660 0.709468 0.391989
0.830442 0.663584 0.322606
0.065400 0.472602 0.385412
0.072145 0.488426 0.386831
0.084642 0.502663 0.380957
0.089860 0.508400 0.385748
0.088121 0.506905 0.383551
0.106844 0.526635 0.395270
0.165347 0.569604 0.425238
0.292607 0.626932 0.476234
0.457389 0.683284 0.536385
0.586099 0.722240 0.577737
0.663111 0.739940 0.579980
0.724269 0.747570 0.566735
0.778958 0.753887 0.558740
0.820706 0.758923 0.549371
0.853483 0.760189 0.529168
0.861723 0.747662 0.491844
0.847959 0.726314 0.454597
0.072084 0.493797 0.415274
0.080659 0.504768 0.412879
0.118959 0.544167 0.433875
0.135393 0.555123 0.440284
0.111528 0.538201 0.428779
0.124804 0.549142 0.434730
0.183459 0.585855 0.459190
0.301671 0.635615 0.499275
0.455421 0.687099 0.551125
0.586954 0.727428 0.596414
0.670542 0.752117 0.618372
0.727077 0.763668 0.622354
0.773541 0.768887 0.617502
0.810086 0.773098 0.611933
0.840436 0.775525 0.598703
0.865629 0.776318 0.573877
0.864881 0.766247 0.553780
0.073625 0.498909 0.429023
0.119203 0.550423 0.463294
0.281178 0.633021 0.524742
0.309667 0.646738 0.535470
0.171542 0.587640 0.486381
0.135851 0.563622 0.466102
0.160449 0.580407 0.478111
0.240116 0.618296 0.509865
0.378958 0.668681 0.559640
0.529549 0.717708 0.614939
0.638239 0.751293 0.652873
0.705547 0.771176 0.669596
0.752483 0.779507 0.666957
0.791852 0.783810 0.658656
0.824628 0.786862 0.650553
0.849958 0.786801 0.635157
0.870085 0.786587 0.610910
0.034379 0.034714 0.050492
0.042344 0.036072 0.048905
0.053407 0.038773 0.051560
0.072648 0.042191 0.055451
0.096925 0.046052 0.060594
0.124926 0.050202 0.065873
0.167559 0.056321 0.075425
0.221210 0.059754 0.082963
0.275242 0.060121 0.086213
0.323903 0.061692 0.087175
0.365057 0.063066 0.084688
0.402319 0.064439 0.080598
0.440375 0.064347 0.077455
0.470832 0.065873 0.076326
