tools/luts_backup/Kodak Vision3 200T 5213 (NEG)_VS.cube
# (C) 2014 VisionColor & Patchflyer [www.vision-color.com]
# Generator: VC Patchmatch v.2.1.1 [64/53]
# All work and no play makes Jack a dull boy.
# LUT generated from: Kodak Vision3 200T 5213 (NEG)_VisionSpace
LUT_3D_SIZE 5
0.035767 0.035767 0.035767
0.069764 0.009552 0.009552
0.136629 0.014252 0.014252
0.198398 0.020264 0.020264
0.344854 0.035279 0.035279
0.093507 0.199680 0.070924
0.167636 0.217929 0.094636
0.338537 0.149874 0.064149
0.326024 0.051453 0.037964
0.375799 0.040009 0.038849
0.360891 0.496544 0.228397
0.331319 0.508247 0.227085
0.491966 0.528191 0.270329
0.640742 0.314473 0.133959
0.676020 0.323842 0.159106
0.684657 0.731289 0.400305
0.652308 0.715602 0.389715
0.538293 0.684962 0.346197
0.710567 0.687831 0.389746
0.781735 0.643336 0.397223
0.782132 0.797482 0.449561
0.778012 0.795254 0.446601
0.728023 0.785061 0.426429
0.766415 0.783810 0.456123
0.815122 0.765438 0.485664
0.003143 0.003113 0.052949
0.088106 0.012726 0.117739
0.135134 0.017243 0.116182
0.161440 0.016968 0.029908
0.311467 0.031830 0.031830
0.083253 0.269841 0.262577
0.210208 0.186221 0.226871
0.404730 0.118929 0.126711
0.349142 0.045258 0.038148
0.326024 0.033356 0.033356
0.281743 0.560281 0.243412
0.342870 0.522896 0.248386
0.547799 0.554345 0.290257
0.661036 0.378561 0.178790
0.661036 0.285359 0.123323
0.652934 0.744228 0.395056
0.644739 0.728969 0.387549
0.638392 0.720821 0.372320
0.757565 0.727657 0.413977
0.765560 0.618067 0.385290
0.782254 0.805020 0.442664
0.781735 0.803342 0.442054
0.742885 0.788357 0.429328
0.749386 0.783658 0.431434
0.806973 0.764248 0.465888
0.004608 0.004608 0.117281
0.039796 0.009247 0.157626
0.094636 0.014740 0.160922
0.166140 0.022126 0.168582
0.383459 0.042390 0.133837
0.052064 0.160281 0.325826
0.081209 0.081514 0.367468
0.263005 0.036408 0.309911
0.266819 0.032990 0.198245
0.318730 0.033295 0.053071
0.307897 0.627985 0.620050
0.324865 0.582528 0.588556
0.498161 0.490227 0.504921
0.707424 0.321004 0.352132
0.632990 0.208972 0.154803
0.440223 0.735592 0.501106
0.448768 0.731075 0.481437
0.571038 0.720668 0.448966
0.756039 0.732601 0.462959
0.777798 0.625849 0.390417
0.716121 0.800168 0.531640
0.728237 0.800626 0.493172
0.725429 0.797208 0.466712
0.766232 0.800351 0.444465
0.818967 0.780880 0.450477
0.007904 0.007904 0.212772
0.007324 0.007294 0.195895
0.051972 0.013275 0.241184
0.150546 0.025055 0.303380
0.444373 0.056794 0.383673
0.032349 0.086717 0.330190
0.013214 0.019562 0.291646
0.174624 0.030701 0.400458
0.178195 0.027955 0.308598
0.381842 0.047669 0.295018
0.233509 0.580880 0.687404
0.251881 0.519631 0.657984
0.317708 0.439292 0.689845
0.525795 0.330251 0.638972
0.593256 0.191516 0.418860
0.421820 0.757076 0.753719
0.437110 0.746975 0.750942
0.525383 0.731319 0.731685
0.705989 0.704921 0.705470
0.741054 0.644404 0.641199
0.633661 0.787625 0.715206
0.593469 0.774411 0.675135
0.616846 0.774014 0.665034
0.687526 0.778073 0.632013
0.804898 0.787991 0.646845
0.009369 0.009369 0.251194
0.009583 0.009552 0.256077
0.051209 0.015778 0.320745
0.117891 0.023529 0.355291
0.319493 0.046448 0.442512
0.047211 0.132052 0.427588
0.010529 0.012512 0.263005
0.119478 0.027222 0.460441
0.186191 0.032959 0.433707
0.400488 0.055848 0.468879
0.188586 0.534890 0.665049
0.175982 0.480827 0.671839
0.237751 0.386435 0.649073
0.445716 0.359213 0.725460
0.543221 0.308461 0.624308
0.417517 0.733272 0.769131
0.490242 0.736873 0.787076
0.574334 0.715328 0.770687
0.686213 0.699031 0.740749
0.716793 0.692927 0.729976
0.541131 0.799405 0.803616
0.593256 0.798428 0.799039
0.624903 0.786435 0.790188
0.694240 0.775814 0.777646
0.776516 0.774075 0.774502
