tools/luts_backup/Kodak Elite Color 200_FC.cube
# (C) 2014 VisionColor & Patchflyer [www.vision-color.com]
# Generator: VC Patchmatch v.2.1.1 [64/53]
# All work and no play makes Jack a dull boy.
# LUT generated from: Kodak Elite Color 200_FC01
LUT_3D_SIZE 5
0.023484 0.023484 0.023484
0.095155 0.028214 0.027176
0.185550 0.033280 0.026566
0.281849 0.038697 0.027131
0.392004 0.045487 0.029389
0.035538 0.113329 0.019959
0.134066 0.111086 0.050721
0.287633 0.134951 0.060334
0.414267 0.146838 0.061997
0.551110 0.157382 0.065629
0.008728 0.223575 0.010163
0.199634 0.255085 0.050706
0.370413 0.296696 0.122271
0.620661 0.375662 0.165560
0.820737 0.422217 0.200687
0.006104 0.367300 0.007248
0.283528 0.420920 0.052232
0.552529 0.513130 0.174990
0.711086 0.563699 0.200748
0.902602 0.701564 0.314107
0.008011 0.514702 0.006607
0.452384 0.684535 0.135760
0.734813 0.820874 0.286137
0.855253 0.841093 0.323781
0.926635 0.875196 0.364660
0.024033 0.029664 0.097704
0.095460 0.027985 0.083131
0.199390 0.033936 0.075151
0.306981 0.045380 0.070527
0.416098 0.053391 0.073030
0.051713 0.115648 0.129183
0.154299 0.153567 0.153246
0.329198 0.060548 0.041352
0.383001 0.045594 0.029480
0.467002 0.082322 0.051774
0.067552 0.295537 0.211902
0.014115 0.369177 0.015900
0.584100 0.460426 0.176608
0.791897 0.403174 0.191348
0.803769 0.328847 0.155810
0.081712 0.456092 0.245151
0.016449 0.510842 0.007416
0.707454 0.783703 0.243717
0.916823 0.859571 0.341192
0.910567 0.704952 0.321050
0.141543 0.624125 0.268681
0.119265 0.565911 0.037995
0.656535 0.823651 0.181491
0.855436 0.855512 0.311604
0.932692 0.885420 0.376349
0.024949 0.037736 0.196948
0.084977 0.029633 0.184771
0.201892 0.034440 0.167712
0.315358 0.044587 0.150637
0.418555 0.052201 0.147265
0.043809 0.132006 0.240345
0.032593 0.123278 0.381079
0.341268 0.082231 0.281147
0.410544 0.052567 0.152697
0.499931 0.094133 0.195819
0.071611 0.267231 0.322057
0.112978 0.397086 0.470573
0.489387 0.490700 0.476097
0.609720 0.165103 0.123705
0.811673 0.362463 0.314031
0.178241 0.509789 0.472175
0.323781 0.745190 0.591836
0.175418 0.502647 0.084794
0.896849 0.789151 0.291890
0.925551 0.708934 0.405966
0.351751 0.774105 0.616754
0.316838 0.777935 0.479072
0.428885 0.697948 0.321477
0.858152 0.879332 0.363439
0.939086 0.868666 0.341604
0.023224 0.045151 0.302113
0.072297 0.030976 0.280369
0.178134 0.037079 0.271763
0.309804 0.048295 0.250874
0.429709 0.058000 0.246983
0.029511 0.155047 0.376242
0.023331 0.096223 0.471763
0.175708 0.065309 0.397864
0.409033 0.065660 0.337331
0.491478 0.130800 0.388281
0.046204 0.283055 0.429145
0.034760 0.328038 0.573144
0.174228 0.340856 0.594781
0.613077 0.254154 0.532250
0.788907 0.420401 0.607248
0.168261 0.472755 0.539315
0.367422 0.732021 0.792020
0.507225 0.788891 0.829892
0.818845 0.805600 0.795285
0.913787 0.771191 0.747936
0.387427 0.800916 0.748394
0.482567 0.865751 0.819654
0.666194 0.900954 0.820493
0.762921 0.904112 0.712291
0.936263 0.913375 0.685786
0.022446 0.078553 0.469062
0.064088 0.048753 0.413260
0.168170 0.054215 0.399283
0.292699 0.058289 0.364630
0.418647 0.067948 0.342809
0.015442 0.203510 0.532601
0.061891 0.271839 0.640238
0.247608 0.255909 0.584588
0.475486 0.186007 0.473426
0.484154 0.130694 0.408576
0.028931 0.323629 0.574838
0.117433 0.421683 0.698207
0.423774 0.533700 0.764584
0.678248 0.513588 0.777661
0.785077 0.442359 0.725078
0.157992 0.478691 0.642557
0.258534 0.576135 0.755367
0.583673 0.751842 0.862928
0.782116 0.818677 0.893767
0.911376 0.779507 0.885206
0.397940 0.773053 0.820462
0.492653 0.842557 0.874998
0.715251 0.913649 0.918868
0.850126 0.934234 0.929610
0.948928 0.948928 0.939361
