tools/luts_backup/Kodak Ektar 100_FC.cube
# (C) 2014 VisionColor & Patchflyer [www.vision-color.com]
# Generator: VC Patchmatch v.2.1.1 [64/53]
# All work and no play makes Jack a dull boy.
# LUT generated from: Kodak Ektar 100_FC01
LUT_3D_SIZE 9
0.030304 0.014008 0.020722
0.090059 0.023133 0.030930
0.168658 0.033478 0.040558
0.293080 0.043442 0.050340
0.438788 0.049836 0.056809
0.566079 0.059083 0.061921
0.683665 0.078935 0.074022
0.769329 0.100984 0.085512
0.818311 0.084932 0.096071
0.046799 0.079057 0.041886
0.075608 0.084031 0.036759
0.142824 0.099062 0.041489
0.243839 0.116686 0.045533
0.376410 0.137789 0.048753
0.501671 0.148394 0.053773
0.631617 0.186923 0.070222
0.721096 0.249912 0.087404
0.769787 0.255833 0.102037
0.061723 0.188663 0.069535
0.074022 0.181796 0.054383
0.117906 0.178393 0.046815
0.180941 0.178592 0.040436
0.315663 0.215167 0.042893
0.473289 0.259632 0.055375
0.606699 0.318044 0.074784
0.704189 0.409400 0.101061
0.742718 0.523781 0.138308
0.056062 0.310384 0.072160
0.079683 0.311299 0.059815
0.104341 0.305379 0.053346
0.165820 0.297719 0.046479
0.252293 0.296757 0.046021
0.422141 0.364492 0.059449
0.577539 0.441169 0.083543
0.701015 0.532067 0.122927
0.761090 0.686015 0.192935
0.058686 0.427604 0.087541
0.079744 0.447059 0.086946
0.099962 0.451652 0.078096
0.150515 0.449134 0.071595
0.242252 0.439811 0.060868
0.372519 0.463478 0.067674
0.504448 0.494118 0.082551
0.645121 0.544198 0.111986
0.746365 0.631373 0.174136
0.070176 0.544381 0.127123
0.078111 0.567849 0.125673
0.086854 0.586770 0.124743
0.124865 0.610590 0.126390
0.203204 0.596048 0.120134
0.289586 0.552834 0.087190
0.406790 0.541772 0.082506
0.536065 0.516793 0.090974
0.741421 0.607034 0.156924
0.089128 0.670436 0.183886
0.090257 0.675059 0.175799
0.095033 0.681636 0.176837
0.113558 0.693996 0.202838
0.181491 0.717403 0.232273
0.261387 0.689647 0.188983
0.367391 0.638483 0.133410
0.531914 0.625422 0.133043
0.768048 0.702907 0.209033
0.122866 0.752026 0.263539
0.123110 0.752590 0.253239
0.129213 0.756558 0.254139
0.179629 0.769635 0.326833
0.278218 0.792966 0.446220
0.376974 0.804425 0.369665
0.499245 0.767727 0.288060
0.669123 0.764569 0.290837
0.796521 0.783658 0.292622
0.134997 0.764706 0.324315
0.136431 0.765332 0.323735
0.177111 0.785138 0.354162
0.288167 0.814221 0.424338
0.464302 0.859586 0.504494
0.601831 0.861738 0.529397
0.702113 0.862989 0.527825
0.772671 0.854459 0.498970
0.847303 0.856489 0.458808
0.035981 0.014786 0.044617
0.080049 0.020615 0.045411
0.144167 0.028321 0.058015
0.240299 0.036393 0.070527
0.391028 0.044678 0.080461
0.531502 0.053269 0.080079
0.665858 0.063783 0.083986
0.770596 0.074937 0.091951
0.816938 0.085832 0.102541
0.040558 0.058228 0.069963
0.075135 0.059556 0.065400
0.240024 0.049638 0.051652
0.425757 0.050416 0.056352
0.561837 0.058183 0.061830
0.675853 0.078309 0.072847
0.764797 0.096559 0.084947
0.810086 0.102174 0.099428
0.806043 0.121004 0.102846
0.051591 0.162966 0.106798
0.062867 0.255604 0.082475
0.152468 0.245686 0.053590
0.311192 0.210132 0.044343
0.481224 0.217960 0.054932
0.612207 0.248692 0.071901
0.704417 0.306630 0.091157
0.749737 0.322148 0.105913
0.774685 0.242084 0.105898
0.048905 0.280949 0.123781
0.060227 0.422538 0.090730
0.102098 0.444343 0.080781
0.233906 0.431586 0.063096
0.397238 0.388006 0.060822
0.571328 0.433616 0.083421
0.693584 0.512245 0.119249
0.740215 0.553307 0.146548
0.758236 0.381826 0.119585
0.051270 0.403769 0.140673
0.072145 0.549813 0.128756
0.085039 0.577234 0.125551
0.151171 0.603998 0.128191
0.287098 0.548928 0.087984
0.453513 0.508736 0.080537
0.624781 0.533364 0.108705
0.726894 0.566033 0.144228
0.741543 0.439719 0.120882
0.064515 0.536110 0.187030
0.090486 0.669322 0.185382
0.094240 0.676524 0.176043
0.122683 0.698131 0.206912
0.232944 0.711223 0.215717
0.391653 0.640253 0.140871
0.529488 0.584237 0.114214
0.697688 0.569085 0.139651
0.675944 0.407233 0.098314
0.084001 0.650599 0.249134
0.119905 0.745983 0.258976
0.120974 0.746777 0.249683
0.164446 0.762646 0.297002
0.306416 0.795605 0.420981
0.444480 0.779171 0.313283
0.640024 0.757977 0.280003
0.746532 0.732280 0.242741
0.706844 0.584207 0.165209
0.120500 0.734249 0.345205
0.148486 0.769314 0.335180
0.152438 0.773159 0.338064
0.224781 0.797650 0.389395
0.432486 0.846265 0.521248
0.608820 0.862943 0.545617
0.727657 0.852735 0.491859
0.826505 0.846830 0.443549
0.808286 0.796658 0.364645
0.140169 0.758892 0.412375
0.315099 0.814710 0.531243
0.238911 0.801343 0.484398
0.229877 0.798459 0.472999
0.384024 0.834913 0.575891
0.603357 0.871794 0.676890
0.728145 0.881056 0.669642
0.814038 0.873686 0.617395
0.866346 0.867765 0.547402
0.049790 0.022614 0.111360
0.080552 0.022583 0.096895
0.127962 0.024857 0.097688
0.213687 0.031434 0.114076
0.361212 0.039994 0.128527
0.505608 0.050645 0.137194
0.644373 0.061006 0.128222
0.756115 0.070634 0.123095
0.812161 0.084871 0.129091
0.046830 0.057343 0.150881
0.066835 0.031327 0.185962
0.179431 0.032670 0.151492
0.353384 0.042176 0.126223
0.514107 0.051408 0.113466
0.651576 0.062211 0.099809
0.758099 0.072679 0.099794
0.809079 0.084443 0.105516
0.815137 0.090623 0.112139
0.042130 0.131807 0.156695
0.046860 0.199130 0.234699
0.156558 0.153582 0.163790
0.386267 0.106477 0.095415
0.609064 0.085069 0.072938
0.753765 0.096193 0.084123
0.802792 0.103822 0.096345
0.812619 0.117296 0.104829
0.815381 0.110414 0.112734
0.040024 0.249775 0.180987
0.043290 0.375235 0.201190
0.092927 0.380591 0.149447
0.280491 0.387366 0.130465
0.508309 0.358587 0.077913
0.686870 0.417563 0.102831
0.740398 0.426780 0.120180
0.763546 0.302266 0.111299
0.788800 0.235355 0.119158
0.041199 0.382620 0.200992
0.060655 0.522957 0.231586
0.079500 0.596338 0.182788
0.147341 0.641230 0.200061
0.375570 0.607721 0.163455
0.573312 0.526802 0.100725
0.717037 0.547097 0.136675
0.745174 0.448447 0.126116
0.766033 0.379217 0.133593
0.058579 0.519341 0.257710
0.083680 0.643290 0.286564
0.117876 0.737209 0.259693
0.137514 0.745998 0.267567
0.332830 0.787732 0.379858
0.610574 0.744106 0.267414
0.688029 0.629694 0.167727
0.695247 0.464088 0.117906
0.746654 0.480186 0.143145
0.085740 0.643946 0.325414
0.122866 0.727153 0.371405
0.159152 0.775280 0.345800
0.178149 0.782925 0.355718
0.409125 0.836454 0.517845
0.648386 0.852155 0.502541
0.817884 0.842527 0.438224
0.769619 0.728298 0.278904
0.748425 0.603601 0.199405
0.135103 0.733791 0.422232
0.188495 0.773770 0.471763
0.296803 0.813809 0.523995
0.220890 0.795804 0.463401
0.365545 0.830274 0.557351
0.635019 0.875639 0.671962
0.779446 0.875868 0.636851
0.864881 0.868879 0.550774
0.816358 0.800748 0.433799
0.150286 0.764233 0.495521
0.429557 0.838407 0.654032
0.432135 0.843534 0.659281
0.314733 0.812299 0.589014
0.427955 0.838560 0.658320
0.616175 0.872648 0.736889
0.752117 0.890486 0.779339
0.834440 0.890745 0.753323
0.888945 0.888945 0.680980
0.055726 0.028656 0.216648
0.098848 0.026062 0.177661
0.138598 0.025513 0.165713
0.193790 0.028077 0.163622
0.350393 0.040085 0.185794
0.499947 0.051102 0.184741
0.635828 0.059602 0.190509
0.742458 0.069993 0.184817
0.805341 0.081132 0.169909
0.052110 0.052201 0.277913
0.060624 0.033616 0.388983
0.182147 0.031128 0.279973
0.343969 0.036484 0.240024
0.500420 0.050599 0.203250
0.633249 0.059632 0.187991
0.738994 0.069459 0.168841
0.800290 0.081056 0.149371
0.813123 0.088914 0.126360
0.043366 0.125795 0.270588
0.045594 0.106905 0.442329
0.117418 0.064866 0.387717
0.366384 0.072465 0.285542
0.579599 0.060380 0.197650
0.735500 0.070176 0.144030
0.800717 0.082170 0.124483
0.814511 0.090013 0.116869
0.814069 0.099886 0.124804
0.036423 0.228901 0.269627
0.028962 0.330404 0.375769
0.094438 0.341146 0.375158
0.288380 0.292805 0.304265
0.535088 0.206363 0.191608
0.720073 0.127077 0.098909
0.807919 0.113832 0.103471
0.818326 0.120348 0.114137
0.818860 0.180652 0.138598
0.032090 0.358022 0.277897
0.050996 0.490700 0.350149
0.088808 0.567758 0.364920
0.178424 0.515251 0.277928
0.462882 0.533516 0.291356
0.639246 0.440040 0.126925
0.750057 0.397162 0.121981
0.775830 0.318257 0.129427
0.788586 0.367269 0.174304
0.053849 0.501289 0.329946
0.090578 0.631388 0.399863
0.145129 0.723430 0.442756
0.150149 0.707622 0.348699
0.335149 0.753063 0.450721
0.643854 0.767803 0.424689
0.700633 0.544121 0.150683
0.743084 0.480674 0.144839
0.789868 0.525536 0.207080
0.088609 0.637888 0.401373
0.156283 0.730312 0.482948
0.236316 0.783856 0.538506
0.288746 0.809293 0.517754
0.288334 0.807706 0.514183
0.670161 0.876020 0.666423
0.855909 0.866026 0.553384
0.778332 0.707103 0.296910
0.805920 0.689693 0.297093
0.172671 0.740887 0.503304
0.245945 0.786587 0.584436
0.472053 0.848798 0.683192
0.428016 0.842939 0.654566
0.361349 0.825086 0.613931
0.613275 0.871672 0.733669
0.801694 0.892622 0.765209
0.889036 0.889250 0.682780
0.867475 0.844511 0.551476
0.162646 0.767437 0.567178
0.599878 0.871473 0.753323
0.553292 0.860853 0.735042
0.514275 0.856199 0.729809
0.572732 0.866117 0.746914
0.685176 0.882536 0.786603
0.802792 0.897627 0.823972
0.876554 0.907423 0.840421
0.904738 0.904738 0.809796
0.059983 0.033616 0.387106
0.126955 0.030838 0.324559
0.188678 0.030777 0.284779
0.262394 0.030274 0.259693
0.356039 0.036072 0.245502
0.507225 0.050324 0.246677
0.639979 0.059434 0.246281
0.749187 0.071138 0.231586
0.804318 0.079164 0.182895
0.056138 0.050965 0.497185
0.061067 0.037415 0.624384
0.174136 0.034928 0.470848
0.335042 0.035615 0.356054
0.512993 0.050019 0.295689
0.639338 0.059907 0.269749
0.739666 0.070771 0.240345
0.796689 0.080919 0.181277
0.812100 0.089036 0.141680
0.045121 0.107515 0.456001
0.055756 0.065492 0.700359
0.067750 0.042969 0.752346
0.313558 0.043732 0.490074
0.588327 0.058442 0.370642
0.733928 0.070832 0.265736
0.794858 0.080644 0.184817
0.811994 0.088991 0.146242
0.816602 0.100465 0.160418
0.037491 0.215244 0.406989
0.034470 0.220310 0.538857
0.059083 0.154314 0.677195
0.180346 0.127077 0.557809
0.516518 0.152316 0.433219
0.712474 0.089311 0.248905
0.810269 0.089097 0.142336
0.818967 0.104463 0.143862
0.831052 0.167498 0.192340
0.026902 0.335821 0.382925
0.033143 0.442786 0.482399
0.068406 0.503395 0.546990
0.206592 0.488930 0.510033
0.460929 0.461265 0.469596
0.666575 0.340871 0.325078
0.800946 0.156847 0.134600
0.818662 0.183612 0.141512
0.823453 0.368368 0.247791
0.041947 0.473060 0.398322
0.077775 0.606439 0.483696
0.149569 0.711009 0.565423
0.244312 0.712428 0.555581
0.358434 0.663310 0.472602
0.660975 0.702892 0.509499
0.751049 0.528725 0.209659
0.790417 0.474449 0.198077
0.846265 0.573388 0.337957
0.082994 0.624399 0.458122
0.166964 0.728115 0.559884
0.286030 0.791714 0.657084
0.514000 0.855085 0.725170
0.378149 0.807523 0.612192
0.627970 0.860182 0.708324
0.864530 0.878721 0.707347
0.823728 0.733928 0.363836
0.853437 0.726040 0.429084
0.183154 0.742885 0.557702
0.268544 0.789120 0.657008
0.557916 0.863081 0.754940
0.592996 0.870237 0.764019
0.517754 0.857694 0.726146
0.635004 0.874418 0.765469
0.831067 0.902312 0.830869
0.905257 0.905028 0.803143
0.886000 0.862943 0.650813
0.179263 0.767559 0.640558
0.606882 0.872190 0.773907
0.607355 0.873518 0.783444
0.597986 0.866148 0.781079
0.649195 0.878569 0.798032
0.730877 0.887953 0.810941
0.833005 0.903273 0.846616
0.894636 0.915099 0.865034
0.916899 0.916533 0.845380
0.061341 0.038880 0.631083
0.115541 0.034318 0.539391
0.206027 0.035233 0.446113
0.305547 0.035050 0.379095
0.412451 0.039780 0.330022
0.518257 0.049775 0.295888
0.645136 0.061128 0.302266
0.751507 0.072496 0.299840
0.802747 0.086290 0.256565
0.059052 0.047654 0.706767
0.060472 0.039246 0.831205
0.143069 0.037629 0.697581
0.369451 0.042206 0.528313
0.504952 0.048402 0.432761
0.639094 0.062928 0.380926
0.741115 0.075685 0.347234
0.793011 0.083757 0.280613
0.814343 0.089830 0.178836
0.052628 0.078157 0.684749
0.059861 0.055970 0.859907
0.060868 0.041398 0.897581
0.245457 0.042741 0.720974
0.545327 0.053712 0.548714
0.725353 0.077485 0.484871
0.781384 0.084276 0.349371
0.808286 0.090776 0.216602
0.807126 0.102785 0.230243
0.037598 0.180011 0.563378
0.050340 0.113893 0.782528
0.061311 0.067750 0.906386
0.087144 0.051942 0.874662
0.430503 0.063188 0.614694
0.696925 0.091997 0.501472
0.795804 0.092729 0.279210
0.808804 0.108278 0.231189
0.822873 0.174334 0.296986
0.026154 0.317662 0.502281
0.037018 0.353048 0.620523
0.058091 0.297780 0.738231
0.097353 0.200961 0.772992
0.296727 0.209033 0.652079
0.648096 0.301381 0.578729
0.789593 0.155123 0.318898
0.824460 0.175875 0.262608
0.851392 0.354437 0.406043
0.032013 0.439796 0.481804
0.057282 0.551049 0.596963
0.101503 0.632273 0.680995
0.157855 0.640345 0.671504
0.370153 0.636561 0.650782
0.619501 0.619501 0.620722
0.784710 0.496635 0.462440
0.828397 0.367010 0.259037
0.877180 0.597543 0.528664
0.070939 0.598825 0.512596
0.134981 0.697169 0.619593
0.215549 0.760464 0.707958
0.321675 0.796536 0.734447
0.485496 0.825879 0.748653
0.571679 0.803815 0.664607
0.827771 0.836027 0.691936
0.856718 0.724804 0.442008
0.904051 0.768109 0.630365
0.146578 0.721019 0.584390
0.223606 0.773297 0.694835
0.382696 0.819471 0.742916
0.530861 0.850080 0.784421
0.607355 0.869490 0.806882
0.646387 0.876112 0.790066
0.821561 0.902129 0.839841
0.919875 0.915480 0.840726
0.908324 0.872114 0.733700
0.197513 0.765042 0.692470
0.450736 0.838575 0.751720
0.538415 0.849912 0.784054
0.600900 0.865583 0.816648
0.678904 0.881621 0.829190
0.742000 0.892378 0.823438
0.818158 0.905516 0.832105
0.889479 0.919295 0.855558
0.932860 0.932769 0.855512
0.060182 0.039582 0.834943
0.090120 0.039979 0.787213
0.227237 0.039689 0.633356
0.377478 0.042206 0.527459
0.471656 0.045136 0.459083
0.550652 0.052705 0.417853
0.646891 0.061463 0.382254
0.747051 0.079164 0.387396
0.790463 0.086397 0.358572
0.059815 0.049332 0.866423
0.060105 0.040970 0.906722
0.117525 0.038315 0.834073
0.341009 0.044312 0.673304
0.515450 0.051316 0.579293
0.632395 0.061692 0.523262
0.733028 0.079225 0.491783
0.773327 0.086534 0.431327
0.795010 0.091844 0.318105
0.060105 0.062715 0.861860
0.060853 0.053681 0.920455
0.062470 0.041871 0.934295
0.186023 0.041642 0.821790
0.461509 0.052964 0.676707
0.656153 0.067842 0.596963
0.756664 0.092714 0.568521
0.778714 0.096864 0.429450
0.792767 0.114946 0.330266
0.051682 0.110033 0.795743
0.058320 0.076143 0.913542
0.062928 0.062333 0.942428
0.069841 0.048798 0.928893
0.329885 0.053956 0.762219
0.644785 0.075502 0.640452
0.754299 0.112154 0.600214
0.787762 0.132967 0.430228
0.803647 0.202731 0.463371
0.038865 0.264073 0.661616
0.052659 0.218570 0.791775
0.058564 0.136126 0.904448
0.071077 0.077653 0.943679
0.128054 0.065476 0.903029
0.551064 0.103914 0.688930
0.759228 0.245518 0.659907
0.798367 0.221485 0.508644
0.833417 0.395300 0.569711
0.032258 0.434058 0.598749
0.082963 0.502663 0.693736
0.083177 0.465858 0.755642
0.092241 0.314748 0.805600
0.178164 0.250568 0.823484
0.467872 0.307408 0.748150
0.774899 0.517739 0.731350
0.836240 0.401938 0.570169
0.878065 0.607263 0.682597
0.055268 0.553597 0.595453
0.103319 0.640879 0.689494
0.167803 0.709667 0.736706
0.230137 0.746868 0.758679
0.291997 0.750195 0.766735
0.546319 0.786526 0.791821
0.771191 0.771191 0.769421
0.881239 0.668788 0.632380
0.923461 0.790158 0.774121
0.126390 0.680751 0.638193
0.217533 0.754116 0.733944
0.276417 0.775204 0.753307
0.351461 0.799680 0.771389
0.511101 0.847944 0.816312
0.666026 0.880964 0.844129
0.753429 0.888716 0.810529
0.908553 0.907057 0.830228
0.931792 0.879484 0.814389
0.224613 0.770504 0.737194
0.279545 0.782788 0.741100
0.387533 0.815351 0.773190
0.548714 0.854551 0.820249
0.668833 0.880659 0.847669
0.755154 0.899199 0.848951
0.833524 0.920836 0.855375
0.890562 0.929747 0.855863
0.937636 0.937636 0.867262
0.060975 0.041245 0.906767
0.085740 0.038926 0.872724
0.197040 0.040238 0.771038
0.401328 0.045777 0.656138
0.514717 0.051560 0.600107
0.589044 0.057389 0.547799
0.671916 0.065736 0.517632
0.747066 0.077729 0.495384
0.777249 0.088777 0.477180
0.059709 0.049317 0.919432
0.062623 0.042435 0.936873
0.112490 0.040528 0.888624
0.264271 0.044236 0.771145
0.463203 0.051911 0.682658
0.594446 0.060029 0.622858
0.715846 0.079088 0.592294
0.758373 0.092729 0.574243
0.768383 0.094438 0.483742
0.059937 0.061830 0.922621
0.061402 0.052888 0.938613
0.068650 0.047700 0.934462
0.211490 0.047471 0.829221
0.421271 0.057160 0.731380
0.614557 0.070466 0.659586
0.714900 0.087129 0.620661
0.754711 0.108553 0.605676
0.779080 0.148394 0.515312
0.057145 0.078233 0.919951
0.061570 0.070695 0.941314
0.070161 0.063890 0.942916
0.087510 0.057389 0.936721
0.284642 0.061265 0.824063
0.582940 0.082689 0.706188
0.709224 0.121843 0.657862
0.763302 0.203769 0.663966
0.791516 0.273594 0.622736
0.050904 0.173632 0.836011
0.057282 0.136080 0.907607
0.069612 0.085496 0.943786
0.093217 0.076081 0.940261
0.164370 0.070069 0.905287
0.483116 0.100313 0.758938
0.725429 0.209018 0.713741
0.791074 0.399649 0.748974
0.824598 0.473671 0.717144
0.077516 0.413153 0.723140
0.069276 0.356771 0.782727
0.079179 0.219532 0.846464
0.109697 0.156207 0.883833
0.211246 0.135988 0.862715
0.369360 0.103929 0.804486
0.716808 0.324025 0.767590
0.814496 0.533303 0.790951
0.868864 0.677089 0.802960
0.086183 0.550622 0.690791
0.080247 0.566430 0.743221
0.113130 0.532097 0.773907
0.169421 0.490944 0.800198
0.279667 0.516564 0.822950
0.482673 0.470893 0.856474
0.678813 0.437339 0.819867
0.863066 0.702113 0.851301
0.912657 0.802396 0.856016
0.101122 0.640864 0.694911
0.171099 0.714916 0.738964
0.234501 0.752682 0.761547
0.288899 0.773251 0.773861
0.348989 0.796902 0.801328
0.543511 0.860273 0.857603
0.731670 0.891997 0.886122
0.888350 0.888350 0.882322
0.947524 0.898116 0.891524
0.234363 0.763867 0.753338
0.280522 0.773648 0.762158
0.325750 0.788647 0.769406
0.447105 0.838270 0.813931
0.634058 0.879515 0.856580
0.747295 0.900984 0.869444
0.834806 0.926299 0.881224
0.904982 0.948333 0.898924
0.948974 0.948974 0.903777
0.058457 0.038346 0.943633
0.079561 0.038193 0.924605
0.157900 0.038453 0.855848
0.294713 0.044434 0.758556
0.452308 0.053361 0.698665
0.562692 0.058091 0.648798
0.669169 0.070314 0.615778
0.741421 0.085191 0.603601
0.758633 0.096040 0.596628
0.059281 0.049485 0.942473
0.066957 0.046235 0.937697
0.182239 0.046815 0.854200
0.304509 0.049699 0.774060
0.471489 0.058412 0.709895
0.610391 0.070146 0.671305
0.671687 0.075990 0.630533
0.736858 0.093111 0.616938
0.756039 0.102113 0.600458
0.059083 0.060288 0.945891
0.069780 0.058991 0.939941
0.082689 0.058579 0.941146
0.202075 0.058030 0.869642
0.377081 0.066224 0.782895
0.586419 0.081041 0.704402
0.681468 0.103532 0.664073
0.730343 0.135409 0.652171
0.765255 0.203784 0.664454
0.058991 0.078935 0.945022
0.068879 0.071611 0.946548
0.086458 0.069642 0.944472
0.159091 0.067613 0.912200
0.344076 0.076493 0.809979
0.561624 0.110307 0.737957
0.703487 0.185672 0.717266
0.761517 0.269810 0.721370
0.792111 0.415351 0.752407
0.055222 0.150210 0.901106
0.068315 0.085634 0.943801
0.092302 0.083742 0.939498
0.183200 0.083070 0.884871
0.373205 0.093782 0.805585
0.586389 0.168246 0.761898
0.726329 0.327016 0.766308
0.794064 0.460822 0.786343
0.815137 0.541833 0.791669
0.057176 0.287785 0.817899
0.075364 0.175738 0.875059
0.101579 0.146960 0.889403
0.225635 0.179843 0.861860
0.428031 0.177539 0.811872
0.615045 0.242832 0.782803
0.755688 0.460899 0.818509
0.829328 0.619669 0.846784
0.853758 0.659495 0.837293
0.054963 0.464729 0.767529
0.097536 0.406302 0.789868
0.137484 0.344656 0.818326
0.266178 0.433249 0.830427
0.495644 0.478538 0.860227
0.660700 0.501625 0.858351
0.787778 0.635111 0.866224
0.861631 0.763149 0.888670
0.901228 0.797681 0.891371
0.071778 0.601907 0.740215
0.128161 0.611475 0.764401
0.188510 0.606958 0.792172
0.303441 0.670680 0.815045
0.503792 0.750408 0.864500
0.662074 0.790372 0.896178
0.800870 0.857023 0.915694
0.898497 0.892866 0.933883
0.942779 0.897139 0.934722
0.179004 0.719692 0.741604
0.234501 0.753628 0.762798
0.289876 0.774838 0.773114
0.337957 0.792157 0.795163
0.534310 0.859556 0.855161
0.713771 0.900526 0.896864
0.828244 0.932052 0.924407
0.905531 0.948409 0.940352
0.959945 0.959945 0.951598
