tools/luts_backup/Kodak Elite Color 200_CIN.cube
# (C) 2014 VisionColor & Patchflyer [www.vision-color.com]
# Generator: VC Patchmatch v.2.1.1 [64/53]
# All work and no play makes Jack a dull boy.
# LUT generated from: Kodak Elite Color 200_Cineon
LUT_3D_SIZE 9
0.085603 0.085603 0.085603
0.138491 0.091096 0.092012
0.201785 0.104555 0.102480
0.250675 0.113497 0.106081
0.289342 0.122530 0.108492
0.321599 0.128817 0.110353
0.353002 0.137514 0.114199
0.382513 0.149538 0.122988
0.406897 0.153689 0.122774
0.127596 0.170657 0.100099
0.183780 0.169680 0.124727
0.244175 0.179843 0.136233
0.296056 0.191257 0.141238
0.337896 0.201968 0.143008
0.371862 0.210666 0.143343
0.400092 0.221164 0.145998
0.425422 0.230930 0.147860
0.445716 0.237003 0.148806
0.143923 0.245090 0.113405
0.217563 0.248692 0.145754
0.274846 0.253605 0.176089
0.340276 0.274113 0.191379
0.387121 0.287175 0.199222
0.418860 0.295384 0.201114
0.444953 0.302281 0.202518
0.470405 0.309545 0.206699
0.493812 0.314397 0.208408
0.113069 0.293004 0.103731
0.218448 0.304692 0.129824
0.319036 0.329503 0.207736
0.364569 0.337224 0.235813
0.427008 0.363714 0.256779
0.467140 0.376684 0.271000
0.495064 0.384710 0.278325
0.522576 0.390234 0.282353
0.550347 0.397223 0.285985
0.099214 0.339910 0.102907
0.197421 0.346990 0.111025
0.350042 0.382849 0.196475
0.409186 0.403143 0.273960
0.445594 0.413367 0.291447
0.497993 0.437476 0.311192
0.536858 0.454932 0.332219
0.569329 0.467140 0.348241
0.595911 0.474891 0.357977
0.103548 0.385534 0.107454
0.207858 0.391699 0.113588
0.374121 0.423590 0.181125
0.453346 0.455756 0.295079
0.483558 0.463569 0.318334
0.514366 0.475593 0.329992
0.558740 0.499062 0.352880
0.595972 0.520195 0.382025
0.619410 0.533562 0.402930
0.107088 0.419471 0.110231
0.238987 0.429358 0.119539
0.410956 0.466804 0.204807
0.490150 0.499763 0.316564
0.521721 0.509178 0.341863
0.545007 0.515221 0.350958
0.569879 0.526940 0.360021
0.607721 0.552483 0.393469
0.631525 0.570153 0.425940
0.109682 0.446174 0.114260
0.304265 0.467231 0.139498
0.457008 0.515679 0.262913
0.525872 0.548791 0.355108
0.554467 0.556329 0.375463
0.575463 0.562829 0.383062
0.595392 0.567956 0.390173
0.616632 0.581353 0.401007
0.637079 0.599054 0.437812
0.128603 0.472877 0.124605
0.373846 0.508690 0.177279
0.491096 0.560937 0.310155
0.552911 0.593133 0.384619
0.580407 0.603876 0.412329
0.598291 0.607660 0.425391
0.613611 0.609522 0.430121
0.627253 0.613275 0.436408
0.642542 0.621790 0.448280
0.087739 0.089754 0.137606
0.142611 0.091096 0.137087
0.201694 0.102876 0.140169
0.254124 0.113313 0.144503
0.297612 0.125612 0.150057
0.334447 0.138064 0.154665
0.365179 0.148165 0.156802
0.392554 0.156191 0.158633
0.414618 0.163851 0.161379
0.130648 0.171756 0.180545
0.199100 0.194553 0.195346
0.267033 0.148165 0.135988
0.296452 0.128878 0.115023
0.321050 0.129915 0.111849
0.352209 0.137758 0.113924
0.382147 0.149660 0.122316
0.403632 0.156405 0.127230
0.416327 0.167391 0.132815
0.161624 0.257481 0.211032
0.141329 0.281682 0.128115
0.328283 0.303777 0.221408
0.382361 0.282872 0.197238
0.401770 0.266209 0.181399
0.422217 0.261357 0.172488
0.441566 0.260197 0.167666
0.457130 0.261173 0.164828
0.467201 0.268894 0.170169
0.145510 0.314092 0.217533
0.105409 0.338415 0.107881
0.318730 0.372961 0.187228
0.436225 0.404974 0.287877
0.476722 0.396735 0.284398
0.493965 0.383368 0.276341
0.511345 0.373205 0.265721
0.528191 0.369879 0.260868
0.536400 0.371923 0.262089
0.122255 0.360967 0.212070
0.104433 0.385657 0.108522
0.313909 0.411109 0.154665
0.461921 0.457191 0.301579
0.513329 0.474983 0.329992
0.549279 0.477119 0.344060
0.574060 0.476570 0.354803
0.590875 0.470985 0.354284
0.592676 0.463508 0.348516
0.116609 0.402686 0.208011
0.106355 0.418799 0.110903
0.327428 0.446723 0.155764
0.487007 0.499214 0.310704
0.533104 0.511803 0.346929
0.570184 0.528069 0.361517
0.602777 0.539574 0.389166
0.620233 0.543084 0.407507
0.620874 0.534081 0.404395
0.115084 0.434089 0.211948
0.111604 0.446082 0.115572
0.367376 0.485267 0.182467
0.512596 0.541955 0.337682
0.557946 0.557763 0.376867
0.586084 0.564141 0.387488
0.615351 0.580316 0.400214
0.632349 0.584100 0.428199
0.633967 0.573480 0.431128
0.126955 0.459419 0.218387
0.144564 0.473335 0.127260
0.395422 0.516197 0.201694
0.523308 0.575250 0.339727
0.574975 0.595758 0.396674
0.598596 0.600946 0.418311
0.618738 0.605280 0.427253
0.639582 0.617090 0.439734
0.639673 0.604944 0.445167
0.160464 0.486366 0.225193
0.230137 0.497566 0.152773
0.374701 0.522515 0.185550
0.500572 0.574884 0.266972
0.572473 0.605035 0.359503
0.600610 0.613062 0.413306
0.614374 0.614130 0.435706
0.629175 0.617670 0.442664
0.644862 0.625940 0.453681
0.092226 0.103029 0.195438
0.136324 0.093660 0.188876
0.204410 0.105501 0.190951
0.259312 0.115267 0.192813
0.302647 0.126253 0.192569
0.339422 0.139284 0.192691
0.371313 0.153536 0.194095
0.399695 0.164553 0.196750
0.422156 0.171115 0.201480
0.130953 0.180880 0.227665
0.136599 0.162539 0.263005
0.268101 0.152163 0.250340
0.308354 0.135897 0.198062
0.338445 0.139620 0.179995
0.368322 0.150698 0.174868
0.395148 0.160281 0.173556
0.414405 0.166445 0.175235
0.427527 0.178103 0.188663
0.176455 0.254795 0.266148
0.205264 0.303655 0.321965
0.305486 0.304906 0.304631
0.373907 0.244511 0.215885
0.387182 0.183658 0.150301
0.392279 0.155428 0.124483
0.403235 0.153780 0.122957
0.417762 0.168978 0.135439
0.449775 0.221866 0.175387
0.213870 0.341833 0.324468
0.206027 0.389654 0.332830
0.174990 0.356359 0.172854
0.427955 0.399634 0.310887
0.480323 0.368780 0.265476
0.488411 0.336553 0.232547
0.491096 0.315587 0.211704
0.494362 0.308690 0.203922
0.512200 0.323583 0.221744
0.225925 0.400671 0.357244
0.187564 0.424994 0.315526
0.136599 0.419593 0.140169
0.395361 0.451789 0.234867
0.529503 0.489632 0.342596
0.575586 0.490120 0.360052
0.587060 0.466926 0.351080
0.582544 0.442939 0.330999
0.585870 0.433173 0.320928
0.232731 0.440131 0.373358
0.180148 0.453010 0.303868
0.125612 0.450233 0.127779
0.413703 0.500908 0.240330
0.553460 0.543572 0.358618
0.602106 0.562646 0.386297
0.625635 0.562249 0.417426
0.623713 0.541283 0.409705
0.620539 0.522179 0.394415
0.255039 0.474128 0.389899
0.183139 0.477028 0.295323
0.148287 0.473548 0.127962
0.455360 0.543877 0.270298
0.572381 0.593347 0.388769
0.608057 0.600977 0.420233
0.638514 0.615442 0.437293
0.637476 0.590936 0.439826
0.634821 0.571160 0.429175
0.286564 0.506157 0.404608
0.204776 0.498848 0.274784
0.227634 0.496620 0.153628
0.428321 0.543297 0.220005
0.562371 0.601160 0.346044
0.602991 0.612543 0.416419
0.623133 0.614923 0.439734
0.644617 0.625483 0.452308
0.640192 0.605371 0.444678
0.323125 0.535821 0.410864
0.232792 0.511223 0.235050
0.302983 0.509728 0.191165
0.450263 0.553552 0.244877
0.557946 0.603479 0.344762
0.599176 0.613550 0.385901
0.613764 0.613794 0.424048
0.628717 0.617609 0.441749
0.645014 0.625940 0.453285
0.096315 0.114900 0.242130
0.137270 0.100771 0.239048
0.199649 0.106996 0.241459
0.260929 0.117403 0.243198
0.306706 0.128511 0.244022
0.343236 0.138979 0.240055
0.372503 0.148318 0.236027
0.399847 0.157076 0.236027
0.422492 0.167452 0.242374
0.135683 0.195621 0.274876
0.108461 0.144015 0.290654
0.200443 0.127016 0.288243
0.313115 0.142641 0.291173
0.344518 0.140841 0.256229
0.373236 0.149020 0.237034
0.399573 0.158694 0.228153
0.419837 0.169162 0.232212
0.432349 0.178958 0.250340
0.172274 0.261662 0.306096
0.165438 0.276371 0.346807
0.213169 0.274662 0.370855
0.373388 0.261784 0.353185
0.402533 0.198032 0.272709
0.408118 0.166995 0.220035
0.417792 0.168032 0.202609
0.431403 0.181277 0.212497
0.461524 0.229587 0.252293
0.204135 0.325689 0.345892
0.223728 0.382055 0.405097
0.268650 0.394751 0.416632
0.413825 0.416815 0.411902
0.456977 0.348608 0.322057
0.452461 0.241535 0.195605
0.427832 0.185672 0.146059
0.451026 0.224063 0.179690
0.519463 0.324498 0.284062
0.248112 0.407111 0.404639
0.291417 0.457679 0.446662
0.277653 0.469429 0.412940
0.263432 0.418738 0.251011
0.510124 0.478157 0.383581
0.563806 0.440421 0.329580
0.555871 0.397574 0.287312
0.550195 0.377539 0.270359
0.583093 0.411597 0.327001
0.295048 0.460700 0.440833
0.334356 0.497017 0.461463
0.282017 0.502708 0.389166
0.194873 0.456519 0.180743
0.507774 0.522393 0.325032
0.588251 0.544762 0.376043
0.624994 0.551263 0.412879
0.620356 0.518242 0.392187
0.626062 0.503685 0.389899
0.338628 0.497749 0.463661
0.370855 0.532067 0.474861
0.297063 0.527947 0.373205
0.224491 0.493416 0.164034
0.499886 0.567498 0.284962
0.602533 0.601190 0.406622
0.638483 0.614710 0.436011
0.637690 0.587854 0.437903
0.639643 0.568719 0.427131
0.386481 0.537163 0.489967
0.384741 0.558862 0.470039
0.271489 0.525780 0.308232
0.303624 0.509514 0.192264
0.510185 0.580835 0.301488
0.599084 0.613581 0.387366
0.621241 0.614954 0.432959
0.645014 0.625971 0.455085
0.643061 0.604242 0.438575
0.425116 0.575311 0.509880
0.348669 0.558251 0.416968
0.288334 0.523064 0.300221
0.397925 0.527001 0.289036
0.529564 0.589899 0.402991
0.596429 0.618036 0.421515
0.616815 0.614557 0.399603
0.632044 0.615228 0.426856
0.646296 0.624109 0.446601
0.100587 0.124727 0.278294
0.135958 0.106172 0.275608
0.195895 0.112032 0.280552
0.254704 0.119020 0.284581
0.308080 0.129671 0.284215
0.346166 0.141909 0.284947
0.378058 0.152865 0.281621
0.404700 0.159762 0.279911
0.426307 0.169497 0.284642
0.138399 0.210513 0.314855
0.102266 0.136934 0.310491
0.170077 0.116457 0.308354
0.269383 0.128908 0.318669
0.346960 0.146700 0.319799
0.378943 0.154665 0.301152
0.405035 0.161685 0.287938
0.424170 0.170108 0.290288
0.437751 0.185824 0.312108
0.168063 0.273960 0.344823
0.149996 0.265049 0.368475
0.146273 0.264683 0.399664
0.291112 0.227970 0.385901
0.406165 0.222202 0.379492
0.415961 0.173617 0.320394
0.423590 0.170230 0.289677
0.438209 0.186313 0.302007
0.470466 0.241001 0.336248
0.191073 0.329229 0.373541
0.183078 0.352972 0.408759
0.176089 0.368811 0.437049
0.309148 0.374182 0.442725
0.456489 0.373144 0.441230
0.471595 0.267597 0.356283
0.445655 0.200549 0.285420
0.465736 0.235813 0.296361
0.525658 0.336797 0.371069
0.229191 0.386999 0.410742
0.274601 0.439948 0.462562
0.286046 0.456550 0.481209
0.392950 0.480171 0.494362
0.500694 0.501152 0.495918
0.535363 0.435050 0.416770
0.516518 0.323415 0.283040
0.521080 0.328130 0.288594
0.593439 0.449378 0.426093
0.287541 0.456001 0.459815
0.346044 0.500725 0.497841
0.382055 0.532677 0.518700
0.383246 0.527092 0.487709
0.409293 0.490211 0.375875
0.570947 0.536370 0.429099
0.621485 0.507927 0.392096
0.614252 0.470970 0.369787
0.625513 0.513817 0.450904
0.347143 0.502770 0.490730
0.402533 0.546380 0.521691
0.434485 0.581079 0.536828
0.363027 0.559411 0.439902
0.348714 0.494148 0.260182
0.578714 0.587060 0.406592
0.629969 0.595148 0.413306
0.640894 0.580591 0.432227
0.641718 0.572351 0.467567
0.402625 0.545495 0.517571
0.439155 0.583612 0.540307
0.428840 0.591028 0.517876
0.362387 0.557336 0.404105
0.398291 0.527428 0.292378
0.574197 0.610162 0.420020
0.621668 0.614099 0.409613
0.645716 0.623560 0.446510
0.646815 0.606683 0.457465
0.447456 0.589654 0.544732
0.443732 0.597833 0.539086
0.432776 0.588983 0.500420
0.428595 0.562676 0.442267
0.481605 0.567468 0.435523
0.561547 0.610346 0.487190
0.614923 0.623468 0.448524
0.635950 0.615778 0.424109
0.648890 0.619135 0.436683
0.101259 0.132204 0.306554
0.134005 0.110964 0.302678
0.188296 0.114199 0.308019
0.249973 0.122683 0.315221
0.299046 0.131899 0.319585
0.345617 0.144930 0.318059
0.379980 0.156619 0.320195
0.409125 0.165621 0.319615
0.432380 0.177035 0.324620
0.135958 0.220493 0.345892
0.102571 0.143343 0.336522
0.155001 0.114199 0.328344
0.242771 0.126284 0.340642
0.316320 0.142153 0.349157
0.378698 0.161501 0.350927
0.409613 0.169284 0.340764
0.430213 0.177798 0.340826
0.442817 0.196902 0.362402
0.156954 0.283635 0.376654
0.140627 0.265538 0.391455
0.122072 0.224918 0.398810
0.219715 0.186374 0.385779
0.343160 0.192111 0.393133
0.417975 0.192020 0.390936
0.431098 0.182406 0.362951
0.444648 0.201938 0.370092
0.477852 0.265202 0.400671
0.170169 0.335454 0.399817
0.154696 0.345861 0.424842
0.142947 0.350378 0.448981
0.214893 0.358495 0.465766
0.390646 0.345281 0.463355
0.477363 0.308583 0.452399
0.455817 0.230533 0.398810
0.478401 0.266850 0.399756
0.535119 0.362371 0.443580
0.210300 0.387549 0.428199
0.228260 0.416541 0.462501
0.219684 0.429694 0.484047
0.280568 0.445441 0.499733
0.425010 0.464042 0.511131
0.534264 0.460380 0.521080
0.531670 0.363516 0.444739
0.533837 0.356481 0.421454
0.591638 0.458442 0.489448
0.276585 0.440284 0.463294
0.338079 0.489448 0.511284
0.377234 0.520867 0.543297
0.399756 0.524224 0.545342
0.495918 0.551263 0.557610
0.556878 0.556085 0.551751
0.600061 0.508110 0.493446
0.598474 0.463874 0.444068
0.624231 0.538354 0.525597
0.344732 0.497932 0.503258
0.406531 0.547234 0.545037
0.450141 0.588617 0.577020
0.457130 0.595483 0.579217
0.486549 0.588373 0.553048
0.516594 0.570306 0.497658
0.615259 0.585565 0.475166
0.640833 0.572931 0.475196
0.639155 0.582666 0.538079
0.408759 0.549554 0.536583
0.450538 0.590356 0.568414
0.467384 0.607599 0.580011
0.483406 0.612848 0.574212
0.483223 0.598810 0.525460
0.489998 0.570886 0.451377
0.609247 0.619379 0.459663
0.646723 0.616480 0.438636
0.646265 0.616022 0.530999
0.456123 0.594781 0.565789
0.465370 0.606317 0.576104
0.485084 0.614252 0.576379
0.508446 0.614130 0.563317
0.517571 0.606134 0.536217
0.540154 0.609461 0.522423
0.593011 0.626459 0.526726
0.630640 0.629206 0.498695
0.648371 0.627161 0.487068
0.101961 0.141756 0.335698
0.132876 0.114839 0.326696
0.180484 0.115389 0.331273
0.243137 0.125704 0.341100
0.293645 0.135378 0.347173
0.339086 0.148287 0.350958
0.379736 0.161471 0.351019
0.410712 0.171908 0.352300
0.435462 0.181674 0.357824
0.133608 0.232700 0.377050
0.107088 0.164004 0.369543
0.147951 0.124758 0.354528
0.225711 0.132845 0.364843
0.300175 0.147616 0.375860
0.358831 0.162661 0.378943
0.408698 0.179049 0.379950
0.432441 0.186587 0.379919
0.444221 0.206729 0.398840
0.146578 0.296696 0.405188
0.133761 0.278141 0.418128
0.121706 0.229221 0.416663
0.192386 0.186892 0.401984
0.304723 0.193881 0.411414
0.384527 0.188052 0.405188
0.431617 0.196017 0.404120
0.445686 0.215213 0.410010
0.479744 0.287266 0.443244
0.152071 0.346532 0.425696
0.135653 0.350317 0.445777
0.131411 0.346868 0.464332
0.165408 0.348394 0.481819
0.315022 0.324834 0.474495
0.435676 0.293996 0.458961
0.455207 0.240558 0.429450
0.481025 0.290501 0.450324
0.538231 0.386084 0.494606
0.192447 0.394049 0.448951
0.193225 0.411414 0.474800
0.173663 0.417273 0.493446
0.202319 0.430732 0.516594
0.338796 0.435004 0.519982
0.483040 0.440070 0.536767
0.534966 0.390890 0.510338
0.540337 0.391211 0.503197
0.593164 0.473945 0.540490
0.263554 0.439918 0.476753
0.304845 0.472267 0.513878
0.321660 0.489296 0.537926
0.324956 0.494697 0.548333
0.433570 0.519890 0.565850
0.510063 0.532616 0.571557
0.597742 0.523735 0.584802
0.599145 0.484657 0.545342
0.623102 0.538659 0.568231
0.338079 0.489601 0.510582
0.403388 0.538506 0.557641
0.452155 0.579065 0.596277
0.459968 0.583215 0.603815
0.505608 0.595361 0.607843
0.557671 0.604822 0.608331
0.603418 0.599695 0.597498
0.630152 0.566278 0.558190
0.638117 0.590173 0.583703
0.407843 0.545251 0.548669
0.454231 0.590692 0.588647
0.475349 0.609613 0.607172
0.498878 0.618494 0.612818
0.535180 0.628107 0.614588
0.554009 0.628138 0.598444
0.568841 0.619348 0.553368
0.641077 0.624811 0.536645
0.646418 0.624445 0.589654
0.460212 0.598169 0.584070
0.472297 0.610712 0.598352
0.495735 0.618524 0.604974
0.532769 0.627497 0.607721
0.556939 0.632319 0.604303
0.563745 0.631708 0.589075
0.586572 0.633539 0.571527
0.627405 0.639094 0.572625
0.647517 0.637293 0.561944
0.106630 0.162905 0.368658
0.134340 0.125399 0.353826
0.176211 0.121004 0.356573
0.238102 0.131533 0.366796
0.290593 0.143282 0.374426
0.334539 0.155215 0.377111
0.373053 0.166110 0.380224
0.410437 0.179202 0.380987
0.436225 0.188357 0.386297
0.130678 0.252293 0.406592
0.118196 0.221775 0.413489
0.156619 0.181216 0.398108
0.226139 0.182345 0.402869
0.304082 0.190982 0.411383
0.360052 0.184176 0.405859
0.402441 0.187198 0.403296
0.432013 0.195895 0.403876
0.444160 0.213016 0.413489
0.133700 0.312078 0.431952
0.130556 0.314488 0.452216
0.148165 0.322026 0.471138
0.216068 0.290501 0.458015
0.329747 0.294041 0.464729
0.405219 0.269780 0.449439
0.440620 0.231601 0.425330
0.445045 0.217685 0.418128
0.478950 0.290196 0.452491
0.135348 0.358465 0.448585
0.129915 0.370916 0.472511
0.156924 0.392920 0.502739
0.221103 0.392309 0.510063
0.336370 0.382757 0.508324
0.446113 0.375433 0.507469
0.487739 0.323064 0.472602
0.478462 0.287968 0.453162
0.539025 0.393500 0.514611
0.177462 0.403021 0.470619
0.168948 0.416602 0.493538
0.185824 0.433783 0.518883
0.269535 0.452949 0.541009
0.356451 0.452277 0.544762
0.468421 0.461158 0.557397
0.538842 0.428260 0.539025
0.537133 0.391516 0.513787
0.594018 0.483375 0.574731
0.256382 0.445747 0.495003
0.271092 0.463386 0.520836
0.281865 0.476204 0.540917
0.348241 0.498848 0.563165
0.433814 0.520470 0.583703
0.484169 0.521569 0.587304
0.567926 0.516258 0.596155
0.598718 0.491402 0.582086
0.623072 0.545464 0.605585
0.336309 0.490425 0.526329
0.372747 0.519493 0.557671
0.387152 0.533227 0.574731
0.426307 0.549493 0.592065
0.488716 0.573114 0.609094
0.535943 0.585931 0.619287
0.568872 0.582635 0.621118
0.629419 0.572351 0.621302
0.637781 0.591028 0.618402
0.405951 0.540185 0.558434
0.456641 0.582422 0.598901
0.477272 0.597620 0.615625
0.499702 0.610620 0.625147
0.535943 0.623957 0.635096
0.571557 0.635157 0.640497
0.597375 0.637873 0.640375
0.637690 0.632837 0.632593
0.648981 0.630182 0.628046
0.461036 0.594995 0.596521
0.475898 0.608759 0.611780
0.500053 0.617945 0.619684
0.538903 0.629999 0.626307
0.570489 0.639185 0.631861
0.587945 0.642329 0.632715
0.605493 0.645228 0.629541
0.631830 0.648829 0.624292
0.650111 0.645472 0.620966
0.113741 0.203433 0.408301
0.142367 0.165286 0.392523
0.178195 0.155001 0.390875
0.239933 0.164553 0.399451
0.294774 0.171969 0.406317
0.339452 0.176822 0.407141
0.377142 0.181552 0.406470
0.408484 0.188418 0.406409
0.436255 0.199680 0.407599
0.125246 0.285405 0.440253
0.146151 0.324620 0.472999
0.188937 0.297398 0.461372
0.261265 0.292912 0.461463
0.344182 0.296086 0.465950
0.398505 0.275792 0.454231
0.431800 0.238346 0.431128
0.443091 0.221347 0.420172
0.443366 0.214694 0.416968
0.123415 0.337469 0.459785
0.152346 0.380682 0.499092
0.214603 0.391058 0.510460
0.286534 0.379339 0.505394
0.384588 0.389441 0.515343
0.448737 0.378820 0.509758
0.483528 0.340612 0.482856
0.487098 0.306889 0.461769
0.477424 0.287053 0.451392
0.126375 0.377264 0.474189
0.159457 0.413947 0.512200
0.246769 0.438148 0.534081
0.355169 0.451637 0.543755
0.423163 0.457984 0.552422
0.489509 0.460121 0.558648
0.530907 0.434791 0.543877
0.547478 0.407752 0.524926
0.538109 0.389502 0.513390
0.162356 0.413977 0.491676
0.188418 0.440497 0.521477
0.289738 0.468299 0.547936
0.405768 0.497353 0.571435
0.476020 0.517113 0.585901
0.518059 0.518242 0.591882
0.563165 0.509758 0.592309
0.596918 0.493507 0.583734
0.593744 0.483131 0.577050
0.246708 0.451606 0.513542
0.261234 0.468971 0.537285
0.346593 0.498482 0.562951
0.446967 0.532219 0.589899
0.509392 0.556512 0.607782
0.542321 0.565362 0.614740
0.581384 0.560632 0.617456
0.617975 0.553185 0.616358
0.622736 0.544793 0.611902
0.329320 0.492103 0.540063
0.339818 0.504540 0.557336
0.398352 0.529320 0.580713
0.477943 0.562066 0.604334
0.532280 0.584863 0.619776
0.562676 0.597925 0.628870
0.592706 0.603326 0.633051
0.628504 0.599512 0.633448
0.638178 0.592462 0.630091
0.401251 0.536217 0.570581
0.412238 0.549462 0.586816
0.450599 0.569299 0.603937
0.508293 0.593530 0.620050
0.551720 0.612207 0.631891
0.577661 0.621820 0.638270
0.606012 0.629938 0.642359
0.635493 0.636347 0.646784
0.648615 0.632197 0.644129
0.463752 0.590814 0.604822
0.476722 0.597986 0.615534
0.499092 0.610437 0.624750
0.536217 0.624048 0.636164
0.570672 0.637507 0.642664
0.592493 0.642481 0.645777
0.609949 0.646174 0.648219
0.633600 0.650996 0.652674
0.655604 0.655604 0.654475
