tools/luts_backup/Kodak Ultramax 400_FPE.cube
# (C) 2014 VisionColor & Patchflyer [www.vision-color.com]
# Generator: VC Patchmatch v.2.1.1 [64/53]
# All work and no play makes Jack a dull boy.
# LUT generated from: Kodak Ultramax 400_FPE
LUT_3D_SIZE 17
0.032486 0.036225 0.035950
0.035996 0.035721 0.036225
0.044984 0.036255 0.035264
0.057618 0.038346 0.034455
0.079576 0.041489 0.035416
0.113329 0.045533 0.038056
0.148150 0.047929 0.038697
0.185016 0.048966 0.039246
0.230335 0.048875 0.040208
0.274052 0.047074 0.041032
0.312734 0.045228 0.041962
0.352102 0.044434 0.043366
0.388083 0.044694 0.044831
0.415488 0.045701 0.046433
0.440940 0.046616 0.047730
0.467353 0.048203 0.049180
0.490486 0.049790 0.050416
0.033570 0.041794 0.038071
0.039704 0.040620 0.035859
0.054963 0.042954 0.035843
0.074983 0.046571 0.035584
0.110063 0.053285 0.037461
0.150179 0.058152 0.038392
0.191119 0.061265 0.039094
0.234592 0.063279 0.039780
0.280049 0.062531 0.041032
0.318776 0.059403 0.042588
0.353552 0.056947 0.044297
0.387488 0.054749 0.046006
0.419394 0.052781 0.047440
0.446433 0.051255 0.048661
0.468284 0.050141 0.049638
0.485618 0.049790 0.050263
0.500587 0.050538 0.051057
0.034760 0.049714 0.037125
0.049012 0.054017 0.036988
0.072541 0.059098 0.036866
0.106752 0.065888 0.037247
0.150103 0.074586 0.037568
0.203372 0.082597 0.038758
0.255970 0.089082 0.040253
0.304479 0.092805 0.041505
0.349187 0.092515 0.043030
0.385885 0.087709 0.044678
0.419272 0.084154 0.046632
0.452598 0.081621 0.048753
0.478126 0.074784 0.050340
0.497612 0.066636 0.051102
0.513634 0.059129 0.051560
0.521447 0.054093 0.051530
0.525292 0.052338 0.052415
0.038178 0.060121 0.038254
0.059632 0.072023 0.039033
0.097993 0.084886 0.038651
0.145525 0.096849 0.038224
0.194995 0.108385 0.038224
0.257267 0.120134 0.040162
0.319738 0.130282 0.042741
0.370550 0.137728 0.044404
0.416861 0.142550 0.045991
0.455817 0.141100 0.047379
0.484932 0.133043 0.048966
0.511528 0.125780 0.050950
0.533547 0.115953 0.052445
0.555535 0.105364 0.053498
0.571130 0.090654 0.053452
0.581552 0.077623 0.053727
0.582177 0.063294 0.053742
0.051484 0.085557 0.040574
0.082185 0.102129 0.040467
0.132570 0.125063 0.039857
0.188251 0.140230 0.039384
0.244923 0.151263 0.039857
0.311437 0.166964 0.041505
0.375570 0.178271 0.044221
0.430701 0.189319 0.047166
0.480751 0.198535 0.049500
0.522972 0.204379 0.051682
0.550698 0.198428 0.052613
0.573037 0.188724 0.053574
0.594980 0.179934 0.055070
0.619532 0.171679 0.056641
0.639338 0.158160 0.058045
0.655268 0.146471 0.058793
0.657526 0.124712 0.058030
0.091341 0.135698 0.040620
0.127810 0.153079 0.039567
0.178347 0.176684 0.039109
0.247913 0.202899 0.040726
0.310704 0.216205 0.041932
0.365667 0.221637 0.043305
0.433509 0.235889 0.046632
0.496101 0.250584 0.050675
0.545052 0.260594 0.054353
0.587182 0.269383 0.057740
0.616312 0.269703 0.059449
0.638697 0.261295 0.060273
0.659998 0.252918 0.061006
0.683223 0.247135 0.062486
0.705150 0.237949 0.063981
0.718181 0.223209 0.064637
0.716030 0.201984 0.063508
0.166201 0.207248 0.038437
0.201144 0.222934 0.039094
0.251774 0.246494 0.040421
0.307881 0.269947 0.042878
0.385794 0.295262 0.046983
0.435019 0.297200 0.048585
0.488121 0.303655 0.051377
0.558083 0.321798 0.057313
0.608927 0.334218 0.062425
0.645991 0.338521 0.065949
0.680018 0.343847 0.069566
0.702968 0.337682 0.070985
0.719692 0.326375 0.071260
0.735714 0.315053 0.071382
0.755749 0.306676 0.072282
0.763729 0.289265 0.071626
0.752377 0.257832 0.068193
0.251881 0.279911 0.040635
0.276631 0.294377 0.042023
0.325872 0.316320 0.044602
0.376181 0.339696 0.047715
0.437003 0.359258 0.052354
0.499931 0.375174 0.057832
0.551553 0.376089 0.061051
0.603159 0.388144 0.066239
0.661463 0.402350 0.072923
0.695720 0.408301 0.076921
0.733013 0.415732 0.081773
0.760937 0.413718 0.084718
0.776608 0.400610 0.084810
0.785702 0.384573 0.083909
0.794888 0.366125 0.082521
0.798901 0.347219 0.080552
0.785428 0.313695 0.075456
0.331823 0.342321 0.045518
0.350683 0.356664 0.047044
0.386770 0.374975 0.049866
0.428855 0.395056 0.053880
0.479866 0.412802 0.059007
0.544198 0.431235 0.065919
0.607340 0.445533 0.073716
0.654307 0.449516 0.078538
0.699992 0.462058 0.084657
0.739788 0.467704 0.089525
0.771481 0.469368 0.093278
0.803510 0.471763 0.097566
0.818494 0.460746 0.097627
0.826398 0.446296 0.096971
0.828244 0.424552 0.094057
0.828916 0.403494 0.091020
0.813901 0.370672 0.085023
0.397253 0.392721 0.051377
0.409400 0.408026 0.053590
0.434440 0.423560 0.056458
0.474708 0.440345 0.061051
0.522194 0.458198 0.066682
0.582712 0.475670 0.074769
0.646326 0.491127 0.084154
0.697398 0.501305 0.091798
0.731701 0.506157 0.096208
0.773281 0.515267 0.102373
0.807248 0.517510 0.106508
0.837263 0.515175 0.109377
0.852506 0.507668 0.110201
0.857160 0.495949 0.108965
0.857435 0.478019 0.105974
0.854276 0.459358 0.102327
0.836805 0.422812 0.094774
0.446540 0.433555 0.057618
0.453895 0.447745 0.060029
0.468711 0.461646 0.063081
0.509514 0.478172 0.068284
0.561349 0.494682 0.074876
0.613046 0.509041 0.082231
0.670741 0.521935 0.091524
0.721401 0.533318 0.100114
0.764492 0.541070 0.106676
0.798047 0.546380 0.111360
0.831907 0.550652 0.116091
0.857771 0.549554 0.118898
0.874922 0.544640 0.120470
0.878965 0.532387 0.118502
0.883604 0.522042 0.117037
0.877226 0.504494 0.113313
0.859861 0.470161 0.105074
0.479469 0.468040 0.064256
0.490990 0.479255 0.066697
0.503288 0.491035 0.069322
0.538506 0.507164 0.074266
0.592462 0.523369 0.082078
0.641138 0.535271 0.089143
0.689693 0.545556 0.097337
0.739864 0.557992 0.106142
0.788342 0.568765 0.115114
0.825437 0.572854 0.120012
0.856916 0.578531 0.124681
0.876631 0.578103 0.127230
0.889220 0.573709 0.128374
0.892653 0.561700 0.126558
0.895705 0.553048 0.125353
0.892683 0.540917 0.122438
0.880461 0.509728 0.114626
0.486198 0.494652 0.068498
0.503624 0.504555 0.071244
0.528099 0.517464 0.074968
0.565332 0.532265 0.080598
0.613428 0.546777 0.087541
0.670008 0.561074 0.096635
0.716396 0.570489 0.104311
0.762234 0.581811 0.112703
0.809812 0.592905 0.121599
0.847547 0.598444 0.128298
0.876310 0.602319 0.132403
0.891203 0.602335 0.134844
0.902785 0.598733 0.135882
0.907027 0.594125 0.135531
0.905959 0.583459 0.133196
0.904845 0.576455 0.131411
0.897704 0.555917 0.126268
0.473976 0.517525 0.071153
0.498009 0.526207 0.074205
0.528176 0.538613 0.078355
0.575280 0.552911 0.084932
0.624292 0.566232 0.091859
0.683330 0.582300 0.101427
0.738918 0.594415 0.110643
0.786404 0.605341 0.119692
0.829038 0.614939 0.128161
0.864347 0.622263 0.135622
0.890318 0.623072 0.139254
0.902907 0.620874 0.140826
0.908736 0.615900 0.140658
0.917433 0.616632 0.142306
0.916564 0.612253 0.141314
0.914946 0.607477 0.140002
0.911727 0.598733 0.137545
0.459480 0.536919 0.072984
0.492592 0.545449 0.076844
0.516014 0.554314 0.079957
0.563851 0.568017 0.086229
0.629877 0.585138 0.095430
0.688609 0.599832 0.104860
0.743496 0.612222 0.114153
0.795712 0.623728 0.123980
0.841962 0.634165 0.133455
0.871702 0.639979 0.139559
0.895140 0.644038 0.144533
0.908980 0.638254 0.145663
0.913634 0.634623 0.145617
0.921218 0.633539 0.146609
0.924178 0.633997 0.147417
0.923919 0.632654 0.147082
0.923339 0.631006 0.146624
0.427726 0.544793 0.071977
0.467094 0.554040 0.076219
0.507454 0.568109 0.081559
0.551965 0.580774 0.087282
0.621439 0.598367 0.096834
0.688167 0.614343 0.107164
0.739483 0.625895 0.115755
0.783856 0.636194 0.124041
0.832074 0.645121 0.133257
0.871824 0.652628 0.141512
0.894835 0.657542 0.146334
0.905669 0.659266 0.149279
0.914153 0.655543 0.150347
0.920882 0.651499 0.150546
0.925582 0.650706 0.151141
0.928512 0.654490 0.152712
0.927504 0.649760 0.151492
0.314305 0.527016 0.064805
0.388830 0.546365 0.070451
0.465537 0.566629 0.078309
0.523934 0.580926 0.084916
0.597528 0.600504 0.094881
0.673030 0.619181 0.106081
0.724636 0.630732 0.114534
0.768414 0.640436 0.122393
0.822248 0.651255 0.132570
0.858183 0.656443 0.139971
0.879210 0.658625 0.143786
0.897963 0.662715 0.147982
0.908629 0.665782 0.151110
0.916609 0.666270 0.153079
0.923323 0.658915 0.152605
0.928161 0.662974 0.154299
0.930205 0.662684 0.154818
0.030137 0.035294 0.042466
0.033845 0.036484 0.043839
0.043015 0.036408 0.043168
0.059495 0.038895 0.044572
0.086671 0.042267 0.046082
0.122072 0.045792 0.049226
0.159335 0.048402 0.050706
0.199130 0.049699 0.052888
0.239963 0.049714 0.054536
0.276631 0.048493 0.053529
0.313329 0.047257 0.052857
0.351461 0.046342 0.053391
0.386313 0.046189 0.054154
0.417151 0.046677 0.055589
0.447272 0.047486 0.056550
0.473823 0.048844 0.057527
0.493523 0.049882 0.057481
0.031769 0.041413 0.045853
0.038987 0.046845 0.049454
0.058122 0.041276 0.038437
0.079927 0.042008 0.036210
0.111192 0.045457 0.037964
0.145052 0.047822 0.038666
0.182132 0.048920 0.039078
0.225360 0.048676 0.039582
0.270665 0.047089 0.040635
0.312749 0.045274 0.042023
0.350271 0.044419 0.043397
0.383948 0.044587 0.044465
0.414267 0.045594 0.046296
0.442405 0.046693 0.047807
0.468956 0.048295 0.049287
0.490074 0.049790 0.051133
0.513085 0.052003 0.058961
0.032013 0.053666 0.047318
0.042832 0.060746 0.040864
0.111788 0.082887 0.041382
0.148348 0.075242 0.038193
0.182467 0.073274 0.038605
0.220310 0.073121 0.039597
0.261311 0.072740 0.040345
0.299077 0.070314 0.041489
0.335164 0.065827 0.043137
0.369940 0.061936 0.044816
0.401236 0.058900 0.046693
0.429648 0.055467 0.048051
0.453529 0.052247 0.049027
0.472190 0.050889 0.049836
0.488045 0.049973 0.050370
0.504509 0.050828 0.051499
0.539132 0.054017 0.058473
0.037324 0.070970 0.048234
0.053208 0.086931 0.041077
0.127840 0.122271 0.040360
0.234348 0.147112 0.039979
0.269596 0.131456 0.040665
0.313207 0.127260 0.042527
0.353140 0.124941 0.043687
0.388388 0.120302 0.044511
0.418799 0.112703 0.045747
0.446845 0.104372 0.047364
0.473671 0.096773 0.049485
0.497795 0.089082 0.050980
0.517327 0.077470 0.051865
0.529885 0.065766 0.052003
0.537255 0.057618 0.052079
0.544656 0.054765 0.052903
0.590341 0.075334 0.060288
0.049500 0.100740 0.051881
0.090166 0.134112 0.040772
0.158740 0.166873 0.039368
0.262135 0.204013 0.041001
0.364218 0.220386 0.043214
0.399695 0.203052 0.044923
0.441733 0.198810 0.047562
0.480369 0.197543 0.049439
0.510643 0.190723 0.050584
0.530587 0.178683 0.051087
0.547921 0.164477 0.052293
0.568704 0.152209 0.053925
0.589029 0.138582 0.055283
0.605890 0.123415 0.055848
0.614008 0.104631 0.055619
0.618708 0.092134 0.055604
0.655619 0.136355 0.063096
0.083940 0.151186 0.052903
0.158511 0.200809 0.038697
0.219562 0.231052 0.039612
0.305180 0.266865 0.042710
0.407218 0.295201 0.047395
0.488045 0.302739 0.051347
0.529427 0.289693 0.053468
0.563790 0.283345 0.056046
0.594156 0.278935 0.058625
0.615015 0.268605 0.059312
0.629114 0.251942 0.059144
0.646021 0.237293 0.059220
0.664393 0.223468 0.060258
0.683101 0.211246 0.061463
0.693904 0.194598 0.062211
0.694728 0.178149 0.061952
0.712001 0.209735 0.067933
0.142824 0.214191 0.049531
0.244602 0.275059 0.040269
0.286931 0.297185 0.042481
0.358068 0.331395 0.046525
0.444053 0.358999 0.052811
0.531777 0.378195 0.059892
0.605859 0.392309 0.066896
0.637507 0.373358 0.068223
0.665232 0.366217 0.070161
0.688914 0.356054 0.071580
0.703777 0.340230 0.071275
0.716518 0.323049 0.070710
0.731365 0.309010 0.070466
0.744121 0.291661 0.070054
0.750011 0.271138 0.068971
0.746563 0.252598 0.067933
0.755856 0.275212 0.073426
0.216037 0.278630 0.047471
0.328634 0.340505 0.045319
0.357900 0.359945 0.047562
0.408911 0.386557 0.052079
0.478935 0.411612 0.058885
0.567452 0.436912 0.069093
0.640848 0.450690 0.077424
0.700130 0.465980 0.085176
0.725826 0.448142 0.085466
0.749065 0.438895 0.086641
0.770672 0.427771 0.087678
0.781918 0.409522 0.086534
0.789395 0.389410 0.084840
0.795193 0.367514 0.082734
0.791363 0.337743 0.078645
0.784253 0.314626 0.075532
0.790616 0.331868 0.080323
0.292668 0.343725 0.048142
0.393942 0.391073 0.051057
0.412039 0.410025 0.053956
0.452811 0.432395 0.058442
0.516350 0.455970 0.065965
0.591531 0.477470 0.075929
0.670039 0.497871 0.088396
0.723461 0.505882 0.095293
0.771984 0.515404 0.102266
0.797116 0.503853 0.102754
0.817990 0.492988 0.103166
0.830655 0.480949 0.102708
0.832486 0.458320 0.099199
0.834958 0.436942 0.096666
0.830243 0.409079 0.091981
0.818586 0.378805 0.086473
0.822400 0.387045 0.088914
0.350866 0.395605 0.051606
0.444480 0.433143 0.057465
0.457313 0.449165 0.060517
0.490150 0.469429 0.065705
0.546181 0.489082 0.072557
0.610697 0.507134 0.081712
0.684077 0.525490 0.093889
0.744808 0.538003 0.103960
0.789151 0.545037 0.110140
0.830869 0.547936 0.115389
0.853819 0.540566 0.116487
0.864454 0.528389 0.115526
0.868635 0.513558 0.113451
0.866011 0.493935 0.109926
0.858930 0.469963 0.104860
0.846922 0.438041 0.098238
0.847868 0.436515 0.098405
0.384894 0.428260 0.055604
0.475700 0.467735 0.063951
0.491722 0.480522 0.066957
0.519127 0.498726 0.071595
0.572183 0.515709 0.078859
0.633356 0.532555 0.087678
0.697795 0.549081 0.098955
0.759762 0.563119 0.110033
0.807797 0.570199 0.117479
0.849790 0.577554 0.123766
0.874907 0.575448 0.126467
0.886000 0.567712 0.126757
0.887907 0.553277 0.124178
0.890303 0.540627 0.121920
0.885893 0.519905 0.117082
0.872648 0.489372 0.110170
0.874403 0.488136 0.110292
0.404959 0.455833 0.059220
0.481849 0.494362 0.068147
0.504219 0.505119 0.071366
0.535546 0.522896 0.076326
0.586847 0.539178 0.083757
0.654032 0.556695 0.093812
0.717662 0.572503 0.104768
0.775876 0.585962 0.115465
0.826169 0.596551 0.125154
0.864652 0.600031 0.130571
0.887098 0.600855 0.133852
0.901595 0.599725 0.135912
0.905211 0.590280 0.134386
0.903014 0.576013 0.130983
0.899657 0.561349 0.127672
0.893843 0.536980 0.121920
0.897627 0.536660 0.122423
0.408377 0.478950 0.062135
0.472038 0.517098 0.070954
0.500618 0.527001 0.074510
0.540413 0.542473 0.079896
0.595117 0.559243 0.087877
0.661006 0.576699 0.097780
0.730098 0.592996 0.109117
0.790097 0.606760 0.120470
0.839155 0.616739 0.130312
0.876814 0.622156 0.137209
0.895308 0.619867 0.139361
0.906706 0.617090 0.140612
0.917586 0.618997 0.142763
0.915190 0.609110 0.140337
0.911955 0.598993 0.137682
0.908507 0.586206 0.134569
0.911131 0.577432 0.133104
0.391867 0.497505 0.063615
0.452491 0.534371 0.072053
0.489647 0.544579 0.076493
0.530983 0.557427 0.081544
0.591943 0.574197 0.089921
0.661479 0.592599 0.100374
0.732387 0.609934 0.112169
0.791882 0.622858 0.123262
0.844022 0.634104 0.133822
0.881224 0.641108 0.141329
0.901289 0.641825 0.145190
0.912154 0.636667 0.145815
0.919371 0.633585 0.146319
0.924132 0.634272 0.147463
0.922698 0.628931 0.146075
0.922179 0.624582 0.145266
0.920546 0.616464 0.143740
0.372229 0.514199 0.064714
0.415152 0.541207 0.070802
0.467094 0.554513 0.076295
0.515419 0.568795 0.082246
0.581003 0.587106 0.091051
0.659388 0.605829 0.102327
0.729732 0.622553 0.113878
0.784298 0.635401 0.123934
0.836561 0.645304 0.134035
0.876310 0.652674 0.142245
0.897398 0.656168 0.146761
0.910582 0.655772 0.149844
0.918044 0.649531 0.149660
0.924941 0.649622 0.150805
0.928344 0.653040 0.152392
0.928466 0.649668 0.151827
0.929397 0.644724 0.151125
0.356054 0.525277 0.065370
0.335103 0.530922 0.065721
0.416220 0.551980 0.072618
0.491447 0.572793 0.081239
0.566064 0.593194 0.090776
0.649775 0.614206 0.102602
0.720928 0.631083 0.114015
0.773022 0.642939 0.123369
0.824430 0.653605 0.132906
0.864668 0.660029 0.141344
0.890089 0.663569 0.146456
0.903166 0.666377 0.149859
0.914931 0.667506 0.152956
0.923476 0.663371 0.153719
0.929259 0.664256 0.154864
0.932372 0.668544 0.156649
0.933486 0.666453 0.156420
0.277272 0.517403 0.062699
0.327260 0.530465 0.065553
0.410483 0.552880 0.072496
0.496712 0.579492 0.082750
0.583246 0.604273 0.094606
0.664363 0.626642 0.107454
0.731945 0.643458 0.118929
0.780529 0.655665 0.127825
0.824491 0.666056 0.135790
0.858473 0.672297 0.142290
0.882979 0.676448 0.147097
0.899458 0.678309 0.150500
0.910567 0.678416 0.153353
0.921050 0.678889 0.156161
0.926192 0.675517 0.156756
0.931960 0.678584 0.158404
0.933913 0.674784 0.158114
0.029053 0.035218 0.054719
0.031281 0.035508 0.055543
0.037873 0.036545 0.056153
0.059770 0.040574 0.061601
0.091844 0.043915 0.064591
0.128023 0.047044 0.067796
0.167269 0.049042 0.071748
0.210468 0.049546 0.075334
0.252140 0.049256 0.076570
0.285115 0.048127 0.075746
0.317113 0.046967 0.075502
0.353704 0.046174 0.076463
0.389776 0.046326 0.077546
0.421103 0.046876 0.077333
0.449180 0.047547 0.075792
0.474678 0.048707 0.074144
0.493355 0.049409 0.071794
0.029755 0.041703 0.058915
0.030564 0.038682 0.066682
0.054353 0.043107 0.072328
0.088899 0.044144 0.063584
0.124681 0.046555 0.060380
0.161898 0.048814 0.060563
0.202304 0.049928 0.061601
0.244221 0.049607 0.060761
0.280659 0.048493 0.059174
0.315770 0.047318 0.057191
0.353048 0.046403 0.056474
0.387594 0.046281 0.057389
0.418097 0.046799 0.058091
0.446662 0.047486 0.058137
0.472328 0.048783 0.058991
0.493294 0.049897 0.060121
0.517388 0.052201 0.074922
0.028717 0.055985 0.064576
0.032609 0.075547 0.082963
0.068925 0.075227 0.077546
0.108812 0.061769 0.055726
0.145815 0.054536 0.045457
0.183688 0.051560 0.040650
0.226169 0.049180 0.040085
0.268864 0.047257 0.040711
0.309346 0.045411 0.041810
0.349538 0.044388 0.043290
0.386069 0.044663 0.044694
0.416068 0.045686 0.046418
0.443580 0.046769 0.047776
0.467475 0.048203 0.049271
0.488701 0.049744 0.051560
0.514839 0.052338 0.059388
0.550378 0.061753 0.082734
0.034119 0.082063 0.069062
0.043458 0.112169 0.073075
0.082444 0.113405 0.059785
0.199039 0.147127 0.060441
0.266545 0.124666 0.046586
0.313191 0.106905 0.043061
0.342489 0.092012 0.043000
0.368399 0.080552 0.044251
0.396658 0.072847 0.046006
0.423941 0.066636 0.047593
0.447318 0.060334 0.049104
0.464729 0.055116 0.049638
0.480873 0.052094 0.050095
0.495399 0.050523 0.050675
0.513741 0.051591 0.052430
0.546105 0.056062 0.059342
0.599359 0.093904 0.086320
0.043091 0.114031 0.073579
0.076555 0.159579 0.067414
0.129732 0.175448 0.045823
0.246052 0.222995 0.046784
0.400641 0.257542 0.048981
0.451118 0.222446 0.048005
0.474784 0.194766 0.049195
0.487266 0.171267 0.049241
0.498924 0.148577 0.049622
0.515511 0.131441 0.051011
0.530312 0.113878 0.052293
0.544564 0.097230 0.053071
0.555520 0.081498 0.052918
0.561517 0.068070 0.052964
0.572488 0.064958 0.054017
0.607630 0.088014 0.060578
0.661509 0.159045 0.086244
0.071641 0.164263 0.077012
0.127398 0.214221 0.061067
0.224933 0.261067 0.040391
0.314076 0.303288 0.044388
0.453605 0.349645 0.053513
0.577569 0.374075 0.062654
0.593698 0.324544 0.060533
0.603357 0.291936 0.059754
0.610605 0.265843 0.058900
0.616663 0.237934 0.057557
0.624414 0.213291 0.057191
0.636774 0.192508 0.057923
0.649134 0.171115 0.058885
0.656031 0.151034 0.059007
0.662181 0.142245 0.059556
0.681315 0.168048 0.065019
0.716640 0.231861 0.088808
0.120378 0.224521 0.076753
0.190173 0.272892 0.055436
0.319387 0.334798 0.044816
0.380072 0.370291 0.049393
0.473960 0.405539 0.058030
0.600244 0.440497 0.072526
0.689662 0.457359 0.082948
0.697734 0.412406 0.077668
0.710552 0.386313 0.076432
0.715145 0.356817 0.074281
0.716686 0.324224 0.070832
0.722850 0.297444 0.068711
0.730877 0.274876 0.067567
0.734585 0.252766 0.066835
0.735653 0.239780 0.066911
0.741131 0.252308 0.070817
0.759167 0.296162 0.093095
0.175540 0.281575 0.072465
0.265492 0.335958 0.052110
0.391852 0.390539 0.050889
0.423178 0.417548 0.055299
0.500038 0.448341 0.063844
0.604837 0.478874 0.077531
0.699260 0.499733 0.091661
0.767956 0.512016 0.101167
0.778515 0.480400 0.096162
0.792798 0.458900 0.094270
0.795026 0.426093 0.090318
0.794110 0.394629 0.085924
0.791913 0.363790 0.081941
0.788174 0.335653 0.078080
0.781552 0.312322 0.075273
0.783368 0.318669 0.078294
0.797177 0.354925 0.099748
0.234409 0.335164 0.067185
0.331914 0.387045 0.052125
0.445319 0.433387 0.057542
0.466758 0.456428 0.062181
0.525856 0.482063 0.069902
0.609537 0.506188 0.081468
0.703990 0.529702 0.097276
0.774884 0.541482 0.107866
0.831632 0.548394 0.115572
0.845899 0.530022 0.113237
0.847349 0.505287 0.109148
0.844343 0.476204 0.103761
0.839445 0.446738 0.098665
0.832914 0.415427 0.093202
0.822538 0.385626 0.087694
0.819516 0.380575 0.087892
0.828351 0.408392 0.105089
0.286854 0.385657 0.063600
0.371527 0.423911 0.055009
0.473274 0.466743 0.063645
0.497765 0.486595 0.068269
0.547402 0.507927 0.075257
0.623697 0.530388 0.086275
0.705608 0.550774 0.100282
0.783139 0.568490 0.114427
0.835309 0.573114 0.121187
0.874891 0.575662 0.126513
0.878294 0.557366 0.123568
0.878370 0.534951 0.118944
0.875196 0.510765 0.113954
0.865141 0.482094 0.107805
0.856962 0.455802 0.102068
0.851118 0.442390 0.099626
0.853407 0.456336 0.110277
0.313466 0.421225 0.059724
0.392782 0.454383 0.058579
0.479149 0.494163 0.067933
0.512047 0.509957 0.072663
0.559655 0.530556 0.079774
0.633371 0.551522 0.090257
0.715709 0.571939 0.104417
0.789258 0.588220 0.117861
0.843626 0.596780 0.127474
0.881468 0.600092 0.132784
0.900130 0.599130 0.135546
0.900313 0.579980 0.131319
0.896712 0.560342 0.126909
0.892439 0.538964 0.122011
0.886305 0.513085 0.116091
0.881727 0.501244 0.113512
0.878706 0.504433 0.119005
0.322118 0.444190 0.057282
0.393271 0.476539 0.061311
0.469154 0.516548 0.070680
0.508461 0.529503 0.075471
0.561959 0.548867 0.082994
0.638148 0.569375 0.093797
0.721172 0.591394 0.107698
0.794842 0.608072 0.121416
0.850416 0.619516 0.132815
0.888594 0.621393 0.138613
0.905226 0.619562 0.140917
0.916625 0.619410 0.142702
0.913176 0.603998 0.138857
0.908125 0.588296 0.134737
0.904799 0.566049 0.129686
0.902358 0.551385 0.126192
0.898436 0.554147 0.129183
0.320165 0.461112 0.056565
0.379919 0.494820 0.062623
0.445533 0.531716 0.071107
0.495171 0.546212 0.077165
0.553002 0.563989 0.084565
0.633997 0.584039 0.095659
0.718425 0.606073 0.109712
0.790036 0.623514 0.123064
0.849973 0.635554 0.135149
0.890806 0.643320 0.143343
0.908568 0.637232 0.145373
0.917403 0.633631 0.146014
0.924636 0.637522 0.148241
0.921462 0.624964 0.145037
0.919341 0.614450 0.142824
0.914122 0.598444 0.138750
0.910643 0.595804 0.139055
0.299916 0.474556 0.056840
0.361227 0.510643 0.063615
0.405798 0.537713 0.069795
0.472160 0.555398 0.076829
0.536889 0.573922 0.084718
0.621790 0.595514 0.096406
0.708553 0.616724 0.110155
0.778515 0.633677 0.122774
0.839734 0.645914 0.134707
0.882292 0.654185 0.143557
0.902266 0.656489 0.148119
0.915373 0.650187 0.149401
0.924544 0.649424 0.150729
0.928679 0.654032 0.152682
0.928023 0.644129 0.150683
0.927840 0.636515 0.149172
0.919264 0.625711 0.146487
0.282399 0.490776 0.058305
0.332357 0.519326 0.063600
0.351461 0.534783 0.066987
0.439460 0.558083 0.074861
0.522499 0.580362 0.084749
0.612970 0.604959 0.097185
0.701869 0.626780 0.111009
0.768048 0.642374 0.122499
0.827008 0.654780 0.133486
0.873701 0.663569 0.143465
0.897704 0.667521 0.148791
0.909270 0.667567 0.151766
0.920638 0.665919 0.153933
0.929152 0.663737 0.154803
0.932097 0.665873 0.156069
0.932006 0.660044 0.154757
0.928222 0.649592 0.152331
0.266102 0.501595 0.059754
0.285008 0.518090 0.062898
0.333486 0.534173 0.066239
0.431556 0.562509 0.075029
0.528038 0.589578 0.086839
0.620981 0.615686 0.100389
0.707805 0.637415 0.114778
0.766003 0.651865 0.125154
0.815290 0.664164 0.134081
0.857298 0.671809 0.142061
0.887877 0.676570 0.147951
0.903517 0.677989 0.151415
0.915618 0.678004 0.154635
0.924941 0.675517 0.156497
0.930755 0.674907 0.157382
0.934066 0.676143 0.158358
0.932708 0.671244 0.157183
0.225315 0.502983 0.059876
0.281086 0.519585 0.063111
0.357549 0.545296 0.069062
0.456123 0.574121 0.079042
0.552956 0.602029 0.092103
0.633295 0.624796 0.105089
0.707607 0.645838 0.118776
0.758129 0.658915 0.128145
0.805463 0.671778 0.136812
0.845365 0.680064 0.144060
0.873518 0.683879 0.148501
0.890074 0.684367 0.150942
0.898955 0.680781 0.151904
0.909804 0.677516 0.153368
0.919203 0.674937 0.155047
0.926863 0.678538 0.157137
0.933318 0.683024 0.159045
0.029358 0.036057 0.072068
0.031434 0.036378 0.071336
0.037171 0.037369 0.072297
0.056641 0.040894 0.077928
0.094316 0.044526 0.085634
0.132509 0.047288 0.088472
0.172549 0.048280 0.093309
0.216205 0.048386 0.097185
0.257221 0.047929 0.099825
0.291264 0.046921 0.099794
0.322148 0.046067 0.100175
0.356542 0.045518 0.102449
0.393225 0.045930 0.105257
0.423987 0.046494 0.104891
