tools/luts_backup/Kodak Elite Color 200_VS.cube
# (C) 2014 VisionColor & Patchflyer [www.vision-color.com]
# Generator: VC Patchmatch v.2.1.1 [64/53]
# All work and no play makes Jack a dull boy.
# LUT generated from: Kodak Elite Color 200_VisionSpace
LUT_3D_SIZE 17
0.027832 0.027832 0.027832
0.042084 0.029236 0.030426
0.059693 0.030030 0.030365
0.081453 0.033143 0.033021
0.100710 0.038575 0.037659
0.116060 0.043427 0.041321
0.131258 0.046998 0.043824
0.145510 0.051057 0.046357
0.160220 0.054597 0.048615
0.174258 0.057588 0.050507
0.188296 0.060121 0.052277
0.203159 0.063508 0.054383
0.218540 0.067811 0.057252
0.235538 0.073243 0.061250
0.250614 0.077516 0.064729
0.265599 0.080781 0.067140
0.277897 0.082246 0.067445
0.038392 0.050813 0.029267
0.055787 0.050355 0.035340
0.074372 0.052857 0.040101
0.096529 0.056733 0.044434
0.118929 0.060975 0.048463
0.135561 0.066499 0.053223
0.153262 0.070954 0.055970
0.170321 0.075654 0.058595
0.187778 0.080323 0.061219
0.203677 0.084321 0.063264
0.218723 0.088258 0.065156
0.234165 0.092561 0.067445
0.250217 0.097810 0.070649
0.265873 0.103243 0.073671
0.281132 0.108003 0.076478
0.294347 0.111208 0.078279
0.306401 0.113893 0.079377
0.052064 0.079652 0.037873
0.068666 0.078737 0.042878
0.090974 0.079255 0.049226
0.114351 0.083803 0.055726
0.137423 0.087892 0.060822
0.157748 0.093690 0.066621
0.178012 0.099092 0.070375
0.196658 0.104982 0.073884
0.215457 0.110353 0.076783
0.232578 0.115206 0.079255
0.249516 0.119722 0.081483
0.264866 0.124422 0.083680
0.281437 0.130282 0.087190
0.297307 0.135866 0.090211
0.312322 0.140597 0.092500
0.326513 0.144533 0.094453
0.338720 0.147921 0.096498
0.066773 0.109895 0.050446
0.084108 0.110292 0.054871
0.106722 0.111818 0.061341
0.126650 0.113558 0.067262
0.154452 0.119478 0.075410
0.178958 0.126741 0.084077
0.204288 0.133639 0.089021
0.227024 0.140169 0.093874
0.247471 0.146029 0.097383
0.266178 0.151461 0.100374
0.283177 0.156313 0.102815
0.299016 0.160800 0.105074
0.314885 0.166232 0.108309
0.331518 0.172030 0.111940
0.347723 0.177096 0.114961
0.363226 0.180453 0.116945
0.378485 0.184604 0.119661
0.073915 0.136843 0.059144
0.094820 0.139620 0.064820
0.119875 0.143771 0.073457
0.146822 0.148836 0.083742
0.170596 0.149660 0.089204
0.202853 0.161318 0.100191
0.233433 0.171817 0.109560
0.260288 0.180392 0.117464
0.283848 0.187167 0.122103
0.303716 0.193027 0.126650
0.320531 0.198123 0.129549
0.337407 0.202792 0.132326
0.354620 0.207828 0.135683
0.372503 0.212985 0.139559
0.391821 0.218143 0.143832
0.409949 0.221836 0.146944
0.428382 0.226291 0.150271
0.072450 0.158633 0.062745
0.097261 0.163119 0.069398
0.129427 0.172000 0.081453
0.165927 0.182956 0.096529
0.193942 0.189639 0.107759
0.217105 0.192020 0.114809
0.254704 0.208560 0.127749
0.288579 0.221530 0.141604
0.319463 0.232303 0.150118
0.343847 0.239292 0.157473
0.363714 0.244907 0.162051
0.381811 0.249729 0.166049
0.401434 0.254704 0.170626
0.420905 0.259678 0.174563
0.443000 0.264714 0.178897
0.466712 0.270115 0.183871
0.487678 0.275547 0.188785
0.069612 0.178592 0.065675
0.092439 0.182986 0.070405
0.132052 0.195224 0.082460
0.180392 0.213413 0.104189
0.218143 0.228733 0.124269
0.246006 0.234897 0.135012
0.271000 0.239353 0.142763
0.312383 0.257847 0.157931
0.350896 0.273899 0.173068
0.383001 0.285313 0.184451
0.410773 0.293370 0.193912
0.434058 0.300603 0.200076
0.456275 0.306645 0.207553
0.479133 0.312352 0.214817
0.501610 0.317998 0.220340
0.524163 0.325017 0.226871
0.544823 0.331884 0.232822
0.069886 0.201053 0.070130
0.088350 0.203311 0.072633
0.128847 0.215244 0.081941
0.188998 0.238682 0.104860
0.241093 0.263005 0.137697
0.274723 0.277104 0.155886
0.300664 0.281529 0.163149
0.327794 0.288701 0.172519
0.373632 0.308965 0.190433
0.414527 0.327123 0.206119
0.449134 0.339635 0.219821
0.484230 0.351263 0.231388
0.513176 0.361639 0.241154
0.538109 0.369665 0.250736
0.562890 0.377081 0.259312
0.584375 0.384680 0.268009
0.602045 0.391302 0.274662
0.074830 0.226749 0.076387
0.088228 0.227573 0.077485
0.128145 0.238743 0.084565
0.194003 0.261784 0.104860
0.259525 0.292027 0.141543
0.304601 0.315801 0.173556
0.333043 0.325811 0.184695
0.357092 0.330938 0.192447
0.388113 0.341436 0.204410
0.435767 0.364324 0.223331
0.478706 0.382269 0.239902
0.519280 0.398474 0.255009
0.554467 0.413825 0.269230
0.585046 0.427680 0.281193
0.613672 0.438514 0.291295
0.638788 0.448341 0.300175
0.655116 0.454948 0.307378
0.081392 0.254459 0.083040
0.093507 0.255070 0.084413
0.134218 0.265660 0.090242
0.203311 0.287297 0.108034
0.276371 0.319188 0.144991
0.333471 0.350378 0.188693
0.370123 0.368475 0.207492
0.394202 0.375311 0.215946
0.420356 0.382727 0.224582
0.453315 0.396521 0.236515
0.500603 0.417792 0.256046
0.543969 0.439460 0.273838
0.583825 0.460517 0.290013
0.617914 0.480415 0.304814
0.646571 0.497902 0.320287
0.670832 0.511376 0.332738
0.688197 0.521904 0.341405
0.087434 0.281193 0.089082
0.100587 0.281926 0.090547
0.146334 0.293431 0.097414
0.220005 0.316258 0.115145
0.296086 0.347814 0.152041
0.360174 0.384100 0.200778
0.404028 0.408179 0.230045
0.435157 0.418341 0.239567
0.458198 0.424964 0.246616
0.486152 0.434302 0.257267
0.518029 0.449287 0.270878
0.561456 0.471504 0.288151
0.603296 0.500175 0.306279
0.640223 0.526635 0.327001
0.670069 0.547570 0.343847
0.692958 0.564233 0.360906
0.707149 0.576562 0.374731
0.093141 0.305516 0.094697
0.108248 0.306584 0.096284
0.160800 0.320409 0.105104
0.242252 0.346471 0.126223
0.320165 0.380377 0.164950
0.389197 0.419867 0.216648
0.440650 0.448951 0.250309
0.473274 0.462074 0.262699
0.499336 0.469459 0.271763
0.523644 0.477272 0.280552
0.548669 0.486397 0.289311
0.574670 0.502342 0.300175
0.614496 0.529656 0.318059
0.652705 0.559319 0.340368
0.685023 0.584649 0.361028
0.707179 0.605127 0.384497
0.721401 0.617243 0.400397
0.097902 0.327123 0.099245
0.117922 0.329809 0.101320
0.179049 0.347417 0.112978
0.270176 0.379156 0.142092
0.352483 0.419867 0.187381
0.422522 0.461036 0.239536
0.477882 0.494423 0.274327
0.515312 0.510796 0.288182
0.539940 0.518395 0.296239
0.561791 0.525475 0.303563
0.584009 0.533074 0.311101
0.604791 0.543084 0.319097
0.626978 0.559045 0.330663
0.661738 0.585870 0.350439
0.693751 0.613031 0.373693
0.716426 0.634302 0.399420
0.731075 0.647517 0.420203
0.103304 0.348486 0.104891
0.136263 0.355444 0.108919
0.206363 0.375769 0.123659
0.302861 0.415412 0.162234
0.391211 0.466682 0.217777
0.463752 0.514153 0.272251
0.519097 0.545342 0.300511
0.554925 0.559411 0.311315
0.578668 0.567285 0.319738
0.598596 0.574060 0.328038
0.617609 0.580987 0.335698
0.636286 0.587823 0.343420
0.654871 0.598413 0.352239
0.673518 0.613886 0.362310
0.703059 0.638788 0.385351
0.724392 0.661219 0.411658
0.738033 0.673335 0.436103
0.108278 0.367559 0.110201
0.164675 0.383124 0.120119
0.245335 0.411749 0.142245
0.341253 0.457862 0.188815
0.433845 0.519951 0.253819
0.509331 0.568780 0.307378
0.559472 0.598962 0.323400
0.590875 0.609857 0.338293
0.612787 0.615747 0.347021
0.631586 0.622583 0.354376
0.649195 0.629175 0.361242
0.665095 0.634028 0.367315
0.679927 0.640101 0.375250
0.695460 0.649927 0.385138
0.712886 0.666010 0.398871
0.733028 0.685817 0.423499
0.744778 0.697230 0.449531
0.114504 0.387182 0.116274
0.200229 0.415625 0.132570
0.292790 0.453895 0.168093
0.385840 0.510704 0.223697
0.477821 0.571923 0.292271
0.551537 0.621180 0.329412
0.596887 0.647181 0.351659
0.623285 0.658808 0.366644
0.642939 0.663783 0.378058
0.661128 0.668360 0.387335
0.675837 0.673671 0.394659
0.688594 0.676844 0.400305
0.701289 0.680232 0.406622
0.713741 0.685908 0.413825
0.727230 0.695064 0.423102
0.741512 0.707881 0.437598
0.751339 0.719326 0.462318
0.127108 0.413672 0.125429
0.230991 0.447120 0.144900
0.331792 0.495552 0.191623
0.420539 0.553246 0.252262
0.506676 0.610773 0.316503
0.575921 0.657221 0.345373
0.620050 0.680446 0.368658
0.647517 0.693507 0.391363
0.668177 0.700832 0.406928
0.683101 0.705013 0.417700
0.695430 0.708431 0.428016
0.707088 0.710781 0.434394
0.717952 0.712428 0.439521
0.725887 0.715206 0.444404
0.735958 0.719509 0.452094
0.747616 0.724819 0.462257
0.757382 0.732937 0.473610
0.029175 0.029145 0.042176
0.043580 0.029175 0.043305
0.057984 0.030488 0.042115
0.078279 0.033906 0.044495
0.098207 0.038849 0.047578
0.117525 0.042481 0.049653
0.134554 0.046357 0.051789
0.151217 0.050965 0.054963
0.167880 0.055360 0.058656
0.184543 0.058778 0.061219
0.200046 0.062379 0.062867
0.215030 0.066377 0.064851
0.230106 0.070832 0.067201
0.245335 0.075013 0.069764
0.260349 0.079408 0.072816
0.274846 0.083528 0.075746
0.286900 0.086488 0.077363
0.039002 0.052338 0.057130
0.061860 0.059144 0.061280
0.086519 0.044404 0.044343
0.105470 0.041657 0.040681
0.118715 0.044282 0.042542
0.132906 0.047333 0.044556
0.146120 0.051209 0.046906
0.159396 0.054292 0.048829
0.172671 0.057313 0.050477
0.187259 0.060426 0.052125
0.203281 0.064179 0.054444
0.218906 0.068177 0.057130
0.235080 0.072663 0.060670
0.250095 0.077028 0.064240
0.264530 0.081209 0.067292
0.275059 0.083406 0.068635
0.281651 0.084016 0.068360
0.048890 0.084474 0.060853
0.065858 0.102052 0.048768
0.111543 0.096834 0.063752
0.135836 0.088289 0.061707
0.150362 0.085481 0.063081
0.164767 0.084657 0.062898
0.180423 0.086793 0.064027
0.195438 0.089662 0.065736
0.210758 0.092653 0.067475
0.224735 0.095796 0.068940
0.240116 0.099275 0.070741
0.255070 0.103059 0.072938
0.270542 0.107424 0.075776
0.285008 0.111666 0.078279
0.297734 0.115206 0.079927
0.308171 0.118074 0.081331
0.314366 0.120211 0.082246
0.057801 0.116823 0.067353
0.072999 0.131777 0.057954
0.114229 0.136873 0.071229
0.160250 0.140505 0.084352
0.184085 0.135317 0.087831
0.201572 0.132113 0.088014
0.219364 0.132204 0.089174
0.235874 0.133242 0.090028
0.251316 0.135042 0.090761
0.265476 0.137545 0.091829
0.280034 0.140444 0.093233
0.294133 0.143587 0.094911
0.307530 0.146944 0.096651
0.321843 0.150332 0.098573
0.335210 0.153780 0.100008
0.346166 0.157137 0.101686
0.354620 0.160769 0.104189
0.063111 0.145754 0.073121
0.071412 0.155764 0.062501
0.116030 0.165957 0.076478
0.166964 0.180056 0.096498
0.212345 0.188052 0.112642
0.242069 0.186801 0.117067
0.264286 0.186648 0.120668
0.282963 0.186221 0.122042
0.297612 0.186282 0.122621
0.310918 0.187015 0.122438
0.324102 0.188174 0.122866
0.338415 0.190066 0.124086
0.352087 0.192325 0.125490
0.366857 0.194766 0.127291
0.382544 0.197787 0.129152
0.395758 0.201572 0.131533
0.405646 0.206088 0.134890
0.070497 0.166842 0.083223
0.069001 0.176547 0.065431
0.111025 0.187655 0.076112
0.172305 0.209598 0.101289
0.227665 0.229770 0.127138
0.268315 0.237919 0.141695
0.301976 0.242954 0.151156
0.329564 0.245640 0.157137
0.349340 0.245792 0.161532
0.364080 0.244846 0.161929
0.376379 0.244205 0.161776
0.390845 0.244327 0.162478
0.406897 0.245853 0.163912
0.424475 0.248264 0.166140
0.443763 0.251164 0.168856
0.459907 0.254673 0.171817
0.471412 0.259251 0.175723
0.071870 0.186160 0.088319
0.069917 0.199710 0.070008
0.103059 0.207309 0.075990
0.172641 0.233158 0.100221
0.243778 0.262760 0.139254
0.290257 0.279423 0.160220
0.326726 0.287633 0.171908
0.364996 0.296727 0.184329
0.395666 0.301793 0.192203
0.420569 0.304021 0.199588
0.438575 0.304540 0.202426
0.453864 0.305058 0.206119
0.471748 0.306493 0.209964
0.492042 0.308843 0.213046
0.510277 0.311864 0.216495
0.525658 0.315068 0.219577
0.536217 0.318791 0.222934
0.073060 0.207919 0.090730
0.074983 0.226169 0.076326
0.100435 0.230655 0.079316
0.169528 0.253361 0.097475
0.254582 0.289738 0.139467
0.313207 0.318334 0.177737
0.349798 0.329839 0.190127
0.387839 0.340063 0.203800
0.428397 0.350622 0.217746
0.464698 0.358923 0.229587
0.496132 0.364782 0.238468
0.520165 0.368902 0.245548
0.540185 0.372503 0.252262
0.560998 0.375677 0.258183
0.578088 0.378302 0.263401
0.589746 0.380743 0.267308
0.596490 0.382544 0.269657
0.077638 0.233829 0.093141
0.081361 0.254307 0.083009
0.103426 0.257725 0.085298
0.169833 0.277806 0.099641
0.262242 0.313939 0.139101
0.336156 0.351629 0.190982
0.381048 0.371405 0.211612
0.413748 0.380377 0.222293
0.453605 0.396033 0.236484
0.497047 0.408453 0.252171
0.533776 0.420020 0.265293
0.565789 0.430671 0.276768
0.594324 0.439429 0.286687
0.618738 0.445823 0.294591
0.639002 0.450217 0.300755
0.650690 0.451652 0.304784
0.655085 0.449729 0.305119
0.083833 0.261479 0.096742
0.087495 0.280858 0.089113
0.109285 0.284092 0.091341
0.178256 0.304692 0.105440
0.273381 0.339849 0.142702
0.356359 0.383185 0.198947
0.412360 0.410651 0.232792
0.448402 0.422278 0.243717
0.479622 0.433204 0.255131
0.520226 0.452277 0.272404
0.559045 0.465309 0.285771
0.595178 0.482704 0.299260
0.627771 0.500023 0.314427
0.654017 0.513863 0.327855
0.674739 0.523751 0.337987
0.687831 0.526131 0.342962
0.691310 0.522103 0.342473
0.089723 0.288640 0.102144
0.093111 0.305180 0.094759
0.116670 0.308293 0.097505
0.192264 0.331121 0.113161
0.293492 0.370001 0.152499
0.379492 0.416144 0.210422
0.442817 0.450202 0.251072
0.482155 0.464271 0.265690
0.512261 0.473030 0.276249
0.543297 0.486336 0.288029
0.576745 0.506279 0.301732
0.612696 0.524376 0.316045
0.647822 0.546960 0.335454
0.677058 0.565240 0.351263
0.696773 0.578546 0.368872
0.707027 0.583490 0.377935
0.710048 0.580560 0.378332
0.094850 0.313268 0.107637
0.097292 0.326360 0.099092
0.125124 0.330877 0.102510
0.211185 0.359533 0.123354
0.317998 0.402930 0.167452
0.406134 0.452247 0.227481
0.475319 0.494575 0.273533
0.519036 0.512718 0.289586
0.546990 0.520439 0.298314
0.573449 0.528954 0.307195
0.601190 0.541650 0.317693
0.626551 0.557519 0.330205
0.660212 0.581140 0.348638
0.690089 0.602991 0.369024
0.710323 0.617945 0.390723
0.720790 0.623713 0.402197
0.724178 0.622126 0.405188
0.099641 0.334630 0.112581
0.102785 0.347356 0.104372
0.142153 0.355810 0.109865
0.237491 0.389013 0.136233
0.349340 0.442206 0.190372
0.441535 0.498970 0.255924
0.511803 0.541558 0.298192
0.555749 0.561364 0.311955
0.583124 0.569512 0.321904
0.605707 0.575799 0.330694
0.628382 0.584344 0.340093
0.651240 0.596002 0.350652
0.672908 0.611994 0.361639
0.700465 0.632990 0.382452
0.720241 0.649989 0.405676
0.730892 0.656672 0.422431
0.734340 0.653010 0.427710
0.105226 0.354650 0.117952
0.108827 0.367346 0.110384
0.169619 0.384009 0.121004
0.274022 0.424445 0.154788
0.385534 0.488655 0.219089
0.480293 0.550347 0.288640
0.548577 0.591638 0.319646
0.588800 0.609430 0.337346
0.614557 0.616815 0.347814
0.635187 0.623011 0.355505
0.655543 0.629633 0.363317
0.673976 0.636835 0.372259
0.692012 0.646784 0.383307
0.711391 0.664790 0.397772
0.729397 0.678920 0.419043
0.739345 0.684749 0.438727
0.742000 0.679469 0.445045
0.111086 0.373449 0.123751
0.116732 0.388861 0.117311
0.205264 0.417578 0.134920
0.313970 0.465309 0.179538
0.419684 0.534081 0.248844
0.515312 0.596063 0.317571
0.579583 0.636103 0.341466
0.617517 0.653925 0.360632
0.642115 0.661433 0.375250
0.661555 0.666621 0.386206
0.677394 0.671809 0.394293
0.692897 0.675807 0.401709
0.708095 0.680629 0.409888
0.722866 0.689113 0.419379
0.738033 0.703700 0.432715
0.747127 0.709865 0.452338
0.748623 0.704555 0.459144
0.118227 0.394690 0.129976
0.132204 0.413794 0.126436
0.233433 0.445716 0.148379
0.337102 0.498085 0.197086
0.433082 0.562799 0.263279
0.527977 0.620417 0.327825
0.594018 0.661616 0.352178
0.633967 0.681086 0.372808
0.661067 0.690700 0.394018
0.679072 0.696529 0.408667
0.692958 0.700832 0.418769
0.705653 0.703334 0.426062
0.717586 0.706172 0.433082
0.728695 0.710719 0.440986
0.741604 0.717830 0.451759
0.754269 0.728420 0.463966
0.754788 0.724849 0.470314
0.131655 0.419898 0.138277
0.160891 0.441535 0.140078
0.250278 0.468452 0.159213
0.332647 0.511131 0.198917
0.415991 0.566888 0.252201
0.509819 0.622248 0.311528
0.588434 0.662928 0.356329
0.635615 0.688441 0.371374
0.668177 0.703670 0.390265
0.687892 0.712276 0.412573
0.700008 0.716548 0.431342
0.710719 0.717922 0.442908
0.720424 0.718959 0.448432
0.729152 0.721584 0.453346
0.739956 0.725246 0.460883
0.751339 0.730251 0.470771
0.760800 0.738155 0.480446
0.028901 0.029633 0.058961
0.040406 0.029572 0.056550
0.058869 0.031159 0.055299
0.076356 0.034333 0.055299
0.095430 0.039429 0.057862
0.115541 0.043397 0.061006
0.133181 0.047700 0.063050
0.152468 0.051881 0.065705
0.170443 0.056580 0.069062
0.189120 0.060975 0.071839
0.206455 0.065980 0.074556
0.222843 0.070314 0.076661
0.239048 0.074128 0.078523
0.254398 0.077668 0.080262
0.269810 0.081025 0.082246
0.284825 0.084657 0.084627
0.295903 0.087892 0.086458
0.039582 0.052888 0.071626
0.044465 0.047639 0.083467
0.081270 0.045472 0.074861
0.099886 0.043244 0.062287
0.119142 0.044709 0.057313
0.135103 0.047333 0.057313
0.151705 0.051118 0.059419
0.168368 0.055451 0.062013
0.185367 0.059419 0.064179
0.201419 0.063050 0.065705
0.217777 0.067201 0.067231
0.232395 0.071595 0.069398
0.247166 0.075349 0.071687
0.261265 0.079133 0.073915
0.275364 0.083162 0.076722
0.286412 0.086702 0.079622
0.293126 0.089265 0.081575
0.051362 0.081392 0.088716
0.067445 0.099611 0.106416
0.102480 0.098238 0.099031
0.143404 0.074556 0.069917
0.155703 0.066316 0.059724
0.160525 0.061646 0.054932
0.168032 0.058198 0.052308
0.177646 0.058869 0.052094
0.188235 0.060700 0.052949
0.201114 0.063416 0.054322
0.217777 0.067933 0.057130
0.234836 0.073060 0.060914
0.250156 0.077577 0.064454
0.264347 0.080751 0.067262
0.275090 0.083558 0.069245
0.283116 0.086824 0.071077
0.291386 0.091920 0.074403
0.064118 0.119631 0.100374
0.072999 0.146883 0.103517
0.078584 0.143862 0.065766
0.163333 0.142580 0.091737
0.196658 0.128573 0.089448
0.209506 0.119844 0.084535
0.218692 0.112673 0.079896
0.228214 0.109651 0.077638
0.238621 0.108797 0.076722
0.250919 0.110414 0.077241
0.263737 0.113039 0.078218
0.277501 0.115908 0.079805
0.290990 0.118807 0.081453
0.302892 0.121096 0.082765
0.312657 0.123842 0.084260
0.320409 0.127260 0.086122
0.326940 0.131563 0.089204
0.074678 0.153262 0.111727
0.080323 0.174838 0.106783
0.077333 0.170718 0.070588
0.144930 0.183810 0.092073
0.229038 0.201205 0.121004
0.263981 0.192874 0.124269
0.277806 0.182803 0.119905
0.286503 0.174441 0.115724
0.294469 0.168887 0.111910
0.304509 0.166445 0.109773
0.315770 0.166323 0.109163
0.327855 0.166781 0.109194
0.339055 0.167330 0.109133
0.349310 0.167941 0.109102
0.359167 0.170047 0.110140
0.368078 0.173892 0.112245
0.375525 0.178470 0.115938
0.086549 0.180026 0.124269
0.079500 0.194553 0.107698
0.074250 0.198215 0.072908
0.138674 0.215091 0.090364
0.222965 0.245823 0.129671
0.301701 0.266545 0.158175
0.337072 0.261509 0.164675
0.352850 0.252140 0.164828
0.361120 0.242741 0.160861
0.367620 0.234806 0.155550
0.377172 0.229709 0.152193
0.388647 0.227024 0.150515
0.400702 0.225620 0.149630
0.412421 0.225284 0.149355
0.424384 0.226322 0.150240
0.434455 0.229191 0.152285
0.441688 0.233280 0.155703
0.087861 0.203861 0.130220
0.078614 0.214939 0.107393
0.076844 0.225559 0.077882
0.133333 0.240879 0.089021
0.226841 0.278019 0.130953
0.313542 0.311894 0.175937
0.374060 0.329168 0.196841
0.409522 0.326940 0.204654
0.431174 0.320409 0.208560
0.444312 0.311910 0.206821
0.453651 0.304906 0.205905
0.463844 0.298985 0.204410
0.477302 0.295232 0.202396
0.491005 0.293980 0.202457
0.501793 0.293828 0.202762
0.509911 0.294896 0.203708
0.514916 0.297581 0.206119
0.088502 0.228000 0.135103
0.080964 0.239292 0.107424
0.082338 0.254276 0.084016
0.129946 0.265934 0.091402
0.229862 0.302708 0.129427
0.329686 0.346044 0.187503
0.392447 0.371466 0.214450
0.443961 0.388037 0.231662
0.480766 0.389075 0.242283
0.510216 0.386801 0.248814
0.530694 0.383444 0.253269
0.544915 0.377951 0.255406
0.557733 0.372580 0.256291
0.569482 0.369039 0.257053
0.576165 0.366476 0.257328
0.579461 0.364508 0.256992
0.580957 0.363836 0.256840
0.090761 0.253391 0.138766
0.086427 0.266423 0.109407
0.087831 0.281376 0.089570
0.132387 0.291142 0.096040
0.234012 0.325780 0.129213
0.344778 0.377050 0.192477
0.419547 0.411414 0.234501
0.465568 0.427436 0.249393
0.516152 0.448112 0.269932
0.551141 0.450996 0.279301
0.581689 0.455314 0.287968
0.605585 0.456901 0.294224
0.625055 0.455833 0.299016
0.639399 0.453147 0.302037
0.646632 0.447501 0.302037
0.647272 0.440940 0.300450
0.644038 0.434684 0.297917
0.094850 0.279423 0.141817
0.091676 0.292210 0.111666
0.093294 0.306188 0.095033
0.137881 0.315496 0.101320
0.242954 0.351415 0.133944
0.359930 0.406744 0.198856
0.445747 0.450660 0.251774
0.495705 0.468208 0.270481
0.534142 0.482704 0.284703
0.576806 0.505608 0.301518
0.610162 0.514763 0.312261
0.639735 0.525658 0.326482
0.662593 0.533791 0.337102
0.679347 0.537240 0.343847
0.689204 0.532967 0.345769
0.691432 0.524025 0.343267
0.687099 0.512642 0.337987
0.099611 0.305791 0.147280
0.096406 0.315557 0.114839
0.097383 0.326207 0.099306
0.145388 0.337682 0.106844
0.258000 0.378851 0.143923
0.380438 0.439948 0.211795
0.471595 0.492592 0.271580
0.527550 0.514244 0.292271
0.561486 0.524956 0.303197
0.594842 0.539269 0.315404
0.628077 0.561364 0.331945
0.657984 0.573968 0.346075
0.684352 0.587243 0.361120
0.701778 0.595636 0.377356
0.710262 0.595941 0.384588
0.712398 0.589563 0.383917
0.709224 0.577722 0.376715
0.103456 0.329107 0.153353
0.100740 0.336767 0.118807
0.102632 0.346960 0.104891
0.160037 0.362341 0.115175
0.282017 0.411627 0.159701
0.407630 0.479835 0.232883
0.502007 0.537041 0.295384
0.558099 0.562158 0.312871
0.590570 0.570794 0.324773
0.618006 0.579614 0.335546
0.646845 0.594385 0.348791
0.674098 0.615076 0.362890
0.698421 0.628412 0.380529
0.715724 0.637232 0.398901
0.724849 0.637537 0.409277
0.727108 0.632319 0.412116
0.724178 0.621912 0.405341
0.108370 0.350683 0.159030
0.105745 0.356329 0.123232
0.109163 0.367498 0.110842
0.183993 0.389990 0.126131
0.312749 0.448218 0.179232
0.438819 0.524498 0.259159
0.534142 0.582238 0.315099
0.587884 0.609400 0.336767
0.618921 0.618616 0.349645
0.642847 0.624903 0.358404
0.665858 0.632502 0.367529
0.688167 0.644831 0.380957
0.710994 0.664149 0.397345
0.726680 0.672816 0.415503
0.734981 0.672419 0.429938
0.737484 0.666529 0.435187
0.734951 0.653895 0.428901
0.114534 0.369726 0.164614
0.111940 0.374670 0.128359
0.119142 0.390356 0.118196
0.215427 0.420874 0.139376
0.344152 0.486091 0.199557
0.465705 0.563836 0.282841
0.559167 0.622400 0.331426
0.611566 0.649378 0.356817
0.642664 0.659937 0.373571
0.664729 0.665614 0.386328
0.682643 0.670405 0.395422
0.700954 0.676295 0.405066
0.718502 0.685695 0.415778
0.736721 0.701747 0.430732
0.743984 0.702296 0.446265
0.745785 0.695308 0.452552
0.742885 0.680873 0.447150
0.123415 0.391058 0.172763
0.121462 0.397253 0.135103
0.135805 0.415045 0.127504
0.242618 0.448737 0.152468
0.358740 0.512932 0.211551
0.469551 0.585504 0.287266
0.566155 0.642786 0.341802
0.622431 0.673396 0.365789
0.656886 0.686580 0.387640
0.678248 0.693080 0.405432
0.694057 0.697322 0.416632
0.709682 0.701015 0.425940
0.723232 0.705806 0.435096
0.737606 0.713527 0.446815
0.752194 0.725795 0.460853
0.752987 0.720882 0.466682
0.749722 0.707179 0.461830
0.135988 0.415595 0.182376
0.140200 0.424140 0.144015
0.162020 0.438758 0.139345
0.261204 0.470466 0.164034
0.356115 0.526024 0.214847
0.453986 0.589593 0.275608
0.556786 0.644373 0.339117
0.622278 0.681025 0.364385
0.661555 0.700191 0.384924
0.685542 0.709560 0.409430
0.700221 0.714015 0.428717
0.712825 0.715908 0.440650
0.723568 0.718349 0.447639
0.734829 0.722042 0.455970
0.748409 0.727413 0.466865
0.759609 0.736446 0.478035
0.755825 0.726284 0.472633
0.152346 0.440009 0.189456
0.170657 0.452583 0.155886
0.200656 0.464729 0.156710
0.266941 0.482826 0.171633
0.339940 0.522942 0.204105
0.429297 0.578729 0.251530
0.531456 0.632837 0.309575
0.610468 0.671870 0.364141
0.655482 0.697505 0.378607
0.684016 0.710811 0.395056
0.699763 0.716670 0.418921
0.710323 0.718837 0.439185
0.720180 0.719875 0.448707
0.728603 0.722377 0.454200
0.739620 0.726070 0.462013
0.751858 0.731136 0.472786
0.761440 0.739162 0.483009
0.030060 0.032258 0.076692
0.040589 0.030732 0.072938
0.054231 0.031617 0.069673
0.075471 0.036469 0.069368
0.096498 0.040955 0.070527
0.116518 0.044495 0.072999
0.134249 0.048463 0.074769
0.153719 0.052857 0.077394
0.172671 0.057527 0.080507
0.190982 0.062379 0.083253
0.209567 0.067720 0.085725
0.226841 0.072999 0.088258
0.243992 0.077424 0.090486
