tools/luts_backup/Kodak Ektar 100_VS.cube
# (C) 2014 VisionColor & Patchflyer [www.vision-color.com]
# Generator: VC Patchmatch v.2.1.1 [64/53]
# All work and no play makes Jack a dull boy.
# LUT generated from: Kodak Ektar 100_VisionSpace
LUT_3D_SIZE 9
0.031647 0.016327 0.022248
0.089326 0.033021 0.039185
0.154940 0.053346 0.059510
0.235966 0.074250 0.080201
0.312230 0.089479 0.096132
0.382391 0.107851 0.110536
0.460456 0.139895 0.135500
0.513970 0.172976 0.158968
0.524529 0.154726 0.164553
0.065583 0.105806 0.059785
0.103517 0.112001 0.061250
0.169589 0.135744 0.082521
0.245274 0.164706 0.101503
0.327703 0.196078 0.119417
0.395392 0.213901 0.134554
0.480171 0.259831 0.168490
0.541222 0.321447 0.206119
0.564385 0.328588 0.221622
0.099275 0.229191 0.108003
0.118776 0.221347 0.096834
0.174044 0.218173 0.109194
0.225223 0.223789 0.111788
0.319951 0.266880 0.133455
0.418799 0.315526 0.166445
0.506340 0.369574 0.206790
0.572808 0.443427 0.257115
0.617029 0.531823 0.314794
0.136843 0.316747 0.152773
0.161685 0.322057 0.141512
0.191897 0.319188 0.143313
0.245609 0.320867 0.145357
0.305058 0.328008 0.152132
0.419043 0.391577 0.191440
0.522545 0.458381 0.242466
0.600671 0.535180 0.304845
0.660761 0.632624 0.360723
0.167269 0.395636 0.195773
0.176883 0.421454 0.183871
0.205478 0.425696 0.184909
0.261357 0.428229 0.192844
0.330571 0.429999 0.194308
0.414038 0.457740 0.216495
0.496071 0.490913 0.248325
0.580621 0.539178 0.296147
0.645289 0.602350 0.350042
0.205264 0.479561 0.255589
0.215824 0.499092 0.257420
0.222477 0.515862 0.256199
0.223178 0.553796 0.224613
0.317784 0.544808 0.250431
0.384588 0.517784 0.243900
0.451972 0.518303 0.250156
0.519982 0.510399 0.263798
0.635431 0.585962 0.344488
0.249546 0.563836 0.323552
0.250217 0.566613 0.318029
0.254673 0.572076 0.319341
0.266758 0.586725 0.335332
0.271519 0.633692 0.316915
0.339605 0.624262 0.276799
0.445441 0.582666 0.292943
0.544518 0.584375 0.314763
0.667384 0.642512 0.366430
0.288365 0.618494 0.387457
0.287419 0.618616 0.380529
0.289189 0.623468 0.378943
0.298192 0.654169 0.409339
0.365148 0.679744 0.487037
0.441505 0.688380 0.436561
0.528557 0.673823 0.377142
0.632227 0.674495 0.396124
0.690089 0.685237 0.410285
0.303380 0.629419 0.428046
0.303777 0.630335 0.427344
0.306737 0.658381 0.434150
0.371588 0.690455 0.471809
0.525093 0.711788 0.551537
0.615961 0.715969 0.579675
0.661585 0.720760 0.578668
0.688502 0.718318 0.556085
0.717281 0.720974 0.527733
0.035554 0.019623 0.042206
0.077150 0.030732 0.050355
0.132265 0.046082 0.071046
0.200748 0.063722 0.093843
0.285710 0.082185 0.114229
0.359289 0.099489 0.123903
0.437354 0.120729 0.138308
0.494911 0.139986 0.154910
0.524742 0.156161 0.170871
0.055299 0.076600 0.089662
0.100008 0.080964 0.088502
0.217655 0.078004 0.079835
0.307103 0.089662 0.095247
0.379248 0.106416 0.109926
0.456153 0.138735 0.133822
0.509667 0.166873 0.156374
0.537469 0.175540 0.173068
0.543542 0.197238 0.182376
0.098878 0.198642 0.154421
0.123232 0.282200 0.144778
0.221988 0.280339 0.136355
0.316320 0.262272 0.133150
0.410468 0.280125 0.155245
0.490944 0.315160 0.186587
0.549096 0.366094 0.222934
0.572351 0.380285 0.240299
0.564263 0.317052 0.220706
0.132845 0.294286 0.198398
0.167697 0.393256 0.197513
0.203098 0.422736 0.183047
0.323278 0.423865 0.193332
0.410925 0.406531 0.195895
0.517998 0.452613 0.239933
0.593286 0.520012 0.296483
0.623041 0.551415 0.326726
0.590814 0.425849 0.265599
0.162234 0.379309 0.239475
0.208103 0.484199 0.258000
0.219974 0.508934 0.255863
0.252506 0.552850 0.231357
0.382086 0.514946 0.243198
0.470192 0.497627 0.244968
0.568505 0.530602 0.289158
0.620111 0.558679 0.327489
0.596002 0.467811 0.280674
0.204532 0.473548 0.301122
0.250401 0.563775 0.324285
0.253086 0.568933 0.317876
0.267582 0.593713 0.333776
0.305196 0.639673 0.289769
0.460304 0.586267 0.299565
0.533867 0.556909 0.295018
0.608942 0.559014 0.323156
0.561517 0.440620 0.252750
0.248631 0.553307 0.365911
0.285985 0.614282 0.384192
0.285435 0.614893 0.377752
0.293736 0.643946 0.393194
0.383734 0.683040 0.468238
0.486763 0.679103 0.391272
0.617517 0.670649 0.386908
0.665400 0.659785 0.375372
0.619623 0.570733 0.334600
0.294255 0.609796 0.437079
0.305791 0.637873 0.431250
0.306401 0.641596 0.432197
0.325689 0.677150 0.448066
0.496910 0.706020 0.555535
0.621485 0.716457 0.589807
0.670314 0.716152 0.550256
0.708095 0.715755 0.515190
0.696742 0.692317 0.456672
0.315862 0.628779 0.478828
0.402167 0.689906 0.551720
0.346441 0.678614 0.517449
0.339849 0.676356 0.509361
0.457816 0.700618 0.581933
0.623743 0.721401 0.654932
0.683742 0.730282 0.662104
0.709224 0.730465 0.635065
0.727993 0.728603 0.592950
0.053468 0.032441 0.095369
0.079622 0.035004 0.090425
0.118135 0.042084 0.098543
0.182010 0.057832 0.123262
0.267826 0.076722 0.148867
0.346593 0.097780 0.168582
0.424689 0.118502 0.174044
0.484138 0.135805 0.179721
0.521172 0.156191 0.192477
0.067231 0.077211 0.160159
0.075898 0.047425 0.148959
0.162081 0.058259 0.145998
0.266300 0.079103 0.148135
0.350469 0.097993 0.151431
0.428565 0.118715 0.151431
0.487160 0.137148 0.160800
0.520256 0.154330 0.172885
0.528527 0.162448 0.180850
0.090089 0.164645 0.180667
0.117800 0.231022 0.249485
0.205631 0.202609 0.211887
0.359960 0.153414 0.142428
0.427100 0.143954 0.133028
0.504417 0.165866 0.154940
0.533806 0.177584 0.170809
0.546014 0.193149 0.183047
0.548089 0.184970 0.186770
0.122011 0.268986 0.230594
0.154025 0.359625 0.273899
0.176577 0.384741 0.230625
0.337255 0.409583 0.211215
0.467292 0.394507 0.211765
0.568444 0.448798 0.259190
0.592920 0.458198 0.276799
0.575067 0.365881 0.239841
0.571771 0.311406 0.228611
0.153658 0.363684 0.274998
0.201755 0.464576 0.327214
0.228977 0.519188 0.309941
0.248692 0.580133 0.294713
0.436423 0.571984 0.285344
0.541650 0.521263 0.276768
0.611658 0.545953 0.317662
0.600122 0.474617 0.286473
0.596918 0.424445 0.273747
0.200870 0.461952 0.341131
0.249912 0.550134 0.386938
0.283940 0.609277 0.383825
0.289586 0.622766 0.383276
0.402121 0.680964 0.437278
0.600443 0.663386 0.375067
0.621454 0.598932 0.343725
0.583673 0.484260 0.282353
0.610529 0.499153 0.305303
0.254459 0.551995 0.408545
0.297215 0.607385 0.450690
0.306981 0.645716 0.434943
0.306493 0.657923 0.434516
0.476921 0.701473 0.550286
0.634821 0.713191 0.557549
0.704341 0.713619 0.510796
0.675196 0.658930 0.394293
0.647456 0.586023 0.343847
0.309972 0.615045 0.480232
0.325780 0.654322 0.510582
0.388342 0.688838 0.546807
0.335698 0.672969 0.503624
0.442679 0.698299 0.569848
0.644038 0.723445 0.658106
0.698451 0.730159 0.646632
0.727413 0.729213 0.595056
0.700740 0.694820 0.504051
0.328771 0.635004 0.526482
0.494606 0.703029 0.627008
0.497017 0.705409 0.629908
0.405707 0.688533 0.585412
0.493431 0.703120 0.628931
0.630457 0.723293 0.679011
0.698085 0.737179 0.706630
0.723232 0.741054 0.700710
0.742611 0.742611 0.669886
0.064515 0.043214 0.157992
0.099214 0.043793 0.145113
0.128237 0.046021 0.143191
0.167147 0.053376 0.150423
0.264347 0.078248 0.185092
0.346349 0.100282 0.201328
0.421424 0.119539 0.217533
0.479225 0.137972 0.224643
0.514580 0.153750 0.222171
0.073854 0.073945 0.217411
0.075044 0.053590 0.232151
0.165164 0.059266 0.211337
0.259678 0.074769 0.212284
0.346685 0.100313 0.212497
0.420081 0.119356 0.215885
0.477028 0.136355 0.212955
0.512688 0.152163 0.206302
0.525536 0.161013 0.191714
0.093874 0.161044 0.240177
0.093568 0.144228 0.299748
0.143923 0.100649 0.281956
0.302342 0.123873 0.264683
0.394354 0.117800 0.219455
0.475807 0.135592 0.194644
0.514183 0.152132 0.187259
0.527367 0.161959 0.184573
0.536889 0.174136 0.194156
0.117067 0.253330 0.272648
0.136446 0.328405 0.346807
0.196780 0.356146 0.372656
0.335698 0.339086 0.346807
0.517968 0.259068 0.244419
0.509819 0.200137 0.176455
0.542565 0.189059 0.180545
0.554101 0.195987 0.190982
0.584924 0.258396 0.225406
0.142580 0.345922 0.309575
0.192508 0.442222 0.381262
0.243351 0.509667 0.414969
0.248142 0.509331 0.336202
0.482719 0.536721 0.350515
0.558099 0.463859 0.276295
0.591241 0.436866 0.270787
0.587915 0.378729 0.256535
0.624048 0.414176 0.287114
0.196536 0.450019 0.374609
0.260563 0.547662 0.445808
0.314000 0.613581 0.490455
0.295598 0.609186 0.429450
0.406073 0.664149 0.488899
0.621851 0.676295 0.490242
0.606806 0.544244 0.323033
0.609705 0.499397 0.306127
0.655299 0.535119 0.331975
0.260563 0.550683 0.447547
0.320562 0.621088 0.514305
0.349706 0.669551 0.553094
0.381476 0.686580 0.541680
0.380667 0.685908 0.538888
0.660990 0.724269 0.659541
0.722988 0.727169 0.596277
0.677699 0.647913 0.401099
0.687312 0.638819 0.400916
0.325292 0.632441 0.528008
0.360143 0.671138 0.578882
0.528588 0.708339 0.643275
0.493874 0.705043 0.627466
0.441947 0.695949 0.602411
0.628611 0.722683 0.677333
0.714626 0.740291 0.704585
0.742702 0.742794 0.670771
0.725673 0.716640 0.593286
0.338354 0.640192 0.564630
0.619837 0.722774 0.683467
0.590204 0.715877 0.672877
0.562341 0.712825 0.667597
0.602564 0.719295 0.678920
0.666438 0.731228 0.700984
0.717281 0.743679 0.724178
0.744015 0.753353 0.734005
0.753689 0.753689 0.725002
0.074403 0.053498 0.231296
0.127901 0.055848 0.220645
0.169314 0.059327 0.213931
0.212161 0.062837 0.210941
0.265263 0.074983 0.215671
0.350286 0.101534 0.237095
0.425452 0.121706 0.250797
0.483925 0.141604 0.254459
0.512261 0.151980 0.230228
0.080812 0.076448 0.288029
0.080446 0.061616 0.308995
0.165774 0.067140 0.286992
0.257633 0.075959 0.265812
0.353674 0.102724 0.262638
0.426368 0.123232 0.264530
0.479591 0.141054 0.258915
0.511070 0.153689 0.229587
0.524895 0.161868 0.204013
0.093629 0.145113 0.304662
0.090730 0.099214 0.365606
0.091859 0.071473 0.359106
0.254856 0.087892 0.323125
0.400763 0.120821 0.309087
0.477699 0.141909 0.273182
0.510063 0.153445 0.231754
0.524559 0.162051 0.207614
0.536858 0.176883 0.223148
0.118746 0.245579 0.329076
0.120150 0.251347 0.378790
0.128328 0.200229 0.417823
0.223911 0.178897 0.444587
0.444160 0.223117 0.399207
0.485115 0.162524 0.272541
0.524224 0.161898 0.204471
0.542473 0.180819 0.211368
0.621515 0.238682 0.258122
0.135653 0.331670 0.350347
0.169314 0.406317 0.421576
0.221805 0.462623 0.480812
0.284642 0.490791 0.504448
0.478660 0.478874 0.483635
0.610086 0.382254 0.370153
0.572213 0.233234 0.215228
0.588678 0.260563 0.227512
0.676173 0.409232 0.318227
0.182467 0.428138 0.396948
0.250706 0.530327 0.478523
0.326665 0.608637 0.552728
0.345861 0.636057 0.556848
0.419394 0.616434 0.500267
0.627146 0.644022 0.550347
0.642206 0.536721 0.330022
0.647639 0.495048 0.316625
0.696681 0.569207 0.413581
0.257267 0.541985 0.471473
0.329961 0.623316 0.554955
0.389624 0.676997 0.619287
0.562020 0.712123 0.665278
0.452613 0.688350 0.600977
0.637278 0.715724 0.667720
0.730434 0.735836 0.679866
0.698512 0.664027 0.450477
0.710475 0.660914 0.496101
0.332708 0.636713 0.557214
0.379492 0.673915 0.617884
0.592859 0.717556 0.680262
0.615198 0.722194 0.686458
0.565179 0.713649 0.666194
0.641627 0.725093 0.690089
0.727504 0.747585 0.728573
0.753872 0.753811 0.722652
0.737026 0.727596 0.652766
0.346746 0.645594 0.599176
0.623804 0.723659 0.690883
0.624018 0.724575 0.694301
0.617487 0.720272 0.691859
0.648432 0.728328 0.702296
0.688106 0.735958 0.712917
0.728145 0.748562 0.733150
0.753109 0.759304 0.744808
0.761471 0.761349 0.739132
0.081605 0.063600 0.313085
0.124239 0.062593 0.297520
0.186648 0.069245 0.283268
0.241917 0.074006 0.270909
0.297063 0.084565 0.263706
0.355993 0.102663 0.262882
0.431250 0.126284 0.282048
0.486824 0.146212 0.293339
0.516991 0.163699 0.279454
0.085115 0.075746 0.347814
0.083925 0.066621 0.376654
0.149691 0.071626 0.361028
0.281987 0.089570 0.342107
0.350866 0.103182 0.321569
0.431434 0.130831 0.320165
0.485664 0.151400 0.318395
0.511131 0.161227 0.291051
0.525780 0.165133 0.232486
0.092805 0.114199 0.367010
0.092836 0.089540 0.415442
0.086641 0.070741 0.410132
0.219089 0.086549 0.398993
0.376837 0.116213 0.378058
0.479835 0.157839 0.380987
0.506767 0.164187 0.326329
0.523644 0.167605 0.257816
0.533257 0.182498 0.271702
0.112703 0.218357 0.373083
0.107668 0.158129 0.425666
0.101442 0.106905 0.453834
0.116197 0.087831 0.426215
0.329854 0.124376 0.404242
0.478737 0.174441 0.396338
0.519493 0.172030 0.295048
0.538262 0.188846 0.274662
0.603342 0.252934 0.337621
0.134524 0.321569 0.393774
0.158877 0.352316 0.457710
0.170123 0.321660 0.495155
0.179767 0.251835 0.501411
0.335210 0.264591 0.571618
0.588891 0.355749 0.547356
0.565744 0.238087 0.343725
0.612741 0.251133 0.315557
0.690364 0.399191 0.436835
0.167361 0.403937 0.420050
0.225711 0.490791 0.508293
0.288090 0.556542 0.572869
0.323735 0.576196 0.587762
0.430442 0.603082 0.609400
0.598779 0.598779 0.598962
0.657526 0.516030 0.493431
0.680049 0.407736 0.326207
0.702693 0.591775 0.556466
0.244846 0.523949 0.488655
0.321263 0.598138 0.570397
0.358770 0.651728 0.632197
0.416938 0.681300 0.657771
0.536797 0.699031 0.671626
0.597864 0.688655 0.639033
0.710170 0.712703 0.667018
0.712062 0.660517 0.505165
0.733425 0.686122 0.634440
0.330327 0.612512 0.561822
0.361303 0.659297 0.629511
0.460441 0.694179 0.665522
0.573358 0.710781 0.688777
0.623102 0.722744 0.701503
0.646937 0.726741 0.699123
0.724300 0.747250 0.730526
0.762203 0.760952 0.737758
0.748135 0.735134 0.692256
0.353674 0.649531 0.622339
0.510658 0.704402 0.672267
0.578790 0.710781 0.688807
0.618463 0.720668 0.704097
0.662654 0.731319 0.714565
0.693721 0.738979 0.718135
0.724056 0.748684 0.729000
0.751797 0.760830 0.741878
0.771267 0.771237 0.746487
0.083894 0.067079 0.378485
0.110475 0.070741 0.376379
0.205142 0.079561 0.359014
0.285832 0.089967 0.342687
0.332525 0.097383 0.327581
0.376684 0.111543 0.322454
0.433814 0.129183 0.320165
0.490303 0.157504 0.339544
0.511437 0.167605 0.332433
0.089357 0.080507 0.407111
0.085817 0.070283 0.413336
0.132540 0.072358 0.404669
0.271366 0.094118 0.398169
0.360510 0.111910 0.385931
0.428138 0.133028 0.380163
0.484199 0.160708 0.385565
0.504204 0.169711 0.365270
0.517968 0.172610 0.315129
0.096681 0.098940 0.426001
0.093751 0.087678 0.439918
0.089235 0.072511 0.431769
0.183169 0.082612 0.422736
0.337057 0.113527 0.423224
0.442908 0.145754 0.418799
0.499702 0.182040 0.429603
0.513817 0.182437 0.370855
0.534264 0.199435 0.333135
0.107729 0.154131 0.428931
0.102388 0.116884 0.457313
0.100984 0.100496 0.467323
0.100374 0.082704 0.444862
0.274128 0.108858 0.441016
0.443030 0.156161 0.441138
0.510582 0.206271 0.455360
0.540459 0.222385 0.390875
0.606470 0.282902 0.445624
0.139834 0.289845 0.445808
0.145113 0.259083 0.482826
0.126711 0.184894 0.488258
0.115633 0.120790 0.485359
0.158740 0.112078 0.469825
0.420066 0.186038 0.475196
0.606897 0.322225 0.564599
0.615259 0.298741 0.480079
0.675868 0.436912 0.551965
0.171267 0.403235 0.467658
0.242191 0.470527 0.543572
0.235325 0.445945 0.555077
0.207309 0.343221 0.541833
0.249226 0.303227 0.611124
0.472099 0.357198 0.636683
0.655848 0.537362 0.640345
0.677028 0.442313 0.552773
0.700191 0.602396 0.633631
0.224308 0.491554 0.507530
0.292027 0.562097 0.577844
0.343725 0.614313 0.623255
0.364843 0.649042 0.653468
0.394888 0.658900 0.665675
0.578149 0.682887 0.685634
0.684047 0.684047 0.684047
0.706538 0.637263 0.623041
0.739559 0.700618 0.696529
0.313634 0.588342 0.573144
0.360754 0.649317 0.642084
0.388922 0.668055 0.660304
0.437934 0.684443 0.674403
0.556741 0.710231 0.699702
0.656123 0.730922 0.718868
0.697780 0.736996 0.714961
0.755947 0.755520 0.732174
0.758938 0.742031 0.722927
0.365087 0.657984 0.646448
0.390845 0.671778 0.656489
0.463539 0.692744 0.677485
0.584802 0.713924 0.703151
0.657404 0.730861 0.720150
0.699428 0.743740 0.727321
0.731746 0.758114 0.739437
0.754482 0.766354 0.744320
0.775570 0.775570 0.752773
0.086824 0.070771 0.414252
0.107637 0.070314 0.408484
0.188815 0.080598 0.404730
0.302007 0.099214 0.400549
0.360510 0.112856 0.394781
0.402411 0.124636 0.384009
0.448585 0.140993 0.383459
0.487984 0.159823 0.386694
0.506340 0.174472 0.387304
0.090211 0.081514 0.432013
0.089784 0.073335 0.434241
0.130678 0.075746 0.427924
0.231510 0.090852 0.423255
0.337041 0.112337 0.424536
0.407843 0.131594 0.419379
0.475746 0.163699 0.428290
0.500175 0.182406 0.432197
0.507317 0.181094 0.393317
0.097261 0.098878 0.453101
0.094270 0.087160 0.449897
0.098695 0.081209 0.445563
0.203708 0.092622 0.437812
0.321630 0.118502 0.442725
0.426642 0.148409 0.443183
0.480659 0.174777 0.445014
0.508507 0.202731 0.455268
0.542718 0.241459 0.439063
0.102266 0.119417 0.459937
0.103822 0.111299 0.472999
0.108797 0.103700 0.473396
0.120577 0.096834 0.463203
0.256168 0.117250 0.464240
0.420066 0.162875 0.466773
0.499489 0.216007 0.480812
0.571527 0.294469 0.535180
0.634607 0.342229 0.559655
0.131014 0.220264 0.476722
0.125612 0.184710 0.488441
0.117769 0.130220 0.487587
0.134524 0.121309 0.489509
0.187808 0.121004 0.482673
0.383810 0.178470 0.493874
0.560418 0.298009 0.556268
0.655329 0.443397 0.639765
0.673182 0.502602 0.632319
0.215976 0.408042 0.530602
0.196780 0.367483 0.532128
0.171267 0.266285 0.520592
0.178592 0.212314 0.532738
0.250919 0.199756 0.545388
0.328939 0.176059 0.506554
0.613489 0.382315 0.635889
0.673671 0.551415 0.666346
0.706691 0.643641 0.686427
0.257603 0.504753 0.554864
0.258701 0.513359 0.572259
0.277836 0.500938 0.586114
0.299229 0.484199 0.610224
0.357183 0.518837 0.671595
0.498497 0.490715 0.676905
0.609400 0.470268 0.668849
0.708827 0.657160 0.706355
0.739467 0.706477 0.723415
0.290654 0.561486 0.578912
0.345342 0.617884 0.625849
0.366918 0.652522 0.656001
0.396307 0.668635 0.669551
0.436896 0.683253 0.686061
0.581277 0.717800 0.718898
0.687800 0.740047 0.740169
0.745357 0.745357 0.745357
0.770932 0.755459 0.755398
0.367834 0.657313 0.654078
0.391333 0.667842 0.664088
0.419684 0.678279 0.671656
0.507546 0.704799 0.696956
0.639521 0.729732 0.722286
0.696498 0.745022 0.735164
0.732845 0.762051 0.749447
0.766415 0.781277 0.766629
0.785885 0.785885 0.770932
0.083619 0.067567 0.431403
0.103182 0.069856 0.431617
0.162478 0.076631 0.425269
0.248569 0.093111 0.424445
0.333104 0.114076 0.430701
0.390204 0.127138 0.425757
0.449989 0.150454 0.429603
0.488655 0.173404 0.438544
0.501915 0.187442 0.443824
0.090455 0.082307 0.446510
0.096254 0.079103 0.443885
0.184634 0.089937 0.439399
0.258000 0.101381 0.437293
0.346624 0.123049 0.441047
0.424292 0.148074 0.446815
0.454780 0.158297 0.439063
0.491951 0.183383 0.448371
0.504967 0.194888 0.449226
0.096223 0.097261 0.464393
0.105898 0.096895 0.465400
0.117128 0.097963 0.466712
0.205722 0.107546 0.462654
0.307195 0.129366 0.466041
0.420569 0.161013 0.465095
0.477699 0.194247 0.470802
0.514214 0.231540 0.487007
0.572137 0.294652 0.535271
0.105074 0.121126 0.476020
0.111208 0.113375 0.482704
0.125856 0.112978 0.483040
0.182742 0.117647 0.481209
0.298024 0.140536 0.481971
0.429999 0.195834 0.496895
0.534112 0.279454 0.539086
0.615259 0.342596 0.598627
0.657099 0.455726 0.642512
0.128542 0.198611 0.491524
0.116670 0.130251 0.486336
0.136934 0.130312 0.498360
0.208392 0.138338 0.495277
0.324605 0.163851 0.497719
0.474586 0.258305 0.538750
0.618219 0.385046 0.635676
0.661646 0.492287 0.659602
0.674525 0.557183 0.667231
0.169162 0.315496 0.517968
0.154940 0.227115 0.511772
0.168826 0.201816 0.525353
0.274846 0.240238 0.616800
0.399725 0.253422 0.569879
0.539376 0.316304 0.612009
0.646448 0.491569 0.671504
0.687068 0.610590 0.694789
0.700099 0.633875 0.695979
0.209506 0.435828 0.546075
0.233707 0.409339 0.558556
0.248478 0.372778 0.573785
0.335363 0.453346 0.669917
0.508690 0.497368 0.678676
0.606287 0.522042 0.685542
0.673823 0.618784 0.702022
0.715724 0.687434 0.727382
0.736110 0.704463 0.734890
0.259342 0.530297 0.575036
0.307622 0.552666 0.603387
0.331121 0.565667 0.635401
0.394415 0.618585 0.680385
0.544121 0.666743 0.711269
0.644251 0.689418 0.728786
0.708431 0.724697 0.745998
0.751675 0.749874 0.765072
0.771054 0.755337 0.770993
0.347356 0.622614 0.629938
0.367163 0.652918 0.656519
0.396948 0.669429 0.669490
0.428901 0.680598 0.682765
0.574838 0.717220 0.717494
0.680568 0.744442 0.745510
0.730770 0.766354 0.766354
0.766445 0.782986 0.782986
0.796506 0.796506 0.796506
