tools/luts_backup/Kodak Elite Color 200_FPE.cube
# (C) 2014 VisionColor & Patchflyer [www.vision-color.com]
# Generator: VC Patchmatch v.2.1.1 [64/53]
# All work and no play makes Jack a dull boy.
# LUT generated from: Kodak Elite Color 200_FPE
LUT_3D_SIZE 17
0.033112 0.035843 0.036179
0.035935 0.036774 0.037018
0.041428 0.037461 0.036622
0.052094 0.039063 0.036225
0.065660 0.041855 0.036698
0.081987 0.044785 0.037415
0.098772 0.047333 0.038346
0.116106 0.049851 0.038926
0.132845 0.052094 0.039353
0.149722 0.053834 0.039231
0.166629 0.055390 0.039414
0.185428 0.056718 0.039353
0.204791 0.058610 0.039719
0.227237 0.060685 0.040253
0.246632 0.061982 0.040726
0.265919 0.062074 0.041230
0.282445 0.061006 0.041321
0.034409 0.042206 0.038148
0.040009 0.043503 0.039796
0.049409 0.044816 0.039368
0.062943 0.047745 0.039506
0.081788 0.051789 0.040269
0.102495 0.055879 0.041001
0.123903 0.059174 0.041245
0.144976 0.062470 0.041306
0.166781 0.065660 0.041062
0.187991 0.068269 0.041047
0.208682 0.070588 0.041001
0.230488 0.072816 0.041260
0.252903 0.075196 0.041627
0.274495 0.077211 0.042130
0.295064 0.078355 0.042893
0.313115 0.078904 0.043366
0.329335 0.078950 0.043656
0.035172 0.051865 0.038773
0.046510 0.055085 0.041108
0.059907 0.058335 0.043488
0.079011 0.062730 0.044266
0.101869 0.067521 0.045365
0.125643 0.072343 0.046494
0.150912 0.076448 0.046632
0.176577 0.080751 0.046372
0.202655 0.084825 0.045914
0.226947 0.088518 0.046036
0.252522 0.091493 0.045640
0.275242 0.094469 0.045945
0.298787 0.097856 0.046403
0.321263 0.100954 0.046952
0.342535 0.103243 0.047166
0.361807 0.104265 0.047272
0.377859 0.105211 0.047852
0.038361 0.067689 0.042100
0.052628 0.071885 0.044388
0.071855 0.077745 0.048890
0.090684 0.081590 0.052216
0.119814 0.088914 0.053803
0.151522 0.096544 0.055375
0.183337 0.103136 0.056275
0.215885 0.109041 0.055741
0.246159 0.114092 0.054520
0.275303 0.118441 0.054307
0.300908 0.121752 0.053513
0.324514 0.124453 0.053315
0.347692 0.128298 0.053468
0.370901 0.131975 0.053452
0.393179 0.134722 0.053605
0.413275 0.135546 0.053285
0.432166 0.137301 0.053376
0.036866 0.082490 0.044327
0.053513 0.091493 0.046586
0.079500 0.099763 0.052583
0.111788 0.109468 0.059388
0.135286 0.113008 0.063249
0.177661 0.126314 0.065980
0.221851 0.138125 0.067659
0.261601 0.146746 0.068391
0.297047 0.153384 0.067811
0.327932 0.157946 0.066728
0.353964 0.162188 0.065705
0.378592 0.165209 0.064164
0.402869 0.168612 0.063798
0.426581 0.171847 0.063539
0.450660 0.174670 0.063676
0.472724 0.175692 0.063783
0.493523 0.176989 0.063249
0.031220 0.092821 0.044511
0.047303 0.105486 0.046418
0.081315 0.121660 0.052369
0.129259 0.138399 0.063203
0.168795 0.150576 0.072206
0.195865 0.155261 0.078386
0.250782 0.175265 0.082826
0.305287 0.190845 0.085786
0.350027 0.202258 0.087251
0.385519 0.209079 0.087236
0.413611 0.213687 0.086839
0.438773 0.217288 0.085756
0.464866 0.220768 0.084642
0.490059 0.223850 0.083848
0.515435 0.225605 0.082170
0.542382 0.227863 0.081605
0.566247 0.230426 0.081697
0.030076 0.102373 0.044678
0.037125 0.114778 0.044999
0.074647 0.138598 0.047333
0.142367 0.166979 0.059831
0.199680 0.190158 0.080354
0.239246 0.201221 0.091310
0.271595 0.208682 0.098299
0.335073 0.231632 0.103105
0.394415 0.251774 0.106676
0.439719 0.264088 0.110002
0.475120 0.272267 0.112779
0.504799 0.279240 0.114214
0.533120 0.283894 0.114443
0.562142 0.287846 0.113848
0.589883 0.291279 0.113100
0.617716 0.294957 0.112322
0.643076 0.299092 0.112413
0.029648 0.114260 0.044678
0.032807 0.124071 0.044419
0.060212 0.150134 0.044785
0.147311 0.191531 0.051957
0.229480 0.227176 0.077684
0.282918 0.249165 0.103441
0.316167 0.256947 0.113863
0.354925 0.267155 0.119371
0.422309 0.293172 0.125429
0.481804 0.314488 0.130556
0.525353 0.327718 0.136782
0.563775 0.339651 0.144198
0.597223 0.349615 0.149355
0.628290 0.356512 0.153307
0.659098 0.362554 0.156512
0.689570 0.369070 0.160113
0.713619 0.373129 0.161486
0.030152 0.130404 0.044816
0.031388 0.136950 0.044541
0.050431 0.164416 0.043519
0.145571 0.211734 0.045914
0.256214 0.259510 0.067338
0.327398 0.293996 0.105821
0.368521 0.308888 0.129061
0.400183 0.316579 0.136706
0.443748 0.330861 0.142153
0.509438 0.357412 0.150317
0.562600 0.376333 0.157580
0.607660 0.392859 0.167712
0.648524 0.409171 0.181415
0.685374 0.423438 0.193423
0.720760 0.434653 0.203861
0.752087 0.444205 0.212497
0.774075 0.449485 0.216968
0.031174 0.148577 0.044984
0.032059 0.154452 0.044816
0.048753 0.184085 0.042588
0.149615 0.235401 0.042542
0.282307 0.290181 0.059251
0.373953 0.335088 0.102358
0.427420 0.360708 0.138933
0.457984 0.369574 0.153063
0.490272 0.378759 0.159106
0.532967 0.394598 0.166079
0.590875 0.416007 0.173495
0.643473 0.438224 0.187503
0.691112 0.459876 0.205707
0.733989 0.480507 0.225742
0.771054 0.498116 0.246128
0.800427 0.511009 0.261921
0.822461 0.520653 0.271916
0.032685 0.166674 0.045121
0.033494 0.173404 0.044785
0.053208 0.208789 0.042039
0.168063 0.265415 0.042023
0.313512 0.322789 0.055299
0.417227 0.374334 0.099062
0.480720 0.407141 0.147250
0.516121 0.419257 0.168292
0.544732 0.426520 0.174914
0.577432 0.435477 0.180331
0.616632 0.450416 0.186343
0.671260 0.472969 0.199496
0.725673 0.500938 0.220798
0.774731 0.527779 0.249119
0.809583 0.549157 0.276631
0.837186 0.567025 0.301305
0.854765 0.579950 0.320180
0.033997 0.182712 0.044907
0.034852 0.191333 0.044175
0.059373 0.234211 0.041642
0.197452 0.298955 0.043275
0.351492 0.359350 0.055970
0.461875 0.413275 0.100938
0.532311 0.451438 0.158343
0.572686 0.466972 0.182742
0.601144 0.473533 0.191394
0.629297 0.480507 0.197253
0.660060 0.489281 0.203540
0.695735 0.504417 0.209751
0.749249 0.531044 0.229587
0.798993 0.562127 0.262181
0.835279 0.589548 0.297246
0.862882 0.611933 0.330571
0.877913 0.626551 0.356222
0.035157 0.196658 0.044678
0.036439 0.210117 0.043519
0.071901 0.262394 0.041550
0.239216 0.336751 0.046006
0.398993 0.401495 0.064378
0.508644 0.456413 0.113649
0.582712 0.496895 0.173816
0.630243 0.516869 0.203922
0.658335 0.523415 0.212741
0.684962 0.529976 0.218402
0.712230 0.537057 0.224231
0.740490 0.546334 0.230991
0.773281 0.562524 0.240543
0.817349 0.590692 0.270451
0.854078 0.621073 0.309743
0.878996 0.647593 0.350744
0.894697 0.664729 0.383490
0.036194 0.209979 0.044373
0.038834 0.235630 0.042176
0.101213 0.296910 0.042206
0.290455 0.376730 0.050401
0.453635 0.449577 0.079973
0.560693 0.507591 0.138476
0.633158 0.546304 0.200000
0.681605 0.566155 0.230869
0.711513 0.575082 0.241886
0.736065 0.581811 0.248829
0.762112 0.588891 0.256046
0.787640 0.595056 0.262943
0.813458 0.605509 0.270863
0.837781 0.622461 0.282216
0.872312 0.652049 0.320729
0.894575 0.680049 0.365835
0.908232 0.697108 0.404807
0.036881 0.221103 0.044144
0.047486 0.268925 0.041825
0.157046 0.342000 0.045029
0.351431 0.421729 0.057588
0.510414 0.501518 0.103395
0.613428 0.561166 0.177615
0.679454 0.598276 0.237049
0.722133 0.616175 0.268574
0.756359 0.627756 0.282856
0.783352 0.636561 0.291218
0.807721 0.644144 0.297856
0.828016 0.648844 0.303716
0.846525 0.655238 0.310887
0.867018 0.666255 0.320119
0.889967 0.685054 0.335531
0.906920 0.710918 0.378927
0.918013 0.727993 0.422629
0.037476 0.232319 0.043992
0.070649 0.310079 0.042557
0.236194 0.393713 0.050004
0.416876 0.473732 0.072267
0.563638 0.552636 0.137423
0.662638 0.613504 0.222614
0.721767 0.649714 0.282612
0.759060 0.668162 0.313130
0.790936 0.679347 0.329122
0.821286 0.689738 0.340764
0.842237 0.698619 0.349294
0.858412 0.702358 0.354284
0.873808 0.706157 0.360327
0.888365 0.712520 0.367285
0.902373 0.723278 0.378271
0.918379 0.739330 0.396170
0.927489 0.756527 0.438315
0.038361 0.248783 0.043809
0.104051 0.347280 0.043992
0.302037 0.437629 0.055863
0.464317 0.514397 0.087755
0.594858 0.589776 0.160250
0.692363 0.649653 0.239612
0.751278 0.685069 0.299535
0.790524 0.708110 0.340261
0.821668 0.722713 0.365774
0.840558 0.731502 0.383978
0.857313 0.739178 0.398489
0.874479 0.745251 0.406409
0.889418 0.748501 0.411276
0.899153 0.751842 0.416556
0.910933 0.757259 0.425940
0.923217 0.764340 0.439124
0.932418 0.775402 0.454566
0.032120 0.036347 0.039780
0.035981 0.036744 0.039628
0.041276 0.037369 0.039170
0.051942 0.038972 0.039170
0.065675 0.041642 0.039841
0.082170 0.044465 0.040406
0.099596 0.047135 0.040970
0.118059 0.050050 0.041764
0.136721 0.052766 0.042908
0.155489 0.054902 0.043275
0.173022 0.057069 0.043046
0.191867 0.058717 0.042985
0.211872 0.060349 0.042954
0.232578 0.061601 0.043290
0.252033 0.062791 0.043885
0.270466 0.063340 0.044160
0.286458 0.063371 0.044511
0.033646 0.043259 0.047135
0.042237 0.049256 0.050904
0.053620 0.043030 0.040650
0.067643 0.043122 0.037903
0.083528 0.045258 0.037903
0.099779 0.047578 0.038666
0.116396 0.049958 0.039109
0.131579 0.051926 0.039460
0.147646 0.053651 0.039261
0.165637 0.055467 0.039353
0.185992 0.057084 0.039338
0.205631 0.058778 0.039658
0.226825 0.060334 0.040116
0.246113 0.061707 0.040635
0.264759 0.062531 0.041245
0.278477 0.062318 0.041520
0.287602 0.061570 0.041489
0.033356 0.054444 0.050294
0.042145 0.063081 0.043915
0.073198 0.069291 0.052201
0.097642 0.067445 0.046845
0.117983 0.067155 0.044923
0.136660 0.067369 0.043427
0.157534 0.069093 0.042390
0.176455 0.071321 0.042023
0.197589 0.073228 0.041871
0.216876 0.075074 0.041688
0.239124 0.076661 0.041779
0.260456 0.078309 0.042084
0.281117 0.079438 0.042695
0.300923 0.080827 0.043412
0.318746 0.082017 0.043809
0.332708 0.082567 0.044068
0.340948 0.083207 0.044358
0.034943 0.069139 0.055070
0.038605 0.079744 0.044739
0.074388 0.094072 0.052354
0.123659 0.104829 0.061311
0.156100 0.103655 0.058457
0.180270 0.101747 0.055619
0.205585 0.102098 0.053452
0.229633 0.103044 0.051392
0.253437 0.104097 0.050263
0.275135 0.105715 0.049378
0.296818 0.107225 0.049088
0.317372 0.108721 0.048814
0.336538 0.110292 0.048890
0.356100 0.111299 0.048859
0.374685 0.112200 0.048722
0.389456 0.113313 0.049088
0.399908 0.115206 0.049668
0.034043 0.085100 0.059220
0.031296 0.091005 0.044846
0.066178 0.113817 0.050141
0.131853 0.136629 0.063905
0.188785 0.150927 0.077256
0.232074 0.152728 0.074037
0.266514 0.153094 0.071260
0.294972 0.152544 0.068345
0.319005 0.151217 0.064363
0.340093 0.150698 0.061265
0.359564 0.150393 0.059693
0.379904 0.150423 0.058457
0.399298 0.150927 0.057420
0.418219 0.150988 0.057099
0.437690 0.151339 0.056626
0.454353 0.153231 0.056443
0.466651 0.156863 0.057023
0.030793 0.098329 0.059754
0.030030 0.101045 0.044877
0.050233 0.125307 0.046479
0.130159 0.161501 0.058778
0.214969 0.193729 0.084627
0.267735 0.206775 0.097993
0.322377 0.214801 0.095445
0.363607 0.218128 0.094224
0.393057 0.216678 0.090578
0.414221 0.213535 0.086519
0.431785 0.210849 0.082582
0.451194 0.208728 0.078950
0.471290 0.207599 0.076661
0.492622 0.207202 0.074601
0.514687 0.207172 0.073396
0.532662 0.208164 0.073121
0.545724 0.211780 0.074388
0.030106 0.109468 0.058350
0.029664 0.113512 0.044785
0.038636 0.133761 0.044663
0.120012 0.180941 0.051164
0.234363 0.227741 0.079820
0.303136 0.253666 0.109575
0.353185 0.265919 0.119219
0.411566 0.278645 0.118379
0.456275 0.284535 0.118166
0.488106 0.285298 0.117357
0.510430 0.284062 0.116304
0.530556 0.281941 0.112947
0.553582 0.280781 0.109682
0.577539 0.280156 0.107088
0.599817 0.279133 0.103929
0.618036 0.279667 0.102785
0.630564 0.282414 0.103807
0.030182 0.122057 0.056336
0.030152 0.130068 0.044846
0.034546 0.145876 0.044053
0.103365 0.193927 0.043732
0.247379 0.255802 0.066072
0.341665 0.298665 0.111528
0.391516 0.314748 0.133822
0.443458 0.329244 0.141039
0.499626 0.341726 0.142779
0.544610 0.350164 0.146426
0.578241 0.354879 0.151003
0.605371 0.357870 0.154208
0.630945 0.359808 0.154879
0.657343 0.360906 0.154879
0.682048 0.361395 0.154452
0.698238 0.360922 0.153368
0.707973 0.361059 0.152483
0.030823 0.138033 0.053712
0.031159 0.148486 0.044984
0.034043 0.162325 0.043946
0.090547 0.211383 0.041825
0.255451 0.280827 0.056840
0.378225 0.337011 0.105318
0.441733 0.364553 0.144030
0.482307 0.375937 0.157488
0.533501 0.394003 0.165637
0.585748 0.405692 0.168490
0.628733 0.416556 0.177859
0.664775 0.427207 0.190570
0.697902 0.436347 0.201343
0.727718 0.442817 0.208774
0.752956 0.446235 0.213031
0.768093 0.446189 0.214252
0.774090 0.442985 0.211582
0.031937 0.155932 0.051820
0.032670 0.166491 0.045151
0.034943 0.180407 0.044022
0.090715 0.234195 0.041154
0.268513 0.307927 0.052247
0.410376 0.372412 0.097276
0.492164 0.411017 0.151614
0.532280 0.423697 0.172244
0.570352 0.434577 0.178820
0.619379 0.453681 0.188144
0.666621 0.466575 0.197543
0.710567 0.483040 0.214710
0.751568 0.500603 0.236301
0.783444 0.514275 0.256107
0.807538 0.523644 0.270329
0.822400 0.525383 0.275624
0.826322 0.520500 0.272419
0.033341 0.174243 0.051789
0.033982 0.182528 0.044984
0.035920 0.198001 0.043610
0.100435 0.259831 0.041245
0.297444 0.340383 0.051133
0.445655 0.407309 0.094270
0.536019 0.453086 0.158572
0.582055 0.468910 0.186053
0.615396 0.476677 0.195438
0.654139 0.489357 0.202441
0.698756 0.508522 0.212100
0.744671 0.525734 0.229145
0.789899 0.548913 0.257237
0.821302 0.568414 0.286061
0.844846 0.583017 0.311620
0.856123 0.587961 0.324880
0.858564 0.584253 0.325246
0.034668 0.190417 0.051987
0.035126 0.196170 0.044785
0.037171 0.215656 0.043122
0.119722 0.289540 0.042451
0.333730 0.375433 0.053895
0.484535 0.444709 0.098604
0.579370 0.496406 0.170474
0.634394 0.518624 0.206012
0.666102 0.525154 0.216342
0.698497 0.533104 0.222782
0.735119 0.545083 0.230732
0.771878 0.560922 0.241306
0.814008 0.585489 0.269810
0.846952 0.609354 0.304692
0.868696 0.627817 0.339086
0.878508 0.634958 0.358755
0.881148 0.632868 0.364096
0.035782 0.204166 0.052110
0.036149 0.209232 0.044327
0.039887 0.240146 0.041810
0.155169 0.324239 0.044465
0.379278 0.415854 0.061540
0.529458 0.489540 0.117983
0.623880 0.541665 0.192599
0.682170 0.567880 0.232059
0.716808 0.577356 0.244404
0.745327 0.583597 0.251987
0.776196 0.591852 0.261158
0.808118 0.603204 0.271107
0.836347 0.620233 0.282185
0.867658 0.645090 0.317983
0.887510 0.666468 0.357992
0.897490 0.675837 0.385824
0.899153 0.672053 0.394949
0.036698 0.216419 0.051972
0.036881 0.221118 0.044144
0.050843 0.273213 0.041871
0.214069 0.366842 0.047745
0.430106 0.460716 0.074311
0.575738 0.538918 0.147646
0.665415 0.589487 0.224369
0.719356 0.615259 0.266255
0.759182 0.629236 0.283818
0.788190 0.637003 0.292073
0.815763 0.644358 0.300298
0.838422 0.651774 0.309422
0.861814 0.662776 0.319600
0.888395 0.683589 0.334234
0.902632 0.702174 0.373297
0.911330 0.711437 0.407034
0.912367 0.705730 0.418814
0.037522 0.227955 0.052247
0.037537 0.233585 0.043900
0.075502 0.314443 0.042954
0.280003 0.412222 0.053422
0.474189 0.503532 0.091112
0.614130 0.582864 0.175845
0.700526 0.634638 0.256306
0.752743 0.661997 0.301167
0.791302 0.676829 0.323980
0.822934 0.688197 0.338842
0.844297 0.696193 0.348241
0.863600 0.700969 0.355627
0.881514 0.706188 0.363561
0.897383 0.715969 0.374182
0.914427 0.733852 0.389425
0.922576 0.743664 0.422980
0.922118 0.738216 0.437797
0.038178 0.240009 0.051987
0.038758 0.252750 0.044007
0.106661 0.348241 0.044984
0.311330 0.441794 0.057374
0.484138 0.526040 0.096941
0.627375 0.604303 0.173144
0.721111 0.659144 0.249470
0.775952 0.690471 0.306065
0.816373 0.710185 0.342641
0.839460 0.722026 0.368704
0.856977 0.730602 0.385519
0.874968 0.736431 0.394278
0.890013 0.740047 0.401068
0.903334 0.745693 0.410361
0.917922 0.754345 0.422843
0.930556 0.768139 0.437446
0.930129 0.764630 0.451453
0.038804 0.255039 0.051225
0.040940 0.283085 0.044999
0.122713 0.369345 0.046326
0.287510 0.445060 0.056794
0.444709 0.518944 0.084123
0.600671 0.594369 0.132784
0.718395 0.654658 0.193256
0.787060 0.694408 0.259998
0.832395 0.721416 0.317266
0.852552 0.738354 0.363287
0.863508 0.748150 0.399603
0.877043 0.753674 0.417960
0.890654 0.757412 0.425238
0.900954 0.760662 0.430426
0.913130 0.765423 0.439490
0.925261 0.772107 0.452384
0.934951 0.782803 0.464668
0.030304 0.036072 0.044556
0.033890 0.036332 0.043900
0.042115 0.037613 0.043763
0.051759 0.039109 0.043168
0.065919 0.041718 0.044312
0.083299 0.044663 0.045487
0.101213 0.047440 0.046265
0.121218 0.050431 0.047410
0.140963 0.053361 0.048508
0.161364 0.056306 0.049104
0.181537 0.058991 0.049134
0.200549 0.060990 0.048936
0.219837 0.062074 0.048676
0.238453 0.062867 0.048371
0.256794 0.063233 0.048295
0.274388 0.063447 0.048371
0.289006 0.063966 0.048341
0.031861 0.042817 0.052186
0.032700 0.041688 0.054673
0.052430 0.044068 0.054002
0.066911 0.043381 0.046372
0.084077 0.045304 0.043824
0.101152 0.047471 0.043427
0.119661 0.050111 0.043992
0.137881 0.052827 0.044724
0.156558 0.055283 0.044923
0.175021 0.057435 0.044526
0.193378 0.059236 0.044251
0.213016 0.060792 0.044114
0.233082 0.061753 0.044236
0.251820 0.062623 0.044450
0.269810 0.063142 0.044678
0.283452 0.063890 0.045441
0.291981 0.064683 0.046021
0.032334 0.055192 0.063569
0.039536 0.066178 0.075364
0.063615 0.072068 0.073503
0.091966 0.060929 0.052445
0.115206 0.057527 0.044526
0.130159 0.055055 0.041169
0.140368 0.053681 0.040116
0.152865 0.054414 0.039582
0.166140 0.055680 0.039582
0.182895 0.056764 0.039414
0.204013 0.058701 0.039689
0.226520 0.060609 0.040177
0.246357 0.062043 0.040665
0.264195 0.062287 0.041245
0.278035 0.062486 0.041642
0.288853 0.063386 0.041993
0.299733 0.065782 0.042969
0.034775 0.074708 0.074205
0.037919 0.090974 0.078782
0.045136 0.088045 0.055818
0.119982 0.106340 0.071290
0.164767 0.099596 0.060304
0.190387 0.092378 0.052155
0.205249 0.086748 0.047684
0.219425 0.084245 0.045747
0.235279 0.083116 0.044312
0.253666 0.083742 0.043961
0.272923 0.085115 0.043809
0.292226 0.085908 0.043854
0.310552 0.086412 0.044282
0.326543 0.086473 0.044526
0.339513 0.087022 0.044785
0.349844 0.088640 0.045350
0.358267 0.091463 0.046250
0.035737 0.095537 0.084718
0.032822 0.108141 0.077058
0.032837 0.100984 0.048112
0.098039 0.132937 0.061479
0.206210 0.165118 0.089418
0.263188 0.160052 0.077150
0.288060 0.149050 0.066926
0.302724 0.139895 0.061372
0.315694 0.133455 0.057694
0.331167 0.129854 0.055436
0.348150 0.128389 0.053956
0.365042 0.126925 0.052811
0.380499 0.125505 0.052079
0.394644 0.124315 0.051408
0.407187 0.124498 0.051133
0.418372 0.126833 0.051484
0.427298 0.130617 0.052461
0.033280 0.114015 0.091112
0.030701 0.118532 0.073167
0.029999 0.114153 0.046494
0.073442 0.153643 0.050568
0.203006 0.206332 0.079866
0.313024 0.240406 0.114778
0.373571 0.237064 0.102434
0.397910 0.224170 0.093706
0.409705 0.211292 0.086412
0.419532 0.199969 0.078416
0.432135 0.191531 0.072969
0.446494 0.186114 0.069261
0.461646 0.182193 0.066423
0.476081 0.179492 0.064973
0.489189 0.177966 0.063813
0.500587 0.179187 0.063615
0.508598 0.182696 0.064866
0.031708 0.128588 0.092790
0.030747 0.129976 0.069184
0.030182 0.130144 0.045640
0.055055 0.168078 0.044831
0.196567 0.235950 0.064866
0.343404 0.292348 0.112505
0.421225 0.316014 0.139696
0.475227 0.314321 0.130510
0.502922 0.305013 0.125444
0.517968 0.293050 0.119814
0.530526 0.281743 0.112566
0.544030 0.271595 0.104997
0.559060 0.263035 0.098024
0.574426 0.257298 0.093126
0.586496 0.254124 0.090639
0.595743 0.253391 0.089479
0.601740 0.256107 0.090913
0.031449 0.143435 0.093355
0.031373 0.144640 0.064836
0.031174 0.148669 0.045350
0.044251 0.181613 0.043458
0.190997 0.257939 0.054551
0.367559 0.329885 0.103868
0.455940 0.365164 0.149340
0.519371 0.384817 0.164233
0.566323 0.383932 0.159594
0.596857 0.379614 0.160830
0.619211 0.374273 0.161639
0.636439 0.366064 0.158480
0.653346 0.357427 0.153094
0.670558 0.350545 0.147906
0.680552 0.344121 0.142641
0.685924 0.339742 0.138674
0.687541 0.338354 0.137972
0.032242 0.159777 0.092409
0.032532 0.162112 0.061692
0.032700 0.166918 0.045304
0.041672 0.198672 0.042939
0.186923 0.277760 0.047517
0.390356 0.363272 0.091859
0.499672 0.411872 0.155337
0.553674 0.428901 0.175860
0.613916 0.449226 0.186557
0.654734 0.450782 0.191394
0.688136 0.453925 0.202548
0.714565 0.455390 0.211322
0.736278 0.454047 0.215686
0.753674 0.449714 0.215564
0.762875 0.441688 0.210513
0.764660 0.433265 0.204562
0.761105 0.425971 0.199542
0.033494 0.177371 0.090517
0.033753 0.178729 0.059144
0.034028 0.183185 0.044999
0.041230 0.215991 0.042329
0.191028 0.301411 0.046189
0.412375 0.393652 0.083818
0.541238 0.454307 0.159472
0.597467 0.472358 0.189395
0.642649 0.485847 0.200366
0.698116 0.507897 0.212726
0.738445 0.515770 0.225910
0.774029 0.526741 0.248249
0.798596 0.534554 0.266972
0.816007 0.537423 0.278706
0.825406 0.532555 0.280262
0.826276 0.522728 0.274632
0.819806 0.510674 0.265217
0.034745 0.195224 0.091279
0.034852 0.193393 0.057679
0.035126 0.196139 0.044907
0.042084 0.232929 0.042084
0.206210 0.328832 0.046723
0.440665 0.426459 0.084413
0.575387 0.494026 0.165042
0.644251 0.519677 0.207218
0.684031 0.529366 0.219303
0.726650 0.542931 0.228367
0.774350 0.565194 0.243839
0.809033 0.577844 0.268299
0.835584 0.592355 0.296635
0.855116 0.601678 0.320958
0.862638 0.601678 0.333257
0.862852 0.594385 0.333333
0.856992 0.581140 0.323140
0.035813 0.210620 0.093339
0.035935 0.206729 0.057038
0.036149 0.209140 0.044678
0.048005 0.255970 0.041993
0.238987 0.362600 0.049943
0.477134 0.464652 0.093568
0.611170 0.535607 0.179644
0.686275 0.569207 0.231983
0.725246 0.578424 0.247410
0.761639 0.587366 0.257420
0.802274 0.601724 0.269078
0.838529 0.623926 0.283452
0.863767 0.639658 0.316899
0.879774 0.650996 0.348745
0.885817 0.652079 0.368170
0.886458 0.645914 0.373541
0.881086 0.632639 0.364462
0.036667 0.223835 0.094484
0.036790 0.218357 0.056291
0.036912 0.221393 0.044297
0.061158 0.286656 0.042512
0.286442 0.401434 0.054459
0.516014 0.506477 0.109987
0.646922 0.578256 0.206195
0.718822 0.615061 0.263371
0.766155 0.632074 0.286397
0.797940 0.639078 0.296178
0.827863 0.647028 0.305364
0.856901 0.660609 0.317372
0.887846 0.682841 0.333700
0.899504 0.694408 0.368597
0.905623 0.695308 0.394690
0.906401 0.688685 0.404608
0.899962 0.673213 0.396735
0.037400 0.235264 0.095064
0.037598 0.229557 0.055970
0.037659 0.235355 0.043946
0.088029 0.323629 0.043870
0.335805 0.438697 0.059373
0.546517 0.542489 0.124743
0.675151 0.616785 0.226108
0.745800 0.656260 0.290440
0.793576 0.675624 0.320531
0.828870 0.688243 0.338430
0.851011 0.694286 0.348440
0.873152 0.701045 0.358221
0.893034 0.711803 0.369177
0.912902 0.731289 0.386740
0.918593 0.733730 0.414603
0.918288 0.726024 0.428336
0.913252 0.707713 0.422156
0.038148 0.247822 0.097230
0.038239 0.242527 0.055329
0.039048 0.255924 0.044129
0.120607 0.356741 0.045975
0.351568 0.461158 0.063233
0.542809 0.556176 0.119371
0.683330 0.634089 0.209918
0.761578 0.679286 0.283604
0.812299 0.704387 0.330678
0.840208 0.718456 0.363180
0.860090 0.727550 0.382406
0.880354 0.733349 0.392706
0.896971 0.739361 0.402792
0.913390 0.748791 0.416312
0.928740 0.764492 0.432959
0.928740 0.759060 0.446036
0.923369 0.741756 0.441932
0.038895 0.263478 0.099016
0.039109 0.260655 0.052567
0.041047 0.283421 0.044877
0.144244 0.379324 0.047578
0.333684 0.466026 0.063203
0.512718 0.549996 0.100282
0.671763 0.628153 0.165850
0.767651 0.682460 0.240177
0.823163 0.715618 0.306935
0.850553 0.734905 0.357870
0.864973 0.745663 0.395834
0.881559 0.752178 0.414176
0.895323 0.756283 0.422690
0.907851 0.761074 0.433051
0.922637 0.768200 0.446906
0.933989 0.780362 0.461311
0.930785 0.766720 0.455116
0.039536 0.279637 0.096056
0.041032 0.290410 0.050965
0.051270 0.322362 0.046784
0.144961 0.387503 0.048661
0.296559 0.454643 0.057908
0.472557 0.530648 0.081453
0.642725 0.604334 0.121706
0.758053 0.665415 0.181033
0.824659 0.707225 0.252491
0.856504 0.732250 0.315938
0.869169 0.746349 0.371923
0.877806 0.754070 0.410651
0.890196 0.758694 0.425605
0.899840 0.761868 0.432059
0.912245 0.766644 0.441535
0.925170 0.773449 0.455772
0.935424 0.784497 0.468330
0.029297 0.036332 0.051835
0.032456 0.036149 0.049973
0.038514 0.036973 0.049729
0.052735 0.040314 0.051987
0.066728 0.042863 0.052064
0.084764 0.045243 0.052598
0.102968 0.047837 0.053178
0.123903 0.050935 0.054215
0.144945 0.053941 0.055467
0.165347 0.057191 0.055955
0.187045 0.060014 0.055802
0.206714 0.062593 0.055848
0.228031 0.063874 0.055253
0.246860 0.064820 0.055116
