tools/luts_backup/Kodak Elite Color 200_VS.cube
# (C) 2014 VisionColor & Patchflyer [www.vision-color.com]
# Generator: VC Patchmatch v.2.1.1 [64/53]
# All work and no play makes Jack a dull boy.
# LUT generated from: Kodak Elite Color 200_VisionSpace
LUT_3D_SIZE 9
0.027832 0.027832 0.027832
0.059693 0.030030 0.030365
0.100710 0.038575 0.037659
0.131258 0.046998 0.043824
0.160220 0.054597 0.048615
0.188296 0.060121 0.052277
0.218540 0.067811 0.057252
0.250614 0.077516 0.064729
0.277897 0.082246 0.067445
0.052064 0.079652 0.037873
0.090974 0.079255 0.049226
0.137423 0.087892 0.060822
0.178012 0.099092 0.070375
0.215457 0.110353 0.076783
0.249516 0.119722 0.081483
0.281437 0.130282 0.087190
0.312322 0.140597 0.092500
0.338720 0.147921 0.096498
0.073915 0.136843 0.059144
0.119875 0.143771 0.073457
0.170596 0.149660 0.089204
0.233433 0.171817 0.109560
0.283848 0.187167 0.122103
0.320531 0.198123 0.129549
0.354620 0.207828 0.135683
0.391821 0.218143 0.143832
0.428382 0.226291 0.150271
0.069612 0.178592 0.065675
0.132052 0.195224 0.082460
0.218143 0.228733 0.124269
0.271000 0.239353 0.142763
0.350896 0.273899 0.173068
0.410773 0.293370 0.193912
0.456275 0.306645 0.207553
0.501610 0.317998 0.220340
0.544823 0.331884 0.232822
0.074830 0.226749 0.076387
0.128145 0.238743 0.084565
0.259525 0.292027 0.141543
0.333043 0.325811 0.184695
0.388113 0.341436 0.204410
0.478706 0.382269 0.239902
0.554467 0.413825 0.269230
0.613672 0.438514 0.291295
0.655116 0.454948 0.307378
0.087434 0.281193 0.089082
0.146334 0.293431 0.097414
0.296086 0.347814 0.152041
0.404028 0.408179 0.230045
0.458198 0.424964 0.246616
0.518029 0.449287 0.270878
0.603296 0.500175 0.306279
0.670069 0.547570 0.343847
0.707149 0.576562 0.374731
0.097902 0.327123 0.099245
0.179049 0.347417 0.112978
0.352483 0.419867 0.187381
0.477882 0.494423 0.274327
0.539940 0.518395 0.296239
0.584009 0.533074 0.311101
0.626978 0.559045 0.330663
0.693751 0.613031 0.373693
0.731075 0.647517 0.420203
0.108278 0.367559 0.110201
0.245335 0.411749 0.142245
0.433845 0.519951 0.253819
0.559472 0.598962 0.323400
0.612787 0.615747 0.347021
0.649195 0.629175 0.361242
0.679927 0.640101 0.375250
0.712886 0.666010 0.398871
0.744778 0.697230 0.449531
0.127108 0.413672 0.125429
0.331792 0.495552 0.191623
0.506676 0.610773 0.316503
0.620050 0.680446 0.368658
0.668177 0.700832 0.406928
0.695430 0.708431 0.428016
0.717952 0.712428 0.439521
0.735958 0.719509 0.452094
0.757382 0.732937 0.473610
0.028901 0.029633 0.058961
0.058869 0.031159 0.055299
0.095430 0.039429 0.057862
0.133181 0.047700 0.063050
0.170443 0.056580 0.069062
0.206455 0.065980 0.074556
0.239048 0.074128 0.078523
0.269810 0.081025 0.082246
0.295903 0.087892 0.086458
0.051362 0.081392 0.088716
0.102480 0.098238 0.099031
0.155703 0.066316 0.059724
0.168032 0.058198 0.052308
0.188235 0.060700 0.052949
0.217777 0.067933 0.057130
0.250156 0.077577 0.064454
0.275090 0.083558 0.069245
0.291386 0.091920 0.074403
0.074678 0.153262 0.111727
0.077333 0.170718 0.070588
0.229038 0.201205 0.121004
0.277806 0.182803 0.119905
0.294469 0.168887 0.111910
0.315770 0.166323 0.109163
0.339055 0.167330 0.109133
0.359167 0.170047 0.110140
0.375525 0.178470 0.115938
0.087861 0.203861 0.130220
0.076844 0.225559 0.077882
0.226841 0.278019 0.130953
0.374060 0.329168 0.196841
0.431174 0.320409 0.208560
0.453651 0.304906 0.205905
0.477302 0.295232 0.202396
0.501793 0.293828 0.202762
0.514916 0.297581 0.206119
0.090761 0.253391 0.138766
0.087831 0.281376 0.089570
0.234012 0.325780 0.129213
0.419547 0.411414 0.234501
0.516152 0.448112 0.269932
0.581689 0.455314 0.287968
0.625055 0.455833 0.299016
0.646632 0.447501 0.302037
0.644038 0.434684 0.297917
0.099611 0.305791 0.147280
0.097383 0.326207 0.099306
0.258000 0.378851 0.143923
0.471595 0.492592 0.271580
0.561486 0.524956 0.303197
0.628077 0.561364 0.331945
0.684352 0.587243 0.361120
0.710262 0.595941 0.384588
0.709224 0.577722 0.376715
0.108370 0.350683 0.159030
0.109163 0.367498 0.110842
0.312749 0.448218 0.179232
0.534142 0.582238 0.315099
0.618921 0.618616 0.349645
0.665858 0.632502 0.367529
0.710994 0.664149 0.397345
0.734981 0.672419 0.429938
0.734951 0.653895 0.428901
0.123415 0.391058 0.172763
0.135805 0.415045 0.127504
0.358740 0.512932 0.211551
0.566155 0.642786 0.341802
0.656886 0.686580 0.387640
0.694057 0.697322 0.416632
0.723232 0.705806 0.435096
0.752194 0.725795 0.460853
0.749722 0.707179 0.461830
0.152346 0.440009 0.189456
0.200656 0.464729 0.156710
0.339940 0.522942 0.204105
0.531456 0.632837 0.309575
0.655482 0.697505 0.378607
0.699763 0.716670 0.418921
0.720180 0.719875 0.448707
0.739620 0.726070 0.462013
0.761440 0.739162 0.483009
0.032593 0.037018 0.091463
0.053437 0.033661 0.083528
0.095888 0.042206 0.086915
0.136263 0.050019 0.091066
0.173770 0.058167 0.094148
0.210330 0.067933 0.097444
0.245762 0.078553 0.101747
0.279179 0.087617 0.106691
0.306645 0.094148 0.112337
0.056977 0.087190 0.121981
0.059815 0.074250 0.149722
0.151369 0.071870 0.137575
0.181338 0.063905 0.099123
0.209812 0.067781 0.089906
0.242435 0.076234 0.089601
0.273564 0.083955 0.091585
0.297063 0.089631 0.094728
0.316747 0.098726 0.104829
0.087434 0.150332 0.161715
0.114565 0.199527 0.216312
0.203250 0.202609 0.202243
0.283879 0.142123 0.117647
0.264012 0.100191 0.081575
0.261875 0.082002 0.066957
0.273808 0.081971 0.067170
0.293675 0.093080 0.075929
0.346899 0.134798 0.106600
0.128328 0.241215 0.222477
0.141482 0.296391 0.239933
0.104982 0.254154 0.103731
0.367407 0.321416 0.201328
0.426810 0.285283 0.192264
0.427207 0.249165 0.167758
0.424689 0.227024 0.151675
0.427619 0.220615 0.146670
0.462226 0.238407 0.163363
0.156924 0.313115 0.266667
0.143679 0.342535 0.234165
0.112123 0.328710 0.113893
0.327932 0.394095 0.191135
0.550546 0.477684 0.287022
0.629541 0.482841 0.309148
0.639338 0.439994 0.298070
0.616098 0.400473 0.280980
0.610956 0.387076 0.274907
0.176303 0.370062 0.294041
0.150484 0.383978 0.234043
0.117311 0.374304 0.118227
0.370184 0.485664 0.223545
0.606561 0.590478 0.334356
0.687495 0.630793 0.371984
0.721736 0.632471 0.404852
0.714534 0.592569 0.386328
0.705562 0.553445 0.360967
0.204990 0.428626 0.323278
0.162448 0.425544 0.236820
0.137881 0.415564 0.128054
0.445350 0.574212 0.275456
0.651911 0.682094 0.378912
0.707759 0.697963 0.421576
0.750362 0.723323 0.457008
0.743465 0.684169 0.448585
0.735470 0.649653 0.425574
0.240757 0.494728 0.352392
0.182895 0.469551 0.229740
0.198337 0.462715 0.156435
0.411490 0.568017 0.244022
0.638972 0.688777 0.372961
0.703090 0.716213 0.421942
0.731380 0.721706 0.455940
0.760983 0.738460 0.480690
0.750423 0.707881 0.461555
0.262425 0.564355 0.359808
0.198672 0.498665 0.200198
0.263981 0.493904 0.189212
0.444053 0.589715 0.267643
0.633143 0.691890 0.372595
0.696803 0.715663 0.398352
0.718929 0.718990 0.434028
0.739010 0.725917 0.460761
0.761624 0.739162 0.482429
0.036530 0.044617 0.118715
0.054963 0.038117 0.116701
0.092439 0.043946 0.120211
0.137423 0.052430 0.125002
0.177035 0.060822 0.129000
0.212650 0.069276 0.129549
0.244083 0.076844 0.129610
0.275608 0.084260 0.132509
0.304234 0.093050 0.140047
0.063752 0.098390 0.156954
0.046113 0.062745 0.158175
0.096132 0.055146 0.159518
0.185611 0.070558 0.167117
0.214206 0.070832 0.141268
0.244999 0.077333 0.130465
0.275975 0.084932 0.127077
0.301885 0.093568 0.132784
0.320134 0.101747 0.148013
0.092348 0.155428 0.194491
0.094667 0.169192 0.230167
0.119417 0.170291 0.270512
0.290593 0.155825 0.262882
0.291295 0.111849 0.165682
0.288609 0.090639 0.123049
0.300237 0.091768 0.112459
0.321477 0.101900 0.121462
0.380621 0.139559 0.156283
0.123354 0.221500 0.241764
0.154391 0.288701 0.314061
0.179660 0.310826 0.337987
0.342473 0.346502 0.339605
0.430732 0.248966 0.213046
0.356832 0.151110 0.120531
0.309789 0.105592 0.084291
0.349676 0.136477 0.109224
0.502174 0.234714 0.198489
0.175601 0.324071 0.321141
0.222324 0.405249 0.389166
0.216617 0.423835 0.347997
0.155795 0.350805 0.144839
0.523537 0.453880 0.297673
0.591257 0.393698 0.272496
0.552651 0.333150 0.235157
0.538216 0.306508 0.216220
0.613382 0.352499 0.265660
0.222263 0.411963 0.382239
0.254276 0.488441 0.423163
0.233494 0.487556 0.332494
0.154330 0.390234 0.146456
0.517891 0.542138 0.300938
0.661891 0.596445 0.353887
0.718166 0.612284 0.395102
0.704341 0.545449 0.356802
0.709987 0.514687 0.348486
0.256779 0.490913 0.426856
0.292760 0.566918 0.449836
0.249393 0.541497 0.321172
0.194430 0.456336 0.159670
0.526345 0.620996 0.313848
0.699153 0.697383 0.408087
0.750088 0.722225 0.455207
0.742916 0.679133 0.444953
0.740719 0.645502 0.423041
0.312383 0.578119 0.479805
0.312963 0.621057 0.443488
0.230625 0.532860 0.260533
0.264378 0.493568 0.189670
0.549996 0.646265 0.334417
0.696681 0.715877 0.398749
0.728786 0.721401 0.447181
0.761685 0.739254 0.485176
0.753323 0.706050 0.454566
0.381659 0.650141 0.528283
0.276249 0.615869 0.361685
0.225162 0.535363 0.235294
0.359380 0.540093 0.259281
0.574823 0.676234 0.371145
0.695094 0.723964 0.427222
0.721675 0.719051 0.414679
0.741878 0.722255 0.442847
0.762264 0.736416 0.473548
0.040253 0.050690 0.145907
0.055268 0.041657 0.144137
0.090852 0.047211 0.149813
0.133028 0.053834 0.155550
0.178225 0.062562 0.158938
0.215641 0.072358 0.163455
0.249912 0.081239 0.164370
0.280583 0.087587 0.165682
0.308324 0.096101 0.172274
0.069062 0.110750 0.189883
0.043153 0.058656 0.172213
0.075929 0.049042 0.172763
0.146212 0.060609 0.185489
0.217136 0.076234 0.192813
0.250980 0.082948 0.180301
0.281254 0.088991 0.172183
0.305760 0.096437 0.176547
0.326452 0.108980 0.198428
0.095399 0.167086 0.228489
0.086244 0.158236 0.247044
0.085878 0.158419 0.278141
0.185367 0.127901 0.293156
0.297337 0.134035 0.267887
0.296147 0.098940 0.201740
0.305089 0.096437 0.176059
0.327672 0.108980 0.190005
0.388647 0.154116 0.232059
0.120455 0.224369 0.267308
0.125063 0.250675 0.307652
0.128267 0.269749 0.342596
0.200839 0.287053 0.398810
0.421942 0.281376 0.392828
0.406668 0.174578 0.256733
0.342702 0.118776 0.178973
0.384222 0.147219 0.194644
0.558511 0.238575 0.281819
0.159213 0.295232 0.322087
0.210697 0.374273 0.404761
0.228275 0.401389 0.436912
0.307912 0.458671 0.489647
0.502266 0.503029 0.493797
0.580133 0.375433 0.345464
0.497902 0.232898 0.196674
0.507424 0.238636 0.202274
0.678798 0.402487 0.365682
0.223392 0.401160 0.406683
0.274540 0.495583 0.489662
0.317571 0.565744 0.538964
0.305653 0.557519 0.474113
0.326452 0.482963 0.274876
0.640269 0.579400 0.392935
0.705379 0.523445 0.351476
0.684535 0.448783 0.316716
0.716365 0.536736 0.427100
0.272740 0.500816 0.476234
0.345190 0.595178 0.547295
0.405158 0.659144 0.582635
0.288655 0.620386 0.393362
0.290654 0.470481 0.216281
0.661234 0.673213 0.393439
0.733669 0.689601 0.419135
0.744808 0.667384 0.435676
0.745052 0.653376 0.482002
0.343786 0.593652 0.539330
0.414038 0.663172 0.590051
0.395148 0.676020 0.548653
0.274830 0.620874 0.330892
0.358984 0.541558 0.260288
0.659495 0.711131 0.414588
0.728023 0.719234 0.423377
0.761501 0.735592 0.473121
0.758999 0.710811 0.481331
0.429786 0.672969 0.600214
0.425635 0.686305 0.591058
0.394919 0.674403 0.511086
0.369070 0.631403 0.391348
0.468467 0.638422 0.389456
0.641489 0.711269 0.517205
0.723537 0.733608 0.468345
0.746670 0.723171 0.440955
0.763302 0.729183 0.460426
0.042023 0.055604 0.168399
0.055055 0.044678 0.166537
0.086671 0.048676 0.171939
0.130343 0.056245 0.180819
0.170901 0.064179 0.187778
0.215488 0.075044 0.190982
0.252140 0.084779 0.196475
0.286229 0.093080 0.199191
0.316869 0.103182 0.206973
0.070741 0.118990 0.217777
0.044800 0.063203 0.195102
0.067292 0.047730 0.188632
0.125826 0.058350 0.203616
0.187900 0.072236 0.216892
0.251499 0.088655 0.224643
0.287236 0.096315 0.218631
0.313726 0.104097 0.221530
0.333959 0.119142 0.245945
0.093568 0.176059 0.258579
0.082979 0.158785 0.268589
0.067170 0.123201 0.268193
0.118242 0.095766 0.268299
0.222980 0.107362 0.273289
0.301152 0.114137 0.271733
0.315435 0.108125 0.242771
0.337469 0.123384 0.254673
0.403937 0.177981 0.303197
0.113466 0.230350 0.293004
0.109926 0.241550 0.321019
0.106783 0.246616 0.350072
0.148547 0.260380 0.383307
0.312154 0.246357 0.443183
0.426169 0.216419 0.385031
0.359564 0.147219 0.290990
0.405707 0.179324 0.302800
0.567803 0.273564 0.387884
0.151003 0.294621 0.340246
0.174334 0.335317 0.392340
0.177539 0.354177 0.424063
0.223377 0.383261 0.461936
0.359319 0.426963 0.526421
0.563226 0.424460 0.538445
0.562936 0.274281 0.390265
0.570336 0.263981 0.353735
0.663355 0.423270 0.477272
0.212039 0.375006 0.406134
0.271763 0.469429 0.510094
0.317601 0.539727 0.581567
0.339879 0.549218 0.589837
0.511879 0.605554 0.614221
0.620722 0.619898 0.614893
0.669123 0.526772 0.500221
0.681392 0.431022 0.398245
0.700984 0.593866 0.574380
0.274784 0.488991 0.499855
0.357580 0.595636 0.591424
0.440101 0.670405 0.653346
0.454841 0.681666 0.658839
0.503319 0.670878 0.617655
0.557107 0.638911 0.522988
0.715084 0.674830 0.495583
0.744015 0.654627 0.494362
0.737270 0.675624 0.615747
0.357916 0.600916 0.576288
0.439704 0.673426 0.639796
0.477333 0.701503 0.663478
0.506432 0.710597 0.656718
0.497246 0.687449 0.572106
0.488731 0.643793 0.420554
0.715084 0.727749 0.481849
0.760464 0.725338 0.461219
0.759793 0.727810 0.616114
0.450294 0.680812 0.636896
0.472633 0.699458 0.656733
0.510521 0.712612 0.660761
0.559808 0.712398 0.644633
0.577356 0.697902 0.605600
0.616266 0.705043 0.589441
0.698054 0.736782 0.607172
0.745724 0.744045 0.556939
0.766232 0.742184 0.536461
0.044312 0.062196 0.194095
0.055268 0.047242 0.187533
0.082521 0.049500 0.191562
0.126009 0.058106 0.203891
0.167056 0.066712 0.212833
0.209903 0.077577 0.220462
0.252537 0.088716 0.224735
0.288975 0.098573 0.229496
0.320806 0.107912 0.237919
0.072938 0.129610 0.248325
0.050385 0.077119 0.228763
0.065095 0.053590 0.214908
0.114656 0.061830 0.227390
0.174960 0.075288 0.243198
0.231357 0.088716 0.250980
0.287877 0.104219 0.257511
0.317601 0.111818 0.260197
0.337072 0.128237 0.284764
0.092988 0.188846 0.289128
0.083436 0.170871 0.298497
0.068421 0.127291 0.288060
0.098756 0.095491 0.288975
0.187839 0.106600 0.293980
0.262943 0.108797 0.285100
0.318242 0.119234 0.287022
0.340887 0.135134 0.298741
0.411353 0.200137 0.359167
0.108888 0.242191 0.321965
0.102937 0.246159 0.345800
0.101167 0.242771 0.369024
0.120180 0.246555 0.395270
0.210956 0.222934 0.471626
0.357427 0.198993 0.392386
0.360006 0.156924 0.327703
0.413489 0.203677 0.368902
0.570001 0.306676 0.480751
0.145541 0.302312 0.364385
0.154818 0.326085 0.403235
0.148714 0.333257 0.429908
0.173083 0.355398 0.471687
0.250568 0.374868 0.529427
0.461891 0.385489 0.573327
0.560891 0.314565 0.512215
0.572381 0.314855 0.497749
0.657984 0.456596 0.574273
0.206424 0.373083 0.422950
0.252171 0.431373 0.497414
0.277287 0.464179 0.541711
0.285191 0.475410 0.559533
0.387701 0.541619 0.626154
0.534737 0.570520 0.625971
0.666377 0.564248 0.650660
0.665339 0.478111 0.584344
0.699825 0.596857 0.636255
0.271550 0.469795 0.508934
0.353368 0.577447 0.611536
0.442847 0.654597 0.678920
0.458839 0.661952 0.690455
0.549371 0.683803 0.700069
0.649134 0.702693 0.706508
0.704341 0.701167 0.699092
0.713924 0.648981 0.638941
0.732998 0.691524 0.685084
0.359258 0.591577 0.598047
0.449500 0.673762 0.670924
0.494942 0.705226 0.701839
0.543816 0.719570 0.713283
0.618647 0.734981 0.721370
0.652705 0.735317 0.705043
0.669764 0.722286 0.650996
0.756893 0.739803 0.628931
0.761501 0.742428 0.709865
0.461799 0.686091 0.666651
0.488960 0.706844 0.689754
0.536583 0.719387 0.702419
0.613764 0.733700 0.712520
0.658839 0.741726 0.713954
0.669917 0.740261 0.698878
0.701595 0.744595 0.684688
0.748409 0.758907 0.691585
0.768521 0.758694 0.675929
0.049989 0.076295 0.227695
0.057679 0.053407 0.214664
0.080995 0.052857 0.215763
0.123507 0.061799 0.229038
0.165957 0.072023 0.240635
0.206851 0.082277 0.246952
0.246555 0.092256 0.253544
0.289830 0.104524 0.258610
0.322576 0.113710 0.266850
0.076326 0.146914 0.281468
0.065492 0.121065 0.283207
0.077028 0.091035 0.270878
0.122438 0.094057 0.283635
0.186709 0.104616 0.293004
0.237156 0.104097 0.284581
0.282322 0.109987 0.283238
0.318700 0.119203 0.286748
0.338231 0.133547 0.301732
0.091615 0.204532 0.321080
0.091646 0.207431 0.345678
0.103517 0.216434 0.374060
0.132326 0.187076 0.365423
0.231083 0.189364 0.439399
0.309911 0.175082 0.367163
0.338811 0.147677 0.320165
0.340551 0.137270 0.307866
0.410010 0.203311 0.371618
0.105196 0.255558 0.350988
0.108034 0.271092 0.385657
0.132021 0.300420 0.436408
0.167788 0.303624 0.455268
0.237751 0.297215 0.524224
0.396674 0.286412 0.524224
0.446967 0.232670 0.420706
0.408209 0.201480 0.371496
0.567315 0.319188 0.520226
0.143130 0.313909 0.393957
0.145968 0.332097 0.429480
0.165743 0.358923 0.474159
0.226566 0.394568 0.522789
0.273365 0.403296 0.579675
0.436057 0.423163 0.604212
0.569390 0.371145 0.569772
0.563745 0.316152 0.518547
0.657069 0.476493 0.629511
0.207218 0.381445 0.450477
0.229557 0.412177 0.497475
0.247044 0.435462 0.531792
0.297948 0.488594 0.594812
0.391699 0.542351 0.654231
0.479454 0.546471 0.653071
0.622705 0.546258 0.659663
0.664088 0.494621 0.642054
0.704341 0.611811 0.685603
0.277745 0.470100 0.533776
0.319280 0.535363 0.602045
0.339239 0.564355 0.634516
0.393408 0.599908 0.666926
0.507103 0.645716 0.695766
0.604547 0.671443 0.709346
0.654719 0.670985 0.706996
0.720638 0.662196 0.713497
0.736233 0.694331 0.720027
0.357122 0.580987 0.613184
0.452094 0.660548 0.683375
0.495033 0.686030 0.710231
0.543359 0.708400 0.725063
0.618769 0.730190 0.741665
0.683101 0.748989 0.754238
0.719722 0.755734 0.757931
0.758328 0.754940 0.754757
0.765866 0.753170 0.751522
0.463783 0.680995 0.683131
0.496315 0.703853 0.708034
0.546349 0.719051 0.720974
0.626337 0.738399 0.734676
0.682857 0.753994 0.747036
0.709529 0.760159 0.751736
0.733333 0.765896 0.753628
0.762081 0.773526 0.756252
0.775479 0.772793 0.753841
0.060395 0.106569 0.274601
0.067536 0.079347 0.259739
0.086732 0.073610 0.260990
0.130312 0.082734 0.272190
0.174960 0.091157 0.281376
0.215854 0.097658 0.283635
0.253849 0.103944 0.284611
0.289219 0.111574 0.286961
0.324865 0.122652 0.291783
0.082033 0.177951 0.325444
0.103304 0.219211 0.376989
0.118166 0.193088 0.363226
0.160098 0.190097 0.407050
0.248112 0.192172 0.437110
0.304662 0.179385 0.379583
0.329747 0.152346 0.328893
0.339086 0.139803 0.311101
0.337652 0.134829 0.305821
0.094575 0.231998 0.360632
0.125093 0.284672 0.427558
0.163699 0.301549 0.454505
0.203311 0.291447 0.467521
0.298085 0.305303 0.552819
0.400977 0.290898 0.529198
0.450752 0.248905 0.449592
0.433967 0.218875 0.394568
0.406653 0.200381 0.368933
0.108400 0.278660 0.389380
0.142275 0.328710 0.456519
0.204685 0.370184 0.504936
0.271702 0.402075 0.577447
0.357321 0.415503 0.610986
0.474525 0.422156 0.607355
0.555444 0.380911 0.580957
0.583642 0.340734 0.540124
0.564782 0.313542 0.517052
0.141207 0.328191 0.425391
0.170535 0.369085 0.480018
0.249119 0.422736 0.541009
0.342885 0.492592 0.634424
0.462760 0.537224 0.651881
0.543999 0.544274 0.644129
0.614221 0.531533 0.654108
0.661830 0.499107 0.644556
0.656611 0.476127 0.633051
0.207126 0.389685 0.479286
0.229343 0.421118 0.520958
0.297215 0.487526 0.593286
0.416663 0.566522 0.663844
0.543267 0.617273 0.686030
0.607019 0.636927 0.693385
0.660060 0.634913 0.695827
0.701228 0.626307 0.699794
0.704341 0.610590 0.693141
0.281498 0.471595 0.549157
0.297520 0.498512 0.581781
0.350042 0.557763 0.645380
0.482185 0.625238 0.687099
0.597436 0.669429 0.709590
0.654047 0.693629 0.724147
0.696498 0.706966 0.730617
0.731777 0.706935 0.735531
0.738460 0.697017 0.731319
0.353643 0.572076 0.631220
0.375647 0.598627 0.657893
0.438056 0.636805 0.687861
0.554894 0.681270 0.714351
0.643091 0.714839 0.734310
0.686915 0.731411 0.745846
0.726589 0.746517 0.755917
0.759304 0.759976 0.767056
0.768399 0.756436 0.765682
0.468086 0.674372 0.693812
0.494209 0.686610 0.710201
0.542016 0.708064 0.724544
0.619348 0.730373 0.742885
0.682551 0.752255 0.757443
0.715389 0.761715 0.764523
0.739406 0.768795 0.770260
0.765469 0.778164 0.779141
0.786923 0.786923 0.786221
