tools/luts_backup/Kodak Vision3 200T 5213 (NEG)_FPE.cube
# (C) 2014 VisionColor & Patchflyer [www.vision-color.com]
# Generator: VC Patchmatch v.2.1.1 [64/53]
# All work and no play makes Jack a dull boy.
# LUT generated from: Kodak Vision3 200T 5213 (NEG)_FPE
LUT_3D_SIZE 17
0.034607 0.038911 0.039475
0.035920 0.035248 0.036133
0.038193 0.032425 0.032425
0.045167 0.031937 0.029053
0.053727 0.030518 0.027512
0.064683 0.030900 0.027726
0.078630 0.032395 0.027817
0.100694 0.035080 0.028397
0.117540 0.036530 0.029938
0.127367 0.036805 0.030808
0.129290 0.036881 0.031022
0.137530 0.037171 0.031922
0.179995 0.037110 0.033234
0.245350 0.037415 0.033631
0.283330 0.039063 0.035676
0.299596 0.039826 0.036851
0.315709 0.040589 0.038148
0.030671 0.052934 0.040208
0.044038 0.058137 0.038651
0.057252 0.046387 0.032837
0.058457 0.038987 0.030533
0.071229 0.035416 0.029084
0.086244 0.034562 0.028397
0.098497 0.035340 0.028397
0.111940 0.036133 0.029404
0.128542 0.036866 0.030930
0.142275 0.037324 0.032441
0.154574 0.037339 0.032929
0.169589 0.037324 0.033387
0.200137 0.036637 0.032761
0.249012 0.037568 0.033799
0.283757 0.039094 0.035706
0.301900 0.039933 0.037018
0.318990 0.040757 0.038453
0.032349 0.074388 0.036667
0.040467 0.079774 0.037201
0.056672 0.084016 0.036698
0.106615 0.073487 0.033524
0.128801 0.056626 0.031418
0.129839 0.045502 0.030976
0.136568 0.040528 0.031144
0.143481 0.038697 0.032181
0.151827 0.037888 0.033021
0.162173 0.037461 0.033204
0.175158 0.037263 0.033371
0.189899 0.036881 0.033005
0.210941 0.036713 0.032853
0.248753 0.037583 0.033875
0.288930 0.039338 0.036118
0.306508 0.040146 0.037354
0.320958 0.040848 0.038651
0.031830 0.095415 0.037552
0.037110 0.099641 0.037980
0.042664 0.104494 0.038529
0.066621 0.113481 0.039811
0.166339 0.115114 0.037568
0.230533 0.099702 0.036805
0.249088 0.079088 0.036454
0.255833 0.060746 0.037095
0.250065 0.049653 0.038224
0.236652 0.043763 0.037705
0.226688 0.039963 0.035508
0.228214 0.038056 0.034226
0.246891 0.037919 0.034470
0.303487 0.040543 0.038468
0.379126 0.043305 0.043030
0.355810 0.042115 0.040909
0.324071 0.041016 0.038926
0.034943 0.125261 0.043366
0.039216 0.131868 0.044251
0.042603 0.141451 0.045548
0.043977 0.147860 0.046189
0.120104 0.168002 0.049897
0.265629 0.183001 0.045533
0.362432 0.170230 0.043397
0.408148 0.141512 0.045747
0.386130 0.105318 0.044175
0.370336 0.073823 0.042847
0.348989 0.055772 0.042908
0.330098 0.047486 0.042832
0.327489 0.043824 0.042481
0.378073 0.045121 0.044465
0.474006 0.053513 0.049104
0.453574 0.048325 0.047700
0.343343 0.041810 0.040391
0.052628 0.179339 0.056031
0.057786 0.184497 0.056626
0.060334 0.195941 0.057725
0.056245 0.201648 0.058946
0.058808 0.204623 0.059571
0.191745 0.241810 0.064103
0.372732 0.272084 0.058579
0.472053 0.247440 0.050645
0.548028 0.208667 0.053025
0.507332 0.151675 0.050782
0.468360 0.105745 0.048325
0.446433 0.073716 0.046082
0.423484 0.057557 0.045869
0.422705 0.050431 0.046616
0.471794 0.053834 0.048936
0.502144 0.056992 0.050553
0.419989 0.045304 0.045151
0.120623 0.267384 0.071260
0.119249 0.264897 0.070848
0.116350 0.270680 0.071199
0.099336 0.273518 0.070024
0.073671 0.267124 0.066499
0.083024 0.271733 0.064836
0.258656 0.325734 0.072679
0.483696 0.362020 0.074113
0.593835 0.325063 0.063508
0.657664 0.269108 0.061860
0.616800 0.194644 0.056214
0.541588 0.131731 0.052277
0.501503 0.085542 0.049180
0.449332 0.055619 0.047517
0.425727 0.047089 0.046418
0.513695 0.061234 0.050904
0.532845 0.066346 0.051789
0.230152 0.362661 0.081575
0.224704 0.358526 0.081895
0.216648 0.360113 0.082383
0.189883 0.359670 0.081239
0.145052 0.350561 0.077272
0.117250 0.342214 0.072847
0.171832 0.361639 0.072053
0.413642 0.426719 0.086671
0.624247 0.440406 0.093645
0.717296 0.390875 0.081895
0.746609 0.314336 0.072221
0.693706 0.222583 0.061540
0.587930 0.140795 0.054505
0.499901 0.073350 0.049195
0.408698 0.046067 0.045594
0.522774 0.066773 0.051255
0.667292 0.138125 0.058656
0.358160 0.453239 0.087175
0.356268 0.451713 0.088014
0.350072 0.452522 0.088258
0.325917 0.452354 0.089296
0.272633 0.442634 0.087037
0.209079 0.425620 0.084215
0.221149 0.428519 0.081865
0.351949 0.464256 0.086610
0.616251 0.523842 0.118486
0.762356 0.504067 0.120684
0.811658 0.441245 0.101671
0.807767 0.343450 0.081193
0.754818 0.243214 0.066789
0.648463 0.152621 0.057542
0.544686 0.078874 0.052140
0.613962 0.107774 0.055955
0.800549 0.236133 0.070237
0.503349 0.540368 0.102831
0.497200 0.537835 0.098421
0.493004 0.538689 0.096345
0.486229 0.541955 0.100542
0.441947 0.534630 0.102907
0.364172 0.513161 0.097398
0.312779 0.493645 0.091569
0.372442 0.507195 0.095140
0.532265 0.549264 0.113069
0.773480 0.583078 0.152758
0.856977 0.553765 0.152193
0.881437 0.498543 0.129046
0.857328 0.393912 0.094484
0.831067 0.315389 0.079606
0.802213 0.268070 0.072557
0.809415 0.264637 0.072831
0.871778 0.346716 0.089296
0.663157 0.621927 0.139300
0.646937 0.613977 0.127901
0.631617 0.608377 0.116014
0.637888 0.612528 0.120348
0.610437 0.610468 0.125658
0.538048 0.593866 0.123262
0.448005 0.564691 0.113863
0.419226 0.549432 0.108446
0.497856 0.567575 0.117189
0.665309 0.606775 0.144106
0.847959 0.610040 0.174182
0.909026 0.608698 0.193652
0.919173 0.573266 0.173922
0.904906 0.498543 0.133211
0.904860 0.472313 0.124834
0.907927 0.461372 0.123598
0.913176 0.455283 0.124346
0.792386 0.690806 0.179782
0.777966 0.681437 0.167727
0.760037 0.670909 0.148318
0.755077 0.668956 0.148516
0.731411 0.664607 0.152804
0.677241 0.651728 0.152697
0.593622 0.628153 0.142412
0.518517 0.601984 0.130617
0.523217 0.598047 0.130220
0.614466 0.619715 0.145312
0.753658 0.650645 0.174060
0.882795 0.652720 0.201038
0.926406 0.661265 0.236042
0.930098 0.632151 0.221988
0.936370 0.596902 0.202182
0.941726 0.578439 0.195819
0.939986 0.552529 0.181186
0.871382 0.738354 0.211948
0.865843 0.733379 0.205844
0.856977 0.725978 0.192218
0.843961 0.720043 0.189822
0.818479 0.712276 0.189364
0.776974 0.700175 0.185550
0.716701 0.681880 0.176410
0.646204 0.659846 0.163210
0.610803 0.646754 0.156329
0.651209 0.654627 0.164477
0.737560 0.675578 0.183322
0.835660 0.698528 0.212634
0.910750 0.704494 0.245319
0.936278 0.696803 0.272160
0.947036 0.671778 0.267597
0.950286 0.648295 0.257740
0.949157 0.626123 0.245914
0.911971 0.773419 0.241474
0.909285 0.771115 0.239322
0.905470 0.767636 0.235721
0.898695 0.762875 0.232547
0.884016 0.755810 0.229587
0.859525 0.745571 0.224552
0.815610 0.730983 0.214054
0.759854 0.711833 0.198718
0.715190 0.696956 0.186862
0.723537 0.697688 0.192294
0.778820 0.712444 0.212985
0.851057 0.730800 0.240055
0.905547 0.748043 0.276326
0.940276 0.740978 0.303120
0.953292 0.725628 0.312947
0.957549 0.706706 0.308461
0.957076 0.688151 0.302586
0.928695 0.795972 0.271901
0.927947 0.794919 0.270207
0.927153 0.793774 0.268513
0.925917 0.792172 0.266484
0.922225 0.789197 0.264302
0.910628 0.783062 0.260609
0.882734 0.772473 0.251652
0.845106 0.758114 0.237339
0.799649 0.742214 0.225208
0.790417 0.737972 0.226413
0.824720 0.747875 0.245319
0.871977 0.763104 0.279026
0.913130 0.778393 0.314946
0.942367 0.780728 0.341207
0.958541 0.764340 0.347829
0.961913 0.751522 0.347829
0.962768 0.736400 0.348547
0.942641 0.817884 0.307134
0.941848 0.816587 0.305013
0.941314 0.815549 0.303044
0.940948 0.814939 0.302174
0.939483 0.813794 0.301778
0.933028 0.810147 0.300679
0.920211 0.802701 0.294972
0.897169 0.791089 0.281086
0.863035 0.777401 0.263905
0.845365 0.770932 0.261738
0.860441 0.777676 0.283665
0.894118 0.791272 0.318868
0.925536 0.804730 0.354147
0.948409 0.811048 0.376974
0.962402 0.799863 0.381109
0.964065 0.789639 0.386923
0.964477 0.778195 0.399222
0.951156 0.836118 0.340017
0.950866 0.835477 0.338994
0.950149 0.834073 0.336858
0.949599 0.833005 0.335164
0.949248 0.832670 0.334813
0.947799 0.831724 0.334905
0.941649 0.827832 0.333303
0.924422 0.818555 0.324498
0.903716 0.806577 0.307576
0.883421 0.798886 0.301427
0.889326 0.802762 0.320974
0.912856 0.814084 0.354040
0.939895 0.827253 0.388769
0.957183 0.832624 0.413046
0.965164 0.824460 0.415686
0.966247 0.816480 0.418448
0.966430 0.805432 0.431785
0.027100 0.031296 0.038743
0.044053 0.034470 0.051804
0.065919 0.034836 0.050584
0.077424 0.034257 0.042130
0.076143 0.033555 0.033921
0.068544 0.032090 0.029786
0.070375 0.031525 0.028077
0.088212 0.033768 0.028122
0.105043 0.035462 0.028794
0.117021 0.036484 0.029892
0.127703 0.036820 0.030854
0.141253 0.037293 0.032319
0.175097 0.037232 0.033356
0.230182 0.036927 0.033097
0.274052 0.038636 0.035004
0.297063 0.039704 0.036667
0.317021 0.040650 0.038270
0.028000 0.058656 0.068666
0.046387 0.056916 0.059190
0.065919 0.042054 0.043778
0.072770 0.036790 0.035874
0.080461 0.035752 0.031922
0.092927 0.035096 0.029221
0.103960 0.035447 0.028733
0.107958 0.035737 0.029068
0.118395 0.036561 0.029984
0.132677 0.037003 0.031388
0.147066 0.037339 0.032700
0.162219 0.037324 0.033158
0.182437 0.037049 0.033173
0.218677 0.036805 0.032959
0.266880 0.038315 0.034623
0.301915 0.039933 0.037034
0.322179 0.040909 0.038758
0.028946 0.079149 0.051041
0.041382 0.079576 0.047562
0.067994 0.089570 0.044999
0.121767 0.077882 0.038315
0.147845 0.063142 0.034134
0.162127 0.049912 0.032990
0.169131 0.042222 0.033738
0.174228 0.040177 0.034455
0.181048 0.038987 0.034226
0.184985 0.038148 0.033890
0.188312 0.037278 0.033280
0.197192 0.036759 0.032868
0.213733 0.036744 0.032883
0.241871 0.037263 0.033478
0.283024 0.039063 0.035676
0.336721 0.041352 0.039506
0.349660 0.041978 0.040681
0.030549 0.101305 0.044251
0.043153 0.107225 0.044724
0.056291 0.115007 0.044495
0.087877 0.125536 0.044831
0.188052 0.123293 0.041245
0.259434 0.105928 0.038346
0.292119 0.081987 0.038331
0.296101 0.065354 0.039216
0.296193 0.055146 0.040055
0.288182 0.049119 0.040558
0.266590 0.042863 0.038849
0.248753 0.039063 0.035492
0.248707 0.037751 0.034302
0.264683 0.038315 0.034760
0.301946 0.039994 0.037247
0.351766 0.041993 0.040696
0.359258 0.042313 0.041306
0.034913 0.138018 0.045670
0.043336 0.140658 0.046204
0.059037 0.152422 0.046143
0.073915 0.163607 0.046235
0.122042 0.181216 0.050126
0.276509 0.195148 0.049989
0.384543 0.172625 0.045014
0.446296 0.140139 0.047196
0.424475 0.112062 0.046357
0.401419 0.088304 0.044572
0.383963 0.064317 0.043931
0.358068 0.049821 0.043900
0.336065 0.044038 0.042817
0.332387 0.042237 0.041352
0.381262 0.044266 0.043961
0.448188 0.048783 0.047761
0.438041 0.046876 0.046525
0.048997 0.189517 0.053010
0.056825 0.188296 0.052186
0.077287 0.204471 0.052186
0.088396 0.217685 0.053574
0.093248 0.225559 0.056550
0.192660 0.255543 0.063783
0.394080 0.285725 0.061952
0.508354 0.248142 0.053315
0.568444 0.200824 0.053574
0.534066 0.158083 0.052003
0.487312 0.118105 0.049699
0.469490 0.084825 0.047532
0.447593 0.063661 0.046601
0.431952 0.053407 0.046845
0.459129 0.054520 0.048096
0.530922 0.070863 0.051621
0.532891 0.067231 0.051789
0.114321 0.276127 0.062379
0.107500 0.260685 0.061875
0.127337 0.273991 0.059785
0.132189 0.285222 0.059892
0.121660 0.288823 0.062638
0.145907 0.303426 0.069093
0.296742 0.345037 0.079454
0.515297 0.375830 0.079667
0.619928 0.324437 0.065675
0.664195 0.266194 0.062058
0.642725 0.207691 0.057877
0.580652 0.155642 0.054139
0.544381 0.115099 0.052232
0.518914 0.085115 0.050309
0.514809 0.073167 0.050355
0.562051 0.089586 0.053056
0.599817 0.109026 0.055131
0.236347 0.374929 0.072145
0.218524 0.359182 0.072053
0.225299 0.361288 0.069612
0.218769 0.365652 0.067826
0.183154 0.360540 0.071260
0.172122 0.363668 0.074815
0.237629 0.388113 0.080293
0.434470 0.437919 0.093400
0.633341 0.453025 0.099245
0.719814 0.401801 0.084886
0.752712 0.337774 0.075257
0.749126 0.269261 0.067552
0.685603 0.201907 0.060487
0.616022 0.144289 0.055833
0.571954 0.106706 0.053605
0.598718 0.116442 0.055024
0.685252 0.160433 0.059541
0.375631 0.466957 0.085039
0.364736 0.459327 0.083558
0.359716 0.455650 0.083360
0.340856 0.454170 0.082506
0.295201 0.446067 0.082887
0.240513 0.434043 0.082994
0.267338 0.444755 0.084764
0.384543 0.477989 0.092332
0.607858 0.529992 0.121416
0.754269 0.521645 0.128130
0.809049 0.469017 0.109667
0.823178 0.397894 0.091508
0.813123 0.318135 0.078309
0.760571 0.236332 0.066972
0.678553 0.166857 0.059083
0.694316 0.168795 0.060151
0.799680 0.241184 0.070375
0.520394 0.549966 0.103609
0.511437 0.546166 0.098131
0.506661 0.544030 0.098100
0.489967 0.541176 0.098589
0.444923 0.531914 0.099809
0.376822 0.514885 0.096437
0.346426 0.506218 0.095079
0.420920 0.526741 0.103487
0.563867 0.563836 0.122240
0.771420 0.606851 0.164797
0.846387 0.575418 0.159930
0.876402 0.521843 0.138048
0.872831 0.443046 0.107942
0.850278 0.356878 0.087556
0.819684 0.285161 0.075639
0.823835 0.280583 0.075547
0.871214 0.350164 0.089677
0.671595 0.625147 0.136553
0.657542 0.618158 0.122179
0.651072 0.617319 0.119615
0.644495 0.616403 0.120378
0.613870 0.609583 0.120974
0.541939 0.592767 0.119036
0.473564 0.573205 0.116213
0.484352 0.573190 0.119631
0.577600 0.595163 0.132586
0.722896 0.630869 0.164233
0.868162 0.650401 0.199573
0.902342 0.618875 0.197009
0.915816 0.565484 0.169284
0.907118 0.497292 0.134234
0.892989 0.436240 0.109545
0.896361 0.426810 0.108324
0.914214 0.463050 0.127123
0.795575 0.690517 0.172869
0.783932 0.681590 0.154116
0.774838 0.679728 0.147265
0.769421 0.679347 0.144900
0.758755 0.672816 0.143084
0.697902 0.656840 0.141299
0.612772 0.634302 0.138033
0.566888 0.618616 0.137774
0.600198 0.622690 0.145464
0.694545 0.644450 0.165698
0.828199 0.681941 0.203677
0.912642 0.686870 0.240421
0.933562 0.654734 0.238499
0.936278 0.609155 0.209049
0.935347 0.577264 0.188357
0.937713 0.560006 0.179950
0.941833 0.562127 0.187686
0.873137 0.737392 0.203937
0.868482 0.732219 0.193286
0.864485 0.728740 0.181460
0.857893 0.726085 0.173419
0.844907 0.718318 0.170321
0.801251 0.705348 0.169116
0.731899 0.686580 0.167452
0.664454 0.666316 0.163027
0.645502 0.657359 0.162615
0.690913 0.665736 0.173114
0.779019 0.689296 0.198032
0.877546 0.721630 0.240574
0.931334 0.724208 0.282704
0.943969 0.690349 0.276127
0.948913 0.665400 0.263157
0.950057 0.649836 0.256611
0.949783 0.635157 0.252811
0.911513 0.771969 0.236896
0.909148 0.769985 0.234852
0.906950 0.766857 0.226581
0.903243 0.762676 0.214786
0.891081 0.755840 0.212863
0.866300 0.745647 0.212284
0.821561 0.731472 0.206928
0.764843 0.712718 0.195758
0.719371 0.697734 0.185885
0.725078 0.697490 0.191028
0.778042 0.711788 0.211444
0.849928 0.731517 0.240238
0.906844 0.751827 0.280735
0.940383 0.747982 0.312428
0.951888 0.726802 0.313329
0.957504 0.710552 0.308736
0.957321 0.693950 0.304936
0.927535 0.794034 0.267781
0.927230 0.793667 0.267536
0.926726 0.792767 0.265721
0.925673 0.790906 0.261769
0.922301 0.787930 0.259495
0.911025 0.782010 0.256550
0.884276 0.771862 0.248981
0.848753 0.758083 0.236423
0.799878 0.740917 0.222965
0.780972 0.733272 0.220157
0.806516 0.740261 0.234272
0.856016 0.754940 0.263478
0.900847 0.770932 0.299306
0.931151 0.782025 0.334066
0.953017 0.766583 0.344549
0.961059 0.752682 0.344106
0.962661 0.738994 0.343221
0.941283 0.815335 0.302281
0.940948 0.814771 0.301488
0.940673 0.814389 0.300877
0.940429 0.814023 0.300450
0.939101 0.812909 0.299840
0.933501 0.809277 0.298222
0.921660 0.802090 0.292729
0.900908 0.791012 0.279896
0.865522 0.776623 0.261479
0.835737 0.765698 0.251926
0.843641 0.768444 0.264759
0.872755 0.780041 0.295094
0.909255 0.794095 0.331121
0.937346 0.806745 0.362402
0.954543 0.800381 0.372442
0.962982 0.788373 0.377127
0.964096 0.779461 0.386313
0.950042 0.833860 0.336416
0.949645 0.833127 0.335378
0.949310 0.832532 0.334340
0.949233 0.832334 0.334051
0.949264 0.832517 0.334401
0.948409 0.831922 0.334493
0.944030 0.828504 0.332906
0.927932 0.819577 0.325170
0.908080 0.806790 0.307240
0.880735 0.794705 0.291432
0.874495 0.792813 0.298604
0.894194 0.801419 0.327398
0.919676 0.813031 0.360021
0.945052 0.825315 0.391791
0.960479 0.821790 0.404242
0.965118 0.813748 0.407797
0.966155 0.806561 0.419257
0.027085 0.029694 0.042908
0.033951 0.030121 0.061723
0.061830 0.033371 0.076356
0.082612 0.033738 0.078416
0.093477 0.035584 0.072587
0.098253 0.036957 0.059983
0.097017 0.036332 0.043320
0.092622 0.034668 0.033173
0.098131 0.034623 0.029770
0.106798 0.035523 0.029068
0.117052 0.036484 0.029892
0.130861 0.036942 0.031189
0.152209 0.037339 0.032853
0.191897 0.036835 0.032959
0.246967 0.037476 0.033707
0.283650 0.039078 0.035706
0.306127 0.040116 0.037324
0.027405 0.038651 0.064073
0.032364 0.034226 0.061723
0.077989 0.039658 0.081331
0.107759 0.038407 0.079835
0.126329 0.038712 0.073945
0.131136 0.038666 0.056764
0.121736 0.037049 0.038270
0.108431 0.035370 0.030900
0.108690 0.035660 0.029282
0.118532 0.036545 0.030014
0.133333 0.037018 0.031464
0.151141 0.037339 0.032822
0.172152 0.037293 0.033417
0.201099 0.036622 0.032731
0.245075 0.037400 0.033631
0.282887 0.039048 0.035645
0.310597 0.040330 0.037675
0.030640 0.095933 0.120684
0.030701 0.086107 0.106096
0.062425 0.078813 0.089815
0.118517 0.066148 0.072908
0.151308 0.053193 0.057023
0.168261 0.043961 0.040238
0.169253 0.039567 0.034119
0.170886 0.038239 0.033860
0.172885 0.038117 0.033753
0.178882 0.037629 0.033585
0.182223 0.037217 0.033280
0.187686 0.036957 0.033066
0.198917 0.036667 0.032792
0.219593 0.036805 0.032959
0.251835 0.037690 0.033936
0.301579 0.039918 0.037018
0.339529 0.041657 0.040131
0.030289 0.121309 0.096956
0.031205 0.112245 0.082811
0.051865 0.108675 0.074739
0.107698 0.127840 0.067552
0.199634 0.119875 0.055131
0.268742 0.104707 0.042283
0.322362 0.082643 0.039445
0.336400 0.063783 0.041032
0.326009 0.054627 0.041855
0.315541 0.050401 0.041871
0.302281 0.045930 0.041520
0.279713 0.041474 0.038895
0.260487 0.038529 0.035569
0.259190 0.038071 0.034470
0.281483 0.039002 0.035599
0.389639 0.044083 0.043854
0.485725 0.054887 0.049729
0.031937 0.148882 0.075196
0.033738 0.141451 0.068009
0.064012 0.150256 0.067231
0.100038 0.169390 0.062303
0.168978 0.191226 0.059876
0.306706 0.189990 0.052674
0.397040 0.162921 0.046143
0.461982 0.130541 0.047562
0.453819 0.102922 0.047639
0.434623 0.085283 0.046006
0.424231 0.068788 0.045212
0.404608 0.055924 0.045243
0.370199 0.046525 0.044465
0.334264 0.042222 0.041260
0.326268 0.041199 0.039322
0.391470 0.044160 0.043946
0.479728 0.053407 0.049470
0.038636 0.193576 0.064363
0.048737 0.195331 0.064088
0.081117 0.206485 0.066163
0.119188 0.226215 0.061952
0.149706 0.242695 0.058808
0.248035 0.273793 0.060288
0.427329 0.282490 0.057450
0.526177 0.240681 0.054032
0.576715 0.186969 0.053727
0.533715 0.141558 0.052064
0.496986 0.110704 0.049882
0.494667 0.089265 0.048875
0.482551 0.072053 0.048096
0.449073 0.055833 0.047471
0.424628 0.048402 0.046693
0.454826 0.051362 0.048066
0.529244 0.066957 0.051606
0.090181 0.280415 0.062058
0.091188 0.275227 0.062882
0.121309 0.276616 0.065980
0.161929 0.296483 0.061906
0.183642 0.312291 0.058350
0.216663 0.327688 0.059922
0.363241 0.368658 0.070924
0.556359 0.379904 0.073381
0.651240 0.323095 0.066880
0.672435 0.242527 0.061143
0.604013 0.175677 0.055177
0.567773 0.143175 0.053590
0.564126 0.124514 0.053239
0.544823 0.099413 0.051987
0.520653 0.077043 0.050599
0.530419 0.074754 0.051438
0.584375 0.099870 0.054337
0.213001 0.383230 0.065370
0.200229 0.372412 0.064363
0.208164 0.365240 0.067552
0.248157 0.379126 0.069398
0.268513 0.395010 0.065858
0.269368 0.400580 0.065919
0.322713 0.416098 0.072587
0.507729 0.463035 0.093248
0.680110 0.463661 0.098589
0.746059 0.397162 0.083986
0.754284 0.308309 0.072267
0.730571 0.245457 0.065034
0.704845 0.211536 0.061891
0.668009 0.173739 0.058671
0.626001 0.136690 0.056336
0.613611 0.124590 0.055756
0.653284 0.146868 0.057740
0.366171 0.479118 0.075227
0.355291 0.471504 0.073625
0.348608 0.463096 0.074418
0.373053 0.468009 0.079515
0.385733 0.479545 0.079423
0.361151 0.477440 0.076097
0.363592 0.477043 0.080323
0.443839 0.495583 0.093080
0.655283 0.547311 0.127932
0.777646 0.532280 0.129870
0.819181 0.471885 0.109346
0.828016 0.398352 0.091417
0.826154 0.341375 0.082734
0.809461 0.288045 0.074952
0.766369 0.228687 0.067094
0.734356 0.197009 0.063508
0.758450 0.206577 0.065476
0.509148 0.554711 0.094118
0.504662 0.553567 0.093675
0.500420 0.548623 0.092424
0.506432 0.547219 0.094316
0.501656 0.549401 0.095583
0.465431 0.543343 0.092439
0.431586 0.533852 0.092607
0.474098 0.543069 0.103151
0.585214 0.570153 0.125795
0.780880 0.616144 0.169223
0.849760 0.588006 0.164218
0.877943 0.540856 0.145068
0.884565 0.480873 0.121752
0.871656 0.412406 0.100435
0.851316 0.340169 0.085420
0.831739 0.290471 0.077195
0.836011 0.287663 0.077424
0.653101 0.620188 0.118257
0.632853 0.621393 0.120653
0.647532 0.618402 0.115908
0.645777 0.615015 0.115709
0.632151 0.611063 0.114824
0.585443 0.601312 0.110826
0.530953 0.588632 0.109758
0.543099 0.592050 0.120226
0.629679 0.613962 0.143603
0.745830 0.643030 0.174914
0.870878 0.664652 0.207416
0.899626 0.635111 0.202853
0.917693 0.592706 0.183780
0.917128 0.536370 0.154742
0.904448 0.465553 0.122683
0.887526 0.403143 0.101930
0.887358 0.388190 0.099245
0.790997 0.685496 0.149660
0.730861 0.682979 0.158846
0.773999 0.679469 0.141924
0.770214 0.676356 0.140063
0.759182 0.670283 0.137636
0.719783 0.658289 0.132723
0.654536 0.642618 0.129564
0.629343 0.637003 0.136492
0.683970 0.652247 0.160510
0.772519 0.676997 0.189715
0.865644 0.705226 0.229038
0.917861 0.704417 0.255711
0.932845 0.675303 0.250980
0.936019 0.630915 0.223636
0.939406 0.583886 0.194278
0.931960 0.531960 0.160876
0.929198 0.505074 0.148211
0.881025 0.736004 0.178744
0.841123 0.735271 0.186038
0.868238 0.727947 0.168750
0.862074 0.725048 0.164218
0.848844 0.717922 0.159472
0.821210 0.705531 0.153536
0.761410 0.688609 0.148562
0.710277 0.676951 0.152102
0.722469 0.681666 0.170855
0.784497 0.700191 0.198871
0.860975 0.725338 0.237629
0.916564 0.750729 0.288151
0.945785 0.741848 0.311772
0.950607 0.710460 0.297627
0.951537 0.672374 0.270817
0.948180 0.633249 0.242023
0.947692 0.610315 0.227756
0.919829 0.769131 0.205692
0.912612 0.768444 0.206195
0.912398 0.764508 0.200717
0.908537 0.760067 0.192905
0.896376 0.751202 0.182849
0.877607 0.740108 0.177691
0.835416 0.726574 0.174746
0.781231 0.711788 0.174304
0.755062 0.705425 0.180667
0.780438 0.714260 0.201877
0.840635 0.734493 0.235279
0.895552 0.759380 0.282780
0.930312 0.777340 0.328542
0.952331 0.764446 0.341421
0.956970 0.736736 0.325078
0.957229 0.708614 0.306691
0.956298 0.685649 0.296483
0.930846 0.791058 0.241764
0.930205 0.791104 0.243519
0.929015 0.790356 0.245075
0.927916 0.787427 0.238605
0.923995 0.780301 0.224170
0.911757 0.773495 0.220417
0.887892 0.765133 0.219135
0.852781 0.753368 0.215412
0.807736 0.739178 0.209857
0.792966 0.734630 0.214801
0.821744 0.744839 0.235126
0.868452 0.762615 0.271565
0.909606 0.781399 0.314107
0.936095 0.793225 0.348882
0.952514 0.774823 0.350408
0.960464 0.755459 0.343542
0.962264 0.739666 0.340307
0.942351 0.812512 0.282353
0.941878 0.812589 0.285206
0.941527 0.812924 0.288579
0.940963 0.812589 0.289769
0.938552 0.809903 0.286152
0.933608 0.806058 0.283711
0.923095 0.799649 0.280278
0.903410 0.789487 0.270954
0.868620 0.775631 0.255512
0.835279 0.763607 0.245090
0.835172 0.763989 0.254200
0.863340 0.774762 0.281804
0.898543 0.788815 0.317571
0.927016 0.801419 0.351217
0.948333 0.803067 0.368551
0.961944 0.789395 0.371099
0.963577 0.780224 0.376669
0.949203 0.831693 0.326986
0.948989 0.831342 0.327382
0.948928 0.831312 0.328420
0.949035 0.831647 0.329763
0.949096 0.831998 0.331228
0.948363 0.831281 0.331579
0.944305 0.827771 0.330129
0.928969 0.818952 0.322576
0.910002 0.806226 0.305333
0.880705 0.792416 0.285954
0.866026 0.786450 0.284489
0.878187 0.792126 0.307210
0.905928 0.803265 0.339574
0.931289 0.814832 0.370489
0.951003 0.820874 0.394354
0.963623 0.812055 0.397375
0.965484 0.805829 0.404929
0.027420 0.028626 0.045441
0.031708 0.028962 0.068223
0.048234 0.031174 0.083925
0.067308 0.032883 0.090181
0.084932 0.033875 0.095232
0.097322 0.034318 0.095598
0.105959 0.035767 0.088594
0.115602 0.037751 0.073198
0.122866 0.038346 0.055070
0.127520 0.037308 0.039261
0.122499 0.036179 0.031983
0.124819 0.036576 0.030640
0.138674 0.037186 0.032029
