tools/luts_backup/Kodak Ultramax 400_FPE.cube
# (C) 2014 VisionColor & Patchflyer [www.vision-color.com]
# Generator: VC Patchmatch v.2.1.1 [64/53]
# All work and no play makes Jack a dull boy.
# LUT generated from: Kodak Ultramax 400_FPE
LUT_3D_SIZE 5
0.032486 0.036225 0.035950
0.079576 0.041489 0.035416
0.230335 0.048875 0.040208
0.388083 0.044694 0.044831
0.490486 0.049790 0.050416
0.051484 0.085557 0.040574
0.244923 0.151263 0.039857
0.480751 0.198535 0.049500
0.594980 0.179934 0.055070
0.657526 0.124712 0.058030
0.331823 0.342321 0.045518
0.479866 0.412802 0.059007
0.699992 0.462058 0.084657
0.818494 0.460746 0.097627
0.813901 0.370672 0.085023
0.486198 0.494652 0.068498
0.613428 0.546777 0.087541
0.809812 0.592905 0.121599
0.902785 0.598733 0.135882
0.897704 0.555917 0.126268
0.314305 0.527016 0.064805
0.597528 0.600504 0.094881
0.822248 0.651255 0.132570
0.908629 0.665782 0.151110
0.930205 0.662684 0.154818
0.029892 0.036286 0.094331
0.088518 0.043671 0.103700
0.260639 0.046677 0.121111
0.396460 0.045701 0.135622
0.488899 0.048768 0.115953
0.037308 0.128374 0.140215
0.198291 0.190906 0.174182
0.391043 0.060410 0.057740
0.490303 0.049973 0.052476
0.667033 0.191714 0.171435
0.124941 0.331930 0.165454
0.431647 0.469322 0.062730
0.867613 0.582818 0.127626
0.826459 0.392935 0.089158
0.829404 0.451682 0.198932
0.145205 0.435447 0.095995
0.367285 0.537591 0.068040
0.826581 0.654841 0.133577
0.932692 0.667323 0.156558
0.906859 0.627802 0.220096
0.113878 0.462699 0.053300
0.465385 0.597971 0.095888
0.763882 0.694530 0.185794
0.883436 0.721279 0.200824
0.928191 0.704570 0.175250
0.033417 0.035554 0.198016
0.063890 0.039338 0.182849
0.229892 0.042481 0.204166
0.386908 0.045212 0.229206
0.468894 0.048783 0.197299
0.039612 0.138888 0.267796
0.037720 0.045991 0.259419
0.342962 0.059312 0.290410
0.474571 0.050538 0.202686
0.640330 0.225132 0.275196
0.051545 0.323201 0.370626
0.055299 0.411276 0.493477
0.533013 0.489418 0.454261
0.695888 0.298482 0.239734
0.787106 0.462699 0.374685
0.056199 0.436133 0.374899
0.050111 0.445930 0.268482
0.533822 0.630442 0.189075
0.915648 0.712200 0.267857
0.903258 0.694545 0.521737
0.048371 0.437186 0.245472
0.240604 0.613352 0.373587
0.674968 0.753536 0.512169
0.848173 0.797024 0.558373
0.933806 0.813901 0.543404
0.037827 0.038911 0.272343
0.043595 0.038773 0.253590
0.177264 0.041657 0.312200
0.338399 0.041505 0.289784
0.470909 0.048569 0.295048
0.044114 0.151080 0.393484
0.037812 0.038773 0.274342
0.090196 0.043854 0.321126
0.447684 0.048981 0.403082
0.601633 0.224277 0.402441
0.050614 0.321782 0.488731
0.049439 0.274495 0.516670
0.048173 0.194705 0.427863
0.579873 0.305898 0.535409
0.744839 0.498177 0.532738
0.052323 0.396399 0.527260
0.056077 0.416922 0.603220
0.080690 0.547707 0.669917
0.738537 0.688533 0.671183
0.875822 0.695994 0.670054
0.050126 0.419165 0.492348
0.076677 0.554879 0.587015
0.572168 0.783581 0.701701
0.819471 0.831815 0.741527
0.918807 0.847257 0.761501
0.037720 0.038270 0.271473
0.037018 0.037720 0.262623
0.076951 0.041276 0.314427
0.262547 0.043931 0.373632
0.447807 0.047471 0.403906
0.049668 0.221424 0.504387
0.043793 0.117342 0.380713
0.098009 0.181689 0.449012
0.375082 0.217212 0.503243
0.560586 0.215183 0.522972
0.049638 0.266392 0.518090
0.051148 0.300114 0.525963
0.208286 0.411475 0.589837
0.575738 0.478737 0.653315
0.722957 0.494667 0.666560
0.054978 0.367620 0.585000
0.061830 0.446250 0.628214
0.459480 0.645624 0.723308
0.728801 0.680262 0.766842
0.860441 0.696849 0.786084
0.056626 0.424475 0.609354
0.063630 0.487648 0.646555
0.377005 0.747707 0.757427
0.774212 0.830488 0.830716
0.916259 0.880354 0.872343
