tools/luts_backup/Kodak Vision3 250D 5207 (NEG)_FPE.cube
# (C) 2014 VisionColor & Patchflyer [www.vision-color.com]
# Generator: VC Patchmatch v.2.1.1 [64/53]
# All work and no play makes Jack a dull boy.
# LUT generated from: Kodak Vision3 250D 5207 (NEG)_FPE
LUT_3D_SIZE 5
0.032898 0.036500 0.036622
0.135988 0.047837 0.036408
0.182025 0.045350 0.035737
0.257694 0.042267 0.038224
0.403357 0.046006 0.045686
0.047303 0.134432 0.049866
0.217350 0.182956 0.052018
0.432074 0.130526 0.045884
0.381460 0.045579 0.044450
0.416999 0.046601 0.046387
0.466773 0.422263 0.073182
0.413108 0.420539 0.074693
0.631464 0.450980 0.085679
0.722972 0.240848 0.064317
0.777356 0.253132 0.069078
0.929717 0.701473 0.164004
0.899413 0.680674 0.154025
0.730831 0.621530 0.123217
0.919371 0.638407 0.154345
0.950881 0.601465 0.158114
0.956359 0.780743 0.198199
0.956161 0.777981 0.196353
0.946990 0.772091 0.192538
0.954971 0.783078 0.227878
0.961456 0.782345 0.274495
0.029389 0.034546 0.089433
0.110033 0.040192 0.135180
0.180056 0.040238 0.132677
0.211490 0.044999 0.042390
0.378668 0.044785 0.044221
0.033371 0.142184 0.197833
0.181033 0.168383 0.170169
0.458091 0.125216 0.069627
0.429908 0.053254 0.045838
0.386969 0.045090 0.044602
0.313985 0.450431 0.116396
0.409674 0.457969 0.122332
0.720867 0.493980 0.096376
0.808011 0.320256 0.077134
0.726833 0.205951 0.063233
0.883894 0.715938 0.161166
0.887846 0.692500 0.151812
0.890181 0.676966 0.148272
0.949279 0.690471 0.170932
0.948531 0.566003 0.142947
0.956359 0.779217 0.191638
0.956359 0.776791 0.191135
0.952148 0.762448 0.183078
0.950698 0.770092 0.192218
0.958328 0.765728 0.238727
0.031510 0.032547 0.143572
0.035187 0.033234 0.155856
0.099855 0.035492 0.180728
0.213718 0.036591 0.183505
0.444968 0.046708 0.067460
0.041215 0.124071 0.323384
0.045563 0.084627 0.263996
0.305882 0.050401 0.263294
0.330709 0.041932 0.182040
0.384833 0.042939 0.043000
0.055467 0.438285 0.540413
0.109728 0.472862 0.515587
0.521798 0.495659 0.478508
0.734524 0.336202 0.303975
0.700496 0.150484 0.063615
0.426841 0.668818 0.441138
0.453452 0.673274 0.429099
0.683818 0.714504 0.386130
0.944945 0.761746 0.350164
0.951110 0.612619 0.190570
0.898756 0.837736 0.453285
0.921981 0.828412 0.367941
0.927016 0.814603 0.302693
0.952743 0.799939 0.213138
0.957382 0.770367 0.197162
0.034958 0.034989 0.222889
0.034089 0.034134 0.204562
0.037675 0.036851 0.222065
0.123293 0.039353 0.292271
0.510414 0.050996 0.351232
0.040818 0.049760 0.304494
0.035767 0.036103 0.248981
0.124575 0.040208 0.326650
0.157122 0.039689 0.297612
0.455390 0.046799 0.279179
0.055711 0.363516 0.604852
0.054047 0.351537 0.586603
0.147311 0.393805 0.586221
0.501030 0.331304 0.554192
0.684169 0.112551 0.358160
0.125917 0.644053 0.710231
0.174014 0.665339 0.714717
0.370794 0.715480 0.718730
0.809064 0.778012 0.758938
0.912657 0.718822 0.686778
0.639719 0.828519 0.741070
0.575189 0.792218 0.673503
0.631968 0.801465 0.662242
0.811841 0.838865 0.632685
0.968521 0.877897 0.680354
0.036240 0.036240 0.243198
0.036194 0.036210 0.242725
0.036316 0.036332 0.262470
0.060883 0.039445 0.307286
0.349325 0.045304 0.398230
0.042786 0.064027 0.369482
0.036011 0.036027 0.246143
0.048554 0.041489 0.329244
0.116350 0.042649 0.353979
0.433722 0.047669 0.415641
0.054841 0.349310 0.605325
0.053925 0.308476 0.579950
0.054475 0.292287 0.568826
0.346471 0.361929 0.604074
0.582238 0.279271 0.597208
0.082704 0.569406 0.732540
0.274830 0.701488 0.765255
0.474464 0.731441 0.778164
0.743084 0.762646 0.800351
0.820325 0.763455 0.794781
0.380880 0.786603 0.803449
0.503594 0.815900 0.816037
0.570306 0.821744 0.818952
0.726009 0.843397 0.836606
0.919264 0.882277 0.872343
