tools/luts_backup/Kodak Vision3 500T 5219 (NEG)_FPE.cube
# (C) 2014 VisionColor & Patchflyer [www.vision-color.com]
# Generator: VC Patchmatch v.2.1.1 [64/53]
# All work and no play makes Jack a dull boy.
# LUT generated from: Kodak Vision3 500T 5219 (NEG)_FPE
LUT_3D_SIZE 5
0.034241 0.038163 0.038697
0.252979 0.049470 0.038300
0.519387 0.061616 0.051194
0.531304 0.050538 0.050538
0.514290 0.049500 0.049500
0.031266 0.114153 0.035447
0.312154 0.164508 0.040665
0.621195 0.178698 0.056107
0.651469 0.100526 0.057679
0.625193 0.077592 0.055299
0.040864 0.322972 0.041291
0.464073 0.477073 0.062501
0.846464 0.481590 0.104387
0.891279 0.484352 0.110338
0.875227 0.442771 0.100542
0.054459 0.452720 0.055390
0.694591 0.654444 0.114870
0.948211 0.704036 0.168582
0.947540 0.700648 0.167941
0.949859 0.695735 0.167285
0.071107 0.464347 0.050889
0.736751 0.655787 0.120226
0.947540 0.700648 0.167941
0.950378 0.705180 0.169619
0.950378 0.705180 0.169619
0.032074 0.032074 0.137331
0.099596 0.032151 0.154849
0.427268 0.046967 0.219974
0.477256 0.049241 0.142306
0.502007 0.049973 0.108232
0.033280 0.109117 0.185946
0.175097 0.170626 0.170474
0.560815 0.170367 0.143542
0.617502 0.062791 0.136584
0.532128 0.051606 0.088777
0.039475 0.295995 0.269078
0.233875 0.468421 0.138964
0.881498 0.562524 0.125383
0.894865 0.474189 0.109148
0.871031 0.425422 0.097459
0.045960 0.415381 0.312459
0.430304 0.677119 0.231662
0.927275 0.694697 0.160143
0.950378 0.705180 0.169619
0.949859 0.695735 0.167285
0.046677 0.428748 0.239857
0.531731 0.718349 0.273243
0.953490 0.754986 0.183703
0.947540 0.702373 0.168521
0.950378 0.705180 0.169619
0.034745 0.034745 0.193103
0.034363 0.034363 0.183902
0.368750 0.042512 0.264805
0.345846 0.043977 0.173693
0.380270 0.044663 0.123613
0.035203 0.036957 0.206699
0.035554 0.041642 0.218540
0.275669 0.038499 0.226673
0.355718 0.044388 0.170138
0.406561 0.046418 0.167452
0.042756 0.269886 0.411566
0.044022 0.291096 0.423774
0.547112 0.519661 0.488258
0.765530 0.443366 0.354833
0.772992 0.360433 0.194308
0.050462 0.400626 0.524193
0.052644 0.438117 0.539269
0.695476 0.794568 0.530571
0.951782 0.817609 0.428122
0.958755 0.769543 0.299413
0.052461 0.425284 0.557153
0.068940 0.546639 0.566217
0.777859 0.821912 0.487694
0.959747 0.850309 0.414939
0.958007 0.828351 0.292103
0.035080 0.035080 0.200153
0.034928 0.034928 0.197696
0.033494 0.033494 0.167437
0.199908 0.036072 0.185290
0.240635 0.039078 0.079912
0.035859 0.035859 0.212589
0.034058 0.034058 0.176867
0.031952 0.031952 0.136553
0.204898 0.036576 0.168521
0.357900 0.044282 0.233097
0.045975 0.239994 0.453361
0.045136 0.226841 0.433082
0.187884 0.356023 0.532204
0.557580 0.340368 0.478935
0.626108 0.251774 0.406821
0.053513 0.383825 0.584955
0.057099 0.407752 0.637140
0.246769 0.657633 0.739590
0.808972 0.776287 0.751476
0.910750 0.770916 0.718822
0.055573 0.421927 0.621530
0.055680 0.426673 0.619638
0.293736 0.752682 0.781628
0.881163 0.885939 0.831464
0.951080 0.898405 0.803510
0.033936 0.033936 0.174456
0.033829 0.033829 0.172030
0.033829 0.033829 0.172030
0.032792 0.032197 0.144106
0.170947 0.038041 0.097734
0.035691 0.035691 0.210086
0.035859 0.035859 0.212589
0.034836 0.034836 0.195392
0.064729 0.035584 0.194324
0.295491 0.039216 0.242435
0.046906 0.190311 0.443336
0.047074 0.190280 0.446265
0.051255 0.226825 0.503365
0.367651 0.216007 0.489982
0.557061 0.189639 0.449012
0.055009 0.363394 0.594354
0.055100 0.369863 0.597726
0.097353 0.538460 0.707378
0.692851 0.717205 0.781323
0.859251 0.734386 0.781201
0.055070 0.408026 0.615686
0.055253 0.419806 0.617960
0.151705 0.669184 0.759670
0.767590 0.848310 0.855772
0.916838 0.880186 0.868254
