tools/luts_backup/Kodak Ultramax 400_CIN.cube
# (C) 2014 VisionColor & Patchflyer [www.vision-color.com]
# Generator: VC Patchmatch v.2.1.1 [64/53]
# All work and no play makes Jack a dull boy.
# LUT generated from: Kodak Ultramax 400_Cineon
LUT_3D_SIZE 9
0.082368 0.090181 0.082368
0.149783 0.083406 0.091035
0.227268 0.089662 0.092897
0.308843 0.094270 0.105684
0.380133 0.101686 0.124971
0.440681 0.103517 0.130434
0.492805 0.106538 0.139620
0.533532 0.110292 0.150790
0.580377 0.113710 0.160769
0.119997 0.163363 0.086824
0.203525 0.167452 0.089296
0.290623 0.186679 0.095399
0.371130 0.206638 0.110292
0.430304 0.218631 0.117647
0.476539 0.219181 0.127901
0.519402 0.217502 0.139803
0.561395 0.199039 0.152834
0.603754 0.152560 0.162509
0.170413 0.236881 0.091066
0.259281 0.269444 0.093294
0.340826 0.285710 0.097566
0.414771 0.307256 0.107393
0.470069 0.326604 0.120302
0.511467 0.330541 0.129824
0.546197 0.323857 0.140108
0.586725 0.317998 0.154330
0.620447 0.300664 0.160769
0.288304 0.353063 0.098817
0.334997 0.372595 0.103426
0.392309 0.390631 0.111086
0.447333 0.394965 0.116091
0.503136 0.412726 0.121157
0.540185 0.419837 0.124422
0.571069 0.413611 0.131441
0.604517 0.408240 0.150973
0.623499 0.385016 0.157229
0.372290 0.435157 0.103914
0.395605 0.451209 0.118257
0.431189 0.464912 0.127565
0.478676 0.471504 0.127443
0.519707 0.480385 0.125368
0.555413 0.485878 0.117159
0.587427 0.483009 0.117861
0.608148 0.465766 0.126040
0.619562 0.441047 0.135409
0.416571 0.485756 0.105867
0.426581 0.503227 0.124025
0.460548 0.513756 0.134218
0.498329 0.518212 0.128359
0.534600 0.523369 0.119997
0.568078 0.530266 0.118532
0.599817 0.528527 0.113832
0.612543 0.516808 0.113832
0.615656 0.489906 0.117647
0.431739 0.527123 0.109651
0.447547 0.538720 0.120363
0.477028 0.548241 0.124086
0.511803 0.551446 0.119600
0.547478 0.556695 0.113252
0.580743 0.560327 0.113771
0.605798 0.559472 0.113710
0.615351 0.551049 0.113710
0.615656 0.535698 0.113710
0.425391 0.571313 0.113558
0.444373 0.576410 0.113771
0.482155 0.582422 0.113954
0.519341 0.584344 0.114015
0.559045 0.587671 0.113710
0.584863 0.586694 0.113710
0.603723 0.581140 0.113710
0.615595 0.581384 0.113710
0.615656 0.579522 0.113710
0.380377 0.600000 0.113710
0.429664 0.603357 0.113710
0.471931 0.606683 0.113710
0.512413 0.607813 0.113710
0.549004 0.607691 0.113710
0.574548 0.603998 0.113710
0.593530 0.603906 0.113710
0.608087 0.596979 0.113710
0.615656 0.600000 0.113710
0.086702 0.086702 0.179660
0.138125 0.087800 0.183169
0.241123 0.091066 0.195712
0.323217 0.094301 0.209873
0.389136 0.101900 0.225528
0.435859 0.102480 0.232029
0.487037 0.105806 0.244968
0.530755 0.110170 0.250797
0.572106 0.113710 0.252659
0.112734 0.178592 0.181308
0.207828 0.199344 0.202640
0.302556 0.129732 0.140017
0.376776 0.102937 0.123415
0.438331 0.103853 0.129671
0.491463 0.106416 0.138735
0.536065 0.110140 0.150088
0.573632 0.123690 0.175662
0.590814 0.202121 0.266789
0.188571 0.285466 0.191379
0.267155 0.329839 0.132845
0.415717 0.368688 0.150210
0.468147 0.323949 0.122805
0.497871 0.291356 0.128267
0.531487 0.268742 0.139773
0.569451 0.244450 0.152926
0.604059 0.226169 0.177707
0.613642 0.325200 0.271183
0.278325 0.378912 0.201083
0.367681 0.431525 0.106661
0.429267 0.460487 0.129397
0.515587 0.477821 0.126711
0.544701 0.441810 0.123018
0.570031 0.412360 0.132937
0.600122 0.390661 0.153292
0.620539 0.374853 0.179171
0.623682 0.407507 0.271855
0.346838 0.444709 0.206271
0.416144 0.485817 0.106111
0.447822 0.509850 0.130861
0.509606 0.519310 0.126040
0.568414 0.529076 0.117769
0.591546 0.506737 0.115816
0.608209 0.476814 0.122988
0.620417 0.449500 0.155581
0.627405 0.463203 0.264652
0.380560 0.494331 0.199557
0.429236 0.527855 0.109773
0.458625 0.544182 0.122469
0.511498 0.552728 0.120180
0.563592 0.556756 0.114260
0.603174 0.559594 0.113863
0.612940 0.537957 0.113985
0.618402 0.511742 0.133028
0.626947 0.508507 0.246769
0.378027 0.525475 0.154513
0.420630 0.569085 0.113100
0.456855 0.577905 0.115297
0.510857 0.583307 0.115785
0.562585 0.587427 0.114199
0.598260 0.582544 0.114015
0.614984 0.583581 0.113924
0.618250 0.568475 0.129427
0.624689 0.552392 0.229526
0.366186 0.565301 0.120790
0.392340 0.597681 0.114229
0.448402 0.602686 0.118929
0.505547 0.606409 0.128420
0.551080 0.606348 0.131319
0.583520 0.605097 0.131868
0.603479 0.599878 0.124880
0.616266 0.600763 0.124056
0.622827 0.582940 0.216495
0.350835 0.600000 0.113710
0.396002 0.606531 0.124941
0.462196 0.611322 0.162570
0.514611 0.612573 0.207095
0.549035 0.613153 0.223972
0.575402 0.611811 0.224887
0.587793 0.606561 0.209506
0.601434 0.600427 0.183108
0.612604 0.605585 0.189822
0.092988 0.092988 0.265660
0.141878 0.092988 0.259983
0.238132 0.092988 0.262577
0.327367 0.094301 0.272709
0.393957 0.101961 0.288701
0.442145 0.103456 0.302190
0.487526 0.105745 0.315831
0.526207 0.109651 0.317845
0.562310 0.113710 0.306065
0.117739 0.190768 0.269841
0.118563 0.128756 0.317510
0.300877 0.129549 0.310887
0.390570 0.103548 0.287327
0.439338 0.103120 0.278447
0.486580 0.105928 0.279484
0.529686 0.109957 0.278141
0.564904 0.126864 0.279973
0.584558 0.222446 0.329046
0.177035 0.296757 0.280583
0.237827 0.362799 0.347936
0.331670 0.324071 0.311864
0.422309 0.254673 0.259464
0.480842 0.173220 0.199527
0.532982 0.118074 0.160067
0.572106 0.130007 0.184939
0.593408 0.210361 0.265843
0.609918 0.341588 0.345739
0.256687 0.388190 0.298985
0.313268 0.451850 0.301915
0.385473 0.446601 0.254887
0.504631 0.471199 0.278904
0.551415 0.422980 0.203769
0.588647 0.352285 0.164462
0.611688 0.316716 0.186313
0.620111 0.360449 0.269322
0.621729 0.425025 0.352178
0.317174 0.455512 0.304326
0.354253 0.496406 0.258549
0.417975 0.512139 0.163973
0.501945 0.533898 0.194766
0.585595 0.544427 0.190280
0.609979 0.502083 0.131228
0.620935 0.453651 0.165682
0.627131 0.452308 0.263615
0.628229 0.479866 0.350652
0.343481 0.499947 0.294987
0.354467 0.528923 0.200320
0.419104 0.565148 0.114626
0.492012 0.578515 0.124331
0.572229 0.583551 0.125978
0.614801 0.582025 0.122560
0.619471 0.541527 0.139071
0.626276 0.517388 0.242832
0.633326 0.522057 0.348150
0.333379 0.533196 0.253635
0.344823 0.563897 0.139071
0.397253 0.595941 0.115267
0.479316 0.603815 0.128786
0.551415 0.605219 0.139284
0.594781 0.601404 0.135714
0.615930 0.601038 0.129427
0.625147 0.573877 0.226169
0.634119 0.561730 0.349401
0.314214 0.564172 0.191043
0.341741 0.595728 0.123232
0.398566 0.605615 0.134829
0.485328 0.611170 0.185855
0.543297 0.612970 0.222446
0.577752 0.611536 0.224552
0.596613 0.604120 0.196323
0.614740 0.604700 0.193301
0.631006 0.590021 0.336645
0.304082 0.601312 0.133852
0.366735 0.605463 0.178256
0.443885 0.612329 0.239597
0.510674 0.616968 0.293095
0.546441 0.615747 0.321935
0.573602 0.617639 0.332189
0.591821 0.616419 0.324804
0.602808 0.607446 0.292729
0.621973 0.607996 0.290074
0.097902 0.097902 0.340063
0.130434 0.094301 0.321660
0.228489 0.094270 0.319890
0.312291 0.094301 0.321233
0.389349 0.101961 0.336706
0.441627 0.103456 0.355871
0.484108 0.105867 0.369604
0.514549 0.107942 0.356359
0.551354 0.111788 0.350439
0.117647 0.197818 0.339757
0.102785 0.103822 0.410132
0.211307 0.102296 0.374151
0.369696 0.102449 0.374975
0.438178 0.102968 0.369787
0.482155 0.105867 0.365454
0.517510 0.108827 0.351263
0.550958 0.130068 0.342046
0.574395 0.239902 0.367926
0.178378 0.303410 0.354345
0.177798 0.308751 0.411414
0.207645 0.235142 0.382910
0.387152 0.242893 0.391699
0.467994 0.171756 0.365942
0.521111 0.119173 0.335119
0.556939 0.137911 0.319554
0.580407 0.229496 0.344457
0.596551 0.348424 0.383948
0.233463 0.386511 0.372747
0.259464 0.449500 0.446174
0.325322 0.443214 0.436957
0.427558 0.421271 0.408057
0.494392 0.374945 0.360357
0.550164 0.297688 0.312825
0.591180 0.223133 0.272343
0.608515 0.338720 0.346136
0.611841 0.429114 0.401740
0.277440 0.453681 0.390570
0.294499 0.502098 0.409308
0.335180 0.521538 0.376989
0.443336 0.503197 0.352850
0.551080 0.522026 0.375677
0.589258 0.486580 0.313802
0.624170 0.431113 0.275120
0.624750 0.451301 0.349798
0.621180 0.483619 0.413520
0.304570 0.503014 0.385382
0.303929 0.540032 0.355489
0.313115 0.566094 0.246357
0.421149 0.556817 0.229236
0.540887 0.571252 0.293873
0.604700 0.572351 0.284657
0.626978 0.540063 0.248981
0.631647 0.522576 0.346746
0.631037 0.526207 0.417670
0.302892 0.540520 0.358862
0.293858 0.572686 0.290990
0.317174 0.594385 0.173083
0.403723 0.602716 0.145647
0.526665 0.610468 0.220996
0.585016 0.607538 0.227131
0.614862 0.602838 0.205188
0.632258 0.578088 0.343847
0.636805 0.566888 0.425879
0.288518 0.577203 0.317052
0.293553 0.599664 0.233066
0.360967 0.608209 0.228122
0.442878 0.612207 0.242161
0.529320 0.617761 0.311345
0.572412 0.616114 0.328984
0.598444 0.612696 0.308568
0.620325 0.608240 0.289830
0.635889 0.595575 0.419867
0.268620 0.605737 0.248539
0.349401 0.612757 0.301274
0.423072 0.615900 0.341588
0.498024 0.621668 0.385016
0.541466 0.623407 0.411261
0.574426 0.625177 0.423011
0.598321 0.626642 0.423529
0.619257 0.622156 0.406836
0.632990 0.616358 0.388800
0.101961 0.101961 0.413581
0.124392 0.101869 0.385870
0.212558 0.101686 0.375006
0.306004 0.101686 0.380468
0.370611 0.101808 0.376471
0.432197 0.102388 0.392309
0.474739 0.105745 0.400000
0.505089 0.106447 0.380346
0.539178 0.109804 0.378424
0.125948 0.212863 0.406409
0.105226 0.109438 0.467750
0.153414 0.102358 0.427649
0.317693 0.103761 0.442329
0.414191 0.102022 0.417182
0.468666 0.105348 0.409277
0.504234 0.107393 0.388067
0.536431 0.129488 0.380835
0.561120 0.243870 0.397131
0.177432 0.310246 0.413153
0.154940 0.295689 0.469947
0.123110 0.165011 0.466835
0.292119 0.166903 0.459846
0.439673 0.171939 0.446357
0.500359 0.117556 0.406821
0.535607 0.138277 0.380743
0.563073 0.242557 0.389136
0.580652 0.350347 0.409857
0.228580 0.387976 0.431373
0.227665 0.417517 0.487160
0.231754 0.401526 0.503594
0.312718 0.345708 0.448585
0.457221 0.361395 0.463966
0.518791 0.290578 0.415885
0.568261 0.250980 0.379492
0.589197 0.349828 0.399512
0.600702 0.428351 0.431525
0.260624 0.452674 0.448737
0.252293 0.497169 0.501060
0.266636 0.516716 0.520653
0.388922 0.501030 0.502434
0.495918 0.488258 0.482216
0.546258 0.454322 0.437644
0.595758 0.400076 0.383948
0.612360 0.425391 0.400488
0.617761 0.480537 0.449165
0.279820 0.501915 0.453346
0.261662 0.541619 0.471778
0.235111 0.574060 0.457633
0.365087 0.564172 0.438590
0.490455 0.546685 0.436454
0.578393 0.555230 0.450324
0.618555 0.528527 0.395544
0.627832 0.512078 0.415747
0.633082 0.532677 0.474372
0.280308 0.543847 0.443366
0.246189 0.577020 0.420981
0.255497 0.602747 0.379324
0.346105 0.611902 0.343252
0.476692 0.599939 0.331930
0.567559 0.602899 0.386984
0.621942 0.599359 0.366690
0.638270 0.577996 0.426612
0.645075 0.577539 0.490028
0.253513 0.577050 0.405921
0.251591 0.605615 0.375143
0.329046 0.616754 0.383093
0.419959 0.620295 0.391638
0.495705 0.621973 0.382361
0.563439 0.623438 0.417823
0.605920 0.624842 0.417975
0.633631 0.618738 0.389715
0.647059 0.610010 0.493416
0.239078 0.609644 0.364324
0.319768 0.617487 0.400214
0.411139 0.621424 0.436591
0.495430 0.628290 0.463630
0.541009 0.631342 0.484047
0.577600 0.632868 0.493507
0.603204 0.632959 0.494545
0.631800 0.636805 0.492836
0.646784 0.636957 0.484169
0.105776 0.106813 0.468666
0.116396 0.103395 0.440314
0.185733 0.102480 0.427680
0.293980 0.103456 0.441535
0.359533 0.103517 0.435981
0.414221 0.101961 0.417060
0.461036 0.105440 0.424018
0.499275 0.106416 0.415595
0.537255 0.109804 0.413367
0.119142 0.224033 0.463722
0.105867 0.122499 0.496651
0.129213 0.105531 0.459541
0.264195 0.105776 0.490028
0.372442 0.105715 0.482948
0.445228 0.104036 0.456306
0.496193 0.107027 0.440589
0.530053 0.127291 0.426276
0.549187 0.235630 0.428534
0.178988 0.330114 0.476020
0.124544 0.288518 0.518334
0.105867 0.127047 0.498970
0.170092 0.116945 0.491432
0.351186 0.117372 0.499397
0.483040 0.119295 0.508843
0.527245 0.138216 0.458473
0.546960 0.233188 0.437812
0.567376 0.346197 0.446540
0.222416 0.400244 0.487587
0.180819 0.403479 0.532464
0.127718 0.374182 0.572290
0.173602 0.265980 0.486915
0.363577 0.287007 0.507256
0.492958 0.296254 0.514977
0.542687 0.244068 0.460182
0.567651 0.343572 0.447456
0.589044 0.428229 0.467597
0.238804 0.450019 0.489632
0.217105 0.490059 0.542718
0.167849 0.494331 0.577295
0.271656 0.461738 0.549279
0.403220 0.434348 0.517357
0.514000 0.443870 0.521996
0.562219 0.394949 0.462043
0.592432 0.429267 0.456519
0.609186 0.486702 0.492805
0.256107 0.499947 0.501915
0.192111 0.534478 0.544335
0.137209 0.559655 0.583612
0.267323 0.557580 0.576165
0.443900 0.549279 0.560052
0.539696 0.531853 0.532280
0.579400 0.499641 0.476081
0.617517 0.482704 0.452216
0.629084 0.533135 0.513085
0.245274 0.542168 0.499153
0.178317 0.571862 0.512474
0.154055 0.598718 0.524742
0.241657 0.613550 0.528130
0.427543 0.610803 0.524376
0.537041 0.589990 0.500572
0.616693 0.595972 0.505699
0.642359 0.574914 0.488716
0.645472 0.578271 0.536065
0.207034 0.575555 0.476295
0.175845 0.602838 0.482033
0.254429 0.615656 0.495247
0.375158 0.626337 0.511437
0.481910 0.632227 0.510872
0.542229 0.631434 0.484138
0.603357 0.633661 0.495705
0.645594 0.635340 0.486061
0.649042 0.612268 0.541772
0.179873 0.607904 0.450080
0.264134 0.616144 0.481819
0.377508 0.625025 0.510643
0.474311 0.633570 0.533898
0.541344 0.638819 0.540368
0.579675 0.640558 0.545434
0.607782 0.640192 0.548486
0.636835 0.642817 0.546502
0.649042 0.642115 0.545434
0.105867 0.126162 0.499886
0.109438 0.107118 0.463264
0.165866 0.105684 0.471473
0.266728 0.105806 0.495399
0.346899 0.105867 0.494453
0.399908 0.105776 0.474220
0.445167 0.104341 0.455817
0.494026 0.106081 0.457435
0.536553 0.109804 0.461860
0.108705 0.233829 0.509941
0.105867 0.115572 0.498451
0.111971 0.106905 0.470161
0.195254 0.106294 0.497932
0.316258 0.106630 0.498573
0.407630 0.107210 0.502647
0.484901 0.108400 0.511315
0.527550 0.129091 0.492042
0.542382 0.236606 0.476692
0.146426 0.335943 0.527214
0.113649 0.307439 0.566796
0.105867 0.123659 0.503288
0.124269 0.132021 0.498116
0.270985 0.135714 0.519738
0.409613 0.138796 0.538628
0.514031 0.142702 0.555901
0.541527 0.240299 0.506462
0.554803 0.343145 0.490791
0.183047 0.404608 0.532341
0.126223 0.401587 0.580468
0.114076 0.376135 0.595941
0.110384 0.207050 0.510277
0.238849 0.238392 0.542687
0.409125 0.247990 0.558740
0.525994 0.250309 0.571801
0.552178 0.343572 0.515312
0.579919 0.426307 0.513848
0.213382 0.468421 0.538842
0.152804 0.472969 0.574914
0.119387 0.452399 0.594934
0.135973 0.413535 0.577600
0.240162 0.363729 0.542748
0.424018 0.388388 0.569085
0.536828 0.390005 0.570489
0.576349 0.424781 0.526909
0.598535 0.486946 0.532036
0.219333 0.505547 0.545586
0.153597 0.525109 0.586419
0.122347 0.529931 0.609430
0.178271 0.526238 0.614343
0.360845 0.516381 0.600305
0.469337 0.495308 0.580865
0.566705 0.499825 0.576196
0.599878 0.486854 0.532128
0.619776 0.531304 0.549523
0.193088 0.534752 0.542657
0.127840 0.561639 0.586084
0.114412 0.585870 0.611353
0.137987 0.602625 0.617212
0.329274 0.606195 0.626398
0.507622 0.593896 0.609979
0.580530 0.573236 0.578424
0.619135 0.545861 0.529778
0.646174 0.575982 0.574365
0.153658 0.569512 0.532952
0.123293 0.596277 0.565026
0.168154 0.611872 0.581353
0.290990 0.626947 0.598138
0.422187 0.637598 0.609277
0.522576 0.642664 0.588312
0.583032 0.629999 0.557549
0.646082 0.632349 0.558618
0.650935 0.614008 0.584680
0.122225 0.605524 0.524865
0.201511 0.613001 0.544152
0.328405 0.627649 0.572900
0.437903 0.637934 0.594659
0.522332 0.644862 0.589776
0.578393 0.644465 0.586725
0.606012 0.644495 0.590356
0.637903 0.644434 0.591119
0.650935 0.642420 0.589136
0.105867 0.115816 0.495918
0.106111 0.107424 0.467628
0.133913 0.105867 0.481819
0.214908 0.105867 0.499153
0.299779 0.105867 0.495644
0.368597 0.106355 0.498665
0.429084 0.106477 0.503441
0.485847 0.106508 0.510857
0.532158 0.109804 0.513451
0.113527 0.269627 0.555810
0.105867 0.116670 0.503838
0.107759 0.120363 0.490089
0.150240 0.124300 0.505333
0.266819 0.126131 0.520439
0.368627 0.128450 0.532982
0.451667 0.131472 0.551446
0.516289 0.132967 0.558984
0.540307 0.244205 0.527031
0.116823 0.357977 0.585504
0.113527 0.332708 0.587823
0.108309 0.192660 0.509789
0.155795 0.217533 0.525536
0.270756 0.234714 0.549279
0.376287 0.235752 0.556664
0.459358 0.236240 0.567590
0.527581 0.240696 0.573938
0.548028 0.343969 0.539055
0.123079 0.410620 0.577844
0.114229 0.408759 0.606043
0.119997 0.361608 0.567285
0.151034 0.303532 0.537621
0.270756 0.328405 0.570459
0.389960 0.340612 0.580560
0.479744 0.342962 0.583795
0.540612 0.341283 0.586480
0.570977 0.424628 0.557794
0.141146 0.461738 0.570947
0.116396 0.450416 0.597894
0.137819 0.440375 0.589837
0.198077 0.421881 0.575463
0.260349 0.395361 0.573602
0.395666 0.412207 0.595300
0.502678 0.421210 0.605890
0.566064 0.420233 0.603601
0.593866 0.485786 0.574334
0.161746 0.510948 0.586023
0.119997 0.509544 0.609186
0.165011 0.508904 0.613184
0.289860 0.512261 0.614862
0.385595 0.506493 0.615228
0.402152 0.470802 0.607416
0.533318 0.484749 0.624781
0.594476 0.483986 0.619379
0.621180 0.531731 0.591760
0.143923 0.533257 0.584283
0.115938 0.551385 0.611780
0.147616 0.557610 0.619318
0.265751 0.564141 0.627253
0.399023 0.576288 0.634882
0.494362 0.571191 0.639124
0.542382 0.543542 0.632380
0.621790 0.543450 0.627222
0.643366 0.571893 0.609125
0.123232 0.564752 0.588190
0.113954 0.588220 0.614008
0.127077 0.602991 0.616968
0.230533 0.620233 0.625452
0.361181 0.631861 0.634943
0.477363 0.642603 0.645258
0.567651 0.633143 0.640681
0.615412 0.609094 0.615228
0.651576 0.609094 0.619074
0.113710 0.595117 0.595575
0.137484 0.610071 0.601801
0.251957 0.624811 0.618708
0.399725 0.636835 0.633844
0.501518 0.647028 0.634730
0.562341 0.648707 0.626062
0.598749 0.644160 0.623987
0.621851 0.652033 0.620478
0.655299 0.651759 0.620478
0.105867 0.105867 0.505852
0.105867 0.105867 0.491371
0.106813 0.105867 0.494514
0.158145 0.105959 0.502556
0.258671 0.109804 0.521416
0.341344 0.109804 0.531823
0.410254 0.110933 0.550225
0.476814 0.113710 0.567620
0.521569 0.113710 0.564691
0.113069 0.263432 0.559991
0.106142 0.192142 0.507256
0.124605 0.208591 0.516442
0.200504 0.227726 0.538964
0.286748 0.236179 0.553857
0.362188 0.238102 0.556970
0.425757 0.233646 0.562615
0.480262 0.237858 0.570031
0.528984 0.244511 0.575463
0.113710 0.412299 0.614282
0.112978 0.321172 0.552209
0.141939 0.302708 0.535058
0.225071 0.321843 0.563104
0.313756 0.337865 0.575952
0.389441 0.342657 0.580987
0.451789 0.342931 0.583642
0.501732 0.342290 0.584131
0.538628 0.341161 0.585473
0.113710 0.419471 0.611200
0.116030 0.393042 0.573205
0.173678 0.386786 0.562066
0.261143 0.396246 0.574365
0.343114 0.407935 0.587945
0.424201 0.418585 0.599481
0.487617 0.422187 0.606012
0.534295 0.424231 0.608057
0.566949 0.423316 0.605127
0.113710 0.447059 0.601953
0.132387 0.449958 0.593561
0.231098 0.454414 0.588495
0.329580 0.466804 0.597864
0.401846 0.470314 0.607813
0.478431 0.481849 0.621424
0.533623 0.483925 0.625452
0.570825 0.485878 0.623529
0.594232 0.484169 0.619593
0.113710 0.494118 0.610254
0.153964 0.501457 0.611566
0.294621 0.513146 0.615351
0.411322 0.526604 0.622553
0.471931 0.525811 0.630945
0.520592 0.530602 0.637263
0.568444 0.532464 0.643458
0.599695 0.531945 0.639948
0.624811 0.528466 0.635279
0.113710 0.533898 0.615534
0.154788 0.538720 0.620935
0.281559 0.548058 0.624964
0.411200 0.565270 0.632380
0.495186 0.572931 0.640223
0.544518 0.572045 0.647578
0.588464 0.572015 0.650721
0.620691 0.573388 0.650843
0.644953 0.570764 0.647700
0.113710 0.561181 0.615656
0.126741 0.569116 0.617456
0.253910 0.584649 0.627649
0.378912 0.595666 0.634974
0.491798 0.609796 0.646693
0.553216 0.612299 0.650813
0.588129 0.613397 0.650935
0.625360 0.608942 0.651576
0.651576 0.608026 0.651576
0.113710 0.596033 0.615656
0.118044 0.601495 0.615961
0.231662 0.620722 0.625360
0.358709 0.631006 0.634821
0.474250 0.642847 0.643000
0.557916 0.649805 0.650874
0.594202 0.643336 0.650935
0.616449 0.654139 0.654444
0.658808 0.658808 0.658808
