tools/luts_backup/Kodak Elite Color 200_FPE.cube
# (C) 2014 VisionColor & Patchflyer [www.vision-color.com]
# Generator: VC Patchmatch v.2.1.1 [64/53]
# All work and no play makes Jack a dull boy.
# LUT generated from: Kodak Elite Color 200_FPE
LUT_3D_SIZE 9
0.033112 0.035843 0.036179
0.041428 0.037461 0.036622
0.065660 0.041855 0.036698
0.098772 0.047333 0.038346
0.132845 0.052094 0.039353
0.166629 0.055390 0.039414
0.204791 0.058610 0.039719
0.246632 0.061982 0.040726
0.282445 0.061006 0.041321
0.035172 0.051865 0.038773
0.059907 0.058335 0.043488
0.101869 0.067521 0.045365
0.150912 0.076448 0.046632
0.202655 0.084825 0.045914
0.252522 0.091493 0.045640
0.298787 0.097856 0.046403
0.342535 0.103243 0.047166
0.377859 0.105211 0.047852
0.036866 0.082490 0.044327
0.079500 0.099763 0.052583
0.135286 0.113008 0.063249
0.221851 0.138125 0.067659
0.297047 0.153384 0.067811
0.353964 0.162188 0.065705
0.402869 0.168612 0.063798
0.450660 0.174670 0.063676
0.493523 0.176989 0.063249
0.030076 0.102373 0.044678
0.074647 0.138598 0.047333
0.199680 0.190158 0.080354
0.271595 0.208682 0.098299
0.394415 0.251774 0.106676
0.475120 0.272267 0.112779
0.533120 0.283894 0.114443
0.589883 0.291279 0.113100
0.643076 0.299092 0.112413
0.030152 0.130404 0.044816
0.050431 0.164416 0.043519
0.256214 0.259510 0.067338
0.368521 0.308888 0.129061
0.443748 0.330861 0.142153
0.562600 0.376333 0.157580
0.648524 0.409171 0.181415
0.720760 0.434653 0.203861
0.774075 0.449485 0.216968
0.032685 0.166674 0.045121
0.053208 0.208789 0.042039
0.313512 0.322789 0.055299
0.480720 0.407141 0.147250
0.544732 0.426520 0.174914
0.616632 0.450416 0.186343
0.725673 0.500938 0.220798
0.809583 0.549157 0.276631
0.854765 0.579950 0.320180
0.035157 0.196658 0.044678
0.071901 0.262394 0.041550
0.398993 0.401495 0.064378
0.582712 0.496895 0.173816
0.658335 0.523415 0.212741
0.712230 0.537057 0.224231
0.773281 0.562524 0.240543
0.854078 0.621073 0.309743
0.894697 0.664729 0.383490
0.036881 0.221103 0.044144
0.157046 0.342000 0.045029
0.510414 0.501518 0.103395
0.679454 0.598276 0.237049
0.756359 0.627756 0.282856
0.807721 0.644144 0.297856
0.846525 0.655238 0.310887
0.889967 0.685054 0.335531
0.918013 0.727993 0.422629
0.038361 0.248783 0.043809
0.302037 0.437629 0.055863
0.594858 0.589776 0.160250
0.751278 0.685069 0.299535
0.821668 0.722713 0.365774
0.857313 0.739178 0.398489
0.889418 0.748501 0.411276
0.910933 0.757259 0.425940
0.932418 0.775402 0.454566
0.030304 0.036072 0.044556
0.042115 0.037613 0.043763
0.065919 0.041718 0.044312
0.101213 0.047440 0.046265
0.140963 0.053361 0.048508
0.181537 0.058991 0.049134
0.219837 0.062074 0.048676
0.256794 0.063233 0.048295
0.289006 0.063966 0.048341
0.032334 0.055192 0.063569
0.063615 0.072068 0.073503
0.115206 0.057527 0.044526
0.140368 0.053681 0.040116
0.166140 0.055680 0.039582
0.204013 0.058701 0.039689
0.246357 0.062043 0.040665
0.278035 0.062486 0.041642
0.299733 0.065782 0.042969
0.035737 0.095537 0.084718
0.032837 0.100984 0.048112
0.206210 0.165118 0.089418
0.288060 0.149050 0.066926
0.315694 0.133455 0.057694
0.348150 0.128389 0.053956
0.380499 0.125505 0.052079
0.407187 0.124498 0.051133
0.427298 0.130617 0.052461
0.031708 0.128588 0.092790
0.030182 0.130144 0.045640
0.196567 0.235950 0.064866
0.421225 0.316014 0.139696
0.502922 0.305013 0.125444
0.530526 0.281743 0.112566
0.559060 0.263035 0.098024
0.586496 0.254124 0.090639
0.601740 0.256107 0.090913
0.032242 0.159777 0.092409
0.032700 0.166918 0.045304
0.186923 0.277760 0.047517
0.499672 0.411872 0.155337
0.613916 0.449226 0.186557
0.688136 0.453925 0.202548
0.736278 0.454047 0.215686
0.762875 0.441688 0.210513
0.761105 0.425971 0.199542
0.034745 0.195224 0.091279
0.035126 0.196139 0.044907
0.206210 0.328832 0.046723
0.575387 0.494026 0.165042
0.684031 0.529366 0.219303
0.774350 0.565194 0.243839
0.835584 0.592355 0.296635
0.862638 0.601678 0.333257
0.856992 0.581140 0.323140
0.036667 0.223835 0.094484
0.036912 0.221393 0.044297
0.286442 0.401434 0.054459
0.646922 0.578256 0.206195
0.766155 0.632074 0.286397
0.827863 0.647028 0.305364
0.887846 0.682841 0.333700
0.905623 0.695308 0.394690
0.899962 0.673213 0.396735
0.038148 0.247822 0.097230
0.039048 0.255924 0.044129
0.351568 0.461158 0.063233
0.683330 0.634089 0.209918
0.812299 0.704387 0.330678
0.860090 0.727550 0.382406
0.896971 0.739361 0.402792
0.928740 0.764492 0.432959
0.923369 0.741756 0.441932
0.039536 0.279637 0.096056
0.051270 0.322362 0.046784
0.296559 0.454643 0.057908
0.642725 0.604334 0.121706
0.824659 0.707225 0.252491
0.869169 0.746349 0.371923
0.890196 0.758694 0.425605
0.912245 0.766644 0.441535
0.935424 0.784497 0.468330
0.029374 0.037598 0.060700
0.036759 0.037247 0.058167
0.067765 0.044160 0.063493
0.105653 0.048875 0.063554
0.147326 0.054429 0.064240
0.189792 0.060243 0.063813
0.232242 0.064561 0.062608
0.272877 0.066773 0.061982
0.305745 0.067445 0.062928
0.031724 0.058198 0.085893
0.034104 0.053178 0.103105
0.115312 0.060792 0.099886
0.154208 0.057847 0.067475
0.188067 0.060090 0.058671
0.226535 0.063233 0.054856
0.262943 0.064759 0.053086
0.290349 0.065354 0.052918
0.312840 0.068833 0.056764
0.038788 0.101061 0.123201
0.044755 0.141878 0.177920
0.159487 0.167346 0.165606
0.255406 0.115801 0.078035
0.261936 0.076036 0.046845
0.262287 0.063371 0.041154
0.277302 0.061463 0.041260
0.301915 0.066346 0.043519
0.370047 0.092729 0.053407
0.044312 0.175586 0.187015
0.038132 0.216724 0.201190
0.034958 0.159274 0.065690
0.394080 0.307240 0.171664
0.496284 0.258839 0.104234
0.495171 0.208011 0.075837
0.488945 0.178973 0.064988
0.491661 0.170123 0.061280
0.528908 0.185214 0.068086
0.041855 0.238224 0.231815
0.036378 0.243046 0.184588
0.035233 0.201984 0.051270
0.348058 0.372442 0.085252
0.656657 0.480323 0.206851
0.749416 0.482567 0.228977
0.753689 0.433631 0.205371
0.729122 0.383902 0.170520
0.726848 0.362615 0.153613
0.042878 0.285435 0.258762
0.037903 0.267460 0.173953
0.037430 0.227939 0.045869
0.390600 0.451881 0.083024
0.754101 0.600076 0.245594
0.855146 0.642359 0.299199
0.881758 0.645777 0.361547
0.865797 0.597574 0.336461
0.849424 0.552895 0.297246
0.048249 0.336706 0.286229
0.039261 0.289479 0.163943
0.039216 0.257694 0.044205
0.500237 0.538933 0.110124
0.808148 0.697520 0.312871
0.878630 0.729198 0.386252
0.927321 0.760830 0.426734
0.914290 0.711940 0.423987
0.899565 0.667521 0.390906
0.061112 0.393256 0.310857
0.040894 0.313130 0.137774
0.049836 0.319646 0.046983
0.437415 0.516457 0.077211
0.800565 0.692851 0.226978
0.873045 0.747509 0.379278
0.903044 0.760922 0.434424
0.935180 0.783230 0.464942
0.924361 0.742458 0.440848
0.086793 0.449912 0.322118
0.042786 0.329458 0.088853
0.121324 0.386984 0.055879
0.494087 0.545052 0.093080
0.788159 0.693111 0.223850
0.876249 0.740001 0.311559
0.894102 0.756039 0.398779
0.911879 0.766369 0.439445
0.935744 0.784375 0.467384
0.030198 0.040055 0.084474
0.036057 0.039139 0.082155
0.062150 0.044724 0.089235
0.108202 0.050477 0.093660
0.152621 0.055818 0.093355
0.195712 0.061173 0.091127
0.235142 0.063996 0.087678
0.274830 0.065461 0.085603
0.309575 0.067842 0.087877
0.033494 0.064454 0.118456
0.031556 0.046006 0.117769
0.059831 0.047547 0.119127
0.161379 0.060716 0.129870
0.197787 0.061997 0.101534
0.236271 0.064240 0.088350
0.274525 0.066117 0.080400
0.305592 0.069001 0.081468
0.327062 0.072099 0.092683
0.036759 0.104570 0.155169
0.036790 0.113298 0.194903
0.046876 0.120363 0.214237
0.255695 0.136965 0.205905
0.287434 0.086397 0.116167
0.287480 0.068376 0.074586
0.299138 0.066804 0.063935
0.322240 0.070954 0.068177
0.383795 0.098436 0.092668
0.042496 0.159976 0.206317
0.043244 0.223209 0.288457
0.060899 0.254505 0.306630
0.345373 0.339712 0.319600
0.422919 0.230091 0.173602
0.381598 0.108797 0.059678
0.322683 0.072526 0.045853
0.372274 0.094072 0.054566
0.527306 0.185473 0.113054
0.048737 0.261585 0.298482
0.067445 0.343755 0.368200
0.058305 0.346899 0.319005
0.072175 0.255665 0.112856
0.590066 0.462242 0.284382
0.693858 0.381277 0.171008
0.652049 0.298619 0.113069
0.627543 0.263188 0.097093
0.700389 0.321553 0.160372
0.070390 0.348760 0.359731
0.105959 0.421042 0.398199
0.060029 0.383810 0.287510
0.039796 0.256626 0.061875
0.636332 0.543877 0.185885
0.819776 0.602792 0.274937
0.874647 0.620142 0.346883
0.846357 0.543664 0.290715
0.842191 0.510658 0.278691
0.112428 0.425132 0.402167
0.161135 0.493874 0.427878
0.067552 0.415106 0.262440
0.047440 0.313832 0.049622
0.634211 0.598718 0.133837
0.874754 0.727794 0.357687
0.927337 0.759106 0.423392
0.913359 0.705104 0.418112
0.905455 0.660685 0.383795
0.192096 0.515572 0.456962
0.181613 0.535714 0.425544
0.053193 0.379263 0.166323
0.122240 0.387228 0.056214
0.660044 0.625177 0.154513
0.875410 0.740398 0.314580
0.902831 0.759808 0.419028
0.935439 0.784955 0.471672
0.928649 0.738247 0.425040
0.276432 0.596567 0.504906
0.117784 0.494179 0.333562
0.061585 0.386069 0.153628
0.318181 0.478828 0.129076
0.670573 0.670802 0.334096
0.856107 0.753262 0.389242
0.906355 0.751949 0.344106
0.919966 0.758221 0.402686
0.937560 0.778973 0.450401
0.030655 0.041032 0.106538
0.035218 0.039628 0.103700
0.057313 0.044297 0.112505
0.100587 0.049439 0.121263
0.154910 0.055634 0.123278
0.200580 0.061982 0.123537
0.244450 0.065812 0.120500
0.283284 0.065995 0.117754
0.317311 0.068086 0.119951
0.034241 0.071611 0.150118
0.030869 0.042634 0.130220
0.045060 0.042069 0.128893
0.111589 0.051072 0.148699
0.202869 0.062531 0.154574
0.246632 0.065873 0.137072
0.284337 0.066835 0.124163
0.314366 0.068711 0.124956
0.340078 0.074388 0.145571
0.036942 0.112108 0.192325
0.037003 0.102495 0.210452
0.038178 0.100175 0.237949
0.127367 0.099214 0.221775
0.304341 0.104707 0.228656
0.304219 0.071168 0.153964
0.313481 0.068879 0.124559
0.340246 0.074617 0.135866
0.411124 0.111513 0.175784
0.038880 0.159380 0.234943
0.038926 0.179095 0.280049
0.040070 0.193866 0.317830
0.110063 0.247425 0.333562
0.428153 0.283406 0.348211
0.423545 0.138216 0.203708
0.354482 0.082597 0.121157
0.398306 0.106630 0.133165
0.540490 0.210742 0.224445
0.044419 0.230396 0.296620
0.058045 0.312245 0.381643
0.061997 0.338384 0.412848
0.237781 0.437217 0.452857
0.544579 0.517617 0.484321
0.608209 0.380591 0.319142
0.521859 0.184527 0.112612
0.531914 0.190616 0.117159
0.726589 0.399786 0.324880
0.064759 0.340505 0.387015
0.120195 0.439673 0.460517
0.177539 0.513344 0.506249
0.190219 0.499733 0.451316
0.323827 0.444007 0.269795
0.753307 0.592065 0.382361
0.838926 0.521004 0.285832
0.798383 0.439567 0.233509
0.832517 0.541924 0.402625
0.121950 0.442023 0.448569
0.224170 0.547295 0.517113
0.296696 0.617243 0.555001
0.139040 0.512306 0.372992
0.200748 0.400900 0.105745
0.817014 0.694514 0.353002
0.910964 0.714504 0.364599
0.915053 0.688441 0.400977
0.901167 0.678187 0.473381
0.226078 0.545235 0.509834
0.309941 0.624643 0.562493
0.278050 0.620966 0.522133
0.148455 0.502266 0.312642
0.317571 0.479957 0.133608
0.799832 0.729961 0.380697
0.909728 0.752865 0.364920
0.937011 0.777981 0.450126
0.931075 0.748043 0.470054
0.333043 0.639277 0.572900
0.316838 0.645365 0.563195
0.298375 0.616449 0.491936
0.324987 0.567742 0.388479
0.505882 0.609964 0.389487
0.737362 0.738201 0.524193
0.887144 0.775280 0.455711
0.925795 0.758175 0.395361
0.940108 0.766644 0.424155
0.030640 0.041382 0.126452
0.033738 0.039048 0.121096
0.052445 0.042802 0.130266
0.093599 0.048539 0.143862
0.143511 0.054215 0.152224
0.200977 0.061845 0.152895
0.249042 0.065965 0.154376
0.292561 0.067521 0.152789
0.330465 0.070069 0.156786
0.035279 0.075242 0.177111
0.031235 0.043046 0.150561
0.039094 0.039750 0.140841
0.086244 0.047089 0.162005
0.161318 0.057465 0.179355
0.249363 0.066987 0.186206
0.295262 0.068574 0.174685
0.328176 0.070207 0.173968
0.353613 0.078553 0.198810
0.037446 0.116060 0.223819
0.037873 0.100649 0.230930
0.036423 0.072480 0.222995
0.061646 0.064408 0.201999
0.197086 0.080385 0.231556
0.315312 0.078889 0.233951
0.331945 0.071473 0.198398
0.358663 0.082063 0.208835
0.436103 0.135470 0.259159
0.038209 0.160143 0.264652
0.039124 0.166552 0.294392
0.040467 0.169131 0.322606
0.044327 0.189715 0.344701
0.274220 0.227192 0.354742
0.449805 0.188952 0.340612
0.387930 0.103990 0.249577
0.437491 0.137346 0.258335
0.573449 0.257496 0.338872
0.042008 0.224323 0.316365
0.045151 0.262898 0.369421
0.045777 0.275700 0.401846
0.059129 0.318578 0.429984
0.326421 0.423087 0.472007
0.611902 0.452293 0.506645
0.567636 0.259968 0.341085
0.567254 0.246113 0.303761
0.717342 0.427436 0.437751
0.058991 0.313558 0.382712
0.106508 0.414664 0.471839
0.161349 0.490410 0.535882
0.216342 0.513680 0.545647
0.511955 0.611978 0.598215
0.681117 0.644999 0.612406
0.763088 0.531319 0.472770
0.740063 0.429587 0.360189
0.821042 0.602319 0.550973
0.117479 0.434394 0.467124
0.229160 0.556008 0.558221
0.332906 0.646937 0.629160
0.353307 0.661662 0.636805
0.469749 0.665461 0.600488
0.593698 0.646418 0.515679
0.862760 0.708537 0.499474
0.897795 0.681422 0.489570
0.879637 0.711940 0.615518
0.235691 0.559396 0.544701
0.335744 0.647532 0.614603
0.383322 0.685527 0.644617
0.441398 0.704372 0.643107
0.461875 0.672312 0.554971
0.526909 0.623056 0.421790
0.871031 0.769436 0.480095
0.937621 0.762371 0.428565
0.914900 0.784894 0.631006
0.354101 0.657053 0.613046
0.377844 0.681392 0.636744
0.446571 0.708171 0.648203
0.536202 0.721477 0.637064
0.578180 0.709957 0.592706
0.657252 0.728099 0.579538
0.810208 0.789029 0.619562
0.904280 0.803800 0.575311
0.932845 0.796185 0.546227
0.031159 0.042618 0.149599
0.032609 0.038529 0.137499
0.048646 0.041733 0.145983
0.086519 0.046967 0.162341
0.133700 0.053056 0.174670
0.192721 0.061341 0.184283
0.250828 0.066926 0.186252
0.298039 0.069429 0.186801
0.338277 0.070512 0.191821
0.036347 0.079820 0.206744
0.033112 0.047715 0.180743
0.036622 0.039979 0.160174
0.071565 0.046479 0.179141
0.139116 0.056321 0.201617
0.219013 0.065888 0.214084
0.298238 0.072877 0.219471
0.336126 0.073014 0.218753
0.361517 0.085451 0.244785
0.038575 0.123125 0.255314
0.038758 0.107332 0.260258
0.036957 0.073701 0.240177
0.043351 0.059586 0.210254
0.142031 0.075776 0.241764
0.260807 0.077699 0.247913
0.338125 0.078401 0.249027
0.367239 0.092302 0.260639
0.449348 0.161959 0.322652
0.039139 0.166812 0.295644
0.040269 0.168139 0.319203
0.041367 0.164431 0.337865
0.042344 0.168566 0.356451
0.129427 0.183322 0.343832
0.364675 0.171389 0.341756
0.392142 0.114641 0.292165
0.452644 0.165591 0.333135
0.589807 0.301091 0.424857
0.041276 0.225498 0.342779
0.043229 0.245182 0.381308
0.044511 0.246860 0.404730
0.046860 0.268925 0.439902
0.116518 0.332906 0.455253
0.473625 0.395422 0.503960
0.586419 0.312627 0.453483
0.596216 0.311406 0.441123
0.729778 0.475975 0.541939
0.052949 0.305852 0.398444
0.071366 0.367437 0.462867
0.078294 0.399176 0.502739
0.079713 0.408560 0.518944
0.309407 0.525093 0.578882
0.542718 0.578317 0.606363
0.757870 0.587503 0.648249
0.745220 0.497765 0.555718
0.813703 0.612802 0.629328
0.106645 0.415030 0.471046
0.214603 0.537514 0.569589
0.333730 0.634424 0.654459
0.355779 0.645823 0.669459
0.515908 0.695949 0.699321
0.680034 0.740948 0.728084
0.796933 0.750134 0.725902
0.843961 0.672984 0.634272
0.867475 0.730007 0.699413
0.231891 0.553964 0.563012
0.343618 0.655131 0.650690
0.404761 0.700298 0.693660
0.486427 0.731365 0.716396
0.611704 0.770077 0.740917
0.675578 0.778470 0.723186
0.730419 0.766094 0.651194
0.908980 0.803647 0.649256
0.902525 0.808026 0.743847
0.361685 0.668605 0.646738
0.394720 0.697307 0.677653
0.476967 0.727749 0.702129
0.605707 0.766415 0.728481
0.682673 0.787869 0.736248
0.706371 0.788266 0.713390
0.774487 0.801434 0.696223
0.876616 0.833036 0.724392
0.918486 0.833753 0.708446
0.033036 0.047364 0.179751
0.033021 0.039261 0.158129
0.046265 0.041428 0.164904
0.080827 0.046448 0.182177
0.127718 0.054047 0.198184
0.183154 0.061448 0.208133
0.242145 0.068040 0.217975
0.300862 0.072679 0.220508
0.342702 0.072908 0.225696
0.037720 0.089357 0.239445
0.036576 0.069596 0.235035
0.036622 0.054658 0.205966
0.065873 0.062715 0.217975
0.141253 0.074205 0.241093
0.219577 0.074662 0.243977
0.291127 0.077226 0.248463
0.338689 0.078218 0.248646
0.364157 0.090471 0.264164
0.039582 0.133623 0.288533
0.040391 0.134874 0.310292
0.041398 0.141772 0.332265
0.045289 0.126085 0.302892
0.162310 0.155413 0.325139
0.302312 0.143862 0.317662
0.365179 0.108476 0.285527
0.367346 0.094270 0.271031
0.448936 0.165576 0.336126
0.040436 0.176226 0.325750
0.042191 0.188754 0.357641
0.044053 0.214481 0.401053
0.045319 0.224948 0.410864
0.130541 0.258259 0.413184
0.386511 0.278553 0.429618
0.472786 0.206470 0.372549
0.447639 0.163210 0.336492
0.595270 0.317494 0.461357
0.042573 0.231998 0.371771
0.044526 0.245228 0.404349
0.047044 0.269352 0.444053
0.055650 0.319951 0.483299
0.133532 0.364446 0.496803
0.425330 0.423468 0.533959
0.609049 0.387930 0.518975
0.590906 0.313924 0.459312
0.734340 0.498909 0.604440
0.051026 0.309071 0.424033
0.056107 0.337972 0.466041
0.059037 0.359396 0.497948
0.102907 0.428534 0.542473
0.297505 0.522622 0.601785
0.454505 0.546990 0.616953
0.682750 0.563790 0.649882
0.746227 0.516426 0.621714
0.813245 0.635767 0.698070
0.098054 0.412116 0.490730
0.143832 0.481041 0.551568
0.160418 0.511254 0.583047
0.255833 0.566155 0.624918
0.456123 0.645731 0.681102
0.606180 0.692439 0.718868
0.695506 0.699535 0.729854
0.835874 0.697932 0.745556
0.860716 0.737606 0.756542
0.220737 0.542138 0.572122
0.347341 0.642878 0.661387
0.408377 0.681270 0.699702
0.483452 0.718120 0.729152
0.605829 0.764370 0.768139
0.716854 0.805386 0.802411
0.783734 0.822202 0.814801
0.875807 0.827375 0.813397
0.896483 0.821866 0.805447
0.363394 0.667323 0.666941
0.404990 0.699596 0.700404
0.488579 0.732067 0.726879
0.620813 0.777356 0.761639
0.717128 0.811399 0.791501
0.763897 0.825315 0.801617
0.807889 0.837308 0.804456
0.870115 0.852949 0.808789
0.908202 0.854978 0.811292
0.035920 0.060746 0.224613
0.034974 0.048569 0.197314
0.043488 0.048386 0.195880
0.079652 0.057679 0.215427
0.130510 0.064363 0.231281
0.187930 0.069291 0.240635
0.247486 0.073518 0.246555
0.300694 0.077134 0.252049
0.346792 0.080491 0.253773
0.039368 0.110704 0.284947
0.041489 0.143969 0.335485
0.041444 0.126284 0.310109
0.069734 0.139010 0.308904
0.186770 0.160235 0.330327
0.288563 0.148470 0.323018
0.353582 0.117418 0.296468
0.365484 0.097856 0.274952
0.363607 0.091997 0.268879
0.041093 0.155550 0.329656
0.043519 0.200351 0.390784
0.044984 0.221653 0.410208
0.066117 0.233387 0.401938
0.236637 0.281788 0.429603
0.392203 0.284138 0.434226
0.469871 0.233600 0.393759
0.467750 0.185718 0.353185
0.445502 0.162325 0.333867
0.042435 0.195361 0.362722
0.045609 0.239872 0.423682
0.050446 0.290990 0.465248
0.131167 0.362737 0.494987
0.300053 0.405097 0.520195
0.482780 0.429953 0.542412
0.590967 0.398901 0.525948
0.617121 0.344411 0.484047
0.591852 0.309819 0.457618
0.044373 0.241260 0.400702
0.047639 0.278676 0.451240
0.061006 0.350393 0.501671
0.228016 0.466407 0.565774
0.430716 0.535348 0.610803
0.553353 0.549264 0.623865
0.671260 0.549874 0.639414
0.743801 0.521523 0.625956
0.733639 0.498604 0.608133
0.051118 0.312047 0.450568
0.054108 0.339788 0.488609
0.100969 0.426932 0.541802
0.334051 0.550866 0.620066
0.525612 0.623774 0.673320
0.620661 0.653269 0.697490
0.721782 0.658869 0.713375
0.806561 0.655558 0.721935
0.811734 0.635401 0.708095
0.086122 0.408453 0.507805
0.093614 0.432944 0.537194
0.187304 0.513024 0.591455
0.423804 0.620447 0.665095
0.594842 0.688823 0.717617
0.681865 0.727077 0.750774
0.759304 0.750896 0.772580
0.841474 0.755993 0.784680
0.859876 0.742489 0.776272
0.200412 0.529015 0.583734
0.216495 0.555810 0.613748
0.325780 0.615549 0.658808
0.518059 0.693202 0.715480
0.655161 0.750988 0.762631
0.728252 0.781445 0.790021
0.799985 0.809567 0.813458
0.867674 0.833539 0.834897
0.893477 0.828321 0.832197
0.368017 0.661585 0.676631
0.406455 0.681559 0.699596
0.481468 0.717433 0.728252
0.606134 0.764614 0.769741
0.713695 0.809262 0.806607
0.771786 0.828794 0.823911
0.815091 0.843061 0.836347
0.868635 0.859892 0.853010
0.911192 0.874434 0.864637
