tools/luts_backup/Kodak Ektar 100_FC.cube
# (C) 2014 VisionColor & Patchflyer [www.vision-color.com]
# Generator: VC Patchmatch v.2.1.1 [64/53]
# All work and no play makes Jack a dull boy.
# LUT generated from: Kodak Ektar 100_FC01
LUT_3D_SIZE 5
0.030304 0.014008 0.020722
0.168658 0.033478 0.040558
0.438788 0.049836 0.056809
0.683665 0.078935 0.074022
0.818311 0.084932 0.096071
0.061723 0.188663 0.069535
0.117906 0.178393 0.046815
0.315663 0.215167 0.042893
0.606699 0.318044 0.074784
0.742718 0.523781 0.138308
0.058686 0.427604 0.087541
0.099962 0.451652 0.078096
0.242252 0.439811 0.060868
0.504448 0.494118 0.082551
0.746365 0.631373 0.174136
0.089128 0.670436 0.183886
0.095033 0.681636 0.176837
0.181491 0.717403 0.232273
0.367391 0.638483 0.133410
0.768048 0.702907 0.209033
0.134997 0.764706 0.324315
0.177111 0.785138 0.354162
0.464302 0.859586 0.504494
0.702113 0.862989 0.527825
0.847303 0.856489 0.458808
0.049790 0.022614 0.111360
0.127962 0.024857 0.097688
0.361212 0.039994 0.128527
0.644373 0.061006 0.128222
0.812161 0.084871 0.129091
0.042130 0.131807 0.156695
0.156558 0.153582 0.163790
0.609064 0.085069 0.072938
0.802792 0.103822 0.096345
0.815381 0.110414 0.112734
0.041199 0.382620 0.200992
0.079500 0.596338 0.182788
0.375570 0.607721 0.163455
0.717037 0.547097 0.136675
0.766033 0.379217 0.133593
0.085740 0.643946 0.325414
0.159152 0.775280 0.345800
0.409125 0.836454 0.517845
0.817884 0.842527 0.438224
0.748425 0.603601 0.199405
0.150286 0.764233 0.495521
0.432135 0.843534 0.659281
0.427955 0.838560 0.658320
0.752117 0.890486 0.779339
0.888945 0.888945 0.680980
0.059983 0.033616 0.387106
0.188678 0.030777 0.284779
0.356039 0.036072 0.245502
0.639979 0.059434 0.246281
0.804318 0.079164 0.182895
0.045121 0.107515 0.456001
0.067750 0.042969 0.752346
0.588327 0.058442 0.370642
0.794858 0.080644 0.184817
0.816602 0.100465 0.160418
0.026902 0.335821 0.382925
0.068406 0.503395 0.546990
0.460929 0.461265 0.469596
0.800946 0.156847 0.134600
0.823453 0.368368 0.247791
0.082994 0.624399 0.458122
0.286030 0.791714 0.657084
0.378149 0.807523 0.612192
0.864530 0.878721 0.707347
0.853437 0.726040 0.429084
0.179263 0.767559 0.640558
0.607355 0.873518 0.783444
0.649195 0.878569 0.798032
0.833005 0.903273 0.846616
0.916899 0.916533 0.845380
0.060182 0.039582 0.834943
0.227237 0.039689 0.633356
0.471656 0.045136 0.459083
0.646891 0.061463 0.382254
0.790463 0.086397 0.358572
0.060105 0.062715 0.861860
0.062470 0.041871 0.934295
0.461509 0.052964 0.676707
0.756664 0.092714 0.568521
0.792767 0.114946 0.330266
0.038865 0.264073 0.661616
0.058564 0.136126 0.904448
0.128054 0.065476 0.903029
0.759228 0.245518 0.659907
0.833417 0.395300 0.569711
0.055268 0.553597 0.595453
0.167803 0.709667 0.736706
0.291997 0.750195 0.766735
0.771191 0.771191 0.769421
0.923461 0.790158 0.774121
0.224613 0.770504 0.737194
0.387533 0.815351 0.773190
0.668833 0.880659 0.847669
0.833524 0.920836 0.855375
0.937636 0.937636 0.867262
0.058457 0.038346 0.943633
0.157900 0.038453 0.855848
0.452308 0.053361 0.698665
0.669169 0.070314 0.615778
0.758633 0.096040 0.596628
0.059083 0.060288 0.945891
0.082689 0.058579 0.941146
0.377081 0.066224 0.782895
0.681468 0.103532 0.664073
0.765255 0.203784 0.664454
0.055222 0.150210 0.901106
0.092302 0.083742 0.939498
0.373205 0.093782 0.805585
0.726329 0.327016 0.766308
0.815137 0.541833 0.791669
0.054963 0.464729 0.767529
0.137484 0.344656 0.818326
0.495644 0.478538 0.860227
0.787778 0.635111 0.866224
0.901228 0.797681 0.891371
0.179004 0.719692 0.741604
0.289876 0.774838 0.773114
0.534310 0.859556 0.855161
0.828244 0.932052 0.924407
0.959945 0.959945 0.951598
