tools/luts_backup/Kodak Ultramax 400_FC.cube
# (C) 2014 VisionColor & Patchflyer [www.vision-color.com]
# Generator: VC Patchmatch v.2.1.1 [64/53]
# All work and no play makes Jack a dull boy.
# LUT generated from: Kodak Ultramax 400_FC01
LUT_3D_SIZE 9
0.021515 0.025727 0.021515
0.060380 0.021118 0.025193
0.121920 0.021744 0.023331
0.222934 0.021820 0.027329
0.353307 0.023499 0.034531
0.509499 0.023880 0.036316
0.671260 0.024979 0.040620
0.810498 0.026398 0.045945
0.940414 0.027741 0.050568
0.032151 0.059480 0.015610
0.085634 0.058045 0.015412
0.169558 0.065126 0.016083
0.288396 0.075059 0.020981
0.418906 0.081163 0.023606
0.554162 0.080659 0.027619
0.696239 0.079088 0.033860
0.851423 0.067506 0.042054
0.968353 0.044343 0.049516
0.052064 0.104616 0.011948
0.114702 0.126146 0.011719
0.210407 0.136477 0.012741
0.340108 0.154391 0.015900
0.479149 0.172610 0.020218
0.609964 0.175799 0.023957
0.732921 0.166308 0.030014
0.877668 0.159701 0.038148
0.969284 0.143069 0.042741
0.131640 0.218158 0.009995
0.182727 0.242374 0.011246
0.267231 0.263630 0.013764
0.385901 0.267109 0.016297
0.540246 0.296101 0.018799
0.664179 0.306325 0.020859
0.783597 0.293492 0.024537
0.904921 0.282109 0.034882
0.954177 0.243793 0.039002
0.225132 0.351049 0.010666
0.260151 0.383597 0.013657
0.328008 0.414389 0.016281
0.444648 0.424323 0.018158
0.566476 0.443000 0.019150
0.687785 0.453910 0.018692
0.809140 0.444129 0.020325
0.895705 0.401221 0.023529
0.933471 0.345464 0.028046
0.293248 0.468025 0.011322
0.308537 0.519585 0.014557
0.383993 0.544625 0.018936
0.487800 0.551720 0.018418
0.602899 0.563378 0.018341
0.719310 0.580819 0.019471
0.836881 0.569863 0.019837
0.889799 0.533562 0.020294
0.907607 0.460655 0.021485
0.316579 0.588815 0.012238
0.346288 0.626017 0.014466
0.417624 0.652384 0.016281
0.518166 0.657496 0.017060
0.634653 0.669596 0.017258
0.753994 0.677073 0.018967
0.849744 0.669490 0.020127
0.884855 0.638514 0.020478
0.889906 0.590936 0.020447
0.294163 0.741985 0.012390
0.333120 0.755520 0.013214
0.424903 0.770565 0.014664
0.533593 0.771359 0.016159
0.668757 0.776791 0.018051
0.763363 0.770611 0.019394
0.836805 0.746075 0.020218
0.877928 0.745205 0.020737
0.878416 0.738430 0.020722
0.212161 0.857008 0.010880
0.298482 0.857603 0.012558
0.394598 0.860700 0.014435
0.507469 0.858427 0.016037
0.627375 0.851575 0.017502
0.720836 0.835004 0.018891
0.792844 0.833295 0.019989
0.849790 0.805982 0.020615
0.873976 0.816052 0.020981
0.023331 0.023331 0.087861
0.050996 0.022354 0.085939
0.132815 0.021225 0.086610
0.238712 0.020829 0.093553
0.364019 0.023224 0.101213
0.484245 0.023178 0.103593
0.637079 0.024063 0.111971
0.783459 0.025971 0.114214
0.907668 0.027695 0.113405
0.025818 0.067048 0.069245
0.081239 0.073899 0.076722
0.201038 0.035691 0.041871
0.345617 0.024033 0.033753
0.502739 0.024002 0.035904
0.666896 0.024933 0.040162
0.819791 0.026337 0.045548
0.917510 0.031479 0.058335
0.921569 0.069581 0.117937
0.055711 0.146075 0.057496
0.111666 0.190356 0.020691
0.322560 0.228794 0.029328
0.475715 0.169253 0.020951
0.585565 0.135988 0.024674
0.711070 0.115450 0.031556
0.856092 0.096712 0.039887
0.952636 0.084352 0.054063
0.944793 0.166979 0.113771
0.114137 0.257603 0.053254
0.218524 0.344244 0.011124
0.324727 0.403403 0.016754
0.553750 0.437095 0.019333
0.669184 0.350851 0.020203
0.780179 0.291356 0.025208
0.895033 0.252781 0.036179
0.951949 0.229877 0.049973
0.938170 0.280201 0.111528
0.181659 0.376242 0.052049
0.292424 0.468330 0.011353
0.353002 0.535576 0.016953
0.521477 0.553201 0.018585
0.720928 0.576989 0.019318
0.814237 0.507820 0.019898
0.891279 0.427665 0.022629
0.931197 0.361975 0.037125
0.929763 0.392950 0.104463
0.222248 0.501015 0.046143
0.310948 0.591730 0.012161
0.371481 0.642222 0.015213
0.516869 0.662104 0.017166
0.693950 0.667613 0.018372
0.839826 0.670253 0.020066
0.883345 0.597940 0.020356
0.909392 0.519860 0.026276
0.916747 0.510231 0.090654
0.213596 0.599008 0.023606
0.284520 0.735149 0.012085
0.361151 0.758923 0.013931
0.507530 0.769177 0.016236
0.681941 0.775509 0.018372
0.815778 0.752209 0.020096
0.876112 0.753719 0.020783
0.890242 0.699794 0.024750
0.902663 0.642039 0.078798
0.193973 0.737392 0.011276
0.230747 0.846372 0.011231
0.336187 0.852705 0.014145
0.485130 0.857618 0.018616
0.633951 0.848371 0.021973
0.754162 0.839567 0.024216
0.833188 0.818616 0.023163
0.876829 0.819562 0.023590
0.891783 0.747494 0.070420
0.171283 0.863951 0.009934
0.233219 0.881758 0.012940
0.364752 0.884108 0.029892
0.508415 0.875456 0.055863
0.620600 0.869718 0.069596
0.716075 0.860670 0.072343
0.764782 0.840085 0.063600
0.820401 0.816358 0.049470
0.861051 0.832792 0.053483
0.024826 0.024826 0.189258
0.051225 0.023239 0.169497
0.127810 0.021286 0.157427
0.241688 0.020447 0.157977
0.369512 0.022797 0.168170
0.491966 0.022919 0.179156
0.627344 0.023667 0.191211
0.754833 0.025437 0.188342
0.874037 0.027405 0.169390
0.026368 0.071977 0.157626
0.032990 0.038331 0.262303
0.191363 0.034394 0.206943
0.360769 0.023438 0.166705
0.487556 0.022995 0.150301
0.629953 0.023850 0.146670
0.775219 0.025696 0.141436
0.877974 0.032486 0.139071
0.887007 0.081895 0.182239
0.046921 0.155840 0.136172
0.080369 0.231113 0.206378
0.183490 0.172045 0.157519
0.375586 0.104829 0.109087
0.584878 0.054231 0.070344
0.802090 0.029328 0.050416
0.908919 0.033936 0.063111
0.925261 0.074647 0.116457
0.920272 0.186633 0.191882
0.091585 0.270497 0.134600
0.138766 0.391485 0.127153
0.239536 0.372473 0.085542
0.516487 0.417060 0.109499
0.697887 0.310842 0.059556
0.870069 0.199557 0.042023
0.951034 0.158282 0.054826
0.946731 0.210147 0.110765
0.919020 0.311208 0.195773
0.142367 0.400290 0.129229
0.181949 0.508385 0.083406
0.287053 0.547707 0.029740
0.492790 0.600809 0.048432
0.778485 0.621576 0.051392
0.890715 0.494041 0.025025
0.930541 0.370901 0.041825
0.931899 0.366339 0.103609
0.915526 0.433539 0.193011
0.168994 0.517586 0.115221
0.176791 0.614328 0.044022
0.281544 0.721965 0.012268
0.452033 0.757336 0.016983
0.718639 0.761852 0.021515
0.877333 0.748196 0.022873
0.900542 0.609003 0.029129
0.912902 0.534554 0.087846
0.918959 0.548669 0.190433
0.150607 0.629114 0.076539
0.162646 0.742687 0.015442
0.239139 0.839170 0.011536
0.410574 0.853208 0.017380
0.634730 0.843793 0.025544
0.798581 0.824796 0.026703
0.876722 0.820874 0.024994
0.899077 0.715343 0.076707
0.913527 0.673320 0.193164
0.124041 0.755718 0.035599
0.157946 0.856519 0.010773
0.236362 0.879362 0.015854
0.423621 0.877424 0.041764
0.601648 0.870481 0.068116
0.724651 0.859297 0.072313
0.800168 0.830350 0.055909
0.866896 0.829175 0.055314
0.902800 0.770794 0.178225
0.114778 0.891920 0.011460
0.184115 0.889601 0.031220
0.321202 0.888304 0.071061
0.498787 0.879149 0.120394
0.613596 0.867399 0.152468
0.708247 0.868498 0.167727
0.774273 0.864088 0.160021
0.818448 0.836469 0.128252
0.879286 0.837140 0.127520
0.025696 0.025696 0.342672
0.043275 0.023713 0.284230
0.115953 0.021454 0.250629
0.216892 0.020325 0.231846
0.354543 0.022431 0.241001
0.485069 0.022721 0.263508
0.606332 0.023850 0.279927
0.706188 0.024826 0.249165
0.831769 0.026734 0.232700
0.025101 0.075517 0.277623
0.026825 0.027375 0.577615
0.097841 0.024491 0.383734
0.309377 0.022522 0.321904
0.473854 0.022568 0.291264
0.601160 0.023819 0.272312
0.716808 0.025162 0.240177
0.823072 0.033661 0.216968
0.838056 0.093782 0.234730
0.046372 0.160678 0.245350
0.045365 0.164996 0.376852
0.073854 0.096880 0.331243
0.291600 0.096452 0.302327
0.523171 0.052735 0.258122
0.727138 0.029038 0.212192
0.843824 0.037201 0.182925
0.868955 0.086549 0.202121
0.865293 0.194980 0.245457
0.074723 0.267292 0.242267
0.088396 0.386801 0.378210
0.154009 0.364446 0.349325
0.323018 0.308858 0.283726
0.511955 0.231189 0.208896
0.736339 0.139940 0.156161
0.913436 0.082399 0.121569
0.916579 0.183230 0.192615
0.888197 0.320806 0.270527
0.103517 0.397253 0.250340
0.115236 0.524468 0.273915
0.156847 0.577050 0.213458
0.342489 0.506020 0.184222
0.645045 0.548775 0.221958
0.798474 0.451164 0.147204
0.932204 0.323217 0.114031
0.916182 0.364080 0.192203
0.893690 0.442863 0.288746
0.124498 0.526833 0.229084
0.119631 0.650828 0.178470
0.123491 0.756054 0.068284
0.282536 0.690684 0.064012
0.603342 0.712657 0.123430
0.834058 0.711116 0.120775
0.908766 0.603311 0.092348
0.915145 0.550240 0.188586
0.907637 0.561273 0.296345
0.118608 0.652506 0.183261
0.105440 0.782361 0.102800
0.124529 0.865644 0.026795
0.244984 0.867567 0.020188
0.547860 0.864622 0.065644
0.753094 0.843259 0.074601
0.867231 0.821714 0.062852
0.906722 0.728313 0.186755
0.915877 0.690608 0.314290
0.100740 0.797986 0.126940
0.100664 0.887602 0.056840
0.175998 0.898558 0.057649
0.319142 0.887846 0.072724
0.557763 0.876371 0.140322
0.704021 0.864958 0.163516
0.799954 0.855299 0.143709
0.875120 0.838132 0.127138
0.911360 0.790707 0.303990
0.079286 0.914366 0.065217
0.163027 0.907698 0.113100
0.282506 0.888136 0.163760
0.465873 0.884749 0.230121
0.600763 0.882856 0.281346
0.713512 0.884260 0.307118
0.799634 0.887373 0.310475
0.868894 0.876143 0.281636
0.903227 0.861814 0.251194
0.026596 0.026596 0.594186
0.038025 0.026230 0.467124
0.099016 0.024216 0.386007
0.201877 0.022919 0.359701
0.311330 0.022278 0.325261
0.454658 0.022370 0.342718
0.572442 0.023911 0.346029
0.670893 0.024262 0.294652
0.784970 0.025925 0.283482
0.026795 0.084443 0.448646
0.026932 0.029068 0.823667
0.054902 0.025391 0.608759
0.214725 0.023316 0.545830
0.403937 0.022278 0.412268
0.552651 0.023774 0.370291
0.666224 0.024643 0.310048
0.763790 0.033356 0.284245
0.782330 0.096498 0.285222
0.045029 0.166629 0.380774
0.033875 0.151156 0.598001
0.029725 0.054795 0.738048
0.163790 0.051469 0.579477
0.433158 0.053330 0.453468
0.644038 0.028580 0.351247
0.755962 0.037400 0.282002
0.791852 0.095583 0.269932
0.803143 0.197314 0.291020
0.071199 0.268009 0.373693
0.068421 0.319509 0.528420
0.072969 0.289082 0.598779
0.154452 0.199405 0.420493
0.402518 0.212634 0.421439
0.612039 0.133318 0.317189
0.808362 0.101320 0.251408
0.835462 0.196780 0.271824
0.843107 0.320455 0.326696
0.089189 0.393774 0.383215
0.081422 0.510369 0.523934
0.093156 0.561959 0.577218
0.240024 0.498817 0.503227
0.477729 0.456199 0.439643
0.641123 0.374044 0.337377
0.842786 0.268605 0.241917
0.891325 0.313298 0.268589
0.881819 0.435981 0.360296
0.102998 0.523415 0.374868
0.085191 0.653086 0.413855
0.063767 0.780774 0.366003
0.195895 0.708080 0.321721
0.454383 0.627344 0.324575
0.730571 0.651484 0.360021
0.878798 0.568292 0.257252
0.902647 0.519738 0.292775
0.907744 0.580896 0.420249
0.100145 0.658137 0.337957
0.069551 0.794171 0.279850
0.073198 0.891905 0.201648
0.161151 0.902419 0.157900
0.407172 0.824414 0.156985
0.690166 0.819028 0.240635
0.877455 0.804623 0.216907
0.918166 0.727886 0.316564
0.932158 0.726345 0.462943
0.074006 0.794171 0.251469
0.070253 0.904402 0.195148
0.142550 0.912520 0.210407
0.279026 0.893050 0.232547
0.459098 0.886015 0.226093
0.675532 0.880842 0.295644
0.827436 0.882963 0.299870
0.904753 0.867689 0.253071
0.935805 0.842863 0.475868
0.061112 0.923583 0.178531
0.133074 0.913054 0.238407
0.267994 0.893843 0.315618
0.466072 0.894896 0.386786
0.603769 0.899580 0.442267
0.726558 0.902541 0.472801
0.818448 0.902693 0.478691
0.899779 0.912169 0.477150
0.935393 0.912551 0.454170
0.027436 0.027955 0.829389
0.033387 0.026551 0.694606
0.076341 0.024750 0.583444
0.182650 0.023499 0.560739
0.284459 0.022843 0.499641
0.404044 0.022263 0.411948
0.527291 0.023819 0.411704
0.644831 0.024399 0.375296
0.769467 0.025971 0.356588
0.022507 0.091585 0.662501
0.025788 0.034226 0.914916
0.039414 0.026932 0.767239
0.144335 0.024460 0.775433
0.304097 0.023545 0.656748
0.477302 0.023224 0.514382
0.628763 0.024750 0.442130
0.731777 0.032593 0.385916
0.736126 0.091020 0.352697
0.044205 0.187854 0.577600
0.019318 0.144778 0.827649
0.025345 0.036072 0.917067
0.062303 0.030488 0.852003
0.260227 0.028168 0.730556
0.566827 0.029618 0.663050
0.707012 0.037736 0.467720
0.727611 0.089418 0.375906
0.749264 0.192584 0.368368
0.066178 0.288548 0.544930
0.040314 0.297963 0.736034
0.015335 0.251835 0.935973
0.047257 0.121004 0.683345
0.233356 0.132235 0.624033
0.514961 0.139590 0.589151
0.703395 0.097047 0.429953
0.751247 0.189487 0.370748
0.793317 0.320272 0.406744
0.074189 0.388312 0.514885
0.058457 0.493721 0.694423
0.030610 0.514931 0.849622
0.101335 0.407568 0.716091
0.273213 0.335515 0.568689
0.534844 0.352636 0.561257
0.709545 0.260792 0.397848
0.807523 0.322332 0.379873
0.848753 0.451575 0.467994
0.084062 0.517449 0.524422
0.040940 0.639429 0.679927
0.014466 0.738918 0.838636
0.096132 0.690929 0.765866
0.346090 0.634440 0.672267
0.602609 0.578393 0.580224
0.740414 0.486366 0.423697
0.880247 0.441169 0.366690
0.894102 0.582269 0.522744
0.074266 0.656519 0.498573
0.031876 0.783291 0.541222
0.019974 0.886885 0.577020
0.072328 0.907637 0.567025
0.308415 0.854627 0.549661
0.591394 0.770901 0.484993
0.861952 0.792142 0.506477
0.925612 0.717540 0.459037
0.931472 0.728801 0.594766
0.046235 0.794614 0.420020
0.028519 0.902342 0.428275
0.078767 0.913588 0.457969
0.215625 0.903273 0.506477
0.433783 0.903685 0.510735
0.607599 0.899794 0.442649
0.819059 0.904418 0.481910
0.933577 0.908568 0.459052
0.938186 0.851026 0.617075
0.028916 0.922698 0.338582
0.085725 0.913298 0.417685
0.218906 0.899886 0.504173
0.417884 0.907942 0.581399
0.609552 0.917113 0.607202
0.736461 0.921386 0.626505
0.836255 0.920485 0.638804
0.912505 0.926970 0.635966
0.938704 0.925246 0.633341
0.025422 0.035706 0.920348
0.029236 0.028016 0.803677
0.061387 0.026139 0.785336
0.147051 0.024414 0.794827
0.257053 0.023728 0.722866
0.362097 0.023697 0.603815
0.477089 0.023346 0.512627
0.618860 0.024445 0.493202
0.753429 0.026215 0.485115
0.017060 0.098360 0.852399
0.026429 0.031342 0.926070
0.030472 0.027832 0.831098
0.080873 0.025666 0.863340
0.208881 0.024323 0.766079
0.375204 0.024323 0.702785
0.576440 0.025513 0.676280
0.704433 0.033753 0.576501
0.702083 0.092073 0.477729
0.026383 0.196628 0.806378
0.014542 0.163821 0.960418
0.025635 0.034638 0.931823
0.033585 0.037812 0.898085
0.144640 0.036484 0.859403
0.361273 0.037369 0.817456
0.636103 0.040208 0.800092
0.691279 0.094759 0.567651
0.697581 0.189624 0.483452
0.041428 0.299794 0.733272
0.013809 0.299397 0.936614
0.011948 0.254108 0.958221
0.019974 0.079393 0.877424
0.096101 0.095689 0.891310
0.320806 0.099657 0.813794
0.621439 0.102068 0.794568
0.683925 0.190311 0.556313
0.753307 0.316930 0.529976
0.056748 0.435538 0.694697
0.023438 0.458961 0.863416
0.011002 0.406775 0.926345
0.017365 0.321401 0.919722
0.082628 0.225528 0.778973
0.319051 0.251728 0.766278
0.612589 0.253635 0.730648
0.739986 0.313970 0.571466
0.805814 0.452247 0.580133
0.059480 0.538872 0.695094
0.023102 0.612360 0.867262
0.010681 0.631693 0.938888
0.036957 0.603891 0.944060
0.202060 0.538109 0.842649
0.408087 0.475029 0.753628
0.691325 0.486915 0.724041
0.810666 0.451987 0.580407
0.869307 0.576730 0.632990
0.041367 0.640391 0.672969
0.010330 0.748440 0.848295
0.009415 0.827420 0.921126
0.016953 0.886748 0.928664
0.165164 0.840711 0.895811
0.512612 0.783673 0.837385
0.735958 0.711910 0.728481
0.867567 0.620890 0.572641
0.932494 0.721126 0.715572
0.020386 0.779751 0.624933
0.008698 0.876249 0.741238
0.029999 0.918166 0.786831
0.121874 0.909911 0.810346
0.310811 0.915511 0.835309
0.557870 0.926467 0.763958
0.748852 0.895399 0.665415
0.933959 0.901198 0.674083
0.941054 0.856031 0.755093
0.006989 0.913191 0.577874
0.046204 0.917983 0.632074
0.159365 0.908644 0.712306
0.341619 0.916503 0.784421
0.557717 0.931823 0.769055
0.737041 0.930983 0.763561
0.833677 0.931090 0.777874
0.915846 0.930953 0.782254
0.941619 0.926009 0.775586
0.026429 0.031479 0.918990
0.027543 0.028214 0.824292
0.041901 0.026856 0.862638
0.097398 0.025132 0.853284
0.186999 0.024201 0.769207
0.294377 0.023804 0.719509
0.426062 0.024155 0.689616
0.580224 0.024811 0.675013
0.722606 0.026612 0.651789
0.016968 0.126497 0.953552
0.026291 0.031739 0.939605
0.026947 0.033341 0.897002
0.049241 0.033753 0.910109
0.142000 0.032212 0.870970
0.284733 0.032471 0.841825
0.462593 0.034363 0.836072
0.646403 0.035752 0.813947
0.681285 0.097612 0.633906
0.013367 0.226764 0.959381
0.013733 0.192721 0.972366
0.020371 0.069764 0.887633
0.041382 0.084031 0.895491
0.125643 0.092073 0.895659
0.263188 0.091279 0.838132
0.437766 0.091783 0.822690
0.630411 0.095537 0.806561
0.664973 0.190967 0.634165
0.012650 0.317082 0.919905
0.011215 0.310994 0.963256
0.013840 0.232898 0.924651
0.031312 0.158145 0.876921
0.112413 0.176791 0.884428
0.262791 0.187762 0.849302
0.456764 0.190036 0.815717
0.633402 0.188861 0.802167
0.718349 0.313771 0.672145
0.017929 0.432212 0.861830
0.010513 0.401434 0.929931
0.017594 0.378576 0.931136
0.049882 0.327886 0.873991
0.096056 0.272038 0.855482
0.263050 0.292988 0.860136
0.501701 0.307698 0.854063
0.697108 0.305882 0.828931
0.785641 0.449241 0.715938
0.027329 0.564691 0.870527
0.010346 0.565896 0.942229
0.030060 0.553475 0.952285
0.119158 0.535470 0.919783
0.239536 0.507683 0.889799
0.269017 0.414038 0.876234
0.583810 0.446571 0.883513
0.783551 0.444678 0.861738
0.869795 0.578027 0.770626
0.018021 0.643229 0.857298
0.009537 0.702327 0.938659
0.021592 0.719783 0.950271
0.098528 0.705272 0.929747
0.266026 0.724315 0.910964
0.475776 0.704585 0.911910
0.610361 0.613855 0.892485
0.867689 0.614420 0.875944
0.923674 0.707408 0.830121
0.009720 0.758251 0.851637
0.009476 0.834974 0.927474
0.012039 0.890257 0.929473
0.072831 0.906355 0.911574
0.212009 0.906249 0.907286
0.443046 0.924300 0.923278
0.704387 0.902922 0.914183
0.858717 0.839551 0.853361
0.941360 0.839551 0.862257
0.008881 0.862608 0.859464
0.015808 0.916396 0.875914
0.088289 0.910613 0.889067
0.273854 0.914672 0.900389
0.506462 0.934020 0.898543
0.688441 0.938048 0.880598
0.810132 0.930190 0.877684
0.880293 0.943358 0.871565
0.948440 0.942977 0.872557
0.027253 0.027253 0.945937
0.027405 0.027405 0.915343
0.027848 0.027359 0.922988
0.056046 0.026215 0.907942
0.135958 0.025895 0.891722
0.243915 0.025391 0.874128
0.371725 0.026032 0.879072
0.536812 0.027695 0.877989
0.670863 0.028260 0.839246
0.017273 0.120592 0.960174
0.019501 0.069627 0.880385
0.025818 0.079652 0.890394
0.067826 0.089220 0.907118
0.141680 0.092546 0.893874
0.239048 0.092943 0.847639
0.359289 0.089845 0.826322
0.491966 0.093019 0.818647
0.632929 0.098192 0.809476
0.011109 0.317296 0.973114
0.013886 0.178882 0.916609
0.026596 0.158022 0.872923
0.075578 0.171649 0.893187
0.155505 0.186206 0.873259
0.261524 0.190295 0.849912
0.385855 0.190005 0.827207
0.517052 0.189487 0.808454
0.627329 0.188678 0.799619
0.010864 0.330831 0.968902
0.011673 0.283223 0.913741
0.037903 0.266209 0.870832
0.096742 0.273518 0.857359
0.183917 0.286732 0.861418
0.315068 0.303502 0.859800
0.459831 0.309651 0.859510
0.593851 0.313771 0.850599
0.699290 0.312032 0.833310
0.010071 0.393362 0.939010
0.014618 0.401068 0.932662
0.071092 0.393027 0.884031
0.162707 0.410956 0.869459
0.268498 0.412909 0.877943
0.431388 0.439704 0.885435
0.584710 0.444404 0.885161
0.703166 0.449821 0.875349
0.782681 0.445197 0.862287
0.009369 0.519188 0.949050
0.024567 0.535012 0.953368
0.124025 0.537224 0.919081
0.284352 0.564370 0.891875
0.414923 0.560067 0.901442
0.544610 0.574594 0.907805
0.693629 0.580255 0.919081
0.799252 0.578698 0.909422
0.875029 0.569299 0.895521
0.009293 0.642176 0.949172
0.025162 0.651621 0.954238
0.112306 0.646983 0.924712
0.286397 0.686732 0.904677
0.478248 0.710399 0.914275
0.620127 0.707912 0.925841
0.762768 0.707820 0.928923
0.866163 0.712489 0.928817
0.925887 0.704753 0.923156
0.009354 0.737011 0.941146
0.011765 0.769177 0.944671
0.088808 0.780697 0.923690
0.234455 0.795392 0.911254
0.473869 0.839689 0.926375
0.653727 0.850950 0.933028
0.768063 0.854444 0.932021
0.882567 0.839002 0.932509
0.940169 0.835813 0.932326
0.009613 0.861921 0.926787
0.010422 0.882368 0.926116
0.073716 0.907164 0.911025
0.208148 0.904341 0.907286
0.435233 0.924956 0.917937
0.677791 0.939300 0.933043
0.795453 0.928115 0.933547
0.870039 0.946593 0.939040
0.953887 0.953887 0.945693
