tools/luts_backup/Kodak Vision3 200T 5213 (NEG)_VS.cube
# (C) 2014 VisionColor & Patchflyer [www.vision-color.com]
# Generator: VC Patchmatch v.2.1.1 [64/53]
# All work and no play makes Jack a dull boy.
# LUT generated from: Kodak Vision3 200T 5213 (NEG)_VisionSpace
LUT_3D_SIZE 17
0.035767 0.035767 0.035767
0.042176 0.025177 0.030396
0.046601 0.017182 0.021241
0.054139 0.009766 0.010712
0.069764 0.009552 0.009552
0.083558 0.010254 0.010254
0.098604 0.011170 0.011170
0.120241 0.012726 0.012726
0.136629 0.014252 0.014252
0.146365 0.015045 0.015045
0.148287 0.015229 0.015229
0.156435 0.016022 0.016022
0.198398 0.020264 0.020264
0.264836 0.027100 0.027100
0.306279 0.031312 0.031312
0.325261 0.033265 0.033265
0.344854 0.035279 0.035279
0.039399 0.088228 0.038148
0.067903 0.087129 0.041840
0.078950 0.055756 0.030335
0.077760 0.033387 0.021149
0.088685 0.019196 0.013275
0.104585 0.014008 0.012268
0.117372 0.013428 0.012757
0.130983 0.013916 0.013764
0.147524 0.015167 0.015167
0.161074 0.016480 0.016480
0.173190 0.017670 0.017670
0.188144 0.019196 0.019196
0.218448 0.022370 0.022370
0.268681 0.027466 0.027466
0.306798 0.031373 0.031373
0.327977 0.033539 0.033539
0.349126 0.035737 0.035737
0.063722 0.124361 0.043214
0.075410 0.126711 0.044648
0.090730 0.124758 0.043977
0.125307 0.096895 0.037598
0.139132 0.066651 0.027649
0.140902 0.038270 0.020508
0.149416 0.023743 0.017395
0.159335 0.019074 0.017060
0.169345 0.018036 0.017487
0.180514 0.018585 0.018463
0.193515 0.019806 0.019776
0.208255 0.021302 0.021302
0.229374 0.023499 0.023468
0.268040 0.027558 0.027436
0.311925 0.032197 0.031983
0.333227 0.034119 0.034119
0.351690 0.035981 0.035981
0.073152 0.157809 0.048859
0.082612 0.159426 0.051240
0.090394 0.162966 0.053346
0.112978 0.163485 0.058289
0.174594 0.146365 0.057374
0.213779 0.126406 0.048646
0.233890 0.104036 0.044434
0.242557 0.077607 0.038331
0.244388 0.052552 0.032044
0.239292 0.036683 0.027558
0.236484 0.028809 0.025360
0.242649 0.026886 0.025360
0.262608 0.028473 0.027253
0.315435 0.037324 0.033539
0.394415 0.054688 0.044038
0.383062 0.043549 0.040284
0.355688 0.036408 0.036408
0.093507 0.199680 0.070924
0.103029 0.203708 0.074617
0.111788 0.213626 0.080232
0.116640 0.220890 0.083925
0.167636 0.217929 0.094636
0.245792 0.214817 0.098695
0.300267 0.200992 0.079683
0.337072 0.182559 0.072358
0.338537 0.149874 0.064149
0.337499 0.115007 0.055116
0.332006 0.085023 0.046998
0.322026 0.062257 0.040406
0.326024 0.051453 0.037964
0.379614 0.064912 0.045502
0.477760 0.108248 0.064057
0.469520 0.087831 0.058198
0.375799 0.040009 0.038849
0.136873 0.257969 0.104952
0.142916 0.260685 0.107027
0.149508 0.273381 0.112154
0.148592 0.283970 0.115572
0.151736 0.285740 0.116915
0.226200 0.285039 0.132082
0.316686 0.291997 0.143069
0.376120 0.274357 0.127413
0.439002 0.249546 0.098299
0.444007 0.211139 0.087800
0.425498 0.166735 0.075013
0.419165 0.131609 0.065553
0.409613 0.104158 0.057771
0.419684 0.091066 0.055268
0.474189 0.108431 0.063844
0.506279 0.121492 0.069642
0.441169 0.067170 0.050721
0.207126 0.332555 0.146059
0.205539 0.330144 0.144961
0.206607 0.338262 0.147494
0.200656 0.348363 0.148775
0.186892 0.353002 0.146090
0.193423 0.353338 0.146090
0.279622 0.362158 0.167025
0.388235 0.367620 0.184329
0.464866 0.343725 0.172213
0.528527 0.308858 0.135210
0.539269 0.261707 0.108003
0.495537 0.203418 0.089723
0.474556 0.155596 0.075898
0.442542 0.107118 0.061036
0.434211 0.080049 0.053529
0.512474 0.132143 0.072786
0.528054 0.143969 0.076997
0.283925 0.412863 0.187716
0.280415 0.409171 0.186160
0.278248 0.413504 0.187289
0.269444 0.421195 0.187350
0.251621 0.425162 0.183169
0.239017 0.426139 0.178744
0.265522 0.430533 0.184390
0.369009 0.444877 0.212589
0.488609 0.440955 0.231449
0.556390 0.406729 0.216419
0.590997 0.356374 0.173205
0.601526 0.293385 0.120897
0.541238 0.219806 0.097383
0.481773 0.143084 0.073274
0.415396 0.073136 0.050355
0.515435 0.142061 0.075532
0.620752 0.233600 0.107057
0.360891 0.496544 0.228397
0.359670 0.494865 0.228183
0.358114 0.497856 0.229038
0.350607 0.504921 0.230564
0.331319 0.508247 0.227085
0.307057 0.505226 0.219364
0.311727 0.505531 0.219211
0.363607 0.514138 0.233371
0.491966 0.528191 0.270329
0.587991 0.509560 0.282597
0.624689 0.461357 0.259480
0.633997 0.390249 0.203937
0.640742 0.314473 0.133959
0.593637 0.239460 0.106493
0.528389 0.159503 0.081041
0.582498 0.199878 0.095430
0.676020 0.323842 0.159106
0.446464 0.576944 0.272587
0.442679 0.575967 0.269352
0.441215 0.578927 0.268223
0.440879 0.584482 0.272892
0.423880 0.586343 0.272557
0.390646 0.580392 0.263340
0.367529 0.569726 0.253849
0.389654 0.569238 0.258732
0.462089 0.579767 0.281102
0.596414 0.579919 0.320073
0.658869 0.564752 0.331914
0.677333 0.523690 0.312154
0.666682 0.438621 0.248463
0.661646 0.377920 0.196429
0.654978 0.342336 0.173510
0.663111 0.342855 0.176715
0.694575 0.414298 0.244892
0.549447 0.646204 0.328069
0.538064 0.643275 0.317845
0.528084 0.643946 0.308446
0.532967 0.646479 0.312993
0.520577 0.646204 0.315618
0.484764 0.640009 0.308049
0.440513 0.625971 0.292546
0.424598 0.613733 0.284001
0.457664 0.614221 0.293248
0.545113 0.623529 0.322332
0.649897 0.609186 0.350652
0.709194 0.617792 0.371923
0.715785 0.593484 0.367132
0.700008 0.531563 0.324697
0.704555 0.512306 0.314900
0.712001 0.506325 0.315267
0.721553 0.505043 0.319860
0.633936 0.697993 0.377172
0.624659 0.693477 0.369879
0.612238 0.691157 0.358465
0.609369 0.689174 0.357641
0.597711 0.685603 0.356786
0.569284 0.679042 0.348638
0.522347 0.667567 0.332738
0.482063 0.654475 0.316716
0.481788 0.647822 0.314244
0.527276 0.650538 0.328832
0.603082 0.656733 0.354955
0.679500 0.645991 0.373785
0.735073 0.659663 0.388312
0.741176 0.639948 0.384009
0.744747 0.616205 0.379278
0.754147 0.605341 0.378454
0.753292 0.586633 0.372961
0.684657 0.731289 0.400305
0.679713 0.728145 0.398962
0.673030 0.724483 0.397498
0.665553 0.720485 0.393988
0.652308 0.715602 0.389715
0.631189 0.709743 0.382605
0.598642 0.702022 0.370550
0.559411 0.692500 0.355261
0.538293 0.684962 0.346197
0.558923 0.683619 0.352636
0.604578 0.687037 0.368994
0.655451 0.691676 0.380591
0.710567 0.687831 0.389746
0.749477 0.686366 0.401770
0.767941 0.671962 0.402625
0.779568 0.658412 0.401495
0.781735 0.643336 0.397223
0.720150 0.756222 0.412848
0.717800 0.754604 0.412085
0.714382 0.752224 0.410986
0.708858 0.748928 0.408972
0.698024 0.744656 0.405127
0.680537 0.739284 0.399359
0.657099 0.732265 0.392523
0.627985 0.724758 0.384710
0.603845 0.718013 0.378271
0.607172 0.716060 0.377630
0.635157 0.718379 0.382544
0.672908 0.721553 0.390021
0.711818 0.723323 0.402014
0.750668 0.717647 0.412512
0.779721 0.710292 0.422553
0.794156 0.700526 0.424170
0.798306 0.688655 0.421546
0.742611 0.771572 0.423682
0.741451 0.770901 0.423102
0.740261 0.770169 0.422461
0.738430 0.769070 0.421546
0.733883 0.767239 0.419715
0.722927 0.764126 0.415808
0.703334 0.759579 0.408911
0.678279 0.753811 0.400854
0.654292 0.747463 0.394202
0.648585 0.744167 0.391394
0.665919 0.744595 0.394598
0.696010 0.746426 0.405035
0.729152 0.748104 0.416205
0.759640 0.745235 0.430762
0.788113 0.737484 0.440467
0.803098 0.731655 0.444526
0.807523 0.722347 0.444434
0.764523 0.785733 0.435676
0.763241 0.784909 0.434974
0.762325 0.784237 0.434424
0.761746 0.783841 0.434089
0.759884 0.783017 0.433356
0.752895 0.781094 0.430976
0.739010 0.777768 0.426154
0.718471 0.773007 0.418677
0.694057 0.767941 0.409888
0.682490 0.765042 0.405982
0.693538 0.765042 0.410254
0.718624 0.766690 0.420783
0.747250 0.767727 0.437263
0.774655 0.767117 0.450233
0.797696 0.762081 0.457649
0.809903 0.756710 0.464088
0.812253 0.747890 0.468605
0.782132 0.797482 0.449561
0.781460 0.797055 0.449012
0.779904 0.796109 0.447822
0.778714 0.795407 0.446906
0.778012 0.795254 0.446601
0.775509 0.794827 0.446021
0.767056 0.793057 0.443397
0.749172 0.789487 0.435981
0.728023 0.785061 0.426429
0.713741 0.781826 0.421485
0.718990 0.781338 0.426123
0.738888 0.782315 0.440131
0.766415 0.783810 0.456123
0.791379 0.783566 0.471382
0.807858 0.779812 0.477882
0.815183 0.774838 0.481117
0.815122 0.765438 0.485664
0.014862 0.017609 0.040406
0.057618 0.022400 0.066560
0.084688 0.014191 0.062684
0.093446 0.011597 0.048859
0.092500 0.010925 0.027955
0.086366 0.010407 0.015106
0.089662 0.010712 0.011444
0.107851 0.011872 0.011933
0.124483 0.013123 0.013123
0.136141 0.014191 0.014191
0.146700 0.015076 0.015076
0.160098 0.016388 0.016388
0.193515 0.019776 0.019776
0.249027 0.025483 0.025483
0.295476 0.030182 0.030182
0.322332 0.032959 0.032959
0.346593 0.035462 0.035462
0.040955 0.094789 0.089387
0.071992 0.074189 0.076112
0.096406 0.040406 0.057252
0.095338 0.023499 0.037232
0.102205 0.015442 0.020600
0.113710 0.013245 0.013611
0.123690 0.013153 0.013153
0.127382 0.013428 0.013428
0.137484 0.014313 0.014313
0.151614 0.015564 0.015564
0.165713 0.016876 0.016876
0.180789 0.018433 0.018433
0.200839 0.020508 0.020508
0.237278 0.024292 0.024292
0.287602 0.029389 0.029389
0.327977 0.033570 0.033570
0.353216 0.036164 0.036133
0.054963 0.137484 0.071443
0.073091 0.131106 0.058869
0.106569 0.131197 0.063203
0.142885 0.103059 0.053223
0.160739 0.077180 0.037659
0.172671 0.048341 0.025483
0.179080 0.028962 0.021057
0.187259 0.023102 0.020172
0.195773 0.022400 0.020630
0.201083 0.021881 0.020874
0.205966 0.021454 0.021149
0.215427 0.022095 0.022065
0.232242 0.023774 0.023774
0.261143 0.026703 0.026703
0.305486 0.031373 0.031250
0.362982 0.040009 0.037842
0.379919 0.041718 0.039582
0.074189 0.173373 0.064820
0.094728 0.167391 0.067201
0.109468 0.170687 0.068818
0.133150 0.173770 0.073854
0.193637 0.156985 0.074311
0.238590 0.133913 0.054597
0.265202 0.112306 0.048951
0.274632 0.089601 0.043885
0.281376 0.074128 0.040375
0.279942 0.057435 0.035981
0.268070 0.039399 0.030457
0.260349 0.030213 0.027558
0.265751 0.028229 0.027436
0.284062 0.029511 0.029145
0.323064 0.034760 0.033478
0.375250 0.043549 0.039673
0.388495 0.043824 0.040742
0.098665 0.219852 0.079896
0.112428 0.212161 0.081178
0.129549 0.218601 0.085481
0.143160 0.226566 0.090059
0.173465 0.232792 0.099367
0.254917 0.226261 0.108675
0.318639 0.205905 0.091585
0.368170 0.185428 0.075471
0.371496 0.162631 0.069886
0.360189 0.136446 0.062318
0.358953 0.105135 0.054200
0.347509 0.074861 0.045594
0.334661 0.053498 0.039124
0.338689 0.046265 0.037598
0.388708 0.061006 0.045228
0.456977 0.091249 0.058137
0.454963 0.078676 0.054719
0.138491 0.273594 0.106752
0.143832 0.265538 0.104707
0.162264 0.274968 0.109957
0.173556 0.285832 0.115816
0.179355 0.293065 0.120943
0.231266 0.300053 0.136599
0.331304 0.303563 0.151736
0.405264 0.278202 0.134890
0.466072 0.247898 0.101778
0.468360 0.220264 0.091981
0.440818 0.181506 0.079957
0.438331 0.147814 0.071138
0.430274 0.119142 0.063203
0.425422 0.099031 0.057710
0.456428 0.107088 0.062104
0.521050 0.148074 0.077516
0.527062 0.144900 0.077180
0.208591 0.345708 0.144656
0.199283 0.329961 0.138125
0.212802 0.338354 0.141054
0.219272 0.350042 0.145846
0.217075 0.357855 0.150027
0.231357 0.366644 0.158602
0.299367 0.374701 0.177798
0.411429 0.380316 0.195834
0.487388 0.346136 0.177310
0.535485 0.308766 0.140124
0.553155 0.273060 0.111971
0.526619 0.229419 0.098756
0.506203 0.190509 0.087282
0.494835 0.159136 0.078370
0.500023 0.146334 0.075502
0.540612 0.172763 0.085359
0.568780 0.197421 0.093782
0.290852 0.427420 0.188235
0.278706 0.412680 0.181796
0.281727 0.413565 0.181125
0.281285 0.421134 0.182376
0.268315 0.425498 0.183078
0.266392 0.432822 0.186740
0.296498 0.443015 0.198062
0.381857 0.453788 0.220981
0.496239 0.452583 0.239628
0.558526 0.415885 0.223865
0.590356 0.373281 0.190173
0.614984 0.327382 0.142901
0.606226 0.279530 0.117647
0.568093 0.227619 0.101442
0.540322 0.189502 0.089631
0.563928 0.202823 0.094789
0.628290 0.252781 0.112520
0.371878 0.510964 0.232517
0.365286 0.503609 0.228641
0.362203 0.499931 0.227085
0.355703 0.503731 0.226627
0.338521 0.506355 0.225040
0.319234 0.506966 0.221897
0.331106 0.513313 0.227176
0.379904 0.523079 0.242069
0.490074 0.537026 0.274907
0.582986 0.524636 0.289494
0.621454 0.483848 0.273365
0.637507 0.431449 0.238849
0.644770 0.373953 0.189563
0.648615 0.311849 0.134966
0.616342 0.255543 0.112306
0.630365 0.259846 0.114473
0.673182 0.325826 0.157610
0.457053 0.586404 0.277073
0.451438 0.585031 0.271916
0.448753 0.582956 0.271275
0.441581 0.582712 0.271397
0.423392 0.582254 0.269596
0.394766 0.578958 0.263005
0.382574 0.576501 0.259892
0.413764 0.581048 0.269932
0.481010 0.590478 0.291752
0.596994 0.601190 0.330602
0.650721 0.581292 0.337896
0.671626 0.541848 0.321508
0.673762 0.478004 0.280003
0.667720 0.411963 0.228977
0.664057 0.356588 0.180499
0.669764 0.355734 0.183124
0.692500 0.415946 0.244709
0.554360 0.650355 0.328069
0.544137 0.650172 0.316442
0.540780 0.651514 0.314641
0.537606 0.650782 0.314916
0.521340 0.646204 0.312535
0.485466 0.638849 0.305211
0.452064 0.630030 0.296330
0.455604 0.625696 0.297581
0.500313 0.628321 0.312230
0.581613 0.639429 0.341558
0.667018 0.641962 0.369665
0.704402 0.624353 0.372503
0.711482 0.586297 0.362127
0.703273 0.531563 0.327031
0.697108 0.481407 0.290791
0.703273 0.476555 0.290578
0.722164 0.511452 0.324025
0.635187 0.699916 0.375952
0.627100 0.698512 0.367163
0.621881 0.701686 0.361242
0.619287 0.703456 0.359503
0.612009 0.697780 0.355291
0.580179 0.687099 0.347509
0.533608 0.673854 0.335210
0.507256 0.662654 0.326574
0.522301 0.657252 0.330388
0.573175 0.661036 0.347723
0.646540 0.674739 0.374365
0.715145 0.675502 0.387396
0.745907 0.656825 0.390631
0.746670 0.625147 0.381903
0.740566 0.601678 0.374609
0.744808 0.590280 0.372381
0.756466 0.594110 0.375769
0.685206 0.731624 0.401862
0.680659 0.729458 0.400916
0.677119 0.730861 0.397284
0.673487 0.732357 0.395605
0.665400 0.726345 0.390814
0.643061 0.717922 0.382239
0.607263 0.708034 0.371099
0.570275 0.697597 0.358953
0.557916 0.689418 0.353735
0.580743 0.687282 0.360815
0.628168 0.693507 0.375860
0.685237 0.705379 0.388891
0.739071 0.704585 0.404486
0.763882 0.683955 0.405310
0.770474 0.668421 0.402106
0.777584 0.659205 0.401099
0.783322 0.649927 0.399878
0.719356 0.755764 0.413245
0.717311 0.754452 0.412604
0.714931 0.753353 0.412909
0.711299 0.752224 0.413397
0.701961 0.747158 0.409613
0.684291 0.740719 0.402838
0.659937 0.733364 0.394781
0.630793 0.725429 0.386175
0.606073 0.718318 0.379126
0.607874 0.715755 0.377966
0.634638 0.718044 0.382544
0.672633 0.722499 0.390173
0.713863 0.726497 0.403754
0.752773 0.722408 0.415534
0.777066 0.710628 0.421820
0.791653 0.702602 0.423774
0.797971 0.692592 0.422889
0.740749 0.770535 0.422644
0.740291 0.770230 0.422431
0.739498 0.769741 0.421973
0.737850 0.768734 0.420996
0.733364 0.766751 0.419135
0.722683 0.763577 0.415320
0.703914 0.758999 0.408728
0.679683 0.753201 0.401221
0.654078 0.746303 0.394202
0.643427 0.741909 0.390326
0.655756 0.741665 0.391485
0.683589 0.743496 0.400031
0.716365 0.745571 0.411261
0.747677 0.745083 0.424750
0.777096 0.737362 0.435645
0.798642 0.731594 0.441993
0.806790 0.724483 0.443153
0.762203 0.784176 0.434333
0.761654 0.783780 0.433997
0.761257 0.783536 0.433783
0.760891 0.783261 0.433600
0.759152 0.782498 0.432898
0.752834 0.780392 0.430579
0.739895 0.776974 0.426001
0.720577 0.772274 0.418921
0.695064 0.766751 0.409613
0.676692 0.762753 0.403113
0.680964 0.761715 0.404822
0.701991 0.762783 0.412482
0.729854 0.764065 0.425971
0.758755 0.764828 0.441260
0.783658 0.760952 0.450477
0.804593 0.755550 0.457862
0.812222 0.749844 0.463752
0.779690 0.795987 0.447608
0.778836 0.795499 0.446998
0.778134 0.795132 0.446448
0.777951 0.795010 0.446296
0.778042 0.795132 0.446448
0.776455 0.794858 0.446082
0.769406 0.793118 0.443793
0.752590 0.789364 0.436866
0.730800 0.784298 0.426886
0.710475 0.779293 0.419226
0.706722 0.777157 0.418158
0.721584 0.777310 0.427314
0.744686 0.778103 0.441718
0.772396 0.779019 0.456672
0.795590 0.776547 0.468391
0.809628 0.772580 0.474434
0.815122 0.767239 0.480629
0.006439 0.006775 0.043854
0.039063 0.010773 0.081025
0.080995 0.013397 0.096162
0.098024 0.013184 0.094087
0.107790 0.013733 0.088197
0.112459 0.013764 0.074372
0.111818 0.013001 0.050690
0.109621 0.012268 0.026978
0.116793 0.012543 0.016327
0.126101 0.013306 0.014221
0.136141 0.014191 0.014313
0.149844 0.015381 0.015381
0.170840 0.017426 0.017426
0.210239 0.021515 0.021515
0.266545 0.027253 0.027253
0.306645 0.031342 0.031342
0.332891 0.034058 0.034058
0.019593 0.045197 0.083009
0.041260 0.025940 0.086488
0.101198 0.028412 0.104555
0.129366 0.018921 0.103853
0.141878 0.017365 0.095369
0.145663 0.016907 0.074586
0.137270 0.015137 0.042725
0.126894 0.013550 0.020508
0.127901 0.013489 0.014771
0.137606 0.014313 0.014527
0.152255 0.015625 0.015625
0.169741 0.017304 0.017304
0.190585 0.019471 0.019471
0.219394 0.022461 0.022461
0.264530 0.027070 0.027070
0.305760 0.031250 0.031250
0.338201 0.034607 0.034607
0.050080 0.152895 0.144228
0.067872 0.135531 0.136477
0.104646 0.109560 0.126314
0.170932 0.078096 0.107881
0.175937 0.054780 0.082887
0.185519 0.033295 0.054810
0.192538 0.021668 0.027283
0.190616 0.019715 0.019532
0.190036 0.020478 0.019684
0.196292 0.020630 0.020203
0.200320 0.020661 0.020508
0.205997 0.021088 0.021057
0.217227 0.022217 0.022217
0.238224 0.024384 0.024384
0.271672 0.027771 0.027771
0.327001 0.033661 0.033509
0.372351 0.039185 0.038361
0.069184 0.196750 0.132509
0.079835 0.181369 0.116670
0.093660 0.171633 0.089418
0.149111 0.176059 0.091127
0.211765 0.153353 0.093202
0.252445 0.136355 0.077363
0.291173 0.115389 0.053895
0.306981 0.094881 0.047639
0.309606 0.078767 0.043702
0.304143 0.066529 0.040162
0.296544 0.052522 0.036011
0.283391 0.038361 0.031373
0.274479 0.030610 0.028687
0.278416 0.028870 0.028565
0.303014 0.031373 0.031067
0.402350 0.060334 0.046082
0.489540 0.113863 0.066407
0.092287 0.240055 0.118959
0.096193 0.227848 0.100893
0.127382 0.218753 0.097627
0.159792 0.226780 0.105623
0.200565 0.234897 0.112367
0.274876 0.221714 0.114015
0.331823 0.200351 0.097444
0.383673 0.178683 0.075257
0.405097 0.160433 0.071870
0.398444 0.140658 0.066285
0.398596 0.120699 0.061189
0.390753 0.097261 0.054597
0.366445 0.068116 0.045289
0.341680 0.046082 0.037781
0.343145 0.039887 0.036347
0.404517 0.060853 0.046387
0.485328 0.109285 0.064912
0.129061 0.293980 0.118990
0.139376 0.284245 0.117922
0.165042 0.275700 0.120882
0.190768 0.286229 0.124849
0.209445 0.296330 0.128176
0.258396 0.308080 0.140230
0.349645 0.300938 0.148287
0.419455 0.273564 0.131655
0.481514 0.241093 0.100526
0.479438 0.209216 0.089998
0.455589 0.177203 0.079957
0.464302 0.157626 0.075624
0.462776 0.137850 0.070466
0.441901 0.107454 0.061097
0.427192 0.085756 0.054475
0.458228 0.099245 0.060273
0.522972 0.143771 0.076570
0.200320 0.360708 0.147463
0.198398 0.353887 0.145693
0.211551 0.343542 0.147066
0.234562 0.354406 0.151583
0.248417 0.366583 0.154818
0.265202 0.375616 0.161288
0.331106 0.388037 0.181186
0.436393 0.385107 0.194247
0.510109 0.347448 0.173892
0.553857 0.295552 0.126146
0.539925 0.248188 0.104616
0.518868 0.217731 0.095155
0.523476 0.202014 0.091524
0.515206 0.177081 0.084535
0.503334 0.151492 0.077089
0.517052 0.151614 0.078157
0.558129 0.186618 0.090211
0.286885 0.445823 0.188113
0.278584 0.435996 0.183566
0.277821 0.423850 0.182437
0.295979 0.429618 0.187961
0.307912 0.444236 0.190951
0.310430 0.451591 0.193393
0.333455 0.456443 0.203708
0.420371 0.472190 0.231144
0.527382 0.464698 0.245151
0.575311 0.414603 0.218952
0.599390 0.353445 0.168231
0.616754 0.310414 0.129137
0.618311 0.288777 0.120912
0.604654 0.258595 0.112184
0.581277 0.224018 0.101564
0.575021 0.212299 0.098085
0.603937 0.236912 0.106600
0.373648 0.533333 0.232029
0.366903 0.525734 0.228031
0.361257 0.515175 0.225162
0.371054 0.514046 0.229465
0.379904 0.526986 0.234257
0.371496 0.532204 0.232303
0.372427 0.530007 0.235019
0.406516 0.530938 0.247929
0.519631 0.550927 0.285801
0.597284 0.536660 0.296025
0.627161 0.487724 0.273457
0.640192 0.432700 0.237232
0.649042 0.393240 0.206531
0.654780 0.354391 0.173266
0.657710 0.309163 0.136126
0.652827 0.285084 0.123400
0.667292 0.296010 0.130648
0.453819 0.600214 0.271702
0.451621 0.599756 0.271061
0.447623 0.593820 0.268009
0.449424 0.589395 0.268925
0.448951 0.593347 0.271397
0.434455 0.594934 0.268742
0.419684 0.590936 0.266484
0.437720 0.589014 0.275273
0.492119 0.593469 0.295842
0.604074 0.609949 0.336675
0.652338 0.592248 0.342992
0.673732 0.557961 0.330709
0.680537 0.510750 0.303029
0.678676 0.457023 0.266682
0.673671 0.402182 0.223713
0.672572 0.364553 0.192569
0.678004 0.365927 0.199359
0.542763 0.656245 0.315007
0.534859 0.659632 0.318090
0.539101 0.656153 0.311803
0.536873 0.651667 0.310216
0.529274 0.648585 0.308568
0.505180 0.644892 0.303288
0.479286 0.639490 0.298589
0.485573 0.636896 0.305486
0.531487 0.640375 0.325475
0.596994 0.648249 0.351354
0.668696 0.652888 0.372930
0.701045 0.635798 0.374975
0.713619 0.607477 0.370611
0.712306 0.564324 0.349554
0.705196 0.507195 0.311894
0.697719 0.456611 0.275212
0.701350 0.446403 0.270756
0.630793 0.705135 0.365087
0.605493 0.707179 0.367651
0.620813 0.704799 0.356817
0.617761 0.702510 0.353918
0.610468 0.697841 0.349462
0.589029 0.690761 0.342077
0.554620 0.681422 0.333928
0.541772 0.674739 0.335546
0.572076 0.675288 0.350530
0.621317 0.681300 0.371557
0.672480 0.690761 0.382635
0.721218 0.688685 0.393591
0.744656 0.671046 0.394995
0.750332 0.641138 0.386633
0.746700 0.607965 0.377722
0.734859 0.567880 0.361761
0.733089 0.547250 0.349554
0.688350 0.738155 0.402014
0.669917 0.740017 0.400061
0.678462 0.735378 0.397131
0.674495 0.735225 0.392798
0.666041 0.731197 0.385840
0.650446 0.723384 0.376715
0.620539 0.714229 0.368109
0.594476 0.706020 0.362982
0.601099 0.702541 0.369238
0.634119 0.705348 0.380926
0.676661 0.713924 0.389349
0.722377 0.721828 0.404974
0.761074 0.719387 0.417578
0.775692 0.699458 0.414588
0.775998 0.674128 0.405646
0.775692 0.647639 0.396551
0.775113 0.631678 0.391150
0.723110 0.759243 0.420172
0.718685 0.759762 0.418982
0.717220 0.756527 0.418463
0.713039 0.755703 0.415900
0.702541 0.752010 0.410834
0.687678 0.744137 0.404089
0.664729 0.735714 0.395056
0.638148 0.727810 0.386328
0.624720 0.722164 0.383734
0.637140 0.722347 0.386084
0.669306 0.728176 0.391546
0.708949 0.736629 0.405646
0.746029 0.741848 0.421942
0.775570 0.735805 0.433967
0.784543 0.718654 0.429358
0.791257 0.701259 0.422827
0.795834 0.686732 0.418647
0.742977 0.772427 0.424018
0.742458 0.772183 0.423529
0.741085 0.771206 0.422583
0.738521 0.769833 0.422461
0.731106 0.766598 0.421637
0.719966 0.762234 0.417792
0.703365 0.757229 0.411902
0.680385 0.751736 0.404395
0.657862 0.745174 0.397223
0.649500 0.741878 0.393011
0.663722 0.743526 0.394141
0.693416 0.747921 0.404334
0.726436 0.752590 0.416815
0.754757 0.753170 0.432990
0.776913 0.742855 0.438331
0.794553 0.732662 0.440620
0.804776 0.724666 0.441688
0.762295 0.784848 0.433295
0.761746 0.784421 0.433204
0.761440 0.784146 0.433265
0.760708 0.783658 0.433021
0.757321 0.782010 0.431434
0.750942 0.779568 0.428931
0.739193 0.776181 0.424750
0.721096 0.771572 0.418250
0.696376 0.766049 0.409308
0.675929 0.761654 0.402106
0.675837 0.760220 0.402350
0.694331 0.761166 0.409186
0.720546 0.762875 0.419623
0.747829 0.763790 0.435370
0.773159 0.761593 0.446235
0.796902 0.755245 0.453315
0.810269 0.750851 0.459266
0.778134 0.795529 0.444709
0.777646 0.795132 0.444556
0.777462 0.794919 0.444739
0.777676 0.795041 0.445167
0.777768 0.795163 0.445594
0.776211 0.794644 0.445167
0.769436 0.792630 0.442878
0.753353 0.788724 0.436103
0.732113 0.783352 0.426795
0.709529 0.777584 0.418097
0.699458 0.774289 0.414527
0.709133 0.773800 0.418372
0.729824 0.774258 0.431647
0.755337 0.775021 0.445899
0.781003 0.774319 0.458900
0.801389 0.770535 0.466987
0.813291 0.767605 0.474250
0.003693 0.003357 0.047974
0.027222 0.006378 0.084932
0.062257 0.010193 0.102296
0.084169 0.012116 0.106874
0.101045 0.013825 0.112306
0.112062 0.014923 0.113161
0.120119 0.015473 0.106722
0.128969 0.015869 0.091554
0.137057 0.015961 0.070771
0.142519 0.015656 0.045991
0.140688 0.014801 0.024475
0.143679 0.014832 0.016663
0.157504 0.016144 0.016419
