tools/luts_backup/Kodak Ultramax 400_CIN.cube
# (C) 2014 VisionColor & Patchflyer [www.vision-color.com]
# Generator: VC Patchmatch v.2.1.1 [64/53]
# All work and no play makes Jack a dull boy.
# LUT generated from: Kodak Ultramax 400_Cineon
LUT_3D_SIZE 17
0.082368 0.090181 0.082368
0.110842 0.083070 0.089998
0.149783 0.083406 0.091035
0.187320 0.086915 0.088930
0.227268 0.089662 0.092897
0.270726 0.092744 0.101045
0.308843 0.094270 0.105684
0.343389 0.098177 0.114199
0.380133 0.101686 0.124971
0.413214 0.101961 0.129183
0.440681 0.103517 0.130434
0.467872 0.105745 0.134371
0.492805 0.106538 0.139620
0.512963 0.108492 0.143709
0.533532 0.110292 0.150790
0.557305 0.113161 0.156558
0.580377 0.113710 0.160769
0.101686 0.125795 0.088472
0.132479 0.113436 0.083955
0.175357 0.118868 0.092470
0.214572 0.125032 0.091249
0.259739 0.136965 0.098299
0.301427 0.142061 0.103304
0.337865 0.145083 0.107759
0.371435 0.151919 0.113436
0.403662 0.156924 0.119356
0.431617 0.157626 0.125368
0.455879 0.160006 0.131411
0.479683 0.161654 0.135805
0.502922 0.159274 0.140139
0.525719 0.154299 0.145357
0.547845 0.144900 0.152956
0.568292 0.136446 0.156802
0.589380 0.122133 0.157839
0.119997 0.163363 0.086824
0.157107 0.163912 0.086519
0.203525 0.167452 0.089296
0.246952 0.173831 0.093538
0.290623 0.186679 0.095399
0.334325 0.197879 0.103334
0.371130 0.206638 0.110292
0.402167 0.214084 0.115084
0.430304 0.218631 0.117647
0.454536 0.217472 0.120607
0.476539 0.219181 0.127901
0.498817 0.222110 0.135409
0.519402 0.217502 0.139803
0.539666 0.209964 0.144503
0.561395 0.199039 0.152834
0.581323 0.181277 0.158175
0.603754 0.152560 0.162509
0.136294 0.194339 0.087678
0.179873 0.206516 0.089387
0.229068 0.216983 0.090547
0.275914 0.227604 0.093385
0.315953 0.237980 0.094484
0.358862 0.250187 0.100832
0.395636 0.261448 0.109560
0.424933 0.270604 0.114687
0.450935 0.278172 0.118349
0.474647 0.280095 0.122896
0.495338 0.276921 0.128359
0.514275 0.274754 0.134524
0.532616 0.270878 0.139467
0.552911 0.266484 0.144533
0.573816 0.258366 0.151461
0.594385 0.246128 0.159670
0.614832 0.224399 0.161410
0.170413 0.236881 0.091066
0.212772 0.251774 0.091615
0.259281 0.269444 0.093294
0.301640 0.278538 0.094057
0.340826 0.285710 0.097566
0.379248 0.297917 0.100008
0.414771 0.307256 0.107393
0.443793 0.317601 0.115724
0.470069 0.326604 0.120302
0.492958 0.332555 0.125551
0.511467 0.330541 0.129824
0.528771 0.326543 0.134249
0.546197 0.323857 0.140108
0.566278 0.322850 0.146700
0.586725 0.317998 0.154330
0.605188 0.313756 0.161807
0.620447 0.300664 0.160769
0.227512 0.294804 0.093782
0.258732 0.305333 0.094026
0.293126 0.320775 0.095796
0.330938 0.333837 0.099947
0.367224 0.340307 0.103151
0.398199 0.342687 0.106172
0.433173 0.352728 0.108522
0.464149 0.362646 0.115816
0.488472 0.369451 0.121370
0.509178 0.375647 0.124117
0.526665 0.377417 0.127230
0.543297 0.374212 0.130526
0.560204 0.371588 0.137484
0.578119 0.371252 0.146548
0.597742 0.369543 0.157412
0.614008 0.364263 0.164675
0.622858 0.353552 0.160586
0.288304 0.353063 0.098817
0.308690 0.360998 0.102571
0.334997 0.372595 0.103426
0.360815 0.382971 0.106844
0.392309 0.390631 0.111086
0.419745 0.390997 0.111696
0.447333 0.394965 0.116091
0.479438 0.405310 0.117678
0.503136 0.412726 0.121157
0.522484 0.416022 0.123629
0.540185 0.419837 0.124422
0.556237 0.417975 0.126284
0.571069 0.413611 0.131441
0.586480 0.409857 0.139681
0.604517 0.408240 0.150973
0.618036 0.401038 0.159243
0.623499 0.385016 0.157229
0.336492 0.399725 0.101991
0.348943 0.407355 0.108675
0.370123 0.416846 0.111818
0.390234 0.426368 0.114992
0.413520 0.431403 0.117769
0.437659 0.434180 0.118776
0.464363 0.434699 0.120455
0.487831 0.441138 0.123018
0.512840 0.448768 0.122011
0.529931 0.452552 0.120302
0.549004 0.457374 0.122347
0.566247 0.457191 0.122744
0.579950 0.451118 0.125216
0.592889 0.444556 0.129763
0.607385 0.437598 0.137118
0.618830 0.430182 0.143893
0.623438 0.414374 0.149630
0.372290 0.435157 0.103914
0.380804 0.443030 0.111696
0.395605 0.451209 0.118257
0.412146 0.459724 0.123995
0.431189 0.464912 0.127565
0.454353 0.468421 0.128054
0.478676 0.471504 0.127443
0.500053 0.473426 0.124208
0.519707 0.480385 0.125368
0.538659 0.483864 0.121920
0.555413 0.485878 0.117159
0.573602 0.487984 0.117525
0.587427 0.483009 0.117861
0.598810 0.475990 0.120699
0.608148 0.465766 0.126040
0.616876 0.456153 0.129671
0.619562 0.441047 0.135409
0.398169 0.462684 0.105837
0.403967 0.472267 0.115572
0.414374 0.480079 0.123903
0.429755 0.486244 0.130648
0.447089 0.491859 0.134829
0.468391 0.495766 0.135134
0.490364 0.497993 0.130861
0.510246 0.501091 0.126528
0.526024 0.504082 0.122164
0.545190 0.509453 0.123598
0.562707 0.511589 0.120455
0.580163 0.511284 0.114687
0.594385 0.508263 0.113771
0.602808 0.502678 0.114076
0.609979 0.493599 0.117952
0.615045 0.484108 0.120516
0.615717 0.465675 0.123201
0.416571 0.485756 0.105867
0.420325 0.495125 0.115480
0.426581 0.503227 0.124025
0.442054 0.509331 0.132082
0.460548 0.513756 0.134218
0.478706 0.516686 0.133974
0.498329 0.518212 0.128359
0.515557 0.519799 0.122377
0.534600 0.523369 0.119997
0.550835 0.527306 0.118318
0.568078 0.530266 0.118532
0.584070 0.530205 0.116823
0.599817 0.528527 0.113832
0.606195 0.522148 0.113710
0.612543 0.516808 0.113832
0.615259 0.507927 0.114046
0.615656 0.489906 0.117647
0.428870 0.506950 0.107240
0.433783 0.513512 0.114595
0.438788 0.520806 0.120851
0.451942 0.528161 0.127535
0.470527 0.532036 0.130007
0.487404 0.533776 0.128511
0.503777 0.534478 0.124208
0.521538 0.537224 0.118105
0.540581 0.539361 0.116396
0.559228 0.542687 0.115755
0.575067 0.546410 0.113985
0.589319 0.546715 0.113985
0.602228 0.544854 0.113863
0.609339 0.538506 0.113710
0.614588 0.534051 0.113710
0.615595 0.527428 0.113710
0.615656 0.510643 0.113924
0.431739 0.527123 0.109651
0.438453 0.532250 0.115328
0.447547 0.538720 0.120363
0.460548 0.544640 0.122377
0.477028 0.548241 0.124086
0.496040 0.550713 0.123445
0.511803 0.551446 0.119600
0.528679 0.554223 0.115389
0.547478 0.556695 0.113252
0.565332 0.557824 0.113863
0.580743 0.560327 0.113771
0.594018 0.561059 0.113710
0.605798 0.559472 0.113710
0.611322 0.557000 0.113710
0.615351 0.551049 0.113710
0.615656 0.547021 0.113710
0.615656 0.535698 0.113710
0.428595 0.549096 0.110719
0.437171 0.552636 0.112551
0.447822 0.558282 0.116243
0.463722 0.562097 0.118257
0.480140 0.564691 0.119203
0.499306 0.567224 0.119783
0.518639 0.568597 0.117433
0.536828 0.570703 0.114504
0.554498 0.572534 0.113649
0.570123 0.572931 0.113710
0.586236 0.573114 0.113710
0.598260 0.572442 0.113710
0.605524 0.569696 0.113710
0.614008 0.570550 0.113710
0.615473 0.567987 0.113710
0.615656 0.565087 0.113710
0.615656 0.559991 0.113710
0.425391 0.571313 0.113558
0.436316 0.572686 0.113619
0.444373 0.576410 0.113771
0.460487 0.579736 0.113893
0.482155 0.582422 0.113954
0.501030 0.583764 0.113985
0.519341 0.584344 0.114015
0.539635 0.585931 0.113771
0.559045 0.587671 0.113710
0.572320 0.587671 0.113710
0.584863 0.586694 0.113710
0.598474 0.583246 0.113710
0.603723 0.581140 0.113710
0.611292 0.580774 0.113710
0.615595 0.581384 0.113710
0.615656 0.580530 0.113710
0.615656 0.579522 0.113710
0.416358 0.587823 0.113710
0.429114 0.588067 0.113710
0.442695 0.593713 0.113710
0.457191 0.596368 0.113710
0.479347 0.598260 0.113710
0.500542 0.598810 0.113710
0.517418 0.599359 0.113710
0.533959 0.599756 0.113710
0.553796 0.599817 0.113710
0.571466 0.599573 0.113710
0.582849 0.599695 0.113710
0.591730 0.598321 0.113710
0.599908 0.594446 0.113710
0.607263 0.592157 0.113710
0.611963 0.591852 0.113710
0.615656 0.594598 0.113710
0.615656 0.591546 0.113710
0.380377 0.600000 0.113710
0.404456 0.600549 0.113710
0.429664 0.603357 0.113710
0.448707 0.604089 0.113710
0.471931 0.606683 0.113710
0.496010 0.607813 0.113710
0.512413 0.607813 0.113710
0.528191 0.607813 0.113710
0.549004 0.607691 0.113710
0.564904 0.605951 0.113710
0.574548 0.603998 0.113710
0.584924 0.603906 0.113710
0.593530 0.603906 0.113710
0.600305 0.602075 0.113710
0.608087 0.596979 0.113710
0.611994 0.599878 0.113710
0.615656 0.600000 0.113710
0.082948 0.083619 0.129946
0.109560 0.089631 0.136538
0.145510 0.084016 0.137881
0.190982 0.087007 0.141817
0.235447 0.091035 0.146456
0.278630 0.093355 0.155306
0.316808 0.094301 0.160342
0.351202 0.098207 0.168978
0.382025 0.101686 0.177951
0.409918 0.101961 0.180728
0.437018 0.103456 0.185183
0.463539 0.105715 0.192569
0.487831 0.105867 0.197482
0.509850 0.106935 0.201755
0.533318 0.110231 0.207156
0.556848 0.113161 0.212863
0.576654 0.113710 0.214267
0.097078 0.123232 0.133028
0.134676 0.134646 0.141024
0.185458 0.106783 0.111513
0.227268 0.093629 0.099397
0.268223 0.093416 0.100496
0.305608 0.094240 0.104952
0.340917 0.097871 0.112551
0.376684 0.100801 0.118990
0.410803 0.102144 0.124269
0.440650 0.103792 0.130892
0.466529 0.105531 0.135348
0.490120 0.106050 0.136965
0.512261 0.107393 0.143130
0.534813 0.110292 0.151308
0.558770 0.113313 0.157687
0.576959 0.119692 0.170077
0.584588 0.146731 0.215549
0.119936 0.176516 0.137270
0.149325 0.192416 0.107210
0.248508 0.209995 0.111910
0.288975 0.188571 0.099672
0.322637 0.179141 0.103517
0.354376 0.175631 0.109834
0.383673 0.175784 0.113161
0.410498 0.175906 0.118196
0.435920 0.174594 0.122164
0.461067 0.174350 0.128267
0.484199 0.173861 0.135927
0.505943 0.169497 0.140139
0.528344 0.161501 0.145907
0.549187 0.151278 0.153140
0.568872 0.140749 0.158053
0.587579 0.134829 0.167422
0.599115 0.177798 0.214725
0.147494 0.220035 0.138369
0.173953 0.238132 0.094545
0.255924 0.267124 0.097047
0.334936 0.282139 0.101198
0.363287 0.263249 0.101961
0.392523 0.258274 0.108675
0.418982 0.257328 0.114046
0.442329 0.255314 0.118898
0.463691 0.250889 0.123476
0.484108 0.245914 0.128389
0.503685 0.242832 0.134615
0.523125 0.238987 0.139590
0.544274 0.230198 0.145571
0.565362 0.216587 0.152682
0.585077 0.200076 0.159243
0.601740 0.190097 0.169619
0.609888 0.245029 0.218631
0.180270 0.264775 0.140566
0.226413 0.293248 0.094331
0.280247 0.314000 0.096406
0.339208 0.333257 0.099916
0.397559 0.341711 0.105074
0.422187 0.328099 0.106233
0.447333 0.325414 0.114260
0.470039 0.325872 0.119448
0.489998 0.322881 0.123476
0.506065 0.315465 0.127810
0.521935 0.307622 0.133791
0.540246 0.302464 0.140261
0.559869 0.297185 0.146792
0.579675 0.290898 0.153933
0.598291 0.278508 0.159945
0.612543 0.269230 0.167178
0.616602 0.310277 0.218814
0.232059 0.316686 0.145388
0.282994 0.348394 0.099214
0.319280 0.364965 0.104768
0.359564 0.380835 0.106172
0.404395 0.390234 0.111177
0.447242 0.394324 0.114321
0.472206 0.386999 0.115755
0.492683 0.383703 0.121218
0.510185 0.381445 0.124117
0.526238 0.376715 0.127138
0.540703 0.368414 0.130465
0.556970 0.361975 0.136934
0.575067 0.357305 0.147189
0.593744 0.353674 0.156802
0.609613 0.346502 0.164126
0.619348 0.338018 0.169223
0.621027 0.359655 0.218296
0.283116 0.365515 0.148653
0.332952 0.397040 0.101564
0.353887 0.407996 0.110628
0.383215 0.423102 0.115175
0.416083 0.430060 0.117922
0.454414 0.436072 0.122835
0.488075 0.443214 0.121706
0.507683 0.433448 0.121187
0.525078 0.430579 0.122927
0.541405 0.426093 0.122896
0.555840 0.419318 0.126131
0.570214 0.411688 0.130861
0.585931 0.406592 0.139986
0.602441 0.399969 0.150942
0.615656 0.391119 0.160861
0.622217 0.382300 0.171267
0.623377 0.395666 0.218540
0.327031 0.405798 0.153140
0.371038 0.434302 0.103944
0.384039 0.444373 0.115053
0.404395 0.456458 0.121950
0.430976 0.464210 0.128542
0.462623 0.469123 0.128664
0.493568 0.474098 0.125399
0.519005 0.482460 0.125917
0.535607 0.473396 0.121981
0.551446 0.469490 0.120943
0.567559 0.464546 0.119722
0.580346 0.455756 0.123873
0.593530 0.446937 0.129519
0.607019 0.438209 0.136965
0.617304 0.425483 0.146304
0.622583 0.415259 0.162875
0.624079 0.425025 0.214389
0.363470 0.442481 0.157900
0.396887 0.461952 0.105470
0.405158 0.473365 0.117189
0.421607 0.483864 0.127596
0.444862 0.491218 0.133272
0.471443 0.495796 0.134310
0.498360 0.499641 0.127230
0.521965 0.503838 0.123232
0.544457 0.509453 0.123964
0.560632 0.504326 0.118013
0.575708 0.499336 0.116701
0.588708 0.493782 0.116060
0.598688 0.482429 0.119020
0.608637 0.472023 0.122469
0.615595 0.458778 0.129732
0.620081 0.445747 0.147982
0.623774 0.452613 0.205112
0.387335 0.471290 0.156985
0.415839 0.485756 0.106142
0.421790 0.495674 0.117433
0.434699 0.505882 0.127596
0.455146 0.511894 0.132967
0.477791 0.515648 0.132387
0.502861 0.519005 0.127687
0.525383 0.521416 0.120943
0.546502 0.526177 0.120485
0.568109 0.528801 0.117891
0.583978 0.525322 0.114473
0.595789 0.519310 0.113832
0.604273 0.511894 0.113802
0.610468 0.502129 0.115084
0.614527 0.489540 0.120455
0.617273 0.473457 0.135744
0.622980 0.476081 0.193423
0.399054 0.490150 0.149081
0.427558 0.507256 0.107729
0.434241 0.514275 0.116793
0.444770 0.524468 0.124269
0.463325 0.529320 0.127657
0.484688 0.532830 0.127718
0.506462 0.536065 0.123629
0.529259 0.538262 0.119234
0.550469 0.540825 0.116365
0.571374 0.545586 0.117189
0.588891 0.545159 0.114504
0.601770 0.541436 0.114199
0.607904 0.533776 0.113710
0.613123 0.527092 0.113954
0.615351 0.515679 0.117189
0.617273 0.499336 0.127840
0.622919 0.499977 0.184817
0.404669 0.507836 0.136477
0.430182 0.527581 0.109651
0.438697 0.532616 0.115633
0.450324 0.541985 0.121798
0.467872 0.546685 0.122377
0.490608 0.549645 0.123507
0.512230 0.552850 0.120760
0.533959 0.555413 0.116670
0.554620 0.556909 0.114931
0.574639 0.558862 0.114229
0.590875 0.560021 0.113863
0.604334 0.559991 0.113832
0.610956 0.554742 0.113771
0.613855 0.546654 0.113832
0.615656 0.538628 0.114961
0.617304 0.524834 0.123262
0.622858 0.523674 0.175967
0.404578 0.526329 0.121828
0.427924 0.549004 0.111208
0.438239 0.552666 0.114900
0.452155 0.559380 0.118441
0.470344 0.564111 0.117769
0.491981 0.566857 0.118532
0.515343 0.568719 0.118318
0.538293 0.571191 0.115511
0.558953 0.572381 0.113741
0.576745 0.572168 0.113771
0.591760 0.571466 0.113741
0.603235 0.570336 0.113710
0.612757 0.571893 0.113710
0.614923 0.566003 0.113771
0.615839 0.560082 0.114900
0.617334 0.552300 0.122652
0.622858 0.545464 0.166323
0.400183 0.546502 0.114290
0.423011 0.570275 0.113252
0.435340 0.572442 0.113680
0.449378 0.576196 0.114290
0.469795 0.579705 0.114595
0.492348 0.582605 0.114595
0.515343 0.584405 0.114656
0.538109 0.585687 0.114107
0.559991 0.587213 0.113832
0.576684 0.586938 0.113863
0.590753 0.585077 0.113832
0.601862 0.582361 0.113771
0.609491 0.580713 0.113771
0.615351 0.581537 0.113771
0.615747 0.578149 0.114656
0.616999 0.574792 0.121798
0.622217 0.567590 0.162448
0.396033 0.568078 0.113802
0.412085 0.587060 0.113710
0.429145 0.588586 0.113741
0.445258 0.592401 0.114107
0.466194 0.595697 0.114443
0.491493 0.596796 0.114748
0.514122 0.597833 0.115023
0.534142 0.598505 0.115053
0.555810 0.598810 0.115114
0.573510 0.598444 0.115114
0.585107 0.597375 0.114961
0.596460 0.594263 0.114900
0.604852 0.590692 0.114504
0.611505 0.591058 0.114412
0.615656 0.593469 0.115328
0.616449 0.590692 0.121126
0.620172 0.584588 0.156710
0.392340 0.584588 0.113710
0.387152 0.598199 0.113802
0.413489 0.599298 0.114107
0.438056 0.602960 0.115877
0.462257 0.605859 0.118532
0.488807 0.607111 0.120943
0.511315 0.607141 0.122652
0.530053 0.607263 0.123629
0.549859 0.607080 0.123903
0.567651 0.605798 0.123903
0.579034 0.604547 0.123537
0.588434 0.604059 0.122896
0.598260 0.602197 0.121401
0.606836 0.599115 0.119448
0.612238 0.599908 0.119539
0.615656 0.602472 0.123720
0.618952 0.598291 0.153903
0.368231 0.600000 0.113710
0.384741 0.600153 0.113985
0.411810 0.601709 0.115358
0.440528 0.607813 0.122835
0.469093 0.610651 0.136934
0.496162 0.612177 0.152804
0.518639 0.611872 0.163973
0.535973 0.611414 0.169650
0.551995 0.611475 0.171603
0.565911 0.611170 0.171725
0.576135 0.610681 0.171084
0.584802 0.609400 0.168826
0.593561 0.607355 0.162997
0.601923 0.606134 0.153872
0.606806 0.603815 0.146639
0.611414 0.606226 0.145174
0.615534 0.604059 0.145480
0.086702 0.086702 0.179660
0.107424 0.087251 0.182406
0.138125 0.087800 0.183169
0.189670 0.087343 0.187320
0.241123 0.091066 0.195712
0.284184 0.093477 0.202304
0.323217 0.094301 0.209873
0.358862 0.098451 0.218906
0.389136 0.101900 0.225528
0.412879 0.101961 0.228305
0.435859 0.102480 0.232029
0.461738 0.104463 0.238437
0.487037 0.105806 0.244968
0.509117 0.106783 0.249241
0.530755 0.110170 0.250797
0.553124 0.113130 0.252232
0.572106 0.113710 0.252659
0.097597 0.129519 0.182589
0.105959 0.106447 0.208743
0.181674 0.106996 0.212070
0.237217 0.094331 0.193545
0.280827 0.093660 0.186160
0.318395 0.095064 0.186282
0.352819 0.098970 0.192142
0.383886 0.101289 0.195285
0.411292 0.102144 0.196597
0.437385 0.103761 0.197299
0.464118 0.105531 0.200443
0.488167 0.106050 0.205325
0.509880 0.107393 0.209018
0.532280 0.110140 0.212131
0.554711 0.113313 0.217472
0.573205 0.119997 0.224552
0.580926 0.151553 0.258640
0.112734 0.178592 0.181308
0.147219 0.218601 0.212131
0.207828 0.199344 0.202640
0.261234 0.162844 0.168673
0.302556 0.129732 0.140017
0.340459 0.109743 0.125216
0.376776 0.102937 0.123415
0.409369 0.102358 0.125551
0.438331 0.103853 0.129671
0.466102 0.105318 0.134371
0.491463 0.106416 0.138735
0.513512 0.107942 0.143435
0.536065 0.110140 0.150088
0.557000 0.113832 0.158480
0.573632 0.123690 0.175662
0.584405 0.151064 0.216312
0.590814 0.202121 0.266789
0.147555 0.238193 0.186007
0.188510 0.282506 0.190646
0.226474 0.267979 0.163638
0.319585 0.286931 0.173251
0.368109 0.257694 0.143984
0.402716 0.234287 0.126284
0.426825 0.216953 0.120241
0.447730 0.205173 0.122255
0.469459 0.199680 0.128847
0.490517 0.195438 0.134401
0.510948 0.187198 0.140169
0.530175 0.176181 0.145357
0.550927 0.163394 0.151369
0.572229 0.150301 0.160342
0.589502 0.150851 0.176699
0.599542 0.191684 0.217472
0.605341 0.264164 0.271641
0.188571 0.285466 0.191379
0.232975 0.328405 0.177951
0.267155 0.329839 0.132845
0.336553 0.353979 0.142824
0.415717 0.368688 0.150210
0.448371 0.343633 0.127810
0.468147 0.323949 0.122805
0.482918 0.306676 0.124117
0.497871 0.291356 0.128267
0.514397 0.279759 0.133669
0.531487 0.268742 0.139773
0.549737 0.257939 0.146456
0.569451 0.244450 0.152926
0.588739 0.228641 0.161105
0.604059 0.226169 0.177707
0.611109 0.264591 0.218296
0.613642 0.325200 0.271183
0.232792 0.334783 0.196658
0.277287 0.368597 0.173526
0.324529 0.389319 0.112612
0.366125 0.408728 0.124453
0.420752 0.422370 0.129397
0.479957 0.434699 0.134401
0.497871 0.407324 0.122469
0.511711 0.389258 0.123812
0.524407 0.374853 0.126009
0.538018 0.359899 0.130953
0.552270 0.346563 0.137942
0.569177 0.336553 0.147372
0.587549 0.327062 0.156435
0.603479 0.316808 0.163668
0.614649 0.313146 0.178561
0.618708 0.333013 0.217075
0.620111 0.372107 0.271519
0.278325 0.378912 0.201083
0.317632 0.405921 0.173281
0.367681 0.431525 0.106661
0.393378 0.448768 0.121614
0.429267 0.460487 0.129397
0.476478 0.469032 0.129885
0.515587 0.477821 0.126711
0.529992 0.454688 0.121889
0.544701 0.441810 0.123018
0.556970 0.427466 0.126192
0.570031 0.412360 0.132937
0.584863 0.400366 0.142061
0.600122 0.390661 0.153292
0.612543 0.380591 0.163333
0.620539 0.374853 0.179171
0.622736 0.383520 0.217472
0.623682 0.407507 0.271855
0.315618 0.414771 0.204166
0.355230 0.440925 0.174868
0.396124 0.461860 0.105562
0.409888 0.477302 0.121706
0.438911 0.488167 0.131594
0.476051 0.494850 0.132845
0.511406 0.500237 0.126070
0.543114 0.507683 0.121859
0.556176 0.491554 0.120180
0.571069 0.480903 0.119600
0.583490 0.464485 0.123140
0.594751 0.449592 0.129702
0.606317 0.436469 0.138979
0.615930 0.424506 0.151125
0.622003 0.414191 0.171511
0.624384 0.418524 0.215457
0.626551 0.437232 0.270573
0.346838 0.444709 0.206271
0.381628 0.467720 0.169863
0.416144 0.485817 0.106111
0.425452 0.499672 0.120089
0.447822 0.509850 0.130861
0.477363 0.515129 0.132113
0.509606 0.519310 0.126040
0.539757 0.523766 0.119631
0.568414 0.529076 0.117769
0.580987 0.519127 0.116915
0.591546 0.506737 0.115816
0.600610 0.491981 0.117861
0.608209 0.476814 0.122988
0.615198 0.461982 0.133364
0.620417 0.449500 0.155581
0.624353 0.449470 0.206302
0.627405 0.463203 0.264652
0.370275 0.472786 0.207279
0.395422 0.488716 0.158297
0.426673 0.506859 0.107729
0.436652 0.518090 0.119051
0.454963 0.527214 0.127718
0.481361 0.532647 0.128450
0.509148 0.536217 0.123476
0.538201 0.539269 0.117556
0.564477 0.542992 0.115908
0.588800 0.545251 0.114839
0.598993 0.535515 0.113863
0.605066 0.523491 0.113741
0.610529 0.510796 0.114473
0.614374 0.495827 0.120882
0.618250 0.482460 0.140414
0.623102 0.478889 0.192813
0.626947 0.486213 0.256077
0.380560 0.494331 0.199557
0.401038 0.508141 0.143221
0.429236 0.527855 0.109773
0.441688 0.535241 0.118013
0.458625 0.544182 0.122469
0.483589 0.548730 0.123598
0.511498 0.552728 0.120180
0.539300 0.555352 0.116152
0.563592 0.556756 0.114260
0.586145 0.559258 0.114687
0.603174 0.559594 0.113863
0.609918 0.548699 0.113710
0.612940 0.537957 0.113985
0.615717 0.526177 0.116884
0.618402 0.511742 0.133028
0.622766 0.506004 0.180850
0.626947 0.508507 0.246769
0.381323 0.509911 0.179965
0.399542 0.526574 0.128634
0.426917 0.548974 0.111574
0.440955 0.553491 0.115389
0.459266 0.561059 0.117830
0.484596 0.564904 0.118318
0.512078 0.568811 0.117617
0.540185 0.571679 0.115145
0.563867 0.572869 0.114015
0.585260 0.572015 0.113863
0.600946 0.571740 0.113832
0.611719 0.572106 0.113710
0.614618 0.562951 0.113954
0.615900 0.553735 0.116884
0.618433 0.540612 0.129824
0.622553 0.531334 0.171939
0.626032 0.531975 0.238407
0.378027 0.525475 0.154513
0.396307 0.545983 0.119203
0.420630 0.569085 0.113100
0.437201 0.572808 0.114107
0.456855 0.577905 0.115297
0.483528 0.580224 0.114870
0.510857 0.583307 0.115785
0.537316 0.586419 0.115084
0.562585 0.587427 0.114199
0.581292 0.587121 0.114107
0.598260 0.582544 0.114015
0.607569 0.580652 0.113863
0.614984 0.583581 0.113924
0.615930 0.575555 0.116182
0.618250 0.568475 0.129427
0.622492 0.556878 0.166140
0.624689 0.552392 0.229526
0.370001 0.543420 0.132113
0.392340 0.566918 0.114229
0.408820 0.585565 0.113649
0.430793 0.588312 0.113924
0.452338 0.592523 0.114870
0.479561 0.594903 0.115694
0.507317 0.596185 0.116793
0.532097 0.597711 0.117006
0.557244 0.598383 0.117250
0.576165 0.598291 0.117617
0.589136 0.595972 0.117067
0.602014 0.590814 0.115999
0.611078 0.590784 0.115511
0.615839 0.594079 0.115755
0.617090 0.586542 0.126558
0.621759 0.579095 0.164340
0.624353 0.568841 0.222538
0.366186 0.565301 0.120790
0.384649 0.584527 0.113863
0.392340 0.597681 0.114229
0.421302 0.599786 0.115419
0.448402 0.602686 0.118929
0.477058 0.605676 0.123995
0.505547 0.606409 0.128420
0.528527 0.606653 0.130220
0.551080 0.606348 0.131319
0.571649 0.605920 0.132479
0.583520 0.605097 0.131868
0.593286 0.602411 0.129030
0.603479 0.599878 0.124880
0.611933 0.599115 0.123293
0.616266 0.600763 0.124056
0.618860 0.593988 0.157687
0.622827 0.582940 0.216495
0.362615 0.583368 0.114229
0.370520 0.597955 0.114107
0.387274 0.602106 0.116976
0.419623 0.605646 0.122377
0.451362 0.609308 0.132357
0.482002 0.611811 0.147768
0.510643 0.611811 0.161349
0.530816 0.611353 0.168307
0.548333 0.611353 0.171664
0.565484 0.610834 0.172763
0.578210 0.609979 0.170779
0.587884 0.608331 0.167056
0.597711 0.606012 0.160189
0.605707 0.603418 0.149722
0.611048 0.603754 0.145937
0.615290 0.604578 0.148623
0.619928 0.597070 0.207095
0.350835 0.600000 0.113710
0.369757 0.601099 0.115419
0.396002 0.606531 0.124941
0.429145 0.609033 0.140047
0.462196 0.611322 0.162570
0.489570 0.611933 0.186526
0.514611 0.612573 0.207095
0.532494 0.612177 0.217960
0.549035 0.613153 0.223972
0.564721 0.613001 0.227146
0.575402 0.611811 0.224887
0.582269 0.610193 0.218845
0.587793 0.606561 0.209506
0.594690 0.603449 0.195132
0.601434 0.600427 0.183108
0.607416 0.603326 0.178195
0.612604 0.605585 0.189822
0.089693 0.089693 0.224155
0.109773 0.089693 0.221592
0.139834 0.089693 0.221408
0.187991 0.089693 0.224643
0.243320 0.091279 0.231937
0.288487 0.093477 0.238041
0.327245 0.094301 0.246921
0.362768 0.098482 0.254765
0.392370 0.101961 0.260960
0.416541 0.101961 0.264134
0.438025 0.102602 0.268040
0.461738 0.104097 0.274846
0.487129 0.105745 0.282597
0.509026 0.106783 0.285832
