tools/luts_backup/Kodak Vision3 500T 5219 (C41)_VS.cube
# (C) 2014 VisionColor & Patchflyer [www.vision-color.com]
# Generator: VC Patchmatch v.2.1.1 [64/53]
# All work and no play makes Jack a dull boy.
# LUT generated from: BMD Film to Kodak Vision3 500T 5219 (C41)_VisionSpace
LUT_3D_SIZE 5
0.050980 0.043137 0.043137
0.176471 0.058824 0.058824
0.352956 0.101961 0.125490
0.396078 0.117647 0.156863
0.400000 0.109804 0.109804
0.109804 0.235294 0.101961
0.223529 0.239216 0.125490
0.384314 0.203922 0.145098
0.474510 0.145098 0.164706
0.470588 0.200000 0.156863
0.184314 0.447074 0.180392
0.243137 0.411765 0.184314
0.439216 0.447059 0.243137
0.556863 0.411780 0.262745
0.568627 0.396078 0.258824
0.290196 0.666667 0.290196
0.313726 0.639216 0.282353
0.478431 0.607843 0.329412
0.607843 0.619608 0.384314
0.650980 0.596078 0.392157
0.305882 0.686275 0.313726
0.305882 0.686275 0.309804
0.505882 0.694118 0.372549
0.627451 0.698039 0.431373
0.705882 0.717647 0.501961
0.074510 0.062745 0.211765
0.168627 0.070588 0.172549
0.372549 0.121569 0.219608
0.392157 0.121569 0.211765
0.400000 0.121569 0.180392
0.105882 0.207843 0.207843
0.243137 0.235294 0.235294
0.498039 0.192157 0.254902
0.447059 0.149020 0.231373
0.552941 0.203922 0.192157
0.192157 0.450996 0.184314
0.235294 0.415702 0.184314
0.435309 0.439231 0.239216
0.576471 0.423529 0.274510
0.588235 0.403922 0.270588
0.294118 0.662745 0.305882
0.294118 0.647059 0.282353
0.490196 0.615686 0.337255
0.615686 0.623529 0.392157
0.658824 0.600000 0.396078
0.333333 0.682353 0.403922
0.333333 0.694118 0.384314
0.474525 0.717647 0.368627
0.643137 0.713726 0.447059
0.729412 0.729412 0.525490
0.101961 0.078431 0.337255
0.113725 0.086275 0.352941
0.364706 0.137255 0.333333
0.392157 0.141176 0.313726
0.392157 0.137255 0.298039
0.105882 0.094118 0.372549
0.129412 0.098039 0.376471
0.364706 0.137255 0.333333
0.431373 0.164706 0.341176
0.549020 0.247059 0.392157
0.207843 0.396094 0.403937
0.215686 0.415686 0.415686
0.501961 0.494118 0.490196
0.686275 0.450996 0.450996
0.694118 0.443153 0.411780
0.352941 0.658824 0.482353
0.337255 0.654902 0.458839
0.454902 0.686275 0.360800
0.635294 0.639216 0.403922
0.701961 0.635294 0.466667
0.388235 0.674510 0.560784
0.392157 0.682353 0.556863
0.545113 0.733333 0.584329
0.682353 0.741176 0.635309
0.752941 0.749020 0.635294
0.137255 0.109804 0.419608
0.141176 0.098039 0.376471
0.301961 0.133333 0.376471
0.388235 0.152941 0.388235
0.380392 0.149020 0.380392
0.149020 0.188235 0.482353
0.176471 0.168627 0.525490
0.305898 0.149020 0.427451
0.431373 0.184314 0.431373
0.552941 0.317647 0.552941
0.215686 0.360784 0.525490
0.247059 0.403937 0.549020
0.498054 0.494118 0.666667
0.611765 0.400015 0.611765
0.658824 0.525490 0.631373
0.407843 0.639216 0.643137
0.407843 0.647059 0.647059
0.498054 0.678431 0.674510
0.709804 0.709804 0.709804
0.721569 0.698039 0.694118
0.435294 0.678431 0.658824
0.443137 0.694118 0.662745
0.607858 0.733333 0.701961
0.737255 0.760784 0.745098
0.760784 0.756863 0.729412
0.192157 0.239216 0.537255
0.219608 0.141176 0.439216
0.349020 0.156863 0.415686
0.392157 0.156863 0.392157
0.392157 0.156863 0.392157
0.231373 0.376471 0.537255
0.360784 0.419608 0.690196
0.482353 0.329412 0.631373
0.568627 0.329412 0.568627
0.556863 0.317647 0.556863
0.309804 0.517647 0.588235
0.403922 0.600000 0.666667
0.603922 0.623529 0.682353
0.666667 0.596078 0.670588
0.662745 0.564706 0.662745
0.427451 0.658824 0.666667
0.462745 0.678431 0.690196
0.647059 0.717647 0.725490
0.752941 0.756863 0.760784
0.741176 0.725490 0.741176
0.450980 0.678431 0.678431
0.478431 0.701961 0.701961
0.643137 0.733333 0.733333
0.741176 0.756863 0.756863
0.788235 0.788235 0.788235
