tools/luts_backup/Kodak Vision3 250D 5207 (NEG)_CIN.cube
# (C) 2014 VisionColor & Patchflyer [www.vision-color.com]
# Generator: VC Patchmatch v.2.1.1 [64/53]
# All work and no play makes Jack a dull boy.
# LUT generated from: Kodak Vision3 250D 5207 (NEG)_Cineon
LUT_3D_SIZE 17
0.085847 0.090944 0.086824
0.172488 0.086305 0.081422
0.239933 0.091798 0.080598
0.279942 0.098573 0.080568
0.294682 0.096651 0.080964
0.303258 0.091981 0.082246
0.315587 0.088167 0.081453
0.329839 0.085054 0.079255
0.343481 0.082582 0.076997
0.353399 0.081270 0.075685
0.354040 0.081209 0.075624
0.358343 0.080690 0.075105
0.403845 0.074769 0.069215
0.471778 0.064454 0.059022
0.502190 0.059419 0.054078
0.515618 0.058015 0.052674
0.528954 0.056733 0.051392
0.102876 0.122621 0.089906
0.157839 0.128634 0.086122
0.236545 0.129976 0.079225
0.301244 0.142336 0.073671
0.343542 0.149142 0.070771
0.357092 0.133577 0.073701
0.359747 0.106508 0.074525
0.359442 0.089693 0.074220
0.361608 0.082490 0.074464
0.370764 0.079774 0.073945
0.382696 0.078309 0.072724
0.396368 0.076265 0.070741
0.426154 0.071473 0.065949
0.473182 0.064424 0.058961
0.502464 0.059510 0.054108
0.517693 0.057832 0.052461
0.531609 0.056489 0.051148
0.114290 0.184665 0.100099
0.159884 0.190402 0.095491
0.227573 0.198642 0.092622
0.286961 0.193393 0.087892
0.332280 0.195468 0.083345
0.370428 0.195285 0.079286
0.395483 0.175753 0.074495
0.399512 0.136141 0.070008
0.393317 0.101625 0.070497
0.392340 0.083742 0.071168
0.401190 0.076326 0.069947
0.415564 0.072999 0.067414
0.434028 0.070100 0.064546
0.465431 0.066285 0.060365
0.501488 0.060792 0.054444
0.519799 0.057710 0.052277
0.533257 0.056306 0.050965
0.142245 0.259586 0.109712
0.169436 0.258610 0.105287
0.206210 0.269078 0.107454
0.273198 0.266972 0.115236
0.325567 0.258274 0.110994
0.370275 0.257847 0.105013
0.406470 0.248386 0.091768
0.422827 0.218784 0.075105
0.427405 0.175051 0.066194
0.428687 0.131334 0.065705
0.432837 0.096986 0.064973
0.442969 0.077943 0.063539
0.458381 0.071077 0.061463
0.493782 0.076051 0.056153
0.542962 0.095155 0.048951
0.541588 0.068818 0.049531
0.535119 0.056153 0.050782
0.190066 0.311681 0.134249
0.203647 0.312169 0.130617
0.226352 0.321599 0.136599
0.253880 0.328099 0.143496
0.322179 0.320226 0.153719
0.376745 0.318578 0.146975
0.416632 0.311406 0.130404
0.442847 0.293462 0.101411
0.458961 0.265232 0.073457
0.469795 0.224475 0.058747
0.477180 0.174456 0.057008
0.482673 0.127398 0.057618
0.490974 0.097810 0.056641
0.521691 0.098817 0.051972
0.583215 0.157900 0.042481
0.581262 0.122713 0.043519
0.541833 0.057099 0.049989
0.253086 0.355138 0.168704
0.256779 0.355352 0.165347
0.272038 0.363928 0.169467
0.279515 0.372107 0.174044
0.295140 0.371313 0.177279
0.357733 0.365881 0.184817
0.415534 0.362097 0.173159
0.450477 0.349218 0.147799
0.479133 0.332555 0.109163
0.502617 0.306691 0.069581
0.517601 0.265095 0.050568
0.524742 0.211902 0.049378
0.528161 0.159045 0.050294
0.539574 0.120119 0.049287
0.575921 0.136690 0.044251
0.593957 0.153689 0.041413
0.564508 0.088701 0.046235
0.324132 0.396765 0.198581
0.320928 0.394873 0.195834
0.326299 0.399115 0.197665
0.325353 0.404913 0.198245
0.314946 0.407843 0.195743
0.318700 0.407416 0.192660
0.385687 0.407050 0.201511
0.448920 0.398474 0.189944
0.491676 0.387610 0.161257
0.527062 0.370977 0.113756
0.551446 0.340200 0.064469
0.562982 0.292775 0.043641
0.563195 0.231189 0.043641
0.552758 0.146685 0.046876
0.552697 0.095186 0.048096
0.595483 0.167971 0.040772
0.605432 0.192065 0.038972
0.388342 0.436133 0.216007
0.384924 0.434211 0.215518
0.384771 0.435981 0.217197
0.379400 0.439734 0.217655
0.366094 0.442084 0.214817
0.353277 0.442725 0.209537
0.372900 0.443793 0.207736
0.440620 0.445533 0.213931
0.499977 0.436469 0.201236
0.545830 0.425055 0.170336
0.577111 0.401602 0.114366
0.593042 0.360555 0.057847
0.592889 0.299367 0.039429
0.567987 0.195239 0.043702
0.531182 0.086564 0.050538
0.590661 0.180850 0.041108
0.641993 0.303090 0.035126
0.437903 0.472114 0.217716
0.437690 0.471107 0.220584
0.436805 0.472389 0.222385
0.431617 0.475380 0.225986
0.418891 0.476875 0.225834
0.401343 0.475807 0.222141
0.403967 0.475898 0.219730
0.437385 0.478279 0.220096
0.502708 0.478035 0.221683
0.558740 0.469429 0.210941
0.596399 0.454231 0.180835
0.615900 0.420798 0.113939
0.621637 0.370413 0.054612
0.609277 0.303944 0.043793
0.568887 0.203769 0.051820
0.604547 0.251942 0.046540
0.666896 0.382483 0.054582
0.481849 0.509270 0.213993
0.480720 0.509056 0.208865
0.480140 0.511528 0.203128
0.480323 0.514153 0.214603
0.470680 0.515038 0.224887
0.451392 0.511070 0.228305
0.436591 0.504601 0.227024
0.451301 0.503929 0.227268
0.490440 0.507591 0.228611
0.558129 0.499489 0.227604
0.611353 0.498054 0.227115
0.638758 0.485420 0.206790
0.644068 0.445686 0.140017
0.647303 0.411704 0.096742
0.643305 0.393759 0.106935
0.651057 0.392447 0.105470
0.682307 0.440406 0.121431
0.534997 0.552300 0.221988
0.527916 0.551019 0.203433
0.520195 0.554345 0.180087
0.526207 0.555688 0.185580
0.521569 0.555261 0.208713
0.502678 0.550500 0.225772
0.477058 0.539117 0.231296
0.467689 0.528313 0.231907
0.486580 0.527642 0.233585
0.530907 0.531426 0.235630
0.596368 0.513939 0.235019
0.650050 0.534386 0.255558
0.664363 0.526543 0.248264
0.661402 0.493599 0.207752
0.672236 0.489555 0.204944
0.681605 0.489555 0.208270
0.691737 0.485267 0.201755
0.582727 0.588190 0.236606
0.576104 0.585626 0.224308
0.565911 0.586603 0.192508
0.566278 0.584772 0.196231
0.561120 0.581628 0.214389
0.545769 0.577234 0.228977
0.520592 0.569604 0.236088
0.497108 0.559014 0.236637
0.497200 0.552209 0.238010
0.521477 0.553246 0.241398
0.560906 0.553735 0.243595
0.612360 0.541283 0.248356
0.658167 0.563073 0.274968
0.667903 0.553368 0.271672
0.678218 0.541131 0.265446
0.690455 0.536553 0.265232
0.698146 0.526085 0.257420
0.613581 0.611322 0.248112
0.610468 0.609125 0.245731
0.605646 0.607446 0.234745
0.601068 0.604425 0.235996
0.592737 0.600732 0.242466
0.579858 0.596551 0.246952
0.561730 0.591180 0.247990
0.538933 0.584863 0.245670
0.526940 0.579644 0.245090
0.539055 0.578058 0.248997
0.564630 0.579004 0.254032
0.592401 0.577569 0.257939
0.629236 0.573999 0.268528
0.662257 0.577630 0.286564
0.681605 0.573602 0.294072
0.694606 0.569085 0.296910
0.701961 0.561761 0.294865
0.635828 0.628199 0.257847
0.634455 0.627070 0.257115
0.632288 0.625574 0.255894
0.629053 0.623468 0.255192
0.622858 0.621057 0.256748
0.612299 0.618067 0.259709
0.597620 0.613886 0.260349
0.579339 0.608820 0.257786
0.564355 0.604181 0.255406
0.567102 0.601953 0.259159
0.584710 0.601892 0.266606
0.607263 0.601373 0.273899
0.629755 0.599023 0.281743
0.658991 0.597314 0.297765
0.683803 0.596613 0.312963
0.697414 0.593988 0.320104
0.704372 0.589715 0.322057
0.652583 0.641566 0.268009
0.651820 0.640986 0.267491
0.651118 0.640406 0.266941
0.649836 0.639490 0.266361
0.646754 0.637995 0.267002
0.639643 0.635981 0.269902
0.627710 0.633082 0.272312
0.611475 0.629053 0.270878
0.595300 0.624811 0.268101
0.592309 0.622034 0.271122
0.604608 0.621302 0.280613
0.623377 0.620905 0.291417
0.642878 0.619043 0.301427
0.663630 0.617548 0.313329
0.686030 0.616144 0.329290
0.699458 0.615228 0.338903
0.706325 0.612055 0.342840
0.667567 0.652674 0.279057
0.666560 0.651972 0.278416
0.665888 0.651514 0.277775
0.665553 0.651240 0.277470
0.664607 0.650782 0.277745
0.660517 0.649439 0.280186
0.651637 0.647669 0.283726
0.637995 0.645014 0.284337
0.621576 0.641321 0.281590
0.614343 0.638605 0.283909
0.622522 0.637568 0.294835
0.638331 0.637079 0.308690
0.655879 0.635706 0.321080
0.674189 0.634577 0.332708
0.690791 0.633753 0.345525
0.701289 0.632136 0.356420
0.707851 0.630152 0.360082
0.679774 0.660517 0.292790
0.679469 0.660243 0.292332
0.678553 0.659815 0.290959
0.677821 0.659297 0.290013
0.677485 0.659083 0.290074
0.676051 0.658778 0.291447
0.670283 0.657923 0.294560
0.658839 0.656306 0.296635
0.643427 0.653712 0.294987
0.633265 0.651148 0.296544
0.637964 0.650111 0.308537
0.652125 0.650019 0.324346
0.668635 0.648981 0.338659
0.684565 0.647883 0.352789
0.696376 0.647272 0.363989
0.703395 0.646204 0.370947
0.709072 0.643946 0.374884
0.085634 0.090181 0.142031
0.146365 0.094270 0.140780
0.230045 0.094331 0.134188
0.276738 0.095735 0.126802
0.294072 0.093233 0.119387
0.298100 0.089967 0.110140
0.302281 0.089082 0.095552
0.314397 0.087465 0.084749
0.328618 0.085145 0.079896
0.341283 0.082918 0.077333
0.352422 0.081392 0.075807
0.366339 0.079927 0.074342
0.401953 0.075166 0.069581
0.458656 0.066743 0.061280
0.495460 0.060609 0.055146
0.513848 0.058198 0.052827
0.530144 0.056611 0.051270
0.084260 0.126131 0.138766
0.121675 0.129946 0.129397
0.234287 0.127108 0.106081
0.315404 0.139406 0.095979
0.353735 0.140658 0.093141
0.363348 0.124147 0.091493
0.359503 0.106386 0.085817
0.348058 0.093843 0.081758
0.344244 0.086336 0.078676
0.355535 0.081971 0.075715
0.373327 0.079377 0.073732
0.389960 0.077363 0.071748
0.408148 0.074250 0.068727
0.442908 0.068971 0.063447
0.487892 0.062104 0.056641
0.517205 0.058015 0.052522
0.533745 0.056275 0.050965
0.098482 0.188022 0.141024
0.120272 0.179294 0.118685
0.219852 0.192599 0.110506
0.310185 0.193790 0.095521
0.379736 0.209201 0.088228
0.434791 0.219242 0.091615
0.451301 0.194980 0.082948
0.432105 0.157626 0.076295
0.411933 0.128267 0.074159
0.404730 0.103761 0.071199
0.410101 0.082002 0.068544
0.423285 0.072541 0.066194
0.438727 0.069490 0.063996
0.462745 0.066316 0.060853
0.498116 0.060945 0.054994
0.534630 0.069093 0.050446
0.543999 0.063142 0.049561
0.129458 0.263920 0.141360
0.140597 0.249393 0.121736
0.204288 0.257267 0.116060
0.293187 0.264195 0.117586
0.361761 0.269627 0.114534
0.422370 0.281315 0.115053
0.459937 0.268589 0.097261
0.466743 0.237064 0.080232
0.461860 0.207645 0.073518
0.455787 0.177096 0.067628
0.450477 0.128832 0.063539
0.453407 0.085725 0.062135
0.462989 0.069581 0.060822
0.478859 0.064302 0.058320
0.505669 0.061189 0.053956
0.534600 0.066438 0.050690
0.545281 0.063325 0.049409
0.183413 0.323980 0.146609
0.187564 0.314458 0.137301
0.221408 0.316320 0.133852
0.267582 0.328222 0.140475
0.342321 0.333532 0.154849
0.413153 0.342870 0.158755
0.461463 0.331182 0.135592
0.475807 0.302831 0.102907
0.480385 0.278416 0.084260
0.484321 0.253635 0.070100
0.490028 0.207660 0.057740
0.494484 0.146899 0.055634
0.496681 0.101579 0.055543
0.504234 0.078523 0.054261
0.531273 0.086030 0.050782
0.569543 0.131044 0.044862
0.571740 0.112123 0.044739
0.247654 0.365148 0.165255
0.237552 0.361273 0.160220
0.258732 0.365362 0.156985
0.289525 0.374914 0.163546
0.317479 0.379644 0.174014
0.380682 0.383581 0.189822
0.448218 0.381567 0.179995
0.483192 0.358679 0.146090
0.499672 0.334203 0.108766
0.510033 0.314794 0.081300
0.522026 0.283452 0.057130
0.533471 0.234058 0.047913
0.537438 0.180285 0.048493
0.540276 0.137072 0.048554
0.559686 0.134432 0.046143
0.601068 0.210330 0.038453
0.608850 0.207584 0.037964
0.321202 0.406958 0.184695
0.304814 0.400153 0.183383
0.313573 0.405554 0.175448
0.331579 0.412024 0.177981
0.338048 0.414862 0.186648
0.359045 0.417700 0.197360
0.411688 0.417731 0.209384
0.470771 0.410315 0.196323
0.508110 0.390539 0.161990
0.533318 0.371160 0.117845
0.552850 0.347951 0.074144
0.568750 0.314748 0.047150
0.575738 0.271443 0.041535
0.577111 0.224109 0.041871
0.583734 0.196353 0.041199
0.608942 0.238254 0.036866
0.629297 0.269841 0.034821
0.389502 0.445380 0.201419
0.376898 0.440375 0.201114
0.375494 0.442390 0.193729
0.380865 0.446143 0.190494
0.374609 0.445930 0.200412
0.376349 0.448035 0.207950
0.400061 0.451026 0.215671
0.450538 0.450874 0.220066
0.503441 0.442573 0.208011
0.545464 0.429328 0.179568
0.575830 0.411353 0.133410
0.596002 0.385397 0.081773
0.605920 0.350240 0.049287
0.606714 0.303883 0.038758
0.603632 0.257954 0.037903
0.616053 0.270787 0.036194
0.643183 0.321874 0.034577
0.443305 0.479011 0.212161
0.437873 0.476875 0.211063
0.433997 0.475685 0.211002
0.431281 0.477638 0.210147
0.421515 0.477760 0.216190
0.407507 0.477150 0.219211
0.415686 0.479225 0.222141
0.446143 0.482002 0.224918
0.501427 0.482429 0.225895
0.551843 0.474342 0.216922
0.589776 0.463600 0.196597
0.614191 0.444312 0.154803
0.628016 0.415091 0.099321
0.631159 0.372915 0.055955
0.624201 0.321889 0.040436
0.632471 0.326345 0.040864
0.661707 0.383490 0.055314
0.487678 0.514183 0.213474
0.484962 0.514397 0.202640
0.483680 0.513024 0.206485
0.480018 0.512413 0.214603
0.469459 0.511803 0.223301
0.452735 0.509606 0.226596
0.443915 0.507988 0.227512
0.463905 0.510155 0.230289
0.499977 0.513481 0.232334
0.555840 0.511162 0.233982
0.599329 0.503990 0.231205
0.627558 0.491005 0.216770
0.643549 0.467292 0.177981
0.651057 0.434913 0.120119
0.650477 0.399145 0.079255
0.657923 0.401633 0.083864
0.679866 0.442512 0.125902
0.536858 0.555138 0.215518
0.530266 0.556573 0.183749
0.528405 0.558740 0.180789
0.527825 0.557488 0.188052
0.519860 0.553185 0.203433
0.500786 0.547662 0.220859
0.482155 0.541161 0.229618
0.485969 0.537621 0.234775
0.510491 0.538109 0.238376
0.550927 0.541711 0.241794
0.603357 0.539422 0.249546
0.639857 0.534569 0.254002
0.658961 0.516960 0.241794
0.665461 0.491890 0.210208
0.670100 0.470069 0.174258
0.678157 0.471321 0.176989
0.691127 0.489479 0.208057
0.582818 0.589990 0.226902
0.576013 0.590539 0.196597
0.570886 0.596063 0.179294
0.569177 0.598840 0.180179
0.568811 0.592859 0.174105
0.550835 0.584039 0.200656
0.524468 0.574121 0.224674
0.510857 0.565179 0.236606
0.519585 0.559319 0.242130
0.546044 0.559472 0.246036
0.589136 0.564996 0.253941
0.639368 0.566979 0.272618
0.670588 0.561486 0.279332
0.678981 0.543175 0.267338
0.680201 0.532128 0.256962
0.688380 0.527947 0.254734
0.697505 0.531640 0.262913
0.613519 0.612207 0.241764
0.610376 0.611231 0.232700
0.607233 0.614862 0.210117
0.603418 0.619196 0.196811
0.600610 0.613519 0.193851
0.586725 0.605554 0.211826
0.565454 0.597131 0.230716
0.543420 0.588495 0.240848
0.536706 0.581994 0.246220
0.549737 0.579034 0.251011
0.577234 0.581384 0.257511
0.612573 0.585138 0.268162
0.653010 0.587457 0.289281
0.677577 0.578424 0.294438
0.684413 0.571923 0.293706
0.692500 0.569635 0.296300
0.700984 0.566125 0.298161
0.635126 0.627955 0.254948
0.633936 0.626978 0.254582
0.632380 0.626764 0.248478
0.630060 0.627222 0.236973
0.624323 0.623865 0.241062
0.613550 0.619654 0.249424
0.598596 0.614923 0.254704
0.580285 0.609491 0.255283
0.564935 0.604334 0.254429
0.566461 0.601587 0.258091
0.582971 0.601526 0.265385
0.605920 0.602167 0.273686
0.629694 0.601129 0.282536
0.658930 0.600183 0.299504
0.680812 0.596368 0.310613
0.694270 0.594720 0.318151
0.702907 0.591516 0.322454
0.651301 0.640589 0.266575
0.651057 0.640345 0.266575
0.650477 0.639979 0.266178
0.649287 0.639124 0.264744
0.646174 0.637476 0.265324
0.639216 0.635340 0.268315
0.627863 0.632410 0.271031
0.612482 0.628412 0.270054
0.595300 0.623926 0.266911
0.588403 0.620722 0.267857
0.597894 0.619623 0.275792
0.615320 0.619501 0.285863
0.634333 0.617884 0.295445
0.654444 0.615991 0.306035
0.678401 0.614649 0.322026
0.695155 0.614099 0.334051
0.704280 0.612329 0.341100
0.665858 0.651423 0.277531
0.665278 0.651148 0.277287
0.665156 0.651026 0.277043
0.665064 0.650904 0.277012
0.664118 0.650355 0.277165
0.660304 0.648951 0.278904
0.651942 0.647059 0.282139
0.639216 0.644312 0.283085
0.622492 0.640345 0.280247
0.610742 0.636805 0.279454
0.614374 0.635096 0.287053
0.627955 0.634424 0.299565
0.644678 0.633143 0.311650
0.662806 0.631617 0.322789
0.680995 0.630915 0.334630
0.696223 0.629786 0.348760
0.705318 0.629084 0.357275
0.678340 0.659602 0.290898
0.677913 0.659449 0.290227
0.677455 0.659052 0.289647
0.677363 0.658991 0.289433
0.677577 0.659083 0.289799
0.676875 0.658900 0.290593
0.671839 0.657923 0.293065
0.661067 0.656214 0.295445
0.645899 0.653315 0.293858
0.631525 0.649866 0.291722
0.629816 0.647730 0.298466
0.640223 0.646876 0.312261
0.655207 0.646021 0.325994
0.671962 0.644739 0.339086
0.687617 0.643946 0.351812
0.698421 0.643366 0.362646
0.706294 0.642573 0.370886
0.084047 0.088167 0.201724
0.121004 0.090242 0.204746
0.217227 0.090639 0.218357
0.281010 0.085817 0.227268
0.305699 0.082094 0.227451
0.314153 0.079500 0.218235
0.313695 0.080507 0.186038
0.311711 0.083711 0.143038
0.320104 0.084199 0.112581
0.330114 0.083680 0.090944
0.340734 0.082765 0.079316
0.355200 0.081117 0.075654
0.376501 0.078828 0.073243
0.416388 0.073060 0.067567
0.470588 0.064942 0.059449
0.502556 0.059480 0.054139
0.521660 0.057435 0.052094
0.079957 0.127565 0.204074
0.091035 0.126802 0.206241
0.207675 0.131746 0.203433
0.300481 0.132509 0.190402
0.343114 0.128725 0.180453
0.355901 0.112978 0.172976
0.350286 0.100282 0.146212
0.335882 0.091890 0.119417
0.328771 0.086763 0.101137
0.337011 0.083742 0.085023
0.355261 0.081239 0.076265
0.377111 0.078889 0.073304
0.398901 0.075929 0.070314
0.427344 0.071107 0.065614
0.468666 0.065248 0.059815
0.502678 0.059632 0.054231
0.525414 0.057069 0.051728
0.083986 0.184695 0.208591
0.094026 0.193301 0.211978
0.181247 0.185580 0.192569
0.289372 0.185916 0.171267
0.363531 0.196506 0.149264
0.409125 0.197055 0.135470
0.429389 0.184329 0.118288
0.424140 0.164675 0.099001
0.405737 0.143587 0.088533
0.396368 0.124758 0.078737
0.400732 0.098360 0.071138
0.411536 0.077516 0.068177
0.425879 0.071290 0.065675
0.444221 0.068818 0.063294
0.471931 0.065003 0.059571
0.514885 0.059388 0.052949
0.542443 0.056153 0.049836
0.106996 0.263493 0.215641
0.110689 0.258122 0.204501
0.180697 0.249393 0.188602
0.281834 0.260960 0.174166
0.354101 0.259770 0.156222
0.413153 0.266209 0.144350
0.464332 0.262211 0.125307
0.486732 0.241886 0.099550
0.479988 0.219608 0.085023
0.470436 0.200168 0.072084
0.467720 0.166140 0.061769
0.468482 0.114031 0.059693
0.469215 0.077546 0.059907
0.475349 0.065736 0.058930
0.492927 0.062379 0.055879
0.548608 0.104005 0.048188
0.596551 0.174136 0.040040
0.159640 0.328679 0.209201
0.156985 0.321416 0.197635
0.207462 0.309941 0.185275
0.275303 0.323857 0.175296
0.346410 0.330297 0.175387
0.413092 0.335149 0.169619
0.469001 0.329931 0.150240
0.495399 0.304143 0.113649
0.507073 0.279484 0.090730
0.514275 0.258183 0.075502
0.517357 0.231113 0.060731
0.519097 0.185534 0.053315
0.514885 0.127733 0.052522
0.508812 0.082887 0.053437
0.513787 0.064820 0.052918
0.542107 0.081819 0.049836
0.584253 0.149599 0.042420
0.232731 0.375616 0.193271
0.225681 0.374945 0.189395
0.243290 0.365515 0.186374
0.296117 0.372992 0.181064
0.332525 0.382422 0.179965
0.396155 0.387762 0.188174
0.464729 0.387671 0.176669
0.504448 0.364935 0.142855
0.522515 0.334752 0.104799
0.533623 0.308049 0.077974
0.544060 0.280156 0.057465
0.556176 0.251347 0.047578
0.561028 0.214008 0.045167
0.552300 0.157275 0.046448
0.546685 0.111162 0.048371
0.562921 0.117769 0.046448
0.601526 0.198825 0.038697
0.308232 0.415045 0.184146
0.299474 0.417334 0.183810
0.296483 0.412787 0.188327
0.332830 0.417243 0.186313
0.356725 0.424475 0.182101
0.381079 0.427253 0.189212
0.439521 0.429450 0.198184
0.497414 0.421546 0.181369
0.533013 0.396612 0.145083
0.553063 0.363149 0.098039
0.564477 0.326619 0.059937
0.576654 0.303777 0.043397
0.587060 0.286229 0.040009
0.588220 0.248951 0.040070
0.584436 0.202960 0.041108
0.592920 0.197253 0.040040
0.620111 0.253544 0.035523
0.383124 0.458137 0.183261
0.372503 0.456703 0.182925
0.363470 0.453590 0.189944
0.381720 0.457160 0.195529
0.397925 0.463752 0.184360
0.405615 0.464088 0.185245
0.427283 0.462013 0.199649
0.480659 0.462623 0.208499
0.530266 0.453956 0.197055
0.564202 0.431388 0.163989
0.584772 0.396201 0.108507
0.598657 0.368154 0.068162
0.611017 0.357534 0.052766
0.616449 0.331411 0.042023
0.616266 0.294789 0.037354
0.620325 0.279591 0.035798
0.636774 0.305394 0.033906
0.443091 0.494301 0.180087
0.436194 0.491737 0.179904
0.427161 0.489082 0.184115
0.431373 0.491188 0.193637
0.442451 0.497047 0.189761
0.440040 0.496925 0.184237
0.443030 0.492348 0.198459
0.464485 0.488960 0.216251
0.519738 0.491035 0.223667
0.563592 0.481758 0.217533
0.594690 0.465858 0.194980
0.616388 0.443534 0.154223
0.631006 0.425834 0.117357
0.639460 0.403098 0.081682
0.641749 0.370535 0.053239
0.643824 0.350118 0.041016
0.653529 0.358099 0.037995
0.486061 0.526146 0.175448
0.485176 0.526543 0.175204
0.481636 0.523461 0.175998
0.480659 0.521508 0.182132
0.481788 0.523735 0.186679
0.474403 0.523095 0.189090
0.465064 0.518730 0.201419
0.476600 0.515770 0.219821
0.505440 0.515892 0.233860
0.560388 0.516655 0.238834
0.598779 0.509514 0.236057
0.625971 0.498787 0.225040
0.643885 0.481910 0.200900
0.654780 0.459968 0.162203
0.659907 0.431495 0.113008
0.662074 0.407630 0.076387
0.669825 0.408728 0.072175
0.528069 0.561517 0.171115
0.524041 0.566705 0.183200
0.527520 0.563226 0.165652
0.526360 0.558953 0.168429
0.522301 0.556115 0.175204
0.509819 0.552819 0.187411
0.494820 0.548089 0.202670
0.499733 0.545892 0.221714
0.526329 0.547295 0.239078
0.559503 0.548638 0.248905
0.602350 0.547021 0.254612
0.632929 0.540703 0.256687
0.653315 0.528130 0.250614
0.666072 0.508568 0.232486
0.673060 0.483497 0.196933
0.675807 0.458564 0.153597
0.682246 0.453864 0.143862
0.577386 0.597162 0.174685
0.553399 0.602899 0.231846
0.570001 0.598932 0.166629
0.568780 0.596735 0.163394
0.565484 0.592157 0.162173
0.553704 0.586419 0.171023
0.533745 0.579522 0.193149
0.527825 0.574273 0.217960
0.547784 0.573449 0.240604
0.576196 0.575006 0.255650
0.605493 0.575830 0.266117
0.640009 0.575463 0.278080
0.662928 0.568658 0.282536
0.675715 0.553491 0.275425
0.683589 0.535698 0.262119
0.688197 0.514824 0.239872
0.692256 0.503929 0.226413
0.614801 0.621363 0.191897
0.593957 0.625940 0.235111
0.606317 0.621637 0.181704
0.603265 0.622522 0.174380
0.597528 0.619165 0.169680
0.589105 0.612116 0.163363
0.570428 0.603876 0.184604
0.555840 0.596155 0.213413
0.562890 0.591791 0.240024
0.583764 0.591394 0.258579
0.610193 0.594049 0.272740
0.639582 0.597925 0.289403
0.670680 0.600671 0.308415
0.684657 0.591272 0.309087
0.687678 0.576226 0.299138
0.694972 0.562951 0.291142
0.699886 0.556420 0.287938
0.637232 0.634577 0.218082
0.634180 0.636011 0.220218
0.633692 0.632990 0.215793
0.630549 0.634394 0.200748
0.622309 0.633051 0.187869
0.612879 0.626215 0.188357
0.597650 0.619226 0.204562
0.580438 0.612604 0.223545
0.573449 0.607416 0.241764
0.583642 0.605524 0.258518
0.605402 0.607599 0.273930
0.631037 0.611414 0.290074
0.655909 0.614710 0.307530
0.680354 0.615045 0.323735
0.686366 0.603540 0.319615
0.693874 0.594202 0.317357
0.702235 0.588861 0.319219
0.652338 0.643458 0.245823
0.652064 0.643061 0.248173
0.651270 0.642054 0.250889
0.649500 0.641627 0.245823
0.643915 0.640436 0.232303
0.636103 0.636774 0.236606
0.625269 0.632807 0.245914
0.610742 0.628321 0.252567
0.595026 0.623682 0.256260
0.589899 0.620630 0.262669
0.601068 0.620447 0.274296
0.620386 0.622065 0.288212
0.640253 0.622553 0.301579
0.658808 0.621546 0.313298
0.677516 0.617578 0.323095
0.691310 0.613764 0.330480
0.702052 0.611902 0.338659
0.665553 0.652155 0.266636
0.665217 0.651789 0.268772
0.665125 0.651514 0.270909
0.664912 0.651179 0.272496
0.663203 0.650263 0.271824
0.659144 0.648615 0.273320
0.651331 0.646571 0.276951
0.639277 0.643702 0.279118
0.623194 0.639673 0.277531
0.609552 0.635920 0.276158
0.610346 0.633997 0.282322
0.622309 0.633295 0.294133
0.638270 0.632502 0.306249
0.655299 0.630579 0.317174
0.673182 0.629358 0.327581
0.690517 0.628290 0.340795
0.702113 0.628077 0.353155
0.677394 0.659358 0.286351
0.677089 0.659022 0.286503
0.676997 0.658961 0.286900
0.677180 0.659052 0.287572
0.677394 0.659113 0.288457
0.676570 0.658808 0.289311
0.671778 0.657588 0.291569
0.661433 0.655543 0.293919
0.646937 0.652613 0.292699
0.631281 0.648859 0.289158
0.625269 0.646052 0.292302
0.632349 0.644678 0.303593
0.645533 0.643946 0.316991
0.661372 0.642542 0.329137
0.678187 0.641627 0.341100
0.691981 0.640833 0.352636
0.702358 0.640711 0.364874
0.080018 0.084443 0.236118
0.109834 0.084382 0.250095
0.184604 0.085664 0.266880
0.260929 0.082948 0.279667
0.297276 0.079347 0.291295
0.312352 0.076020 0.293523
0.320409 0.075013 0.285222
0.327947 0.074647 0.263188
0.337285 0.074983 0.228885
0.343908 0.076509 0.183856
0.345006 0.078798 0.131365
0.348882 0.080140 0.093202
0.362402 0.079866 0.077882
