tools/luts_backup/Kodak Vision3 250D 5207 (NEG)_VS.cube
# (C) 2014 VisionColor & Patchflyer [www.vision-color.com]
# Generator: VC Patchmatch v.2.1.1 [64/53]
# All work and no play makes Jack a dull boy.
# LUT generated from: Kodak Vision3 250D 5207 (NEG)_VisionSpace
LUT_3D_SIZE 17
0.027771 0.030426 0.028229
0.076020 0.029664 0.027955
0.116030 0.036439 0.032624
0.146334 0.042023 0.035706
0.158114 0.041901 0.036500
0.164981 0.040467 0.037110
0.175143 0.039582 0.037293
0.187472 0.039185 0.037201
0.199985 0.039063 0.037140
0.209323 0.039155 0.037232
0.209934 0.039155 0.037232
0.214206 0.039246 0.037324
0.263310 0.040040 0.038087
0.351507 0.042206 0.040864
0.398322 0.044984 0.043671
0.419532 0.046815 0.045533
0.440345 0.048432 0.047150
0.035554 0.048493 0.028534
0.069001 0.051698 0.031922
0.116793 0.056367 0.036347
0.168063 0.067872 0.039948
0.207645 0.074678 0.042298
0.218814 0.066041 0.042267
0.218235 0.051545 0.039796
0.216220 0.043244 0.037934
0.217716 0.040284 0.037537
0.227024 0.039765 0.037751
0.239506 0.039948 0.037995
0.254643 0.040131 0.038178
0.290166 0.040375 0.038453
0.353582 0.042329 0.040986
0.398810 0.045045 0.043732
0.422736 0.047089 0.045777
0.444495 0.048737 0.047456
0.045991 0.089540 0.039521
0.075441 0.092927 0.044984
0.119753 0.101778 0.049805
0.163729 0.100954 0.050935
0.203830 0.105348 0.052399
0.241581 0.107881 0.053468
0.265965 0.096010 0.050813
0.265171 0.070710 0.044343
0.253666 0.051362 0.040192
0.250706 0.043030 0.038666
0.260319 0.040528 0.038270
0.276951 0.040162 0.038178
0.300450 0.040436 0.038514
0.342565 0.042206 0.040558
0.397345 0.045319 0.043763
0.426062 0.047364 0.046052
0.447028 0.048951 0.047639
0.076478 0.148806 0.061219
0.092348 0.148409 0.061433
0.117403 0.159640 0.066621
0.165866 0.161166 0.072908
0.208591 0.156130 0.072999
0.252049 0.158877 0.073854
0.290013 0.153628 0.069795
0.304173 0.130220 0.060151
0.304295 0.097993 0.050172
0.300114 0.070069 0.044465
0.301518 0.052094 0.040894
0.312749 0.044709 0.039796
0.332799 0.043458 0.040406
0.385931 0.050355 0.044312
0.463539 0.066957 0.052918
0.459785 0.055085 0.049958
0.449897 0.049195 0.047883
0.113649 0.201572 0.083497
0.123476 0.202243 0.083467
0.140627 0.212985 0.089326
0.162478 0.221530 0.095521
0.218326 0.216739 0.103273
0.271702 0.218692 0.105409
0.313878 0.214542 0.100404
0.343359 0.198489 0.086213
0.357855 0.173831 0.073732
0.364813 0.140276 0.063661
0.369757 0.103593 0.054688
0.372839 0.074067 0.048524
0.383093 0.059571 0.046143
0.432044 0.065156 0.050385
0.522606 0.109560 0.067781
0.517357 0.087831 0.061891
0.459785 0.050690 0.048981
0.166354 0.252720 0.111788
0.169619 0.252872 0.110933
0.184237 0.264103 0.116548
0.192233 0.274601 0.121401
0.205203 0.274510 0.123964
0.263310 0.271397 0.132387
0.325322 0.270848 0.133333
0.365026 0.258885 0.122499
0.402670 0.243259 0.104158
0.431922 0.219623 0.090120
0.443915 0.182818 0.080568
0.446235 0.139391 0.069642
0.446845 0.101198 0.059907
0.460945 0.079530 0.055512
0.511467 0.095186 0.063264
0.535149 0.108431 0.068482
0.492683 0.067597 0.055146
0.237369 0.309056 0.143771
0.233951 0.306218 0.141573
0.240330 0.312230 0.144503
0.240940 0.320012 0.146609
0.232090 0.323339 0.145327
0.235721 0.322698 0.144350
0.303319 0.326421 0.156680
0.377005 0.319951 0.158114
0.435172 0.310277 0.148348
0.488655 0.294575 0.127565
0.516777 0.262257 0.106416
0.516594 0.215473 0.094453
0.505119 0.160693 0.079561
0.481117 0.097810 0.061616
0.477546 0.068544 0.054353
0.538109 0.118135 0.071168
0.553185 0.136309 0.076997
0.314855 0.369055 0.174716
0.310506 0.365911 0.173220
0.310887 0.368658 0.174655
0.306401 0.373999 0.175692
0.292851 0.376684 0.173373
0.279637 0.376654 0.169406
0.301106 0.379248 0.172000
0.381460 0.387213 0.186892
0.464988 0.380346 0.190158
0.531640 0.369711 0.180972
0.568231 0.340993 0.151171
0.577508 0.290944 0.118929
0.557183 0.226368 0.100313
0.506722 0.133165 0.072663
0.445579 0.061112 0.050172
0.533989 0.126406 0.072969
0.614618 0.236103 0.107362
0.388083 0.431846 0.201236
0.387411 0.430198 0.202029
0.386801 0.432395 0.203311
0.381308 0.437278 0.205447
0.365591 0.438743 0.203494
0.344671 0.435523 0.198184
0.347860 0.435737 0.197604
0.389883 0.442542 0.205356
0.485740 0.449622 0.222354
0.566735 0.442878 0.228489
0.607111 0.421714 0.214252
0.619104 0.372366 0.168902
0.612879 0.306661 0.127398
0.580667 0.232685 0.103761
0.513375 0.138949 0.074632
0.565469 0.183276 0.089937
0.659663 0.326772 0.140261
0.466789 0.507546 0.232486
0.464988 0.506844 0.229587
0.465385 0.511543 0.228305
0.467155 0.517189 0.235660
0.453727 0.518227 0.238621
0.423789 0.508339 0.232486
0.401556 0.494057 0.224582
0.420111 0.493996 0.227359
0.480003 0.505791 0.241215
0.580301 0.499275 0.256931
0.645319 0.503990 0.271519
0.665431 0.482078 0.258518
0.654292 0.414023 0.201297
0.648859 0.363699 0.164034
0.640269 0.339376 0.159197
0.646922 0.338552 0.159533
0.685115 0.410330 0.198215
0.573922 0.596933 0.285191
0.562112 0.593179 0.272679
0.551720 0.597162 0.260899
0.561563 0.600458 0.266880
0.554818 0.599680 0.275883
0.522377 0.589487 0.273625
0.475608 0.565164 0.259800
0.456367 0.543633 0.250217
0.483940 0.544518 0.255924
0.557198 0.557916 0.275425
0.636255 0.533837 0.283574
0.702785 0.580407 0.327367
0.710384 0.567147 0.320912
0.689387 0.501259 0.271687
0.696406 0.494530 0.269459
0.703853 0.495689 0.273365
0.708553 0.488167 0.268559
0.658351 0.663966 0.337285
0.648280 0.658747 0.326726
0.634394 0.657893 0.308415
0.634058 0.655268 0.308904
0.626123 0.650324 0.313085
0.603250 0.641321 0.310704
0.561227 0.625055 0.298589
0.517662 0.603754 0.282719
0.514397 0.592157 0.278782
0.554314 0.597345 0.290288
0.612390 0.603754 0.306737
0.669337 0.588434 0.317693
0.725185 0.633478 0.363622
0.728237 0.618036 0.356970
0.730190 0.596887 0.346319
0.736568 0.589532 0.345220
0.736110 0.570397 0.333837
0.705653 0.703456 0.371893
0.701015 0.699641 0.367926
0.694240 0.696071 0.359503
0.687526 0.690944 0.356085
0.676326 0.684474 0.353185
0.659358 0.676600 0.347356
0.632532 0.666010 0.336614
0.597131 0.653223 0.321416
0.576196 0.643458 0.312535
0.594018 0.642542 0.318395
0.630518 0.647822 0.332036
0.664973 0.649226 0.343908
0.703639 0.648310 0.359960
0.736599 0.659144 0.382513
0.751308 0.654749 0.387701
0.758816 0.648524 0.388067
0.759945 0.636774 0.383459
0.735958 0.729335 0.395239
0.734066 0.727657 0.393713
0.731167 0.725338 0.391394
0.726955 0.722103 0.388586
0.719722 0.718166 0.385687
0.707851 0.712947 0.381567
0.688960 0.705501 0.373449
0.665034 0.695521 0.361395
0.642603 0.686397 0.350500
0.645289 0.683497 0.352056
0.668360 0.686030 0.363195
0.694514 0.688472 0.375372
0.717098 0.688075 0.385595
0.744778 0.689693 0.399268
0.767117 0.692103 0.408850
0.777127 0.689693 0.412390
0.780514 0.683925 0.411963
0.758175 0.749569 0.414130
0.757259 0.748684 0.413275
0.756344 0.747829 0.412451
0.754818 0.746426 0.411231
0.751522 0.744106 0.409735
0.743862 0.740658 0.407538
0.730739 0.735409 0.402777
0.712337 0.727962 0.394080
0.691585 0.720088 0.383581
0.686946 0.716121 0.382208
0.701198 0.717098 0.391516
0.721553 0.719387 0.403113
0.741146 0.720058 0.409888
0.760433 0.721035 0.416999
0.781155 0.722408 0.422950
0.793545 0.722896 0.424628
0.798550 0.719234 0.424140
0.776272 0.765255 0.429847
0.775082 0.764309 0.428901
0.774289 0.763668 0.428168
0.773892 0.763302 0.427771
0.772885 0.762661 0.427405
0.768948 0.760739 0.426795
0.760739 0.757809 0.425238
0.746975 0.753079 0.419959
0.728725 0.745998 0.410864
0.720302 0.741573 0.407935
0.728603 0.741787 0.413703
0.745266 0.744198 0.419806
0.762234 0.745174 0.425971
0.779873 0.746548 0.429114
0.795316 0.747921 0.431159
0.805600 0.747250 0.432197
0.810758 0.745266 0.433387
0.790463 0.776394 0.442573
0.790097 0.775998 0.442390
0.789090 0.775296 0.441962
0.788235 0.774563 0.441382
0.787900 0.774289 0.441230
0.786679 0.773861 0.440803
0.781643 0.772488 0.438819
0.771328 0.769467 0.434882
0.756466 0.764553 0.429389
0.745266 0.760464 0.424811
0.750515 0.760739 0.426978
0.765194 0.763546 0.432105
0.781765 0.765347 0.434089
0.797299 0.766751 0.435828
0.808469 0.767758 0.439673
0.815061 0.767452 0.442084
0.819608 0.765225 0.443061
0.028138 0.029816 0.061646
0.061341 0.032685 0.057740
0.110994 0.037171 0.054841
0.145449 0.040467 0.053773
0.158633 0.040467 0.051331
0.161471 0.039277 0.047303
0.164828 0.039033 0.041230
0.174319 0.039185 0.038239
0.186404 0.039124 0.037324
0.197940 0.039063 0.037140
0.208408 0.039124 0.037201
0.222354 0.039521 0.037598
0.261112 0.040070 0.038117
0.332738 0.041596 0.040009
0.387182 0.044373 0.043030
0.416754 0.046571 0.045258
0.442176 0.048585 0.047272
0.029175 0.049561 0.057069
0.046967 0.052430 0.052033
0.120577 0.053529 0.044221
0.181308 0.066865 0.047822
0.216739 0.070283 0.049744
0.224582 0.061219 0.047883
0.218570 0.051423 0.043641
0.205783 0.044221 0.040070
0.201205 0.040742 0.038087
0.211490 0.039582 0.037446
0.229679 0.039765 0.037812
0.247318 0.040070 0.038117
0.268315 0.040131 0.038209
0.311772 0.040803 0.039002
0.374792 0.043702 0.042359
0.422004 0.047059 0.045747
0.447822 0.049012 0.047730
0.042481 0.090486 0.063233
0.042420 0.088411 0.041566
0.114656 0.096925 0.053986
0.183719 0.102724 0.055024
0.253452 0.119417 0.059663
0.319829 0.131899 0.067262
0.337438 0.114626 0.061769
0.307622 0.086793 0.052003
0.278630 0.066957 0.045808
0.267308 0.053407 0.041566
0.271397 0.043671 0.038972
0.286503 0.040589 0.038361
0.306462 0.040620 0.038788
0.338689 0.041901 0.040345
0.391730 0.044862 0.043397
0.449683 0.053925 0.048951
0.463111 0.053101 0.049805
0.066011 0.154604 0.072297
0.070527 0.141451 0.061128
0.113558 0.149020 0.066499
0.181521 0.159731 0.074464
0.245609 0.169253 0.079500
0.314733 0.185122 0.087556
0.362127 0.176852 0.081270
0.365728 0.149996 0.070527
0.354711 0.125521 0.061891
0.342138 0.102174 0.053834
0.328161 0.070558 0.045563
0.326940 0.049226 0.041260
0.339361 0.043336 0.040650
0.361761 0.043000 0.041505
0.404364 0.046052 0.044282
0.449592 0.052705 0.048707
0.465003 0.053376 0.050019
0.110536 0.214847 0.089967
0.112245 0.204532 0.084932
0.136263 0.207309 0.086793
0.173617 0.222110 0.095613
0.240452 0.232547 0.109194
0.317601 0.248356 0.121035
0.376349 0.240085 0.113649
0.391760 0.211673 0.093416
0.392462 0.188510 0.082429
0.392279 0.166476 0.073945
0.392859 0.129946 0.063142
0.393591 0.087922 0.052766
0.392767 0.062470 0.047242
0.403388 0.053040 0.045655
0.445808 0.060853 0.050141
0.502586 0.090608 0.061433
0.503807 0.080659 0.059022
0.165164 0.264408 0.113008
0.156893 0.259007 0.109102
0.174472 0.264561 0.110994
0.201999 0.277836 0.119081
0.227634 0.285527 0.127413
0.291722 0.294591 0.142824
0.371221 0.297734 0.147402
0.414160 0.273686 0.129763
0.436164 0.247959 0.108309
0.447639 0.228702 0.096071
0.456306 0.200076 0.085939
0.462928 0.158495 0.075776
0.462074 0.117754 0.065309
0.462776 0.089601 0.058198
0.489723 0.091157 0.060578
0.550072 0.149783 0.080201
0.559197 0.148745 0.080659
0.238132 0.321843 0.141238
0.221500 0.311864 0.136660
0.231357 0.319127 0.136202
0.249912 0.328862 0.141360
0.256718 0.333410 0.146792
0.278172 0.338811 0.155001
0.336461 0.342931 0.168063
0.411505 0.338476 0.169802
0.463066 0.316686 0.153567
0.498177 0.295857 0.131014
0.521080 0.270985 0.111788
0.530816 0.238117 0.101289
0.529290 0.197650 0.090852
0.522972 0.156939 0.079927
0.527367 0.136507 0.075074
0.564050 0.173281 0.087282
0.592828 0.203220 0.097200
0.319570 0.382422 0.172122
0.304311 0.374060 0.168185
0.303700 0.376654 0.165469
0.310643 0.382544 0.166293
0.303807 0.382239 0.169802
0.306157 0.385870 0.174258
0.333471 0.392309 0.182650
0.395956 0.396338 0.193851
0.473075 0.390143 0.197177
0.532799 0.376211 0.187625
0.568475 0.354299 0.164019
0.588098 0.321523 0.134997
0.589197 0.280934 0.117037
0.575677 0.232654 0.103365
0.561608 0.189014 0.091127
0.578698 0.202487 0.095979
0.620417 0.254978 0.112642
0.397787 0.444053 0.203189
0.390005 0.439841 0.200504
0.384543 0.437430 0.199100
0.381888 0.440543 0.199100
0.369284 0.440146 0.199985
0.352529 0.438163 0.198642
0.362844 0.442435 0.202457
0.402640 0.449973 0.211307
0.485527 0.457176 0.226413
0.559777 0.450492 0.232334
0.603601 0.437125 0.226352
0.623865 0.408316 0.200397
0.630396 0.365774 0.162371
0.623468 0.310903 0.130510
0.600717 0.252644 0.110842
0.610925 0.258381 0.113313
0.655543 0.327352 0.139681
0.478477 0.518135 0.237278
0.473991 0.517861 0.231235
0.471275 0.515053 0.231785
0.465812 0.513649 0.234440
0.450309 0.511574 0.235416
0.425010 0.505486 0.231083
0.412665 0.501488 0.228580
0.441535 0.507927 0.236271
0.498772 0.519066 0.250156
0.583413 0.522484 0.267979
0.634516 0.514275 0.274937
0.657588 0.491920 0.265171
0.661891 0.450629 0.233219
0.657618 0.398291 0.187686
0.649561 0.346761 0.151919
0.656245 0.351125 0.156497
0.683833 0.413352 0.200916
0.578073 0.601862 0.284855
0.568124 0.602502 0.268162
0.566384 0.605844 0.267613
0.564981 0.603800 0.270024
0.551034 0.595712 0.271214
0.517769 0.584054 0.268620
0.484077 0.569543 0.261753
0.488167 0.563500 0.263066
0.528923 0.567864 0.274052
0.592752 0.580530 0.293065
0.658045 0.583673 0.313909
0.693446 0.579431 0.323796
0.700679 0.548241 0.307866
0.692103 0.498421 0.272404
0.685481 0.458579 0.239628
0.692775 0.461753 0.243610
0.710445 0.496574 0.275288
0.659083 0.666377 0.333837
0.649866 0.665400 0.317296
0.645441 0.672602 0.311345
0.644587 0.676600 0.313115
0.640940 0.667353 0.305791
0.613291 0.652094 0.304204
0.569253 0.632868 0.297704
0.543450 0.616175 0.291997
0.554498 0.607538 0.294041
0.595056 0.611627 0.306371
0.654719 0.627192 0.331029
0.710292 0.637781 0.359899
0.735103 0.632410 0.368231
0.731899 0.600885 0.349279
0.726528 0.579812 0.334508
0.730068 0.572763 0.331762
0.738888 0.580957 0.341436
0.705806 0.704585 0.369482
0.701503 0.702358 0.363195
0.698970 0.706416 0.354009
0.696254 0.711269 0.349371
0.690303 0.703273 0.343084
0.670893 0.689998 0.339727
0.639979 0.674891 0.333959
0.605585 0.659205 0.323400
0.592371 0.648585 0.318791
0.610498 0.645777 0.324407
0.648676 0.653559 0.340673
0.692531 0.664332 0.362707
0.733761 0.673609 0.388647
0.750851 0.662562 0.390723
0.752407 0.652186 0.386969
0.757473 0.649195 0.387823
0.762081 0.644190 0.387610
0.735073 0.728847 0.393469
0.733425 0.727382 0.392248
0.731563 0.726680 0.388647
0.729030 0.726589 0.382727
0.721950 0.721553 0.380468
0.709560 0.714870 0.378058
0.690394 0.706813 0.371679
0.666560 0.696590 0.360998
0.643427 0.686671 0.350378
0.644221 0.682826 0.350958
0.666102 0.685206 0.361608
0.693324 0.689479 0.375311
0.718074 0.691279 0.387518
0.746365 0.694148 0.401617
0.764401 0.691371 0.407355
0.774868 0.690425 0.411566
0.780362 0.686549 0.412848
0.756588 0.748074 0.412451
0.756252 0.747707 0.412207
0.755581 0.747158 0.411627
0.754116 0.745815 0.410040
0.750698 0.743282 0.408423
0.743069 0.739712 0.406195
0.730526 0.734462 0.401770
0.713191 0.727199 0.393622
0.691157 0.718868 0.382391
0.681697 0.713741 0.378149
0.692500 0.713802 0.385321
0.712581 0.716243 0.397162
0.731441 0.717067 0.405219
0.750851 0.717494 0.412390
0.773037 0.719203 0.421027
0.788540 0.720699 0.423529
0.796658 0.719387 0.424018
0.774227 0.763546 0.427985
0.773617 0.763149 0.427558
0.773434 0.762966 0.427344
0.773312 0.762814 0.427253
0.772274 0.762081 0.426764
0.768490 0.760098 0.425849
0.760678 0.757046 0.424201
0.747799 0.752224 0.419287
0.729152 0.744747 0.409857
0.715389 0.738521 0.403204
0.718837 0.737026 0.407385
0.732967 0.738643 0.413916
0.750088 0.739956 0.419837
0.766873 0.740475 0.425910
0.784329 0.742428 0.428656
0.798978 0.743130 0.430152
0.807828 0.743435 0.431769
0.788815 0.775021 0.441779
0.788388 0.774746 0.441566
0.787839 0.774227 0.440986
0.787747 0.774136 0.440833
0.787961 0.774289 0.441108
0.787350 0.774044 0.441077
0.782834 0.772519 0.439216
0.773098 0.769497 0.435431
0.758633 0.764279 0.429908
0.742794 0.758297 0.423499
0.740658 0.756161 0.422370
0.751827 0.757504 0.426612
0.766720 0.759274 0.430915
0.783352 0.760586 0.433021
0.798123 0.762020 0.434852
0.808591 0.762814 0.438117
0.816129 0.762875 0.441016
0.028565 0.029999 0.091005
0.045380 0.032044 0.092226
0.101228 0.036683 0.101930
0.147707 0.038331 0.109987
0.168002 0.038239 0.111238
0.174868 0.037476 0.105653
0.173983 0.037415 0.085939
0.172000 0.038056 0.062989
0.179110 0.038422 0.049409
0.188113 0.038636 0.041108
0.197482 0.038941 0.037751
0.211063 0.039185 0.037324
0.232975 0.039734 0.037812
0.277928 0.040253 0.038331
0.349889 0.042237 0.040833
0.398993 0.045045 0.043732
0.428962 0.047547 0.046265
0.031403 0.050446 0.092256
0.034943 0.050385 0.095155
0.105715 0.054871 0.102754
0.173892 0.061280 0.093416
0.210544 0.062043 0.089509
0.218662 0.055116 0.084565
0.210269 0.047974 0.068605
0.194980 0.042786 0.054078
0.187503 0.039918 0.045197
0.194430 0.039094 0.039551
0.211154 0.039246 0.037537
0.233646 0.039796 0.037873
0.257572 0.040162 0.038209
0.291722 0.040314 0.038392
0.347143 0.042145 0.040711
0.399268 0.045106 0.043793
0.434791 0.048005 0.046723
0.040742 0.087617 0.101747
0.045289 0.094026 0.105653
0.087678 0.091615 0.097475
0.188449 0.090913 0.080781
0.241032 0.107607 0.080903
0.287053 0.112398 0.079438
0.308049 0.105287 0.072297
0.297795 0.091035 0.060792
0.273167 0.076051 0.052552
0.259983 0.063935 0.045930
0.262028 0.050233 0.040650
0.272648 0.041810 0.038544
0.289799 0.040253 0.038300
0.313451 0.040864 0.039063
0.351965 0.042390 0.041016
0.418585 0.047089 0.045533
0.460578 0.050507 0.048981
0.062745 0.152132 0.119844
0.062593 0.147280 0.111818
0.080354 0.149050 0.086946
0.175998 0.156741 0.091707
0.239048 0.159579 0.093935
0.302312 0.170413 0.096437
0.366979 0.171878 0.093172
0.397314 0.156527 0.080720
0.382818 0.137118 0.070497
0.366247 0.120729 0.061097
0.357336 0.096071 0.052308
0.351568 0.065064 0.045441
0.349157 0.047578 0.041871
0.356970 0.043122 0.041321
0.383185 0.044526 0.042939
0.472572 0.072511 0.054810
0.539818 0.122683 0.072450
0.096040 0.220523 0.126436
0.092500 0.212436 0.116762
0.108248 0.208316 0.091279
0.177981 0.219089 0.108186
0.244419 0.229648 0.117372
0.316503 0.239902 0.123903
0.387335 0.239750 0.121462
0.422675 0.215854 0.102052
0.437507 0.193210 0.088991
0.443854 0.174685 0.081392
0.442420 0.152468 0.072694
0.436286 0.118166 0.063447
0.424231 0.079500 0.053010
0.410864 0.055756 0.046693
0.417029 0.048737 0.045838
0.461860 0.060822 0.051270
0.522881 0.104585 0.066529
0.151186 0.279362 0.123964
0.146059 0.277989 0.121859
0.158633 0.266575 0.119875
0.206302 0.276799 0.126040
0.242496 0.289921 0.132387
0.309850 0.300847 0.145418
0.395727 0.307042 0.150729
0.450507 0.284398 0.134737
0.473793 0.251835 0.111116
0.483467 0.225406 0.097871
0.490944 0.200137 0.088594
0.500206 0.176394 0.083223
0.500084 0.146578 0.075563
0.481514 0.104326 0.063325
0.470436 0.075990 0.055360
0.493172 0.082124 0.058534
0.548852 0.141024 0.077882
0.228946 0.332006 0.142428
0.221683 0.334691 0.142000
0.217258 0.328740 0.141939
0.252323 0.336309 0.146792
0.278050 0.348028 0.150515
0.304540 0.354070 0.158053
0.374334 0.362493 0.172335
0.455024 0.357214 0.172732
0.503716 0.328313 0.153323
0.526726 0.288594 0.123308
0.531243 0.249195 0.104158
0.538140 0.228534 0.099397
0.547234 0.212741 0.096071
0.541222 0.179370 0.087068
0.528923 0.141772 0.076539
0.538537 0.138491 0.076417
0.579553 0.187503 0.092134
0.317678 0.402014 0.168551
0.306050 0.398749 0.166323
0.295155 0.393042 0.166781
0.315633 0.400641 0.173587
0.336461 0.412879 0.174136
0.345403 0.414069 0.175967
0.370367 0.412726 0.185489
0.443565 0.419623 0.201175
0.518532 0.411658 0.204410
0.558618 0.381826 0.185702
0.576684 0.334737 0.147967
0.587793 0.300679 0.124224
0.598413 0.289693 0.120211
0.594720 0.262104 0.112795
0.584466 0.224842 0.102235
0.585290 0.211048 0.098665
0.609003 0.237888 0.107332
0.404623 0.472374 0.196628
0.394614 0.466575 0.193545
0.381826 0.460533 0.192172
0.388327 0.465385 0.199100
0.405356 0.478050 0.203128
0.402197 0.477424 0.199802
0.403632 0.468940 0.204440
0.431540 0.464973 0.215793
0.519234 0.476539 0.236759
0.578515 0.465019 0.240513
0.610101 0.441703 0.228305
0.625818 0.407401 0.200214
0.635676 0.382010 0.176715
0.640040 0.350759 0.152331
0.633906 0.309346 0.130922
0.629694 0.285664 0.121981
0.640192 0.295979 0.125856
0.481590 0.539910 0.226200
0.480339 0.540520 0.226047
0.473411 0.534264 0.223239
0.471092 0.530541 0.224704
0.473976 0.534997 0.228824
0.463142 0.532982 0.227665
0.447578 0.523949 0.228244
0.462715 0.520195 0.238254
0.508980 0.524712 0.254368
0.592508 0.534173 0.275975
0.636927 0.525322 0.281468
0.660273 0.507362 0.275303
0.668666 0.476188 0.254398
0.668360 0.439109 0.223362
0.664424 0.394110 0.184573
0.661646 0.359503 0.157321
0.668788 0.361822 0.157870
0.567147 0.610346 0.264836
0.564004 0.618891 0.272618
0.567086 0.613062 0.263310
0.563180 0.605676 0.261051
0.555703 0.600397 0.260624
0.534691 0.593256 0.259342
0.508110 0.583459 0.258000
0.515099 0.580591 0.267430
0.558679 0.587549 0.286717
0.608133 0.595026 0.304967
0.661006 0.598077 0.322057
0.689845 0.590204 0.328191
0.702113 0.568872 0.320439
0.701900 0.532250 0.297978
0.693782 0.482490 0.260563
0.685756 0.439063 0.223026
0.688807 0.431525 0.216587
0.654475 0.675074 0.312779
0.626795 0.682094 0.333165
0.645380 0.676509 0.307469
0.642573 0.672938 0.303868
0.635920 0.665522 0.298558
0.617655 0.655421 0.293400
0.585534 0.642390 0.290379
0.574304 0.633387 0.295995
0.604669 0.635584 0.314458
0.644007 0.642573 0.334661
0.679652 0.648280 0.351995
0.715511 0.652491 0.369787
0.732479 0.643793 0.373480
0.735073 0.619287 0.361303
0.731075 0.587091 0.341131
0.722377 0.547494 0.312596
0.719112 0.525856 0.297307
0.709895 0.715511 0.353307
0.689570 0.720119 0.367529
0.700343 0.714473 0.345586
0.697047 0.715053 0.341741
0.688777 0.709712 0.334997
0.675654 0.698970 0.323827
0.648859 0.684504 0.319310
0.626276 0.671565 0.320806
0.634180 0.666804 0.333593
0.661830 0.669673 0.351019
0.694270 0.677699 0.370581
0.726680 0.687922 0.392157
0.757870 0.696712 0.406836
0.764614 0.683864 0.404700
0.757900 0.660029 0.392645
0.754910 0.637934 0.381720
0.754788 0.627253 0.376196
0.738918 0.736629 0.381476
0.736629 0.738216 0.382330
0.734615 0.734005 0.378149
0.731716 0.735012 0.371496
0.722622 0.731807 0.362127
0.710170 0.721584 0.354376
0.689876 0.710781 0.350469
0.667414 0.700160 0.347875
0.656031 0.692012 0.350042
0.668666 0.691096 0.361120
0.695399 0.697658 0.379187
0.724727 0.707332 0.399329
0.751736 0.716030 0.412390
0.774990 0.720058 0.421637
0.773404 0.703212 0.415503
0.774197 0.689570 0.410925
0.778073 0.682307 0.410163
0.757931 0.751217 0.404913
0.757595 0.750759 0.405646
0.756558 0.749416 0.406012
0.754665 0.748470 0.402869
0.748714 0.745724 0.394141
0.739437 0.740017 0.390997
0.727199 0.733730 0.388952
0.710567 0.726131 0.384131
0.690364 0.718044 0.376745
0.683223 0.713588 0.375982
0.696498 0.715236 0.386297
0.718929 0.720394 0.401648
0.740047 0.724483 0.410864
0.757900 0.725887 0.417823
0.773800 0.723140 0.422370
0.784543 0.719692 0.422827
0.794095 0.718410 0.423468
0.773739 0.763943 0.423194
0.773404 0.763577 0.423896
0.773312 0.763302 0.424720
0.773068 0.762966 0.425238
0.771206 0.761654 0.423957
0.767147 0.759335 0.422644
0.759731 0.756222 0.421241
0.747433 0.751278 0.416968
0.729427 0.743832 0.408240
0.713466 0.737057 0.400488
0.713741 0.734859 0.402716
0.726375 0.736019 0.410864
0.742916 0.737881 0.416693
0.759091 0.737942 0.422370
0.775876 0.738979 0.426795
0.791989 0.740108 0.428870
0.804044 0.741543 0.430274
0.787778 0.774472 0.439582
0.787381 0.774044 0.439399
0.787289 0.773983 0.439521
0.787533 0.774136 0.439948
0.787778 0.774258 0.440436
0.786984 0.773831 0.440467
0.782528 0.772000 0.439033
0.773007 0.768643 0.435187
0.759213 0.763485 0.429786
0.742031 0.756924 0.422278
0.734981 0.753140 0.419562
0.742367 0.753201 0.422217
0.756252 0.754879 0.427222
0.771328 0.755642 0.430396
0.787808 0.757198 0.432746
0.800534 0.758206 0.434241
0.811185 0.759609 0.438148
0.027619 0.029114 0.109224
0.040162 0.030182 0.119600
0.080262 0.034028 0.133394
0.132387 0.036896 0.146212
0.161715 0.037629 0.156924
0.174533 0.037171 0.159365
0.181308 0.037079 0.153292
0.187778 0.037018 0.137057
0.195926 0.037201 0.113710
0.201511 0.037629 0.086397
0.201907 0.037995 0.058930
0.205325 0.038422 0.042908
0.218418 0.039216 0.038514
