tools/luts_backup/Kodak Vision3 50D 5203 (DP)_FC.cube
# (C) 2014 VisionColor & Patchflyer [www.vision-color.com]
# Generator: VC Patchmatch v.2.1.1 [64/53]
# All work and no play makes Jack a dull boy.
# LUT generated from: Kodak Vision3 50D 5203 (DP)_FC01
LUT_3D_SIZE 9
0.029297 0.029297 0.029297
0.034867 0.017639 0.019669
0.069368 0.016632 0.014160
0.107240 0.015122 0.011078
0.157687 0.014130 0.008591
0.176242 0.013870 0.007904
0.252064 0.013718 0.005921
0.433188 0.014954 0.004211
0.498924 0.015351 0.004349
0.029770 0.107546 0.008820
0.054978 0.099550 0.007477
0.122606 0.041123 0.005341
0.162203 0.019486 0.007279
0.206943 0.014511 0.006790
0.244251 0.013703 0.006027
0.303822 0.013825 0.005035
0.442176 0.015366 0.004211
0.510948 0.015412 0.004364
0.034363 0.166323 0.017502
0.031586 0.180133 0.017609
0.110307 0.160418 0.033570
0.326635 0.120409 0.010773
0.427100 0.091432 0.002258
0.433753 0.053681 0.002457
0.450462 0.030686 0.003113
0.710887 0.060060 0.003235
0.552636 0.017105 0.004334
0.119722 0.274784 0.045426
0.111177 0.281483 0.043885
0.076020 0.307256 0.034302
0.223636 0.293233 0.048631
0.606867 0.223499 0.031861
0.782940 0.151888 0.005280
0.709316 0.090730 0.002594
0.635386 0.042710 0.003449
0.837613 0.080751 0.003449
0.315526 0.430457 0.063951
0.308186 0.431601 0.065248
0.246952 0.437354 0.066667
0.213275 0.432517 0.061143
0.547021 0.450614 0.078553
0.925734 0.323552 0.055421
0.965255 0.192050 0.010040
0.780331 0.091798 0.004669
0.991272 0.205966 0.016693
0.609430 0.629038 0.084947
0.577462 0.620996 0.065187
0.559564 0.625879 0.076204
0.409232 0.587701 0.079912
0.454200 0.575921 0.079179
0.846128 0.512688 0.112291
0.973907 0.476387 0.125673
0.990723 0.381262 0.085359
0.995697 0.382467 0.091859
0.847425 0.790158 0.123766
0.823972 0.776272 0.112688
0.780850 0.758846 0.113359
0.673793 0.729000 0.108904
0.570321 0.693553 0.100175
0.692760 0.703975 0.113130
0.906355 0.645869 0.154009
0.986053 0.600793 0.190723
0.994247 0.557015 0.184863
0.931289 0.862181 0.156924
0.927810 0.860548 0.155184
0.917144 0.858854 0.153216
0.869261 0.850980 0.150011
0.769360 0.820417 0.138933
0.797360 0.815610 0.149599
0.909255 0.800641 0.185855
0.984939 0.733516 0.233051
0.994385 0.695933 0.247730
0.971038 0.895033 0.196292
0.968643 0.893462 0.194461
0.966415 0.893080 0.193454
0.953216 0.897368 0.194171
0.899504 0.893629 0.184833
0.886091 0.886946 0.194171
0.949691 0.876997 0.232441
0.988922 0.840772 0.269001
0.992493 0.800748 0.297887
0.008392 0.014313 0.046555
0.096193 0.014450 0.116976
0.148989 0.013108 0.093172
0.148989 0.010773 0.051255
0.141604 0.011841 0.014466
0.157137 0.014069 0.008713
0.210483 0.013733 0.006836
0.365148 0.014466 0.004547
0.477363 0.015244 0.004273
0.001495 0.134600 0.119875
0.071595 0.083101 0.104341
0.199359 0.039414 0.057923
0.216648 0.017578 0.013947
0.229267 0.015457 0.006271
0.255390 0.013840 0.005768
0.285222 0.013565 0.005249
0.373663 0.014618 0.004501
0.546746 0.016541 0.004379
0.014343 0.223346 0.045609
0.072313 0.180850 0.042420
0.141939 0.186389 0.041398
0.399008 0.127184 0.020020
0.499641 0.094957 0.003235
0.541619 0.072038 0.002335
0.516396 0.040009 0.003006
0.491508 0.020645 0.003738
0.728588 0.060334 0.003326
0.110948 0.303365 0.037629
0.134844 0.283650 0.043870
0.167987 0.302113 0.042939
0.296300 0.321248 0.053605
0.711055 0.222599 0.025513
0.801602 0.144335 0.004761
0.833585 0.117723 0.003113
0.773968 0.086870 0.002899
0.906081 0.107149 0.003189
0.326863 0.464820 0.051804
0.312886 0.446052 0.053101
0.345449 0.460090 0.055756
0.324086 0.462409 0.057679
0.587823 0.476722 0.082506
0.910857 0.350973 0.062928
0.982254 0.256413 0.025071
0.979278 0.191043 0.011307
0.986374 0.182116 0.009979
0.599374 0.641947 0.063355
0.594064 0.641443 0.059815
0.578653 0.628443 0.062425
0.487877 0.611154 0.068330
0.579080 0.620584 0.090135
0.849393 0.589410 0.129442
0.964248 0.495598 0.130831
0.992035 0.375586 0.082490
0.995941 0.319844 0.057435
0.857420 0.802258 0.094621
0.835431 0.797833 0.087190
0.811994 0.789441 0.077668
0.717586 0.755154 0.080018
0.679225 0.730251 0.103944
0.831693 0.740612 0.141680
0.961654 0.698085 0.203800
0.988739 0.603479 0.194034
0.993988 0.537636 0.172076
0.935409 0.864713 0.138308
0.931792 0.862898 0.141161
0.916701 0.859983 0.126864
0.870909 0.847288 0.128344
0.775448 0.818128 0.128038
0.793149 0.813840 0.143923
0.903365 0.817884 0.185519
0.972610 0.751888 0.226688
0.993667 0.699413 0.240345
0.967147 0.893156 0.188556
0.966232 0.892409 0.189548
0.966415 0.892790 0.191226
0.956222 0.894209 0.191730
0.906783 0.890898 0.182086
0.858198 0.873579 0.172656
0.901839 0.874769 0.202518
0.969268 0.840879 0.238514
0.992203 0.802289 0.274525
0.006592 0.015167 0.070863
0.046265 0.015839 0.141100
0.109514 0.015640 0.145403
0.168658 0.015885 0.143236
0.214008 0.014023 0.118257
0.245426 0.010132 0.070756
0.222766 0.010147 0.021347
0.324788 0.013794 0.005173
0.441382 0.015045 0.004196
0.001175 0.055207 0.137591
0.051530 0.026444 0.177584
0.197681 0.018402 0.179202
0.289006 0.015915 0.147097
0.353277 0.012009 0.100511
0.356313 0.008804 0.043122
0.271366 0.011994 0.007462
0.310521 0.013901 0.004974
0.430808 0.014923 0.004211
0.001465 0.249256 0.234424
0.024140 0.222217 0.222004
0.155947 0.145113 0.185916
0.370199 0.109697 0.122515
0.526055 0.074357 0.065888
0.607843 0.046448 0.014084
0.492973 0.024628 0.003662
0.417060 0.015091 0.004288
0.465400 0.015183 0.004257
0.015320 0.414801 0.175738
0.039292 0.356390 0.124331
0.171740 0.301167 0.114336
0.350530 0.311421 0.094118
0.690730 0.224414 0.070176
0.869383 0.154498 0.025086
0.875776 0.118379 0.005447
0.821286 0.098589 0.003082
0.759167 0.067185 0.003326
0.159014 0.502495 0.098421
0.184253 0.470268 0.088060
0.274144 0.456046 0.110246
0.415381 0.484947 0.084947
0.641001 0.460914 0.079896
0.951354 0.342702 0.049088
0.979187 0.240970 0.015991
0.980850 0.203098 0.008392
0.978256 0.173068 0.008164
0.448569 0.640070 0.104173
0.463767 0.638392 0.097688
0.488258 0.632227 0.101213
0.565957 0.633722 0.091615
0.651560 0.633524 0.075441
0.896513 0.575006 0.088869
0.983520 0.501350 0.082826
0.994492 0.409720 0.067185
0.996445 0.335256 0.057008
0.765118 0.815152 0.130495
0.743175 0.795590 0.118639
0.756924 0.787121 0.098955
0.762371 0.775525 0.090486
0.753643 0.769390 0.075319
0.880796 0.760082 0.108919
0.965499 0.710170 0.156939
0.990463 0.628672 0.180972
0.995575 0.513207 0.148821
0.932387 0.892119 0.128771
0.927871 0.887999 0.125994
0.912627 0.876829 0.119738
0.883680 0.862287 0.108583
0.862867 0.859663 0.087007
0.899031 0.854597 0.110323
0.963561 0.825223 0.179751
0.985031 0.771191 0.227054
0.995331 0.661128 0.216419
0.975006 0.915496 0.143359
0.976516 0.912703 0.142626
0.974853 0.910430 0.145708
0.962829 0.908400 0.142275
0.928985 0.899382 0.136019
0.905821 0.892592 0.142550
0.936049 0.885191 0.181003
0.959213 0.846937 0.227344
0.989868 0.795010 0.262272
0.004562 0.018158 0.108598
0.011414 0.018219 0.149569
0.055283 0.016693 0.164523
0.118944 0.016358 0.169146
0.170413 0.016663 0.162692
0.231907 0.015518 0.145129
0.304158 0.013581 0.120378
0.483299 0.008743 0.049302
0.532464 0.011170 0.007691
0.002930 0.023377 0.122805
0.009384 0.021210 0.172290
0.097826 0.018341 0.230045
0.199832 0.018479 0.192630
0.293324 0.017441 0.170932
0.364843 0.015640 0.144564
0.387472 0.012207 0.103243
0.372534 0.008927 0.020005
0.413138 0.014725 0.004242
0.000366 0.167483 0.267185
0.010788 0.159274 0.322042
0.062867 0.124132 0.296391
0.324559 0.076539 0.227970
0.526040 0.047929 0.176638
0.667109 0.024460 0.137240
0.710124 0.011017 0.077180
0.523171 0.009400 0.010864
0.422980 0.014740 0.004288
0.005768 0.462852 0.396536
0.018173 0.428214 0.417670
0.078264 0.360555 0.377005
0.278141 0.274311 0.305409
0.563058 0.224247 0.226444
0.746563 0.141253 0.145022
0.849226 0.074907 0.060746
0.812039 0.042847 0.009186
0.608057 0.028397 0.003754
0.028153 0.660639 0.370443
0.044831 0.580545 0.296208
0.108431 0.517464 0.248844
0.316533 0.462150 0.217884
0.577356 0.473945 0.187762
0.875792 0.381888 0.161990
0.956710 0.270161 0.102754
0.989792 0.197986 0.036301
0.975952 0.166461 0.007858
0.174502 0.650065 0.209018
0.195819 0.643336 0.200610
0.274769 0.623316 0.186282
0.432578 0.620462 0.196628
0.650034 0.657237 0.167239
0.872465 0.616724 0.154055
0.979751 0.513710 0.128145
0.995575 0.378531 0.060792
0.996353 0.283497 0.024323
0.551080 0.770031 0.218891
0.551492 0.760525 0.197391
0.583917 0.762814 0.181811
0.636179 0.762692 0.180072
0.732158 0.773251 0.172885
0.876371 0.783886 0.147784
0.973419 0.734127 0.144793
0.996475 0.629999 0.120256
0.998032 0.530892 0.098772
0.853529 0.887953 0.236744
0.835676 0.876143 0.213764
0.845792 0.871824 0.189487
0.852872 0.868727 0.170977
0.870893 0.869429 0.158831
0.906966 0.874067 0.130266
0.980407 0.838224 0.137575
0.992981 0.775494 0.166415
0.996658 0.703624 0.190204
0.942687 0.933471 0.228717
0.950103 0.934554 0.213413
0.949493 0.932769 0.203784
0.935851 0.923293 0.197940
0.934920 0.918715 0.180270
0.941039 0.918822 0.138293
0.985763 0.897093 0.137804
0.992233 0.846174 0.186145
0.994553 0.778134 0.233600
0.003418 0.020493 0.130404
0.004181 0.020127 0.131518
0.032380 0.019303 0.218067
0.079149 0.018570 0.234668
0.112749 0.017273 0.211627
0.167758 0.017563 0.186572
0.283238 0.017548 0.173236
0.575509 0.014160 0.131090
0.797803 0.010941 0.078752
0.002365 0.023087 0.145510
0.004761 0.021790 0.172030
0.054078 0.019852 0.258091
0.125246 0.018875 0.254780
0.186481 0.019257 0.222812
0.259236 0.019715 0.208850
0.322179 0.017823 0.174777
0.444068 0.011841 0.098650
0.467155 0.011154 0.007630
0.000153 0.129931 0.292348
0.000549 0.111864 0.342351
0.025849 0.091157 0.420264
0.182773 0.058106 0.362982
0.397803 0.032975 0.278447
0.561929 0.022614 0.219425
0.563851 0.016724 0.168063
0.610849 0.012329 0.106142
0.559365 0.009003 0.021073
0.001678 0.377783 0.546395
0.009552 0.352728 0.577813
0.032212 0.315007 0.550332
0.119265 0.253925 0.471214
0.433387 0.201770 0.349401
0.661860 0.141421 0.259754
0.819440 0.068238 0.175998
0.915846 0.022812 0.093294
0.821439 0.011307 0.035248
0.017792 0.685954 0.674327
0.036408 0.649226 0.651392
0.078874 0.596613 0.623880
0.174624 0.541634 0.561532
0.455573 0.453025 0.474815
0.706661 0.398474 0.393561
0.843412 0.272404 0.277531
0.937591 0.159213 0.142092
0.974670 0.133364 0.052140
0.060838 0.827390 0.609751
0.072892 0.806378 0.585214
0.116091 0.745388 0.499855
0.204654 0.673808 0.405783
0.482444 0.622751 0.359854
0.755505 0.641352 0.330770
0.929839 0.571267 0.310216
0.968872 0.443442 0.225589
0.990188 0.328313 0.129747
0.278508 0.776516 0.388312
0.273228 0.767391 0.366217
0.307774 0.762432 0.358770
0.399878 0.735393 0.301579
0.575814 0.747677 0.317143
0.801785 0.789273 0.300206
0.939925 0.752117 0.283421
0.989853 0.657237 0.239246
0.994751 0.535256 0.176806
0.657801 0.858183 0.382925
0.671366 0.848249 0.310811
0.667002 0.841657 0.293645
0.681819 0.842786 0.277989
0.745602 0.852888 0.280751
0.856123 0.868345 0.281117
0.947738 0.856260 0.262623
0.991730 0.784085 0.221424
0.996918 0.703304 0.191623
0.853101 0.915007 0.366445
0.874907 0.921386 0.342977
0.883131 0.917922 0.304097
0.880293 0.912490 0.284230
0.885084 0.912093 0.263310
0.906493 0.915572 0.245655
0.950668 0.915175 0.193423
0.993027 0.866712 0.171664
0.997024 0.821363 0.201663
0.001831 0.023453 0.170321
0.002197 0.022492 0.158633
0.004166 0.022629 0.189456
0.038834 0.020630 0.278065
0.072374 0.019959 0.269566
0.080110 0.019287 0.255543
0.193423 0.019547 0.227054
0.734874 0.021866 0.229709
0.922499 0.019501 0.190402
0.001740 0.024201 0.178058
0.001846 0.023728 0.178424
0.019226 0.022202 0.306828
0.078080 0.021424 0.328313
0.140108 0.020600 0.326085
0.155367 0.020249 0.292134
0.204501 0.020600 0.252323
0.376974 0.018143 0.182269
0.787594 0.013428 0.110719
0.000168 0.116442 0.325978
0.000366 0.072618 0.317388
0.002533 0.054124 0.426566
0.112642 0.036866 0.486122
0.270222 0.030518 0.409903
0.316472 0.025513 0.322255
0.384787 0.022980 0.265446
0.597742 0.019226 0.198077
0.740169 0.012085 0.096529
0.000153 0.294636 0.523156
0.000504 0.270375 0.559731
0.006607 0.273625 0.640177
0.053758 0.236591 0.613184
0.236133 0.178668 0.514778
0.487037 0.128298 0.394507
0.745388 0.070878 0.291371
0.894484 0.029419 0.201846
0.945663 0.017639 0.128557
0.008408 0.623163 0.815564
0.015976 0.575616 0.803845
0.036271 0.550347 0.781476
0.090089 0.493950 0.727016
0.259831 0.425040 0.637552
0.564157 0.371176 0.530053
0.749432 0.288212 0.426810
0.913817 0.177066 0.281514
0.979782 0.108583 0.153918
0.046235 0.821836 0.846281
0.064546 0.799329 0.835492
0.115984 0.758312 0.796872
0.180407 0.728313 0.760204
0.335836 0.688594 0.708400
0.641505 0.626902 0.631449
0.817105 0.582818 0.570153
0.891478 0.467140 0.453910
0.951308 0.355718 0.303868
0.167849 0.888792 0.736202
0.151751 0.882704 0.765332
0.168444 0.875120 0.715877
0.215778 0.841138 0.652689
0.333364 0.786725 0.571206
0.636866 0.749447 0.518715
0.873228 0.766232 0.498589
0.957855 0.709453 0.460746
0.981048 0.624018 0.379538
0.435904 0.864469 0.573175
0.397543 0.848524 0.525170
0.381338 0.838743 0.513252
0.408759 0.823941 0.476356
0.499611 0.810834 0.438682
0.683665 0.833646 0.446754
0.888457 0.860014 0.426856
0.976745 0.815183 0.404685
0.988663 0.769863 0.366567
0.671412 0.885634 0.523613
0.707469 0.889830 0.496559
0.702068 0.882277 0.439277
0.705913 0.879393 0.419776
0.726802 0.882918 0.393027
0.794232 0.898573 0.365972
0.878660 0.904418 0.357427
0.957641 0.888731 0.303685
0.991577 0.861967 0.318364
0.001358 0.026993 0.234409
0.001434 0.025986 0.211170
0.001465 0.025879 0.208316
0.006134 0.025574 0.313085
0.033906 0.022980 0.369970
0.053254 0.022538 0.362524
0.181704 0.024063 0.421515
0.658656 0.027817 0.336751
0.956649 0.026566 0.281773
0.001480 0.025513 0.201129
0.001480 0.025391 0.200031
0.002014 0.025864 0.224506
0.048676 0.023453 0.400336
0.106981 0.022995 0.422415
0.123095 0.022416 0.411109
0.107668 0.021836 0.369894
0.310735 0.024949 0.325994
0.957259 0.025483 0.266560
0.000183 0.085328 0.316442
0.000397 0.071824 0.321111
0.000885 0.041321 0.308110
0.057465 0.031159 0.578241
0.205951 0.028199 0.544167
0.275364 0.027649 0.466651
0.253193 0.025269 0.396551
0.466697 0.026337 0.319631
0.855970 0.022187 0.228748
0.000107 0.255711 0.512047
0.000107 0.230991 0.502937
0.000229 0.212360 0.525322
0.008362 0.207004 0.698177
0.125124 0.164096 0.642756
0.340276 0.116670 0.544228
0.482033 0.068238 0.451820
0.809186 0.039246 0.344701
0.980774 0.025376 0.246220
0.001190 0.541741 0.820722
0.004440 0.531014 0.832593
0.010147 0.520958 0.853208
0.037034 0.473960 0.831937
0.151461 0.417350 0.755276
0.360815 0.344854 0.669367
0.557366 0.291188 0.570291
0.839368 0.211276 0.442771
0.985245 0.120027 0.277836
0.024933 0.791501 0.929427
0.038270 0.770474 0.931075
0.068421 0.727337 0.906996
0.131884 0.683909 0.868223
0.246113 0.637324 0.815671
0.481926 0.598581 0.759503
0.669795 0.561257 0.698878
0.819379 0.494606 0.620890
0.917556 0.376745 0.487709
0.106996 0.888441 0.901839
0.144839 0.859770 0.900298
0.160952 0.849729 0.885527
0.209705 0.831662 0.867170
0.320638 0.811444 0.846677
0.524620 0.790448 0.809720
0.785412 0.756313 0.750408
0.888747 0.720104 0.704036
0.927260 0.650568 0.628580
0.301640 0.922774 0.855665
0.256291 0.910658 0.863539
0.236286 0.904418 0.852598
0.263081 0.899397 0.820905
0.327947 0.886107 0.780774
0.477073 0.864210 0.713756
0.759823 0.835370 0.647288
0.929290 0.846830 0.631296
0.963623 0.818708 0.613275
0.482490 0.917006 0.749737
0.516243 0.901198 0.681605
0.426566 0.887755 0.657755
0.430365 0.893034 0.673869
0.487236 0.879454 0.613123
0.578729 0.867384 0.546365
0.728252 0.878782 0.525368
0.919738 0.900069 0.503655
0.980987 0.888502 0.528115
0.001236 0.028458 0.250431
0.001236 0.028382 0.249104
0.001205 0.028748 0.258213
0.003708 0.029252 0.377829
0.013962 0.027420 0.499489
0.032273 0.025879 0.497704
0.154360 0.025086 0.523751
0.459266 0.032258 0.447395
0.868391 0.029694 0.362707
0.001282 0.028000 0.245319
0.001343 0.027207 0.236652
0.001328 0.027359 0.238560
0.017426 0.026398 0.466377
0.088685 0.025116 0.517372
0.114839 0.024964 0.527703
0.175647 0.025238 0.512230
0.304585 0.027420 0.426337
0.945068 0.029358 0.339620
0.000443 0.057450 0.314031
0.000443 0.057267 0.311360
0.000504 0.045090 0.311131
0.005020 0.034119 0.573007
0.111650 0.028763 0.640177
0.217609 0.027527 0.575036
0.248814 0.027237 0.511208
0.333959 0.028717 0.435889
0.902251 0.028550 0.335042
0.000107 0.230320 0.487236
0.000107 0.220569 0.488991
0.000107 0.194324 0.486091
0.000397 0.156039 0.568032
0.043854 0.161028 0.772534
0.178332 0.118303 0.677775
0.382040 0.079683 0.576684
0.585214 0.052293 0.491783
0.973922 0.035203 0.366201
0.000259 0.474342 0.752255
0.000626 0.477806 0.795438
0.001099 0.454566 0.824842
0.007691 0.414115 0.847440
0.081300 0.392248 0.830610
0.235065 0.360723 0.775250
0.422934 0.296483 0.691463
0.602960 0.251499 0.599161
0.953185 0.148898 0.441627
0.011078 0.754498 0.955642
0.035996 0.756069 0.956649
0.044892 0.719112 0.947250
0.109987 0.671046 0.914885
0.211368 0.618494 0.872648
0.411872 0.591058 0.823774
0.558389 0.554498 0.781598
0.672312 0.512825 0.734600
0.866239 0.427420 0.642512
0.064179 0.892714 0.958587
0.148653 0.835721 0.936797
0.150164 0.826123 0.931930
0.224994 0.802090 0.909773
0.350118 0.768017 0.884779
0.502556 0.749645 0.863279
0.703609 0.736873 0.828428
0.799374 0.723278 0.801572
0.881163 0.683223 0.759152
0.224369 0.911543 0.935103
0.231968 0.903059 0.928634
0.255924 0.885878 0.919738
0.288808 0.880278 0.910689
0.384054 0.868910 0.897810
0.523293 0.863905 0.884260
0.703578 0.855924 0.860639
0.874723 0.839338 0.826703
0.918425 0.825544 0.809567
0.378332 0.937881 0.913329
0.395651 0.941039 0.895567
0.329137 0.931884 0.885542
0.326925 0.927382 0.896330
0.418341 0.929732 0.889937
0.483940 0.923720 0.869520
0.574746 0.906874 0.804425
0.850278 0.883909 0.740581
0.943420 0.893767 0.763241
0.001114 0.029480 0.274586
0.001129 0.029404 0.272923
0.001114 0.029816 0.278874
0.003998 0.030091 0.413397
0.024125 0.027085 0.539071
0.033722 0.026474 0.530602
0.100999 0.025574 0.548272
0.291035 0.028946 0.510430
0.614923 0.032807 0.441627
0.001083 0.030686 0.284474
0.001099 0.030045 0.281407
0.001312 0.030961 0.304051
0.084230 0.026703 0.600900
0.109804 0.026856 0.615732
0.087190 0.025956 0.563729
0.244648 0.027634 0.533257
0.504967 0.033082 0.461555
0.777020 0.031067 0.399863
0.000153 0.115023 0.396979
0.001053 0.034257 0.295293
0.001068 0.033585 0.283085
0.001190 0.033707 0.353216
0.087434 0.030472 0.728725
0.119097 0.029816 0.730343
0.225025 0.028260 0.610208
0.479606 0.033738 0.488045
0.839658 0.031434 0.403677
0.000092 0.266102 0.528954
0.000122 0.168383 0.439384
0.000122 0.158251 0.444602
0.000320 0.159579 0.570642
0.026200 0.154040 0.834821
0.130846 0.135714 0.745830
0.274449 0.105348 0.679805
0.468666 0.088731 0.587747
0.852018 0.075868 0.481407
0.000137 0.466499 0.740887
0.000290 0.440055 0.748867
0.000702 0.422782 0.794614
0.003265 0.396094 0.851728
0.040711 0.384360 0.881239
0.221393 0.368719 0.817380
0.351156 0.322942 0.758602
0.514229 0.290166 0.699672
0.702892 0.253315 0.616770
0.008377 0.761257 0.964523
0.043839 0.761410 0.968200
0.052110 0.705760 0.957824
0.089189 0.655268 0.936873
0.148531 0.599145 0.908598
0.383993 0.586069 0.855619
0.522087 0.570687 0.826505
0.626963 0.546441 0.789319
0.730037 0.514305 0.753902
0.045640 0.880400 0.971450
0.107713 0.835096 0.956527
0.259586 0.800702 0.935347
0.329625 0.778454 0.920577
0.411124 0.755337 0.902815
0.541421 0.740032 0.883162
0.696986 0.737957 0.857969
0.782010 0.738888 0.839658
0.830991 0.729717 0.816815
0.150332 0.900908 0.957488
0.178653 0.898863 0.952453
0.337881 0.874571 0.937667
0.363577 0.857069 0.930816
0.493355 0.852506 0.919448
0.586648 0.838437 0.904418
0.732586 0.834592 0.884001
0.865522 0.838010 0.865019
0.892027 0.842634 0.852369
0.298909 0.925048 0.949462
0.317266 0.928466 0.945434
0.380423 0.923171 0.940932
0.452720 0.910872 0.934173
0.449454 0.904738 0.931105
0.487251 0.895949 0.923522
0.621286 0.892409 0.909316
0.844739 0.889876 0.886137
0.917754 0.885649 0.874937
