tools/luts_backup/Kodak Vision3 500T 5219 (NEG)_VS.cube
# (C) 2014 VisionColor & Patchflyer [www.vision-color.com]
# Generator: VC Patchmatch v.2.1.1 [64/53]
# All work and no play makes Jack a dull boy.
# LUT generated from: BMD Film to Kodak Vision3 500T 5219 (NEG)_VisionSpace
LUT_3D_SIZE 5
0.031373 0.031373 0.031373
0.211765 0.058824 0.047059
0.462745 0.149020 0.101961
0.501961 0.109804 0.094118
0.494118 0.094118 0.090196
0.082353 0.200000 0.070588
0.262745 0.200000 0.090196
0.517662 0.262745 0.145098
0.560784 0.219608 0.133333
0.556863 0.200000 0.129412
0.207843 0.556878 0.184314
0.439231 0.572564 0.223529
0.658824 0.552956 0.270604
0.690196 0.552956 0.278447
0.674510 0.509819 0.254902
0.325490 0.733333 0.286275
0.611765 0.752941 0.352941
0.772549 0.772549 0.435294
0.776471 0.776471 0.439216
0.768627 0.768627 0.431373
0.345098 0.733333 0.258824
0.639216 0.760784 0.360784
0.772549 0.776471 0.439216
0.776471 0.776471 0.443137
0.776471 0.776471 0.439216
0.007843 0.007843 0.117647
0.098039 0.027451 0.141176
0.364721 0.078431 0.243137
0.439216 0.086275 0.203922
0.466667 0.090196 0.188235
0.070588 0.164706 0.196078
0.223529 0.203922 0.207843
0.576471 0.223529 0.223529
0.576471 0.176471 0.250980
0.490196 0.094118 0.180392
0.176471 0.482368 0.345113
0.329427 0.560800 0.258824
0.643153 0.584329 0.301961
0.682353 0.537270 0.270604
0.670588 0.486290 0.247059
0.282353 0.713726 0.443137
0.486275 0.772549 0.380392
0.749020 0.768627 0.419608
0.772549 0.772549 0.435294
0.776471 0.768627 0.435294
0.301961 0.733333 0.411765
0.529412 0.776471 0.400000
0.768627 0.776471 0.454902
0.776471 0.776471 0.439216
0.776471 0.776471 0.439216
0.019608 0.019608 0.188235
0.011765 0.011765 0.168627
0.301961 0.078431 0.270588
0.294118 0.062745 0.196078
0.333333 0.070588 0.172549
0.031373 0.047059 0.207843
0.035294 0.062745 0.215686
0.219608 0.050980 0.215686
0.294118 0.066667 0.196078
0.360769 0.074510 0.203922
0.164706 0.407843 0.450980
0.164706 0.411780 0.443153
0.505898 0.505898 0.498054
0.686275 0.443153 0.396094
0.666682 0.392172 0.301976
0.294118 0.662745 0.623529
0.325490 0.682353 0.611765
0.650980 0.772549 0.568643
0.772549 0.764706 0.525505
0.772549 0.737255 0.482353
0.345098 0.709804 0.674510
0.423529 0.737255 0.647059
0.686275 0.788235 0.537270
0.792157 0.792157 0.545113
0.796078 0.796078 0.521584
0.015686 0.015686 0.196078
0.011765 0.011765 0.188235
0.011765 0.011765 0.152941
0.172549 0.039216 0.176471
0.203922 0.043137 0.109804
0.015686 0.015686 0.207843
0.011765 0.011765 0.160784
0.015686 0.015686 0.125490
0.176471 0.043137 0.164706
0.301961 0.066667 0.239216
0.149020 0.352956 0.490211
0.141176 0.329427 0.466682
0.301976 0.376486 0.635294
0.521584 0.329427 0.537255
0.584329 0.294133 0.454917
0.286275 0.611765 0.650980
0.301961 0.611765 0.666667
0.478431 0.690196 0.741176
0.725490 0.729412 0.725490
0.756863 0.725490 0.705882
0.341176 0.682353 0.698039
0.356863 0.701961 0.705882
0.537270 0.768627 0.768627
0.772549 0.788235 0.772549
0.800000 0.800000 0.756863
0.011765 0.011765 0.156863
0.011765 0.011765 0.156863
0.015686 0.015686 0.160784
0.023529 0.015686 0.129412
0.152941 0.035294 0.113725
0.019608 0.019608 0.215686
0.015686 0.015686 0.215686
0.011765 0.011765 0.184314
0.082353 0.027451 0.184314
0.247059 0.058824 0.243137
0.129412 0.290211 0.486290
0.129412 0.286290 0.490196
0.207858 0.317662 0.564721
0.372564 0.254917 0.564721
0.482368 0.250996 0.474525
0.266667 0.572549 0.654902
0.278431 0.592157 0.666667
0.403922 0.623529 0.717647
0.674510 0.690196 0.733333
0.729412 0.694118 0.729412
0.329412 0.662745 0.694118
0.341176 0.682353 0.698039
0.474510 0.737255 0.752941
0.737255 0.776471 0.784314
0.792157 0.792157 0.788235
