tools/luts_backup/Kodak Vision3 50D 5203 (DP)_CIN.cube
# (C) 2014 VisionColor & Patchflyer [www.vision-color.com]
# Generator: VC Patchmatch v.2.1.1 [64/53]
# All work and no play makes Jack a dull boy.
# LUT generated from: Kodak Vision3 50D 5203 (DP)_Cineon
LUT_3D_SIZE 9
0.101381 0.101381 0.101381
0.103059 0.071412 0.075196
0.158541 0.071748 0.066651
0.208042 0.070253 0.059205
0.263096 0.069154 0.050904
0.278172 0.068635 0.048310
0.337438 0.068299 0.040253
0.434394 0.070924 0.032349
0.460029 0.072236 0.033326
0.130251 0.236240 0.082246
0.173159 0.230533 0.076967
0.239261 0.136049 0.056306
0.270085 0.083345 0.050202
0.302892 0.070588 0.044923
0.332525 0.068177 0.040558
0.369818 0.068513 0.036469
0.438239 0.072084 0.032624
0.464088 0.072450 0.033509
0.152590 0.299626 0.119020
0.149996 0.310979 0.122438
0.261265 0.304234 0.154086
0.404578 0.269566 0.084962
0.464027 0.228672 0.025269
0.459113 0.162799 0.026429
0.450202 0.112917 0.032349
0.554894 0.175937 0.027741
0.479042 0.077211 0.034363
0.285893 0.389929 0.190005
0.277562 0.392767 0.187594
0.237369 0.402106 0.171695
0.368902 0.405585 0.195254
0.517143 0.368078 0.149233
0.578607 0.305531 0.044663
0.561700 0.227787 0.022553
0.522576 0.140963 0.031434
0.596155 0.212345 0.026368
0.426886 0.471534 0.222873
0.423682 0.471839 0.225223
0.392615 0.472450 0.229587
0.371649 0.469154 0.222202
0.515007 0.484138 0.239170
0.614618 0.430961 0.193347
0.640711 0.343465 0.068009
0.574411 0.230701 0.039353
0.675807 0.355962 0.089982
0.539757 0.545373 0.247532
0.529564 0.542016 0.218723
0.524620 0.543633 0.236240
0.472358 0.529503 0.246250
0.488319 0.526390 0.243778
0.603082 0.509422 0.275486
0.662470 0.496162 0.286442
0.676204 0.458610 0.234974
0.697230 0.459113 0.242313
0.609674 0.594751 0.287327
0.602930 0.590600 0.275456
0.591241 0.585504 0.277531
0.561242 0.576135 0.275547
0.530083 0.564660 0.268315
0.566094 0.569146 0.280034
0.629664 0.553552 0.316869
0.677119 0.539239 0.345342
0.699489 0.524804 0.339635
0.643732 0.616449 0.317021
0.642298 0.615747 0.315465
0.637995 0.614954 0.313970
0.618799 0.612024 0.312993
0.589685 0.602899 0.304784
0.597223 0.601984 0.314946
0.634028 0.598291 0.342290
0.680171 0.579675 0.374975
0.700832 0.568475 0.384863
0.669337 0.629847 0.346593
0.667750 0.629206 0.345312
0.666285 0.629053 0.344640
0.657771 0.630793 0.345861
0.631525 0.629206 0.340826
0.626123 0.626459 0.348821
0.655390 0.622522 0.373999
0.689998 0.609430 0.396216
0.697993 0.598352 0.413123
0.035615 0.058473 0.126680
0.199557 0.072450 0.218906
0.252171 0.070954 0.200229
0.248264 0.063569 0.140780
0.239231 0.063996 0.069612
0.262364 0.069062 0.051484
0.305638 0.068482 0.044434
0.402838 0.069917 0.034150
0.452522 0.071839 0.032959
0.064302 0.268528 0.255436
0.198215 0.212009 0.234714
0.304387 0.137942 0.168276
0.301579 0.082277 0.074189
0.323796 0.072999 0.043214
0.340002 0.068574 0.039643
0.358373 0.067964 0.037354
0.406806 0.070314 0.033997
0.476600 0.075715 0.034333
0.120577 0.342107 0.180179
0.217777 0.319951 0.172854
0.295995 0.329870 0.172824
0.433417 0.279423 0.115511
0.488136 0.234592 0.034760
0.504509 0.198154 0.022889
0.479622 0.135225 0.030030
0.461006 0.086519 0.033234
0.560143 0.176516 0.027924
0.279301 0.404364 0.177279
0.301213 0.395819 0.187625
0.331365 0.407874 0.186740
0.411597 0.423072 0.202731
0.545922 0.368414 0.133272
0.585840 0.297353 0.038376
0.598230 0.265873 0.023774
0.580041 0.221836 0.023743
0.625605 0.252049 0.022827
0.433387 0.484932 0.203952
0.426337 0.477394 0.205966
0.441474 0.483711 0.209628
0.432105 0.484169 0.213443
0.528466 0.494270 0.244053
0.611627 0.444450 0.205859
0.647089 0.392905 0.123461
0.655909 0.342824 0.071489
0.666346 0.335180 0.066163
0.536706 0.548638 0.215244
0.535027 0.548302 0.209781
0.530114 0.544213 0.214359
0.500877 0.537835 0.226932
0.530480 0.542504 0.256168
0.606531 0.535485 0.294102
0.654749 0.503227 0.292546
0.678706 0.456306 0.230655
0.690547 0.429664 0.189639
0.612024 0.597986 0.253056
0.605890 0.596368 0.243015
0.599268 0.593561 0.230045
0.573297 0.583032 0.236515
0.562646 0.576349 0.269657
0.605158 0.581262 0.306371
0.661006 0.569116 0.355840
0.684047 0.540124 0.347631
0.698695 0.518425 0.329381
0.645045 0.617456 0.298283
0.643641 0.616693 0.301305
0.637385 0.615290 0.287388
0.618891 0.610742 0.291203
0.591119 0.602106 0.293675
0.595972 0.601343 0.309300
0.631922 0.603052 0.342107
0.669734 0.584833 0.370794
0.698482 0.569512 0.379705
0.666773 0.629084 0.340703
0.666163 0.628779 0.341558
0.666285 0.628931 0.342870
0.659663 0.629511 0.343816
0.634394 0.628107 0.338445
0.614893 0.620935 0.332921
0.632258 0.621546 0.355077
0.667903 0.609461 0.378027
0.697322 0.598779 0.399603
0.030274 0.063813 0.161715
0.128908 0.072755 0.231144
0.215335 0.077089 0.246799
0.271733 0.079896 0.251713
0.303929 0.075929 0.231968
0.319341 0.065187 0.174502
0.303227 0.061128 0.086534
0.380835 0.068696 0.037507
0.437995 0.071138 0.032319
0.026123 0.157687 0.264134
0.144167 0.101076 0.267216
0.296178 0.087892 0.283879
0.350988 0.082490 0.264530
0.378119 0.071809 0.218692
0.376959 0.059846 0.134874
0.340917 0.065736 0.048707
0.374060 0.068666 0.036164
0.433448 0.070802 0.032258
0.066651 0.368627 0.360143
0.144717 0.348730 0.348638
0.305211 0.296422 0.327428
0.421912 0.260990 0.273655
0.467750 0.209628 0.197574
0.484199 0.156130 0.085710
0.461372 0.097871 0.035798
0.426917 0.071443 0.032959
0.447852 0.071626 0.032776
0.141390 0.445960 0.337835
0.185885 0.424842 0.294865
0.334722 0.409735 0.284062
0.436591 0.420050 0.260868
0.543084 0.370214 0.218540
0.583612 0.312276 0.125505
0.603174 0.267796 0.041733
0.593866 0.239506 0.023865
0.570581 0.190188 0.026886
0.335149 0.493690 0.276249
0.354559 0.483497 0.262699
0.408270 0.482429 0.285588
0.470710 0.494484 0.252262
0.543877 0.489479 0.238712
0.630121 0.440543 0.179309
0.659358 0.381430 0.088884
0.670008 0.352026 0.055482
0.666316 0.327153 0.055329
0.488853 0.547356 0.276188
0.494011 0.546990 0.268315
0.502159 0.545434 0.271794
0.527031 0.546654 0.258701
0.551965 0.547021 0.232120
0.620325 0.530724 0.244724
0.671016 0.505333 0.231785
0.690822 0.470344 0.206104
0.695125 0.437415 0.188403
0.588373 0.601251 0.296422
0.581994 0.595483 0.284398
0.585138 0.592706 0.261509
0.586145 0.589441 0.250095
0.583337 0.587274 0.228489
0.620081 0.586664 0.269596
0.663050 0.572717 0.316625
0.688930 0.548424 0.336706
0.700801 0.509697 0.307500
0.644160 0.628473 0.288090
0.642267 0.626734 0.285252
0.635950 0.622003 0.279149
0.624048 0.615717 0.268193
0.615228 0.613977 0.241306
0.630091 0.612818 0.269688
0.663233 0.605127 0.334813
0.680262 0.590173 0.370214
0.702724 0.558099 0.362982
0.671901 0.638086 0.299413
0.672847 0.636957 0.298650
0.671717 0.636042 0.301854
0.663783 0.635187 0.299321
0.642969 0.631434 0.295537
0.633661 0.628504 0.303105
0.646479 0.625849 0.336614
0.661280 0.611139 0.370642
0.692103 0.596765 0.392828
0.024384 0.071351 0.215305
0.055024 0.072969 0.233738
0.144472 0.076570 0.252689
0.226383 0.079805 0.267216
0.273838 0.082216 0.268070
0.318181 0.080812 0.259800
0.356420 0.075929 0.238804
0.428290 0.060151 0.147601
0.450202 0.066011 0.053162
0.023102 0.084352 0.239109
0.050294 0.080385 0.258610
0.205814 0.084749 0.302953
0.297978 0.088289 0.293400
0.355138 0.087007 0.284611
0.387732 0.082368 0.266087
0.393500 0.072602 0.223301
0.383398 0.059785 0.086320
0.425635 0.070283 0.032349
0.027649 0.311864 0.379980
0.102022 0.297307 0.382971
0.198947 0.268284 0.373571
0.395666 0.212924 0.347997
0.464515 0.161929 0.310735
0.497566 0.107317 0.271733
0.500877 0.069368 0.197650
0.436805 0.063447 0.067308
0.429511 0.070405 0.032654
0.107729 0.468879 0.447944
0.146395 0.456245 0.453040
0.244419 0.436316 0.442451
0.402655 0.400671 0.416236
0.511131 0.370398 0.371893
0.552636 0.299001 0.302510
0.563561 0.211231 0.189166
0.545495 0.147478 0.068833
0.504601 0.107469 0.034974
0.173770 0.534844 0.451881
0.203952 0.512963 0.418952
0.287663 0.498726 0.395605
0.429938 0.487129 0.375708
0.528069 0.494759 0.351629
0.608545 0.458518 0.325933
0.632898 0.401419 0.261250
0.650721 0.351095 0.147570
0.664790 0.321386 0.053666
0.351186 0.544945 0.375814
0.366079 0.543755 0.369467
0.414298 0.540276 0.357519
0.483009 0.542718 0.361639
0.554467 0.556481 0.334508
0.614710 0.544488 0.318425
0.669642 0.509880 0.288670
0.696315 0.457679 0.195666
0.702144 0.409216 0.113313
0.525368 0.587945 0.374823
0.525460 0.585107 0.359747
0.535668 0.585962 0.347051
0.551659 0.586633 0.344610
0.579278 0.590295 0.336797
0.620111 0.593469 0.310796
0.668971 0.579858 0.303838
0.705470 0.548821 0.276097
0.713924 0.516197 0.250370
0.613092 0.626856 0.379950
0.608118 0.621912 0.364538
0.610925 0.620142 0.346593
0.612787 0.618952 0.331853
0.619867 0.619287 0.321447
0.633753 0.620935 0.291234
0.674037 0.608728 0.294804
0.698268 0.591363 0.322728
0.706477 0.570764 0.342290
0.651576 0.645624 0.370642
0.656367 0.646326 0.359777
0.655970 0.645167 0.353033
0.646998 0.641321 0.349340
0.646326 0.639460 0.335515
0.649897 0.639368 0.296666
0.681483 0.630640 0.293400
0.696590 0.610925 0.337652
0.702113 0.592096 0.373754
0.022156 0.077241 0.245975
0.025269 0.076448 0.243046
0.104982 0.080446 0.281376
0.182101 0.083955 0.302098
0.221744 0.082673 0.294957
0.272770 0.084871 0.285527
0.349828 0.087251 0.285924
0.464210 0.079744 0.260380
0.526299 0.068727 0.200977
0.020661 0.083864 0.265263
0.031220 0.081483 0.272435
0.145632 0.085359 0.308843
0.236576 0.087922 0.322210
0.289830 0.090547 0.311559
0.337926 0.093111 0.309300
0.369543 0.088441 0.289311
0.415412 0.072053 0.219913
0.426215 0.065766 0.052598
0.011627 0.276158 0.399878
0.033112 0.250645 0.399237
0.125643 0.222293 0.399573
0.307378 0.179904 0.396643
0.413367 0.129824 0.363714
0.467048 0.102846 0.332677
0.463081 0.087037 0.293126
0.473030 0.074128 0.232639
0.452461 0.061158 0.090410
0.070069 0.439490 0.493538
0.117830 0.424903 0.491493
0.168124 0.409705 0.485054
0.285039 0.384161 0.469429
0.466896 0.353521 0.434333
0.533074 0.299123 0.387350
0.560357 0.200671 0.321248
0.572045 0.100694 0.226032
0.528664 0.069337 0.125322
0.147158 0.544305 0.541405
0.183963 0.536553 0.536950
0.248508 0.526146 0.532952
0.343725 0.514763 0.520531
0.487984 0.487068 0.494636
0.566827 0.464698 0.462837
0.597162 0.401785 0.404807
0.611261 0.317769 0.300923
0.625391 0.290517 0.178302
0.224308 0.589868 0.536309
0.241825 0.585168 0.529931
0.294438 0.572045 0.505013
0.369574 0.555871 0.472587
0.500328 0.545678 0.452781
0.584955 0.552209 0.436057
0.640711 0.529503 0.424399
0.660853 0.483986 0.372946
0.674861 0.433661 0.290013
0.414694 0.587213 0.466850
0.411948 0.584436 0.458030
0.429526 0.584100 0.454429
0.470695 0.577752 0.426215
0.532616 0.582940 0.431128
0.598596 0.595178 0.419654
0.648371 0.584894 0.407660
0.688716 0.556939 0.379889
0.700862 0.517632 0.333135
0.557855 0.614649 0.459632
0.562127 0.611109 0.425940
0.560845 0.609247 0.417456
0.565179 0.609552 0.408301
0.583520 0.612634 0.408850
0.614099 0.618982 0.407050
0.654353 0.614099 0.394141
0.695399 0.593744 0.365393
0.707210 0.570672 0.343389
0.612970 0.637964 0.449226
0.621820 0.640497 0.437507
0.625147 0.639063 0.418463
0.623987 0.636866 0.407233
0.625910 0.636713 0.395148
0.634516 0.638148 0.383856
0.656428 0.638025 0.345068
0.698482 0.618341 0.325597
0.707912 0.604059 0.349767
0.017945 0.085328 0.290074
0.019745 0.082704 0.274540
0.030213 0.083894 0.284733
0.119783 0.085634 0.314946
0.173648 0.087312 0.319554
0.184390 0.086091 0.314122
0.295079 0.091554 0.315160
0.520806 0.100069 0.343908
0.577905 0.092042 0.322210
0.017212 0.087404 0.296391
0.018250 0.086091 0.295415
0.081498 0.087343 0.321965
0.184024 0.092500 0.347356
0.254124 0.094057 0.357610
0.266941 0.093172 0.345068
0.304265 0.094942 0.330907
0.395056 0.089876 0.297459
0.526207 0.076356 0.241810
0.011170 0.260868 0.415808
0.011658 0.195636 0.398596
0.041611 0.157336 0.397650
0.235431 0.134081 0.417487
0.354208 0.122866 0.409369
0.374975 0.110353 0.377478
0.402762 0.103883 0.352392
0.476234 0.093965 0.318151
0.511254 0.072633 0.223514
0.013733 0.408972 0.504967
0.037278 0.390158 0.501244
0.095567 0.385962 0.502342
0.199908 0.367102 0.496651
0.370352 0.331914 0.483345
0.477729 0.284291 0.445197
0.544701 0.204608 0.395300
0.572229 0.118669 0.332280
0.586145 0.086397 0.266972
0.117159 0.526024 0.572320
0.140383 0.511498 0.566094
0.180011 0.506798 0.563622
0.260334 0.494331 0.556115
0.398550 0.474556 0.541680
0.523980 0.452873 0.512963
0.575677 0.411002 0.474983
0.610315 0.333059 0.404303
0.634272 0.260670 0.308110
0.196414 0.588983 0.596002
0.223911 0.585473 0.595270
0.287663 0.578973 0.589136
0.345312 0.573754 0.582300
0.438132 0.565393 0.571069
0.552270 0.547845 0.549035
0.602899 0.533318 0.528984
0.624994 0.492500 0.487648
0.644007 0.446387 0.420584
0.334874 0.619928 0.579187
0.321599 0.616876 0.586847
0.336187 0.613916 0.573175
0.372534 0.605676 0.555230
0.439384 0.592554 0.530694
0.551141 0.584131 0.512383
0.621424 0.588800 0.503075
0.661067 0.572503 0.489052
0.674952 0.546899 0.456336
0.482551 0.616358 0.531304
0.467811 0.610193 0.516411
0.461341 0.607202 0.512291
0.472969 0.603540 0.498909
0.507103 0.600763 0.484810
0.565118 0.607355 0.485451
0.627100 0.615625 0.474769
0.673243 0.602350 0.464790
0.689723 0.589807 0.448646
0.561181 0.626001 0.512932
0.571893 0.627649 0.502708
0.570581 0.624567 0.481636
0.571801 0.623407 0.473640
0.578058 0.624903 0.462318
0.596826 0.631281 0.450050
0.623255 0.633661 0.444739
0.660945 0.627283 0.416541
0.696010 0.616419 0.423255
0.013550 0.095247 0.338933
0.014343 0.092378 0.326574
0.014588 0.092073 0.325078
0.044099 0.092775 0.338933
0.113039 0.092409 0.351446
0.147463 0.093446 0.354742
0.292271 0.104494 0.400031
0.504204 0.115602 0.400671
0.602441 0.109499 0.385046
0.014740 0.091035 0.320623
0.014832 0.090700 0.319249
0.020111 0.091981 0.326818
0.140780 0.095613 0.366400
0.221561 0.099275 0.388434
0.238560 0.098604 0.387457
0.221286 0.096101 0.369177
0.371801 0.108858 0.378210
0.601770 0.106752 0.375708
0.011322 0.215228 0.405921
0.011627 0.194461 0.399908
0.011627 0.132265 0.390967
0.160479 0.116976 0.424964
0.313848 0.116091 0.443671
0.356359 0.115663 0.427466
0.341192 0.108980 0.400641
0.438178 0.112947 0.384833
0.557092 0.099580 0.346960
0.008179 0.387610 0.502831
0.008942 0.369329 0.498756
0.018677 0.353964 0.497993
0.097734 0.341024 0.504845
0.282490 0.317357 0.505608
0.418677 0.269581 0.488350
0.463081 0.200000 0.453529
0.554223 0.141619 0.413977
0.615961 0.106203 0.364996
0.063279 0.505150 0.578546
0.088975 0.498482 0.576898
0.123552 0.492683 0.575250
0.179736 0.480812 0.572045
0.322072 0.468452 0.566278
0.447028 0.439719 0.550042
0.519585 0.412436 0.523308
0.596246 0.360403 0.478859
0.646052 0.273335 0.399420
0.155001 0.577386 0.614038
0.180056 0.574578 0.618067
0.228336 0.566705 0.612146
0.302617 0.559503 0.606867
0.390539 0.549371 0.598901
0.498329 0.538506 0.586267
0.560662 0.526207 0.569360
0.603021 0.502708 0.545403
0.634333 0.455573 0.500145
0.272862 0.617456 0.625452
0.311131 0.610559 0.627741
0.326268 0.608454 0.622309
0.363073 0.604608 0.616297
0.428382 0.601251 0.612055
0.512200 0.595789 0.602045
0.594232 0.586053 0.584649
0.628077 0.575677 0.570825
0.643305 0.554955 0.547936
0.416785 0.640497 0.616022
0.391608 0.634638 0.618067
0.379858 0.631373 0.612818
0.396857 0.629725 0.604486
0.432074 0.625422 0.593469
0.495674 0.617151 0.573999
0.586725 0.607935 0.552605
0.644007 0.611109 0.546471
0.665644 0.603326 0.540795
0.496132 0.638727 0.584466
0.509758 0.632166 0.564080
0.477028 0.626001 0.557366
0.478187 0.628260 0.562158
0.500542 0.623041 0.543420
0.532586 0.618616 0.521813
0.578027 0.623224 0.513085
0.639826 0.631891 0.502525
0.676387 0.627192 0.510948
0.012543 0.099123 0.355261
0.012604 0.098909 0.354314
0.012421 0.099947 0.358953
0.037171 0.101625 0.376165
0.074128 0.100771 0.385260
0.112551 0.100343 0.391272
0.270878 0.106813 0.428351
0.441413 0.127901 0.437415
0.569848 0.118441 0.420935
0.012879 0.097932 0.350225
0.013428 0.095827 0.341192
0.013367 0.096223 0.342992
0.081071 0.098756 0.376562
0.201755 0.103883 0.413611
0.232395 0.105165 0.422736
0.288823 0.107698 0.428351
0.371283 0.115450 0.416327
0.598749 0.116487 0.414130
0.011566 0.165835 0.395941
0.011566 0.165438 0.394995
0.011505 0.139681 0.394324
0.050919 0.115969 0.421698
0.231693 0.115267 0.453864
0.322484 0.114717 0.453590
0.340764 0.114382 0.438209
0.387182 0.118929 0.422583
0.579736 0.115114 0.409125
0.008301 0.368994 0.493416
0.008240 0.361883 0.493965
0.008515 0.341009 0.491859
0.029587 0.301625 0.495674
0.174945 0.307836 0.517266
0.323735 0.270741 0.512718
0.429206 0.218219 0.491218
0.494942 0.169726 0.466560
0.617639 0.130678 0.429664
0.015991 0.491249 0.578302
0.039902 0.487312 0.579736
0.063218 0.473579 0.575158
0.106035 0.454505 0.569299
0.245747 0.454597 0.574823
0.381750 0.447364 0.573999
0.471351 0.415457 0.555627
0.532677 0.389212 0.531395
0.633021 0.304555 0.476295
0.119966 0.566155 0.625299
0.173953 0.570947 0.630610
0.191623 0.562097 0.625483
0.279210 0.554864 0.620111
0.366613 0.543023 0.611933
0.470848 0.536034 0.603479
0.525261 0.523980 0.593072
0.561151 0.509483 0.579675
0.616754 0.476753 0.552148
0.216312 0.613794 0.646998
0.313664 0.604608 0.642908
0.315496 0.601923 0.640436
0.372503 0.597253 0.633967
0.442634 0.589471 0.627649
0.504143 0.584344 0.619348
0.570550 0.580682 0.608301
0.598901 0.576623 0.600397
0.625696 0.564691 0.587915
0.368200 0.634913 0.648219
0.373846 0.631434 0.644251
0.390204 0.625086 0.641199
0.408911 0.623468 0.638025
0.455848 0.620203 0.634333
0.509758 0.618006 0.628717
0.568872 0.614038 0.618158
0.621759 0.609033 0.606500
0.639735 0.605219 0.601526
0.451087 0.649561 0.640955
0.458503 0.651392 0.633387
0.428992 0.644770 0.628931
0.427649 0.643000 0.633356
0.468208 0.644587 0.631128
0.494240 0.642054 0.622461
0.527825 0.634852 0.600153
0.611536 0.625330 0.579828
0.652277 0.629328 0.586206
0.011963 0.102022 0.367071
0.011963 0.101778 0.366217
0.011994 0.102876 0.370245
0.039826 0.104067 0.387762
0.096590 0.102327 0.399207
0.116060 0.102266 0.400732
0.216892 0.106020 0.425483
0.365911 0.119326 0.443336
0.495430 0.128176 0.443183
0.011841 0.105165 0.375128
0.011902 0.103487 0.372473
0.014160 0.105898 0.382422
0.197818 0.108156 0.435645
0.228519 0.110201 0.445960
0.200687 0.106203 0.426398
0.338689 0.115389 0.444526
0.458869 0.129641 0.445075
0.543084 0.122866 0.432959
0.009491 0.259617 0.451087
0.011719 0.114565 0.383886
0.011810 0.112795 0.374578
0.013916 0.113527 0.401190
0.204715 0.118471 0.469917
0.241276 0.118654 0.477699
0.327825 0.116823 0.464118
0.450843 0.131106 0.453407
0.562615 0.123201 0.437537
0.007935 0.393500 0.510338
0.008728 0.318517 0.471809
0.008881 0.307820 0.473854
0.023957 0.306340 0.502220
0.140673 0.298604 0.524010
0.284520 0.289235 0.526329
0.384833 0.256275 0.520684
0.465980 0.232044 0.501640
0.582300 0.210986 0.479225
0.007782 0.490181 0.578851
0.020615 0.476753 0.574578
0.044358 0.464485 0.575006
0.078386 0.449165 0.575311
0.184100 0.447028 0.579736
0.372412 0.450904 0.585229
0.442023 0.428611 0.573816
0.505272 0.411826 0.560693
0.563195 0.389914 0.538415
0.102235 0.570062 0.635401
0.187335 0.574426 0.640375
0.201999 0.559594 0.633844
0.255589 0.549004 0.628290
0.318242 0.534691 0.618952
0.459434 0.534386 0.612085
0.512779 0.529320 0.605890
0.547631 0.521324 0.595972
0.578851 0.510033 0.585840
0.187106 0.608087 0.655360
0.271885 0.602167 0.650813
0.393622 0.597925 0.646967
0.431891 0.592401 0.642054
0.468696 0.586114 0.635645
0.518212 0.581598 0.627741
0.568505 0.580987 0.618921
0.593744 0.581231 0.611688
0.607935 0.578546 0.604944
0.311254 0.628321 0.660487
0.335119 0.628809 0.658351
0.433265 0.622217 0.652735
0.446693 0.615442 0.649226
0.498817 0.613519 0.643366
0.531762 0.609033 0.636835
0.577996 0.607752 0.628565
0.618280 0.608667 0.620295
0.628992 0.609949 0.614740
0.411444 0.641932 0.660487
0.421332 0.643610 0.658412
0.451698 0.642176 0.656580
0.481544 0.637201 0.652155
0.480507 0.634730 0.650141
0.495094 0.631189 0.645197
0.541772 0.629145 0.638911
0.609522 0.627771 0.628779
0.639185 0.626032 0.623835
