tools/luts_backup/Kodak Elite Color 200_FC.cube
# (C) 2014 VisionColor & Patchflyer [www.vision-color.com]
# Generator: VC Patchmatch v.2.1.1 [64/53]
# All work and no play makes Jack a dull boy.
# LUT generated from: Kodak Elite Color 200_FC01
LUT_3D_SIZE 17
0.023484 0.023484 0.023484
0.036027 0.024308 0.025696
0.051896 0.024475 0.024964
0.072343 0.026139 0.026001
0.095155 0.028214 0.027176
0.118517 0.029526 0.027131
0.139727 0.030549 0.026963
0.162997 0.031891 0.026642
0.185550 0.033280 0.026566
0.207752 0.034333 0.026383
0.229526 0.035096 0.026505
0.256275 0.036469 0.026505
0.281849 0.038697 0.027131
0.310185 0.041688 0.028473
0.336233 0.043915 0.029831
0.364996 0.045350 0.030411
0.392004 0.045487 0.029389
0.029511 0.040894 0.020768
0.043946 0.039200 0.027085
0.061601 0.040314 0.028305
0.081987 0.041993 0.029862
0.106874 0.043839 0.030945
0.131777 0.045655 0.030915
0.157290 0.047120 0.030701
0.183215 0.048997 0.030304
0.209445 0.051133 0.029892
0.234943 0.052857 0.029541
0.260365 0.054597 0.029129
0.286168 0.056626 0.029129
0.313146 0.059281 0.029740
0.340612 0.062135 0.030137
0.368887 0.064500 0.030701
0.394842 0.065934 0.030732
0.419425 0.067094 0.030213
0.034791 0.062821 0.020752
0.051331 0.060487 0.025788
0.069749 0.059815 0.032105
0.093416 0.061631 0.034287
0.117968 0.062928 0.035996
0.145647 0.065126 0.036683
0.174807 0.066911 0.036698
0.202502 0.069368 0.036301
0.231861 0.072114 0.035950
0.259709 0.074830 0.035706
0.288426 0.077150 0.035325
0.314275 0.079774 0.035218
0.342962 0.083162 0.035996
0.371023 0.086412 0.036576
0.399359 0.088975 0.036545
0.427573 0.091005 0.036378
0.451087 0.092821 0.036728
0.038392 0.087541 0.022080
0.057160 0.084932 0.027497
0.077867 0.084169 0.034684
0.099107 0.083742 0.040360
0.127764 0.086885 0.042634
0.158434 0.090517 0.044648
0.191745 0.093812 0.045991
0.226123 0.097047 0.046357
0.257954 0.100008 0.046235
0.288289 0.102724 0.046342
0.318166 0.105196 0.045991
0.347433 0.107378 0.045777
0.375448 0.110735 0.046387
0.405219 0.114549 0.047242
0.435309 0.117723 0.047745
0.465919 0.119371 0.047562
0.494804 0.121889 0.047883
0.035538 0.113329 0.019959
0.056611 0.110460 0.025498
0.082826 0.110506 0.034714
0.109560 0.111742 0.045441
0.134066 0.111086 0.050721
0.171572 0.118807 0.053666
0.211536 0.125536 0.056916
0.251987 0.130861 0.059236
0.287633 0.134951 0.060334
0.322957 0.138140 0.061036
0.352270 0.141131 0.061295
0.382956 0.143740 0.061372
0.414267 0.146838 0.061997
0.446494 0.150027 0.063157
0.482048 0.153094 0.064576
0.517449 0.154910 0.065248
0.551110 0.157382 0.065629
0.026062 0.137728 0.016403
0.050034 0.135927 0.020386
0.082033 0.138125 0.029938
0.120241 0.143023 0.045640
0.151781 0.145892 0.057694
0.177935 0.146456 0.064240
0.224979 0.159075 0.069459
0.272419 0.168048 0.074662
0.320195 0.176364 0.078614
0.360784 0.181216 0.081300
0.394598 0.185016 0.083101
0.426444 0.188022 0.084276
0.461753 0.190890 0.085634
0.497444 0.194018 0.086564
0.536828 0.197070 0.087465
0.579156 0.200381 0.088746
0.620035 0.204044 0.090181
0.016373 0.163317 0.012512
0.037980 0.160662 0.014878
0.074983 0.165316 0.020996
0.126192 0.174044 0.039475
0.168627 0.183444 0.062577
0.202548 0.187045 0.075013
0.233112 0.190051 0.081880
0.288106 0.206210 0.088334
0.344182 0.220066 0.094987
0.395377 0.229511 0.101366
0.440009 0.235706 0.107057
0.478080 0.241321 0.110826
0.516976 0.245274 0.113924
0.557626 0.248753 0.116396
0.600748 0.252842 0.118074
0.649470 0.258625 0.119722
0.694286 0.264500 0.121462
0.010773 0.190524 0.010986
0.027466 0.186389 0.011917
0.064286 0.189380 0.015366
0.125170 0.204181 0.029404
0.185977 0.221378 0.059617
0.228305 0.231464 0.083986
0.259434 0.234241 0.094209
0.297047 0.239612 0.100999
0.360784 0.259113 0.109850
0.423331 0.277058 0.118395
0.477256 0.289006 0.126909
0.527459 0.300511 0.135607
0.572442 0.310750 0.142061
0.620233 0.318166 0.147478
0.668467 0.324742 0.152285
0.719509 0.331640 0.156863
0.764584 0.337438 0.159655
0.008728 0.223575 0.010163
0.020401 0.219455 0.010407
0.056031 0.220798 0.012222
0.121874 0.234272 0.021256
0.199634 0.255085 0.050706
0.256519 0.275898 0.086595
0.294484 0.282094 0.106813
0.327031 0.286122 0.115099
0.370413 0.296696 0.122271
0.441382 0.321340 0.132372
0.504845 0.340841 0.141634
0.563088 0.358419 0.152560
0.620661 0.375662 0.165560
0.673106 0.391546 0.176654
0.728084 0.404013 0.186679
0.779400 0.415122 0.195270
0.820737 0.422217 0.200687
0.007782 0.260716 0.009247
0.017792 0.257557 0.009445
0.054063 0.256382 0.010559
0.123262 0.266606 0.016770
0.211780 0.290272 0.043290
0.287938 0.318685 0.085298
0.335866 0.333135 0.115908
0.369574 0.338277 0.128405
0.407111 0.346059 0.135027
0.455726 0.361105 0.142962
0.524208 0.385245 0.152361
0.590127 0.410758 0.165789
0.654734 0.435233 0.181659
0.716075 0.458717 0.198123
0.771695 0.478965 0.214420
0.822217 0.495033 0.228046
0.859815 0.507408 0.236805
0.007568 0.296529 0.009018
0.018189 0.293080 0.009125
0.058839 0.290867 0.010605
0.132769 0.304112 0.015518
0.227878 0.327565 0.040162
0.317021 0.361944 0.084627
0.375860 0.382345 0.123400
0.418372 0.391546 0.140352
0.452811 0.398047 0.147112
0.493767 0.408209 0.153628
0.539834 0.425635 0.160876
0.609812 0.451698 0.173312
0.680156 0.485115 0.190631
0.747341 0.516121 0.212360
0.805768 0.543023 0.233768
0.854154 0.566354 0.253956
0.879484 0.583581 0.270024
0.006699 0.334157 0.008042
0.018906 0.329900 0.008011
0.065400 0.327611 0.010285
0.148867 0.342611 0.017517
0.249470 0.369619 0.042008
0.348486 0.408835 0.087984
0.418708 0.434333 0.132097
0.465187 0.445777 0.151034
0.502983 0.453285 0.159960
0.538949 0.461479 0.166598
0.580346 0.471672 0.173083
0.624735 0.489815 0.178912
0.695186 0.521782 0.195132
0.765286 0.561730 0.219394
0.827924 0.597833 0.246250
0.871183 0.626627 0.273854
0.892912 0.646906 0.295125
0.006104 0.367300 0.007248
0.022797 0.362036 0.007401
0.075959 0.363424 0.010239
0.173541 0.384070 0.022675
0.283528 0.420920 0.052232
0.384695 0.461372 0.099367
0.461830 0.490745 0.143801
0.513481 0.505592 0.166201
0.552529 0.513130 0.174990
0.589517 0.520714 0.180926
0.627176 0.528923 0.186938
0.667689 0.541497 0.193271
0.711086 0.563699 0.200748
0.777401 0.601282 0.223117
0.840742 0.642298 0.253269
0.879698 0.679042 0.286442
0.902602 0.701564 0.314107
0.005493 0.402609 0.006836
0.032837 0.396719 0.007248
0.095293 0.400427 0.010864
0.204715 0.430488 0.030106
0.326177 0.480339 0.069642
0.429496 0.526329 0.119524
0.508278 0.556634 0.163149
0.562463 0.571176 0.185412
0.602502 0.580514 0.194644
0.637232 0.589349 0.201083
0.675334 0.598413 0.207431
0.714458 0.606928 0.213779
0.752956 0.621317 0.220508
0.792798 0.646632 0.229389
0.854124 0.689281 0.259205
0.886687 0.727886 0.295125
0.908400 0.750683 0.328664
0.005432 0.433143 0.007034
0.050782 0.430625 0.008515
0.127672 0.444678 0.016297
0.243656 0.484215 0.041367
0.372320 0.545495 0.091661
0.480354 0.601694 0.147463
0.557031 0.634028 0.190249
0.608774 0.647974 0.212390
0.649012 0.655589 0.221958
0.686290 0.666423 0.228504
0.721325 0.677089 0.234195
0.757031 0.684367 0.239918
0.792966 0.694194 0.247120
0.829297 0.710887 0.255528
0.864683 0.739330 0.268284
0.895460 0.780240 0.303471
0.913970 0.803281 0.340688
0.005646 0.466911 0.007095
0.076143 0.469444 0.009796
0.172168 0.494926 0.026062
0.291218 0.548669 0.060258
0.422232 0.619852 0.119203
0.531914 0.682216 0.180575
0.607370 0.717525 0.222889
0.655421 0.734203 0.244602
0.694987 0.741863 0.256519
0.731655 0.749813 0.265019
0.765759 0.760052 0.271656
0.796902 0.765789 0.276799
0.828077 0.771969 0.282994
0.857252 0.783093 0.289891
0.880781 0.801846 0.300084
0.905058 0.828534 0.316136
0.919722 0.851896 0.351583
0.008011 0.514702 0.006607
0.099397 0.508507 0.011734
0.209522 0.545632 0.033967
0.327871 0.609812 0.075639
0.452384 0.684535 0.135760
0.562997 0.747173 0.193286
0.640177 0.784543 0.235492
0.693828 0.808087 0.266590
0.734813 0.820874 0.286137
0.770306 0.828199 0.300404
0.800061 0.834440 0.312673
0.828733 0.838468 0.319036
0.855253 0.841093 0.323781
0.870222 0.846281 0.329030
0.888869 0.854231 0.337987
0.910155 0.862196 0.350607
0.926635 0.875196 0.364660
0.024628 0.024598 0.036713
0.037232 0.023880 0.037003
0.051774 0.024094 0.036027
0.071595 0.025772 0.036912
0.094347 0.027588 0.037736
0.118257 0.028717 0.037263
0.140902 0.030030 0.036362
0.165972 0.031922 0.036545
0.191196 0.033768 0.037613
0.216312 0.035080 0.037919
0.239963 0.036790 0.037369
0.266285 0.038697 0.037034
0.292927 0.040909 0.036927
0.319921 0.042985 0.037201
0.346136 0.045289 0.038041
0.373449 0.047486 0.038895
0.397391 0.048844 0.038849
0.030014 0.040986 0.045487
0.047181 0.044862 0.046677
0.070390 0.034394 0.034318
0.096223 0.030716 0.029648
0.120012 0.030182 0.028229
0.140948 0.030793 0.027665
0.163378 0.032013 0.027176
0.183902 0.033173 0.027024
0.205112 0.034272 0.026566
0.227695 0.035401 0.026276
0.256001 0.036973 0.026322
0.282506 0.038911 0.026810
0.310231 0.041245 0.028046
0.335943 0.043565 0.029480
0.362066 0.045777 0.030518
0.383413 0.046647 0.030518
0.398322 0.046571 0.029541
0.034089 0.064424 0.044556
0.045212 0.077562 0.030167
0.084337 0.071229 0.043839
0.113817 0.063691 0.038376
0.140520 0.059373 0.035462
0.165438 0.056840 0.033417
0.190616 0.056626 0.032029
0.214527 0.057450 0.031388
0.240375 0.058549 0.031052
0.264500 0.059800 0.030472
0.291524 0.061173 0.030121
0.317296 0.062821 0.030213
0.345693 0.064897 0.030869
0.373068 0.067109 0.031296
0.397848 0.068940 0.031098
0.418250 0.070466 0.031022
0.429770 0.071733 0.030961
0.037964 0.089174 0.046845
0.038560 0.107042 0.023056
0.078920 0.105028 0.035386
0.125490 0.104067 0.049393
0.159930 0.097505 0.047333
0.189014 0.092744 0.045319
0.219226 0.090913 0.044022
0.247593 0.090105 0.042710
0.275639 0.090135 0.041550
0.301076 0.090959 0.040665
0.328496 0.091981 0.040116
0.355688 0.093233 0.039796
0.381247 0.094743 0.039719
0.409094 0.096300 0.039673
0.435843 0.097978 0.039124
0.456977 0.099825 0.039139
0.471489 0.102159 0.040131
0.035782 0.115389 0.045808
0.026795 0.133898 0.017914
0.068833 0.134325 0.026825
0.122621 0.139849 0.047120
0.172824 0.143145 0.063340
0.215335 0.139330 0.062074
0.253178 0.136645 0.061646
0.286122 0.134234 0.060838
0.316854 0.132250 0.058717
0.343221 0.131258 0.056855
0.370169 0.130907 0.055680
0.398886 0.131212 0.055024
0.425742 0.131930 0.054566
0.455375 0.132799 0.054459
0.486732 0.134142 0.054124
0.511849 0.136507 0.054292
0.528237 0.139956 0.055680
0.026581 0.142336 0.040314
0.016663 0.160800 0.013169
0.054795 0.161120 0.018143
0.117464 0.171283 0.037995
0.180224 0.183185 0.067750
0.230106 0.188571 0.081559
0.280919 0.190494 0.082277
0.326619 0.190326 0.084245
0.365469 0.187900 0.084230
0.395468 0.184894 0.082902
0.420951 0.182483 0.081300
0.450736 0.180575 0.080003
0.483101 0.180377 0.079347
0.517128 0.181003 0.079164
0.553933 0.182025 0.078920
0.583535 0.184070 0.079408
0.601984 0.187823 0.081315
0.016495 0.169390 0.033692
0.011139 0.188891 0.011200
0.041306 0.185977 0.013352
0.107027 0.201297 0.026978
0.189990 0.220539 0.061830
0.246967 0.232761 0.090089
0.295720 0.238544 0.100832
0.353857 0.245319 0.104234
0.404654 0.247593 0.108202
0.449348 0.247150 0.111284
0.482811 0.245487 0.112795
0.514382 0.243595 0.112520
0.549645 0.242573 0.112383
0.588479 0.242771 0.112474
0.631251 0.243809 0.111940
0.665629 0.245594 0.112139
0.687007 0.248798 0.113680
0.011582 0.195987 0.029343
0.008988 0.222736 0.010224
0.031647 0.218372 0.010803
0.094545 0.229587 0.016800
0.193317 0.253178 0.049226
0.268727 0.277592 0.091722
0.317418 0.285237 0.112078
0.370626 0.295048 0.121538
0.435096 0.304753 0.127275
0.492134 0.312245 0.134005
0.540169 0.316854 0.140749
0.581140 0.319707 0.145708
0.622553 0.321721 0.148592
0.666362 0.322988 0.151019
0.711223 0.323644 0.152605
0.744961 0.324529 0.153201
0.764660 0.325475 0.153338
0.009079 0.231037 0.024048
0.007797 0.260517 0.009247
0.026871 0.256474 0.009293
0.086595 0.261799 0.013581
0.192752 0.286336 0.039322
0.291814 0.319722 0.087785
0.351339 0.335317 0.120851
0.397833 0.343435 0.133318
0.456611 0.360433 0.142748
0.522728 0.373281 0.149386
0.581247 0.385458 0.159609
0.634806 0.396857 0.171786
0.685939 0.406592 0.182223
0.734295 0.413458 0.190005
0.779248 0.417533 0.195483
0.811109 0.418219 0.198322
0.826383 0.414969 0.197421
0.008057 0.269062 0.020127
0.007660 0.296117 0.009064
0.026291 0.291554 0.009186
0.087495 0.297948 0.012558
0.196429 0.321386 0.034241
0.311009 0.361410 0.082994
0.387304 0.384543 0.126787
0.437659 0.395621 0.144259
0.483986 0.407233 0.151766
0.541955 0.429450 0.162173
0.607309 0.443976 0.172274
0.669078 0.463325 0.187121
0.730022 0.483040 0.204669
0.782544 0.498894 0.220783
0.826108 0.510475 0.233051
0.855787 0.512932 0.238788
0.868132 0.507393 0.237720
0.007507 0.306920 0.018769
0.006714 0.333654 0.008148
0.026566 0.327886 0.008392
0.093797 0.334417 0.012222
0.212497 0.362005 0.033967
0.333608 0.405829 0.082139
0.421866 0.435752 0.132296
0.477989 0.447929 0.154360
0.521904 0.456901 0.164202
0.570886 0.471885 0.171664
0.626719 0.494713 0.180407
0.692226 0.515236 0.195163
0.757702 0.543496 0.216754
0.815274 0.569223 0.239155
0.858305 0.587564 0.260670
0.876921 0.594034 0.272633
0.883574 0.589303 0.274083
0.006455 0.344808 0.018006
0.005951 0.365896 0.007492
0.029236 0.359655 0.007874
0.105547 0.373312 0.013153
0.234165 0.405249 0.038087
0.360861 0.453864 0.087358
0.458030 0.491722 0.141512
0.518746 0.507637 0.168017
0.564385 0.515068 0.178256
0.609216 0.524254 0.185122
0.659815 0.539681 0.192798
0.710506 0.561379 0.201419
0.775830 0.594049 0.223072
0.834928 0.624964 0.250355
0.873228 0.649561 0.278920
0.889830 0.658976 0.295750
0.896300 0.655604 0.301137
0.005722 0.378271 0.017350
0.005432 0.400687 0.006775
0.037797 0.394202 0.007645
0.126436 0.410437 0.016739
0.265949 0.457038 0.048020
0.398184 0.511696 0.103487
0.498390 0.552361 0.157763
0.563149 0.574105 0.186297
0.609766 0.583535 0.196689
0.651545 0.591455 0.203861
0.697841 0.602365 0.211963
0.744366 0.617884 0.220371
0.791928 0.643153 0.229526
0.849882 0.678737 0.257542
0.882353 0.707607 0.290089
0.899596 0.718456 0.314183
0.907179 0.711192 0.323522
0.005524 0.410925 0.016938
0.005615 0.433143 0.006912
0.055421 0.429572 0.008804
0.158816 0.454582 0.022660
0.303136 0.515221 0.063005
0.439948 0.580575 0.126543
0.539467 0.625315 0.181140
0.605280 0.647639 0.210758
0.652323 0.657389 0.222568
0.693843 0.666911 0.229450
0.735027 0.677241 0.236622
0.778592 0.688670 0.245426
0.821439 0.705364 0.254994
0.862150 0.736797 0.267124
0.890593 0.765240 0.299245
0.907454 0.776150 0.328603
0.913924 0.763699 0.340307
0.005753 0.441245 0.017136
0.006165 0.470985 0.006638
0.080125 0.471122 0.010758
0.197284 0.504585 0.032136
0.338155 0.575540 0.079912
0.476356 0.649439 0.146593
0.579232 0.701839 0.204410
0.645380 0.726101 0.235492
0.694209 0.737041 0.252277
0.733181 0.745922 0.263355
0.770520 0.755749 0.271260
0.808240 0.763027 0.278569
0.845609 0.771969 0.286687
0.874174 0.789059 0.296849
0.899519 0.819699 0.310384
0.914763 0.831510 0.339437
0.918853 0.818936 0.353048
0.006058 0.477974 0.016556
0.012192 0.511376 0.006989
0.102098 0.504845 0.014847
0.216007 0.547127 0.037919
0.345037 0.621180 0.085069
0.483864 0.697902 0.144930
0.594797 0.752941 0.200061
0.669703 0.783780 0.239460
0.723674 0.800107 0.267414
0.764080 0.810208 0.287739
0.797162 0.817975 0.300923
0.828397 0.822248 0.308431
0.856748 0.827314 0.315572
0.877409 0.836027 0.324514
0.900984 0.850141 0.336629
0.922576 0.867903 0.350332
0.924300 0.861295 0.362554
0.009339 0.522103 0.015457
0.030289 0.541741 0.011292
0.113054 0.534356 0.017762
0.203571 0.569314 0.036637
0.310933 0.636637 0.070222
0.446769 0.714076 0.113268
0.573724 0.772595 0.158892
0.666484 0.808392 0.207538
0.733440 0.831266 0.247547
0.779828 0.845655 0.283604
0.808545 0.852201 0.313619
0.834791 0.853742 0.329427
0.857786 0.854688 0.335592
0.874327 0.858366 0.340963
0.894560 0.863630 0.349920
0.915465 0.871061 0.362234
0.931411 0.883772 0.373587
0.024033 0.025071 0.053758
0.035523 0.023880 0.052308
0.053712 0.023758 0.050034
0.071534 0.025391 0.048127
0.094453 0.027161 0.048173
0.119280 0.028458 0.048447
0.142382 0.030091 0.047700
0.168231 0.031876 0.047745
0.194461 0.034028 0.048402
0.220462 0.036240 0.048814
0.246799 0.038895 0.048798
0.272541 0.041230 0.048554
0.300267 0.043137 0.048219
0.326833 0.044892 0.047944
0.355032 0.046525 0.047990
0.383108 0.048432 0.048432
0.404807 0.050004 0.048600
0.029313 0.041703 0.061326
0.034455 0.037507 0.070741
0.069139 0.034073 0.063722
0.093965 0.030610 0.050645
0.119448 0.030014 0.044404
0.142382 0.030304 0.041871
0.167559 0.031647 0.041215
0.192126 0.033616 0.041199
0.216602 0.035477 0.040970
0.241566 0.037140 0.040208
0.268284 0.039353 0.039384
0.294270 0.041520 0.039124
0.320989 0.043290 0.039246
0.346883 0.045136 0.039368
0.373526 0.047257 0.040146
0.392920 0.049271 0.041535
0.404440 0.050690 0.042466
0.035447 0.062379 0.069001
0.048096 0.074052 0.080369
0.075013 0.071061 0.071763
0.114961 0.054994 0.051148
0.149020 0.045609 0.038361
0.175402 0.039200 0.031815
0.193698 0.035599 0.028962
0.211414 0.035126 0.027543
0.228397 0.035599 0.027100
0.252064 0.036591 0.026642
0.280308 0.038834 0.027008
0.309178 0.041581 0.028214
0.335393 0.043992 0.029541
0.362036 0.045441 0.030640
0.382849 0.046799 0.031159
0.397009 0.048707 0.031540
0.408362 0.051957 0.033112
0.042130 0.091142 0.073976
0.046494 0.113268 0.072114
0.051743 0.110323 0.041245
0.124483 0.105394 0.062531
0.173953 0.091829 0.051530
0.209964 0.081315 0.043580
0.233814 0.073976 0.038819
0.255482 0.070558 0.036088
0.277226 0.068864 0.034195
0.300481 0.069108 0.033234
0.323964 0.070130 0.032441
0.350988 0.071260 0.032242
0.377997 0.072557 0.032258
0.402243 0.073442 0.032151
0.421210 0.074922 0.032212
0.434363 0.077150 0.032715
0.442969 0.080247 0.034394
0.043076 0.120272 0.077592
0.035508 0.146502 0.062013
0.029740 0.148150 0.022705
0.096818 0.146181 0.041718
0.186450 0.154498 0.074937
0.245441 0.143114 0.066468
0.280568 0.131350 0.059358
0.305226 0.122026 0.055222
0.327214 0.115679 0.051652
0.351690 0.112184 0.048981
0.376440 0.110780 0.047242
0.402670 0.109926 0.046067
0.427375 0.109285 0.044923
0.449851 0.108782 0.043885
0.469978 0.109819 0.043488
0.485649 0.112642 0.043885
0.495903 0.116320 0.045914
0.038178 0.150576 0.077440
0.021805 0.174578 0.051392
0.015640 0.185168 0.014389
0.075929 0.185840 0.024002
0.168902 0.202670 0.060838
0.263539 0.217304 0.095857
0.326619 0.207446 0.090394
0.366598 0.194629 0.086702
0.391318 0.182910 0.082582
0.412146 0.173007 0.077348
0.437110 0.166049 0.073472
0.464500 0.162173 0.070726
0.492073 0.159533 0.068528
0.518669 0.158038 0.066896
0.542657 0.157809 0.066117
0.560540 0.159579 0.066453
0.570306 0.162844 0.068559
0.028275 0.180743 0.073838
0.014069 0.202014 0.044083
0.010544 0.221500 0.011505
0.060075 0.222492 0.014618
0.158495 0.243427 0.045640
0.271733 0.268925 0.092805
0.351781 0.283070 0.119539
0.414847 0.277256 0.117632
0.458213 0.266484 0.117754
0.487694 0.253925 0.115816
0.514382 0.243442 0.112184
0.542000 0.234607 0.107942
0.573251 0.228428 0.103868
0.605768 0.225177 0.101457
0.632670 0.223621 0.099977
0.651637 0.223819 0.099489
0.660487 0.226383 0.101106
0.018326 0.214755 0.069001
0.010101 0.235492 0.037079
0.008286 0.260563 0.009796
0.049241 0.258686 0.011185
0.151476 0.278202 0.034455
0.283864 0.313008 0.086152
0.368551 0.333791 0.125856
0.443107 0.350866 0.141070
0.506264 0.349142 0.142779
0.553567 0.343984 0.147585
0.593866 0.337606 0.151034
0.627832 0.328481 0.151232
0.661860 0.319219 0.149630
0.698283 0.312230 0.147662
0.724926 0.306889 0.145098
0.739986 0.303120 0.142947
0.745037 0.301976 0.142626
0.013214 0.250340 0.064240
0.008530 0.273686 0.031495
0.007767 0.296818 0.009277
0.045457 0.293065 0.010239
0.146715 0.312413 0.026322
0.294423 0.355337 0.077928
0.397726 0.384787 0.130129
0.463798 0.400732 0.148470
0.536980 0.424216 0.160891
0.599161 0.425513 0.168322
0.653941 0.428244 0.179736
0.701228 0.428885 0.188907
0.741115 0.426505 0.194629
0.777661 0.421485 0.197024
0.804074 0.412879 0.195377
0.815000 0.403433 0.192111
0.813840 0.394949 0.188754
0.010620 0.287129 0.059312
0.007706 0.311192 0.027100
0.006683 0.335180 0.008164
0.044129 0.329747 0.009140
0.147463 0.348867 0.023651
0.304524 0.396689 0.072709
0.426581 0.435843 0.132967
0.498024 0.451957 0.158160
0.555749 0.467781 0.169497
0.626429 0.493889 0.180941
0.689754 0.503166 0.193591
0.746853 0.514870 0.211795
0.794385 0.523964 0.227527
0.831312 0.527413 0.238041
0.855879 0.521569 0.241382
0.866224 0.509941 0.239048
0.863142 0.495460 0.233173
0.008927 0.327443 0.056977
0.006760 0.347616 0.024216
0.005997 0.365698 0.007660
0.045182 0.362661 0.008774
0.155886 0.386465 0.025116
0.321981 0.442405 0.074144
0.453422 0.490135 0.137728
0.532204 0.508888 0.169909
0.589090 0.519951 0.181613
0.646754 0.536690 0.190539
0.711742 0.567117 0.202869
0.772763 0.583398 0.222583
0.825574 0.601816 0.245274
0.864149 0.612833 0.266499
0.879103 0.612451 0.278080
0.884886 0.602640 0.279606
0.882872 0.585138 0.272663
0.007614 0.362844 0.057420
0.005844 0.381033 0.022766
0.005417 0.399954 0.007324
0.051942 0.398260 0.009003
0.175540 0.430137 0.030137
0.347951 0.494133 0.082963
0.483742 0.548592 0.148425
0.567208 0.575097 0.186191
0.622995 0.584848 0.199573
0.676448 0.596185 0.208621
0.735027 0.615900 0.218585
0.793561 0.648783 0.230167
0.846433 0.670344 0.257084
0.877836 0.684581 0.284153
0.893462 0.684062 0.301610
0.899138 0.674037 0.307790
0.896376 0.655192 0.301503
0.006744 0.398245 0.056794
0.005524 0.412406 0.021637
0.005707 0.433555 0.007095
0.066865 0.434379 0.010071
0.204166 0.477836 0.037156
0.378820 0.550896 0.097093
0.517143 0.615030 0.168032
0.603845 0.647944 0.208698
0.660868 0.660227 0.224277
0.709285 0.669627 0.232944
0.759258 0.681407 0.241489
0.812268 0.702083 0.252888
0.861601 0.735668 0.266712
0.887388 0.751888 0.295933
0.902953 0.749249 0.319524
0.909331 0.735668 0.329717
0.908095 0.712734 0.325002
0.006882 0.429297 0.056275
0.005890 0.442496 0.021057
0.007279 0.473655 0.006485
0.089784 0.471656 0.013428
0.233097 0.525765 0.043717
0.404471 0.610605 0.109331
0.545663 0.682811 0.182971
0.634714 0.719051 0.228046
0.695979 0.734295 0.249393
0.741054 0.743404 0.262760
0.784451 0.752117 0.272251
0.829007 0.763149 0.281895
0.866804 0.781994 0.292500
0.897612 0.815518 0.308171
0.911070 0.815076 0.332982
0.916320 0.798642 0.346166
0.915084 0.766674 0.343084
0.007706 0.466484 0.056504
0.006806 0.482994 0.019516
0.014862 0.511299 0.007263
0.111254 0.505409 0.017166
0.243198 0.561959 0.047150
0.397696 0.648936 0.104250
0.545419 0.727092 0.171511
0.647059 0.770871 0.223804
0.716365 0.792065 0.257893
0.763607 0.802808 0.283146
0.801511 0.810132 0.298100
0.839673 0.816724 0.307912
0.868193 0.825772 0.317861
0.894453 0.841093 0.330953
0.919432 0.863630 0.346456
0.922240 0.854612 0.358160
0.920058 0.824552 0.356313
0.012543 0.503227 0.058000
0.015702 0.522606 0.019242
0.032029 0.536065 0.011322
0.124666 0.532601 0.020676
0.231403 0.586389 0.046448
0.365499 0.665476 0.085985
0.517723 0.743297 0.137911
0.639323 0.796048 0.193912
0.720531 0.825025 0.239765
0.775082 0.840055 0.279255
0.810178 0.846677 0.310109
0.841093 0.849271 0.325780
0.864378 0.853407 0.333761
0.885512 0.858595 0.343938
0.910643 0.866484 0.357321
0.929686 0.880980 0.370443
0.925795 0.863630 0.365728
0.021118 0.535531 0.056886
0.035233 0.552254 0.022034
0.060334 0.553933 0.018738
0.126345 0.549950 0.023819
0.208179 0.588663 0.037354
0.325734 0.656504 0.061372
0.476356 0.734081 0.096773
0.609567 0.792355 0.147601
0.706813 0.827314 0.202014
0.771267 0.845991 0.246159
0.808225 0.854002 0.290074
0.833661 0.855543 0.322927
0.856947 0.856336 0.335790
0.872877 0.859800 0.342260
0.893568 0.865049 0.351614
0.916060 0.872496 0.365225
0.932311 0.885420 0.377310
0.023743 0.026932 0.075196
0.035569 0.024674 0.070603
0.049760 0.023911 0.068238
0.073396 0.025803 0.065461
0.095445 0.027863 0.063157
0.120607 0.028733 0.062013
0.144228 0.030091 0.060945
0.171130 0.031907 0.060487
0.197299 0.034073 0.060472
0.222995 0.036622 0.060273
0.250874 0.039597 0.059724
0.276692 0.042679 0.059495
0.304616 0.045106 0.059220
0.331060 0.047059 0.059129
