tools/luts_backup/Kodak Vision3 500T 5219 (C41)_FPE.cube
# (C) 2014 VisionColor & Patchflyer [www.vision-color.com]
# Generator: VC Patchmatch v.2.1.1 [64/53]
# All work and no play makes Jack a dull boy.
# LUT generated from: Kodak Vision3 500T 5219 (C41)_FPE
LUT_3D_SIZE 5
0.037507 0.041794 0.042802
0.152438 0.054841 0.042069
0.393500 0.060227 0.059586
0.416037 0.061524 0.076570
0.409339 0.057664 0.051072
0.037934 0.151873 0.065644
0.226429 0.215137 0.072938
0.452506 0.165438 0.064408
0.448051 0.062394 0.063737
0.501701 0.110567 0.062028
0.046311 0.316274 0.095262
0.155673 0.365835 0.101915
0.561822 0.460487 0.125032
0.709758 0.414191 0.136904
0.696498 0.368277 0.112871
0.102113 0.495232 0.188525
0.152438 0.507927 0.178790
0.558633 0.602533 0.220600
0.760159 0.649760 0.300786
0.821775 0.612726 0.285023
0.094759 0.493935 0.207080
0.089387 0.489219 0.201099
0.531502 0.647028 0.280812
0.724681 0.698970 0.364736
0.860624 0.761379 0.521447
0.037186 0.040909 0.133303
0.144717 0.055741 0.135653
0.409216 0.064271 0.168673
0.434089 0.065614 0.150347
0.424979 0.060975 0.094926
0.037339 0.143786 0.173999
0.216449 0.205875 0.199710
0.519493 0.119371 0.172564
0.452537 0.065476 0.141039
0.551522 0.097490 0.071656
0.047669 0.312734 0.092302
0.128511 0.351202 0.096544
0.551705 0.452293 0.120836
0.719753 0.422065 0.142153
0.686091 0.361288 0.112428
0.095354 0.493278 0.219715
0.105745 0.484489 0.160784
0.558633 0.602533 0.220600
0.768231 0.659098 0.317998
0.818433 0.613855 0.300862
0.109621 0.525536 0.335882
0.106676 0.520134 0.301198
0.486686 0.657969 0.296498
0.755734 0.720043 0.394095
0.881910 0.774304 0.549615
0.045762 0.042939 0.246921
0.049378 0.043214 0.256214
0.420432 0.066285 0.311925
0.447349 0.066255 0.288685
0.444739 0.064698 0.262211
0.044205 0.044800 0.267353
0.059113 0.048386 0.284428
0.419135 0.063691 0.310704
0.447349 0.066255 0.288685
0.581643 0.132708 0.319127
0.050919 0.335317 0.403265
0.051011 0.346212 0.407385
0.544625 0.504219 0.483543
0.755337 0.432425 0.402670
0.754955 0.405798 0.350607
0.129992 0.562081 0.446326
0.116884 0.552789 0.438178
0.469917 0.637049 0.335897
0.785458 0.664805 0.345052
0.834607 0.633097 0.430732
0.150942 0.586175 0.510826
0.143099 0.585214 0.503471
0.475898 0.720119 0.563561
0.766262 0.788083 0.617273
0.899718 0.808789 0.652827
0.052918 0.046693 0.280491
0.065232 0.045884 0.267262
0.310475 0.061250 0.337148
0.450767 0.069139 0.364111
0.450767 0.069139 0.364111
0.046098 0.088685 0.361318
0.060548 0.079866 0.372595
0.266804 0.062058 0.345449
0.450767 0.069139 0.364111
0.613108 0.241764 0.502297
0.049989 0.271000 0.464118
0.054643 0.309422 0.488396
0.439170 0.450202 0.603143
0.670039 0.374502 0.565377
0.733898 0.514275 0.612009
0.248508 0.634577 0.652964
0.238025 0.631647 0.646738
0.438895 0.683345 0.674083
0.798321 0.759960 0.739574
0.828550 0.724575 0.696376
0.247288 0.642725 0.635431
0.247974 0.641993 0.628779
0.559518 0.747631 0.693507
0.805844 0.823194 0.770809
0.892088 0.831510 0.763638
0.050492 0.135454 0.411139
0.131029 0.059419 0.336172
0.345800 0.061814 0.340658
0.450767 0.069139 0.364111
0.450767 0.069139 0.364111
0.051560 0.284840 0.469413
0.236667 0.372686 0.566323
0.456474 0.261570 0.527687
0.614862 0.248829 0.504479
0.609812 0.228580 0.498436
0.072358 0.432639 0.548791
0.188754 0.539895 0.620264
0.581231 0.623270 0.679988
0.752911 0.592187 0.673121
0.741100 0.558511 0.650828
0.248127 0.640406 0.654978
0.321401 0.665492 0.674678
0.652033 0.764355 0.761318
0.841688 0.812253 0.808209
0.844984 0.773861 0.783123
0.284291 0.656504 0.666072
0.307576 0.668421 0.675486
0.628153 0.774670 0.763180
0.810590 0.836988 0.827085
0.909880 0.873198 0.864378
