tools/luts_backup/Kodak Ektar 100_FC.cube
# (C) 2014 VisionColor & Patchflyer [www.vision-color.com]
# Generator: VC Patchmatch v.2.1.1 [64/53]
# All work and no play makes Jack a dull boy.
# LUT generated from: Kodak Ektar 100_FC01
LUT_3D_SIZE 17
0.030304 0.014008 0.020722
0.056077 0.018585 0.026490
0.090059 0.023133 0.030930
0.127977 0.027863 0.035492
0.168658 0.033478 0.040558
0.222751 0.038437 0.045518
0.293080 0.043442 0.050340
0.368399 0.047150 0.054231
0.438788 0.049836 0.056809
0.501518 0.053742 0.059190
0.566079 0.059083 0.061921
0.629068 0.067109 0.067079
0.683665 0.078935 0.074022
0.729870 0.091875 0.080140
0.769329 0.100984 0.085512
0.799268 0.098253 0.088884
0.818311 0.084932 0.096071
0.036469 0.039506 0.027497
0.051667 0.039719 0.027893
0.082490 0.047608 0.032761
0.116854 0.054566 0.037415
0.154086 0.060349 0.040925
0.201709 0.065797 0.044068
0.266758 0.073594 0.047181
0.336126 0.082673 0.050340
0.400320 0.089265 0.052369
0.462974 0.093111 0.054337
0.532021 0.099229 0.057939
0.595636 0.111696 0.064042
0.649454 0.130831 0.071229
0.699535 0.152346 0.079164
0.745296 0.167819 0.086732
0.778851 0.161059 0.092561
0.811933 0.128817 0.101595
0.046799 0.079057 0.041886
0.056245 0.080690 0.037354
0.075608 0.084031 0.036759
0.108278 0.090822 0.039475
0.142824 0.099062 0.041489
0.183307 0.105852 0.043915
0.243839 0.116686 0.045533
0.313664 0.128954 0.047211
0.376410 0.137789 0.048753
0.435676 0.142290 0.050690
0.501671 0.148394 0.053773
0.567926 0.162142 0.060655
0.631617 0.186923 0.070222
0.684047 0.218585 0.079408
0.721096 0.249912 0.087404
0.748058 0.270588 0.094942
0.769787 0.255833 0.102037
0.056947 0.130922 0.057984
0.061387 0.128862 0.051408
0.074006 0.128206 0.047608
0.099306 0.131899 0.044404
0.130587 0.138399 0.043641
0.166155 0.142947 0.043122
0.214115 0.149706 0.042206
0.280110 0.165408 0.043366
0.352712 0.183413 0.045701
0.418967 0.193027 0.048875
0.487434 0.201175 0.053483
0.553216 0.219806 0.060929
0.615259 0.246921 0.070420
0.669291 0.286961 0.081575
0.707637 0.331319 0.092088
0.731701 0.374212 0.103792
0.752712 0.405676 0.117388
0.061723 0.188663 0.069535
0.069017 0.185901 0.060517
0.074022 0.181796 0.054383
0.089433 0.179171 0.051469
0.117906 0.178393 0.046815
0.150042 0.182910 0.043702
0.180941 0.178592 0.040436
0.237156 0.187930 0.040055
0.315663 0.215167 0.042893
0.396216 0.240787 0.048005
0.473289 0.259632 0.055375
0.543130 0.285420 0.064546
0.606699 0.318044 0.074784
0.660075 0.358633 0.086397
0.704189 0.409400 0.101061
0.730297 0.467353 0.118624
0.742718 0.523781 0.138308
0.059815 0.249500 0.071672
0.070573 0.249348 0.063355
0.077028 0.245502 0.057801
0.086244 0.241230 0.053407
0.104799 0.235935 0.049897
0.137484 0.231662 0.044999
0.169451 0.229282 0.041901
0.204242 0.222477 0.040070
0.275380 0.243381 0.042466
0.365927 0.282628 0.048020
0.449912 0.314611 0.057359
0.525582 0.348272 0.067857
0.597681 0.385992 0.080507
0.657282 0.427436 0.094163
0.703655 0.479713 0.113710
0.733135 0.545769 0.137179
0.746777 0.620752 0.166552
0.056062 0.310384 0.072160
0.069551 0.315633 0.065064
0.079683 0.311299 0.059815
0.089113 0.308125 0.056107
0.104341 0.305379 0.053346
0.128328 0.297917 0.051423
0.165820 0.297719 0.046479
0.202457 0.291096 0.044099
0.252293 0.296757 0.046021
0.336034 0.327581 0.050477
0.422141 0.364492 0.059449
0.502571 0.401740 0.070359
0.577539 0.441169 0.083543
0.645197 0.482780 0.100420
0.701015 0.532067 0.122927
0.729137 0.597574 0.149462
0.761090 0.686015 0.192935
0.056184 0.370764 0.076860
0.069978 0.382147 0.074662
0.080415 0.378531 0.069749
0.089540 0.376822 0.064729
0.103807 0.376028 0.061341
0.126619 0.374273 0.060472
0.160586 0.369314 0.057282
0.205585 0.370901 0.053254
0.252323 0.369116 0.052293
0.320073 0.388861 0.056687
0.394415 0.416480 0.062272
0.470100 0.444450 0.072129
0.547539 0.475792 0.084672
0.618173 0.512062 0.100969
0.683909 0.559228 0.123629
0.722118 0.611399 0.151431
0.760815 0.686687 0.195850
0.058686 0.427604 0.087541
0.070909 0.441566 0.088991
0.079744 0.447059 0.086946
0.088228 0.449805 0.083192
0.099962 0.451652 0.078096
0.118608 0.451072 0.073915
0.150515 0.449134 0.071595
0.192950 0.444114 0.065660
0.242252 0.439811 0.060868
0.304784 0.444617 0.063279
0.372519 0.463478 0.067674
0.435676 0.481392 0.073899
0.504448 0.494118 0.082551
0.578119 0.512734 0.094850
0.645121 0.544198 0.111986
0.705516 0.584497 0.137850
0.746365 0.631373 0.174136
0.062989 0.482994 0.104631
0.072633 0.501198 0.106355
0.077485 0.508690 0.105470
0.083833 0.517266 0.105074
0.093919 0.529946 0.102815
0.110658 0.535378 0.098558
0.137209 0.531868 0.094194
0.176471 0.526482 0.089540
0.216999 0.513451 0.079454
0.271275 0.502373 0.072496
0.340093 0.505730 0.074083
0.400519 0.514611 0.077226
0.451972 0.513237 0.080247
0.518456 0.508247 0.086366
0.594186 0.517494 0.097704
0.676173 0.546471 0.119722
0.738125 0.591791 0.154711
0.070176 0.544381 0.127123
0.075196 0.560845 0.127214
0.078111 0.567849 0.125673
0.081773 0.574701 0.125521
0.086854 0.586770 0.124743
0.099184 0.599664 0.124804
0.124865 0.610590 0.126390
0.162127 0.606912 0.126864
0.203204 0.596048 0.120134
0.242115 0.573922 0.102495
0.289586 0.552834 0.087190
0.353628 0.548424 0.083635
0.406790 0.541772 0.082506
0.459571 0.524956 0.083803
0.536065 0.516793 0.090974
0.643046 0.543969 0.114733
0.741421 0.607034 0.156924
0.078279 0.612985 0.154147
0.079484 0.617105 0.151369
0.082109 0.624460 0.149493
0.084871 0.628779 0.149401
0.087572 0.636347 0.149355
0.094026 0.643290 0.153109
0.111055 0.654902 0.159197
0.146273 0.667979 0.169757
0.189883 0.668849 0.172961
0.227878 0.650065 0.157092
0.268482 0.623636 0.129305
0.309529 0.593820 0.105333
0.372686 0.579019 0.096361
0.432578 0.566384 0.093370
0.506676 0.554589 0.100099
0.622034 0.579538 0.123949
0.753414 0.654032 0.177249
0.089128 0.670436 0.183886
0.090349 0.671397 0.180255
0.090257 0.675059 0.175799
0.092271 0.677256 0.175235
0.095033 0.681636 0.176837
0.101472 0.686091 0.187472
0.113558 0.693996 0.202838
0.138964 0.706874 0.219394
0.181491 0.717403 0.232273
0.222583 0.718090 0.220279
0.261387 0.689647 0.188983
0.309117 0.662806 0.155520
0.367391 0.638483 0.133410
0.446693 0.624201 0.125368
0.531914 0.625422 0.133043
0.639704 0.640803 0.153704
0.768048 0.702907 0.209033
0.104189 0.719326 0.220691
0.105608 0.719432 0.216571
0.104555 0.720867 0.209247
0.105425 0.721950 0.206180
0.108919 0.725139 0.208713
0.119463 0.729488 0.225345
0.138003 0.738827 0.260929
0.163500 0.746731 0.296208
0.201663 0.753079 0.318288
0.244999 0.760067 0.303410
0.285985 0.750134 0.260838
0.336767 0.723720 0.220981
0.411048 0.706401 0.197040
0.500969 0.699336 0.192828
0.602762 0.699641 0.196429
0.701137 0.720134 0.219348
0.783032 0.749249 0.246448
0.122866 0.752026 0.263539
0.122850 0.750469 0.258656
0.123110 0.752590 0.253239
0.124056 0.753994 0.250828
0.129213 0.756558 0.254139
0.143511 0.758953 0.272343
0.179629 0.769635 0.326833
0.228153 0.784573 0.400824
0.278218 0.792966 0.446220
0.330449 0.801480 0.432242
0.376974 0.804425 0.369665
0.424277 0.781704 0.311925
0.499245 0.767727 0.288060
0.584222 0.763165 0.283299
0.669123 0.764569 0.290837
0.750835 0.772671 0.293889
0.796521 0.783658 0.292622
0.130617 0.764340 0.292348
0.132738 0.764843 0.292012
0.133318 0.765393 0.289738
0.136522 0.767163 0.292546
0.151156 0.775738 0.304784
0.178241 0.783078 0.329305
0.224430 0.790722 0.380407
0.305623 0.810925 0.463035
0.403571 0.834791 0.538949
0.480781 0.851484 0.557412
0.528572 0.854215 0.506249
0.570092 0.842832 0.439734
0.628183 0.835920 0.417975
0.690883 0.833143 0.414908
0.741070 0.829633 0.401709
0.791470 0.828305 0.390005
0.813870 0.813092 0.356619
0.134997 0.764706 0.324315
0.134890 0.765133 0.318990
0.136431 0.765332 0.323735
0.147417 0.771389 0.331258
0.177111 0.785138 0.354162
0.224369 0.799725 0.388998
0.288167 0.814221 0.424338
0.370748 0.837903 0.466316
0.464302 0.859586 0.504494
0.543557 0.862760 0.523751
0.601831 0.861738 0.529397
0.651591 0.862867 0.531350
0.702113 0.862989 0.527825
0.746593 0.862119 0.519997
0.772671 0.854459 0.498970
0.807172 0.850690 0.469703
0.847303 0.856489 0.458808
0.030503 0.012741 0.022965
0.052644 0.016266 0.029343
0.086351 0.021576 0.034028
0.119783 0.025925 0.039490
0.154818 0.030777 0.043824
0.199847 0.034287 0.048280
0.263066 0.039292 0.054215
0.336355 0.043275 0.058747
0.410346 0.043778 0.060166
0.480552 0.048554 0.061814
0.547448 0.056291 0.064683
0.613794 0.060807 0.069429
0.677394 0.066545 0.076173
0.731502 0.073671 0.082078
0.779232 0.081941 0.090043
0.805264 0.086351 0.094987
0.817838 0.088762 0.097032
0.034409 0.031586 0.036301
0.048219 0.032273 0.036500
0.108248 0.032563 0.036347
0.162524 0.034546 0.040589
0.218524 0.037842 0.044862
0.287266 0.042573 0.049439
0.360800 0.046159 0.053162
0.432746 0.048493 0.055421
0.504356 0.053071 0.058808
0.569345 0.059541 0.062760
0.625345 0.067796 0.066987
0.676356 0.079149 0.072450
0.725551 0.090242 0.078202
0.767102 0.098711 0.085756
0.797269 0.099657 0.093126
0.813474 0.097139 0.100267
0.804471 0.122301 0.101183
0.043488 0.069184 0.054536
0.054063 0.104448 0.053376
0.088960 0.106630 0.044236
0.138903 0.095964 0.041535
0.189303 0.093782 0.042802
0.253040 0.095872 0.045228
0.322026 0.100496 0.047898
0.385794 0.103090 0.049943
0.448951 0.105119 0.052674
0.520546 0.112078 0.057206
0.585748 0.123796 0.062913
0.640925 0.141222 0.070283
0.691875 0.161288 0.078767
0.733562 0.174624 0.085801
0.766171 0.170733 0.092119
0.794491 0.156283 0.098543
0.789395 0.181750 0.099748
0.051911 0.116777 0.071061
0.059449 0.179690 0.066819
0.075425 0.174487 0.054215
0.114916 0.171588 0.045426
0.158877 0.150362 0.042679
0.213107 0.147936 0.041886
0.285069 0.156466 0.043900
0.359747 0.163424 0.046738
0.424613 0.166110 0.049760
0.494331 0.174289 0.053986
0.561822 0.189364 0.061158
0.621088 0.210544 0.069337
0.674006 0.239841 0.079530
0.713664 0.272297 0.089128
0.738918 0.291310 0.096239
0.759518 0.286824 0.103182
0.766293 0.269215 0.103319
0.055390 0.173953 0.087160
0.060334 0.245106 0.071214
0.073381 0.241398 0.060670
0.091966 0.234394 0.052476
0.137362 0.228702 0.044022
0.174594 0.200458 0.040803
0.234730 0.197665 0.040757
0.317754 0.215396 0.043565
0.398749 0.230869 0.048157
0.472221 0.243717 0.053925
0.541802 0.262150 0.062608
0.605829 0.288655 0.072770
0.660243 0.324620 0.084230
0.701610 0.367803 0.096651
0.728222 0.411002 0.110460
0.743648 0.422797 0.117708
0.753796 0.359518 0.111910
0.055955 0.236362 0.095155
0.057511 0.307012 0.072877
0.074769 0.309010 0.063752
0.088197 0.304067 0.057435
0.115770 0.299077 0.053834
0.167498 0.297353 0.047807
0.206607 0.262379 0.043870
0.271794 0.262150 0.043778
0.361517 0.287633 0.048478
0.446021 0.311589 0.056657
0.522713 0.338201 0.066468
0.593744 0.368017 0.078477
0.653391 0.409598 0.092210
0.699336 0.457450 0.110063
0.727626 0.510719 0.129488
0.742763 0.529992 0.140658
0.750988 0.439811 0.123613
0.053849 0.298787 0.097887
0.057877 0.370474 0.079377
0.075242 0.377020 0.074250
0.086351 0.376181 0.067460
0.106523 0.373968 0.062455
0.144259 0.371450 0.060136
0.206043 0.370535 0.055177
0.254902 0.342168 0.050584
0.326589 0.348562 0.052750
0.412711 0.371221 0.060349
0.497856 0.403403 0.070787
0.575143 0.436179 0.083436
0.641901 0.477852 0.100587
0.698253 0.525322 0.122362
0.730205 0.580392 0.146304
0.745464 0.607065 0.164309
0.746563 0.498466 0.135607
0.052781 0.359380 0.102327
0.061448 0.429511 0.090349
0.073411 0.440482 0.088090
0.084398 0.450843 0.085878
0.099641 0.451514 0.078828
0.128878 0.450385 0.074220
0.176577 0.447776 0.070268
0.237613 0.438575 0.062181
0.307820 0.426703 0.061387
0.377539 0.434470 0.065034
0.453346 0.449821 0.072114
0.535988 0.476692 0.083665
0.612406 0.509422 0.100206
0.677958 0.555306 0.123827
0.723369 0.603357 0.150057
0.746334 0.629938 0.174014
0.741344 0.525734 0.141466
0.056123 0.419135 0.113802
0.066972 0.487175 0.106188
0.072847 0.496376 0.105409
0.080262 0.513527 0.105318
0.091569 0.523217 0.102098
0.115068 0.532433 0.098695
0.154574 0.529091 0.093858
0.206348 0.519509 0.084352
0.267796 0.499672 0.073075
0.345602 0.495399 0.072831
0.409995 0.495277 0.074434
0.480049 0.500191 0.080629
0.558633 0.510887 0.091295
0.635737 0.535302 0.110246
0.698940 0.571130 0.134005
0.733135 0.587503 0.153338
0.726833 0.497948 0.129564
0.061662 0.482094 0.131762
0.072282 0.550164 0.128054
0.076097 0.555566 0.126970
0.079484 0.569894 0.126070
0.086000 0.579858 0.124926
0.101427 0.595254 0.125628
0.135332 0.609674 0.128130
0.182895 0.599649 0.123705
0.232975 0.579248 0.108461
0.289723 0.549447 0.087053
0.361807 0.536110 0.081666
0.426520 0.527947 0.081254
0.495827 0.516274 0.085634
0.580652 0.519203 0.098009
0.664225 0.537957 0.118135
0.716640 0.545342 0.135958
0.698848 0.439994 0.109575
0.067613 0.542397 0.153765
0.078004 0.612299 0.153933
0.082017 0.616587 0.152270
0.083772 0.626078 0.150011
0.087861 0.634470 0.149874
0.095811 0.643626 0.153964
0.118791 0.659144 0.163333
0.164828 0.669459 0.172274
0.211872 0.654521 0.162219
0.261204 0.626490 0.134966
0.315267 0.592035 0.105989
0.385534 0.570275 0.094743
0.450477 0.552712 0.091386
0.529244 0.538384 0.098436
0.632563 0.556420 0.119066
0.716258 0.574121 0.143664
0.690028 0.454520 0.112184
0.075257 0.603357 0.182544
0.090059 0.670848 0.185245
0.090547 0.667933 0.180499
0.091859 0.676600 0.176059
0.095476 0.680171 0.176349
0.101488 0.684642 0.184802
0.117678 0.695918 0.204700
0.153384 0.711513 0.225116
0.203647 0.715679 0.227054
0.251972 0.699092 0.199542
0.308431 0.665232 0.162509
0.379156 0.636713 0.136934
0.454429 0.618448 0.125536
0.529259 0.604883 0.124758
0.624811 0.612009 0.140734
0.726604 0.640070 0.171618
0.716625 0.557382 0.143999
0.086580 0.659129 0.214801
0.105699 0.719249 0.220935
0.104280 0.712077 0.215091
0.104082 0.717174 0.208667
0.108171 0.721080 0.209216
0.116716 0.725185 0.219272
0.136919 0.735073 0.255406
0.174426 0.747372 0.299413
0.223636 0.755489 0.316976
0.278477 0.758862 0.285786
0.332525 0.734478 0.236606
0.406760 0.707500 0.204273
0.505531 0.696330 0.196017
0.588830 0.688792 0.186740
0.666484 0.686809 0.191577
0.746792 0.708782 0.214847
0.753170 0.663233 0.197803
0.101137 0.705516 0.254032
0.121248 0.747539 0.258137
0.121401 0.747860 0.256550
0.119997 0.746777 0.249149
0.124620 0.750072 0.250217
0.137469 0.756313 0.263127
0.171359 0.766247 0.308888
0.227039 0.780896 0.384543
0.294118 0.795422 0.434211
0.355688 0.804227 0.413687
0.411383 0.795972 0.343008
0.475319 0.772808 0.296437
0.563241 0.762341 0.281239
0.657649 0.763043 0.283894
0.721553 0.756436 0.270069
0.773709 0.759609 0.270802
0.785840 0.741756 0.265583
0.119112 0.738949 0.301152
0.132204 0.762142 0.293156
0.132937 0.763714 0.294331
0.133608 0.763378 0.291722
0.141649 0.767361 0.296529
0.166217 0.777203 0.315251
0.211078 0.788632 0.356069
0.289845 0.809384 0.437613
0.390204 0.831342 0.514504
0.471244 0.846860 0.525383
0.522240 0.844694 0.471061
0.577386 0.829999 0.415656
0.645685 0.823545 0.399542
0.715389 0.819944 0.388525
0.769299 0.815076 0.375204
0.803845 0.802396 0.347707
0.811658 0.796445 0.336767
0.133989 0.760418 0.339895
0.140948 0.768261 0.330373
0.145418 0.769223 0.332280
0.146120 0.769680 0.332860
0.161852 0.777722 0.343893
0.198413 0.791348 0.370169
0.256626 0.805936 0.405402
0.341451 0.830060 0.460029
0.445243 0.853498 0.517067
0.537804 0.863554 0.548074
0.603113 0.864378 0.544427
0.655299 0.860899 0.525002
0.708522 0.857969 0.510323
0.752743 0.855726 0.497429
0.798337 0.853483 0.474067
0.836225 0.852125 0.450248
0.844175 0.836789 0.420539
0.136233 0.761501 0.366644
0.173327 0.779843 0.398840
0.190249 0.783093 0.411444
0.181292 0.781704 0.403601
0.188251 0.786404 0.406516
0.222141 0.797086 0.427390
0.280339 0.810636 0.461875
0.360433 0.834211 0.504295
0.457008 0.857527 0.548104
0.545708 0.867521 0.583688
0.616907 0.873533 0.602029
0.672175 0.872709 0.599039
0.722057 0.868955 0.589410
0.767498 0.865202 0.578149
0.798795 0.861814 0.560708
0.829618 0.860090 0.535698
0.854627 0.861524 0.498482
0.035981 0.014786 0.044617
0.054154 0.017517 0.044007
0.080049 0.020615 0.045411
0.113420 0.025132 0.051987
0.144167 0.028321 0.058015
0.183871 0.031540 0.063462
0.240299 0.036393 0.070527
0.314458 0.041459 0.077317
0.391028 0.044678 0.080461
0.463905 0.047532 0.080690
0.531502 0.053269 0.080079
0.598962 0.059236 0.081071
0.665858 0.063783 0.083986
0.722576 0.068711 0.086671
0.770596 0.074937 0.091951
0.800504 0.079057 0.097185
0.816938 0.085832 0.102541
0.038361 0.031525 0.059159
0.045945 0.022477 0.068086
0.093263 0.025452 0.065858
0.140902 0.031556 0.061295
0.187671 0.034485 0.060731
0.249836 0.038605 0.063539
0.323644 0.042191 0.066041
0.400290 0.043809 0.066316
0.475303 0.049012 0.066514
0.545922 0.054978 0.068101
0.612161 0.059312 0.070726
0.673823 0.065507 0.075700
0.729244 0.073228 0.081926
0.774502 0.080201 0.088991
0.801221 0.086000 0.094682
0.813626 0.091508 0.100496
0.814939 0.098100 0.103792
0.040558 0.058228 0.069963
0.046342 0.079362 0.093767
0.075135 0.059556 0.065400
0.150790 0.054124 0.054170
0.240024 0.049638 0.051652
0.336583 0.048997 0.053391
0.425757 0.050416 0.056352
0.497215 0.052766 0.058595
0.561837 0.058183 0.061830
0.623423 0.067811 0.066987
0.675853 0.078309 0.072847
0.723369 0.088334 0.078782
0.764797 0.096559 0.084947
0.795010 0.099168 0.092317
0.810086 0.102174 0.099428
0.807645 0.116274 0.102022
0.806043 0.121004 0.102846
0.047913 0.108446 0.091127
0.051072 0.151949 0.102525
0.068116 0.152438 0.079210
0.120912 0.154513 0.061997
0.193759 0.137591 0.050340
0.284871 0.134768 0.047059
0.368841 0.132158 0.048981
0.439490 0.129442 0.051759
0.509133 0.131395 0.055467
0.573953 0.141833 0.061540
0.633677 0.158740 0.070314
0.686915 0.177966 0.078599
0.727428 0.193454 0.086397
0.759411 0.195071 0.092668
0.779538 0.186542 0.097673
0.788327 0.184482 0.100938
0.792172 0.177646 0.103334
0.051591 0.162966 0.106798
0.052293 0.221241 0.107622
0.062867 0.255604 0.082475
0.091600 0.253971 0.068986
0.152468 0.245686 0.053590
0.213581 0.205112 0.044221
0.311192 0.210132 0.044343
0.403296 0.215808 0.048753
0.481224 0.217960 0.054932
0.551293 0.228672 0.063401
0.612207 0.248692 0.071901
0.664622 0.278126 0.081605
0.704417 0.306630 0.091157
0.730907 0.328328 0.099641
0.749737 0.322148 0.105913
0.761975 0.288167 0.105669
0.774685 0.242084 0.105898
0.050721 0.219913 0.117800
0.051270 0.286213 0.110430
0.059754 0.347936 0.082948
0.084092 0.355337 0.075654
0.118517 0.350607 0.065599
0.194720 0.344640 0.055085
0.254047 0.293095 0.047150
0.351263 0.295720 0.049256
0.445701 0.308675 0.057664
0.526909 0.324941 0.067018
0.595178 0.348501 0.077165
0.652201 0.380972 0.088960
0.696818 0.420142 0.103395
0.723171 0.451972 0.116243
0.738827 0.455283 0.123262
0.750408 0.391745 0.117174
0.762371 0.313817 0.111147
0.048905 0.280949 0.123781
0.051820 0.348974 0.113863
0.060227 0.422538 0.090730
0.079912 0.439429 0.088441
0.102098 0.444343 0.080781
0.150088 0.440192 0.073960
0.233906 0.431586 0.063096
0.309087 0.388754 0.058030
0.397238 0.388006 0.060822
0.489906 0.408515 0.071061
0.571328 0.433616 0.083421
0.640192 0.468330 0.099199
0.693584 0.512245 0.119249
0.726909 0.549279 0.138567
0.740215 0.553307 0.146548
0.745983 0.477455 0.132174
0.758236 0.381826 0.119585
0.048569 0.344549 0.129015
0.055360 0.410895 0.124971
0.066133 0.486915 0.107774
0.077348 0.503929 0.106691
0.090440 0.519371 0.102464
0.121828 0.527245 0.098222
0.183047 0.519066 0.090425
0.267247 0.498405 0.074235
0.353292 0.468727 0.069306
0.437247 0.465904 0.072999
0.523964 0.480156 0.083619
0.607370 0.510262 0.100633
0.674006 0.551110 0.122866
0.720562 0.592081 0.147173
0.741741 0.596826 0.158877
0.743465 0.524086 0.143252
0.750668 0.428443 0.124239
0.051270 0.403769 0.140673
0.060761 0.474769 0.140459
0.072145 0.549813 0.128756
0.077867 0.564004 0.127657
0.085039 0.577234 0.125551
0.103304 0.594568 0.124819
0.151171 0.603998 0.128191
0.215839 0.586435 0.115160
0.287098 0.548928 0.087984
0.375708 0.523064 0.079789
0.453513 0.508736 0.080537
0.538506 0.512078 0.090135
0.624781 0.533364 0.108705
0.690974 0.562966 0.130709
0.726894 0.566033 0.144228
0.732387 0.507774 0.134417
0.741543 0.439719 0.120882
0.057069 0.468086 0.163241
0.067414 0.538659 0.161563
0.079286 0.611688 0.154208
0.082444 0.619181 0.152148
0.086442 0.631037 0.149447
0.096010 0.640085 0.153109
0.126741 0.659922 0.165591
0.186389 0.664866 0.170474
0.248829 0.635523 0.142718
0.323018 0.593851 0.109056
0.395254 0.558953 0.090761
0.470146 0.535592 0.088029
0.562020 0.532280 0.099580
0.651209 0.542535 0.117388
0.703365 0.527123 0.127840
0.703914 0.457191 0.114580
0.715846 0.419287 0.107942
0.064515 0.536110 0.187030
0.074220 0.599298 0.187289
0.090486 0.669322 0.185382
0.091295 0.666423 0.179309
0.094240 0.676524 0.176043
0.101595 0.683650 0.183658
0.122683 0.698131 0.206912
0.170123 0.713344 0.228855
0.232944 0.711223 0.215717
0.298970 0.672999 0.172641
0.391653 0.640253 0.140871
0.453651 0.605127 0.118181
0.529488 0.584237 0.114214
0.625834 0.581888 0.128008
0.697688 0.569085 0.139651
0.694514 0.479561 0.119081
0.675944 0.407233 0.098314
0.072694 0.598199 0.213046
0.084413 0.654047 0.219944
0.103990 0.715938 0.220554
0.103426 0.709606 0.213504
0.106142 0.716533 0.209598
0.114855 0.723568 0.216175
0.137453 0.734768 0.252384
0.185641 0.748150 0.302174
0.250156 0.758434 0.310613
0.310704 0.744076 0.257939
0.394003 0.713710 0.212909
0.501610 0.698665 0.197818
0.568170 0.673030 0.173114
0.638224 0.657664 0.168124
0.711543 0.651759 0.179034
0.721447 0.587793 0.158068
0.669490 0.464881 0.114092
0.084001 0.650599 0.249134
0.100877 0.700954 0.261707
0.119905 0.745983 0.258976
0.118944 0.742550 0.254520
0.120974 0.746777 0.249683
0.131838 0.752026 0.256992
0.164446 0.762646 0.297002
0.226444 0.777157 0.374426
0.306416 0.795605 0.420981
0.376410 0.801022 0.380438
0.444480 0.779171 0.313283
0.540932 0.761715 0.284520
0.640024 0.757977 0.280003
0.700542 0.743725 0.251453
0.746532 0.732280 0.242741
0.758511 0.698665 0.226596
0.706844 0.584207 0.165209
0.100572 0.696529 0.292058
0.119432 0.735698 0.305745
0.131838 0.760067 0.294133
0.133532 0.760388 0.295140
0.135180 0.762432 0.291356
0.153536 0.771069 0.302907
0.195102 0.782910 0.340169
0.276356 0.804105 0.422354
0.383001 0.826658 0.498695
0.471977 0.841520 0.499626
0.536782 0.835462 0.440131
0.611337 0.820310 0.400748
0.691310 0.814160 0.383185
0.760952 0.812985 0.369940
0.788327 0.793576 0.329732
0.796536 0.774823 0.308003
0.756420 0.704952 0.253193
0.120500 0.734249 0.345205
0.133196 0.756344 0.344625
0.148486 0.769314 0.335180
0.154452 0.772183 0.340719
0.152438 0.773159 0.338064
0.173999 0.783276 0.352056
0.224781 0.797650 0.389395
0.314122 0.821973 0.451270
0.432486 0.846265 0.521248
0.539025 0.861814 0.560021
0.608820 0.862943 0.545617
0.666835 0.856809 0.511818
0.727657 0.852735 0.491859
0.783322 0.850584 0.473716
0.826505 0.846830 0.443549
0.833570 0.827420 0.402899
0.808286 0.796658 0.364645
0.136034 0.756848 0.390295
0.147753 0.765743 0.384176
0.190829 0.784527 0.409735
0.204273 0.788144 0.417014
0.184039 0.783566 0.403113
0.195758 0.790188 0.409827
0.242466 0.802075 0.438666
0.323873 0.825147 0.486015
0.434119 0.848814 0.546059
0.544030 0.863691 0.590936
0.626505 0.873167 0.608148
0.685649 0.871214 0.599176
0.736492 0.866484 0.579690
0.783719 0.863325 0.560540
0.824781 0.861219 0.535500
0.854398 0.860990 0.499214
0.850126 0.848600 0.474220
0.140169 0.758892 0.412375
0.195331 0.782193 0.456703
0.315099 0.814710 0.531243
0.335409 0.828428 0.545449
0.238911 0.801343 0.484398
0.209232 0.794415 0.457618
0.229877 0.798459 0.472999
0.287526 0.809949 0.512032
0.384024 0.834913 0.575891
0.501472 0.857389 0.636316
0.603357 0.871794 0.676890
0.676204 0.881498 0.689296
0.728145 0.881056 0.669642
0.773632 0.877226 0.641489
0.814038 0.873686 0.617395
0.846235 0.869261 0.588373
0.866346 0.867765 0.547402
0.043061 0.019669 0.076036
0.057115 0.019348 0.067643
0.076356 0.021164 0.067170
0.105928 0.023453 0.070634
0.137285 0.026398 0.076448
0.172885 0.028916 0.082124
0.223911 0.033494 0.092363
0.296162 0.037446 0.101335
0.373526 0.040528 0.106661
0.449348 0.046143 0.108659
0.518837 0.051743 0.106706
0.587198 0.056962 0.102449
0.655955 0.062272 0.099916
0.715572 0.067063 0.099382
