tools/luts_backup/Kodak Ultramax 400_VS.cube
# (C) 2014 VisionColor & Patchflyer [www.vision-color.com]
# Generator: VC Patchmatch v.2.1.1 [64/53]
# All work and no play makes Jack a dull boy.
# LUT generated from: Kodak Ultramax 400_VisionSpace
LUT_3D_SIZE 9
0.025971 0.030152 0.025971
0.065583 0.026886 0.029664
0.108614 0.034455 0.035554
0.171389 0.041718 0.046357
0.240787 0.050660 0.060456
0.312444 0.057099 0.068513
0.389410 0.064973 0.079561
0.456947 0.073030 0.091310
0.525628 0.081819 0.103212
0.049744 0.073274 0.034180
0.099489 0.078431 0.042420
0.165896 0.096529 0.052705
0.244572 0.117006 0.067353
0.314061 0.131350 0.077668
0.377783 0.136965 0.087709
0.447944 0.141817 0.099672
0.509331 0.133852 0.109316
0.558648 0.107820 0.112612
0.089448 0.129549 0.053010
0.154910 0.162387 0.064363
0.228031 0.182559 0.073854
0.310887 0.209842 0.088899
0.387854 0.235843 0.106386
0.454383 0.246067 0.119387
0.507195 0.244144 0.129397
0.560723 0.244358 0.142611
0.596551 0.231632 0.146731
0.195712 0.250034 0.085328
0.242008 0.276677 0.095583
0.304967 0.303197 0.109438
0.372534 0.314061 0.120516
0.461219 0.344976 0.140566
0.521324 0.360204 0.154208
0.562676 0.356542 0.162844
0.601923 0.354620 0.178042
0.616419 0.326574 0.174838
0.297154 0.364050 0.119081
0.327825 0.390082 0.134951
0.375494 0.416846 0.151461
0.442756 0.433326 0.164675
0.512078 0.454475 0.180484
0.567498 0.469642 0.191623
0.607813 0.468757 0.199863
0.625055 0.442115 0.198337
0.628412 0.403723 0.190616
0.365576 0.452125 0.148196
0.387274 0.488167 0.169955
0.437293 0.512657 0.189609
0.496498 0.525902 0.201297
0.556115 0.540795 0.214359
0.606836 0.558618 0.231662
0.644800 0.559686 0.239597
0.653468 0.539300 0.233921
0.643397 0.486213 0.213870
0.405615 0.535576 0.178866
0.432227 0.558984 0.195743
0.478920 0.580194 0.212863
0.535851 0.590204 0.226352
0.592981 0.604089 0.242222
0.639185 0.614923 0.258824
0.667536 0.616846 0.267918
0.673793 0.603784 0.264561
0.666346 0.575372 0.251255
0.420630 0.614923 0.207370
0.447395 0.625208 0.216190
0.503685 0.638880 0.233158
0.564660 0.646662 0.250980
0.624292 0.657160 0.271183
0.657313 0.659175 0.281773
0.676173 0.653315 0.285161
0.689448 0.655207 0.290257
0.688594 0.652216 0.288731
0.383124 0.657526 0.213413
0.442115 0.665980 0.228489
0.500999 0.674769 0.245151
0.565454 0.681300 0.263981
0.620935 0.686061 0.281376
0.652979 0.683955 0.290501
0.675776 0.686305 0.298833
0.689052 0.677760 0.299657
0.698756 0.683284 0.305211
0.028809 0.028809 0.081239
0.053651 0.031220 0.078920
0.117830 0.037629 0.088716
0.184329 0.044282 0.102388
0.251164 0.053101 0.117769
0.306737 0.057893 0.126284
0.379492 0.065888 0.140963
0.450935 0.075166 0.151217
0.511101 0.083558 0.158236
0.046937 0.085023 0.086610
0.110170 0.102113 0.105440
0.176364 0.058686 0.063996
0.237613 0.050996 0.059632
0.309483 0.057038 0.067933
0.387121 0.064698 0.078889
0.460945 0.073304 0.091279
0.516320 0.086732 0.111879
0.550988 0.142489 0.183444
0.082582 0.186069 0.084779
0.173800 0.223636 0.093080
0.326329 0.278569 0.124697
0.384436 0.232700 0.106538
0.423926 0.203555 0.105928
0.474342 0.187625 0.112459
0.526177 0.171908 0.119997
0.569207 0.161257 0.133852
0.611078 0.254246 0.213107
0.189731 0.284947 0.132876
0.291203 0.358282 0.118410
0.371252 0.409003 0.149844
0.504692 0.449439 0.178378
0.535454 0.393835 0.165408
0.560906 0.354757 0.162783
0.592096 0.330541 0.170382
0.611719 0.314244 0.181277
0.633082 0.357031 0.245182
0.274235 0.379126 0.168002
0.365118 0.452216 0.148318
0.417639 0.503441 0.182193
0.515465 0.529595 0.204929
0.606653 0.556420 0.230442
0.624262 0.516396 0.219394
0.629480 0.461082 0.204318
0.631678 0.416938 0.205051
0.650507 0.442603 0.271122
0.330877 0.467933 0.194736
0.402838 0.536736 0.178775
0.450385 0.570489 0.203586
0.536034 0.592340 0.227451
0.614557 0.606470 0.249302
0.664576 0.616724 0.267063
0.664820 0.579278 0.252415
0.656703 0.530358 0.239841
0.667353 0.527428 0.294499
0.344640 0.528191 0.190555
0.413428 0.610712 0.204379
0.465034 0.628901 0.221775
0.550713 0.643977 0.247166
0.628840 0.657282 0.272709
0.670619 0.654719 0.284092
0.689967 0.658473 0.291875
0.685603 0.633997 0.286778
0.686305 0.609766 0.321263
0.351598 0.600366 0.194553
0.395148 0.654688 0.215183
0.465950 0.666407 0.236393
0.553979 0.678370 0.266423
0.623346 0.684504 0.288762
0.665156 0.687037 0.302708
0.685298 0.681666 0.304570
0.699825 0.684657 0.310155
0.699641 0.660700 0.338933
0.352392 0.655879 0.207095
0.404486 0.668330 0.226810
0.491127 0.681147 0.268040
0.573205 0.690669 0.310887
0.625849 0.696773 0.334508
0.660365 0.698329 0.345708
0.672541 0.691615 0.339849
0.684474 0.683436 0.328893
0.700008 0.692897 0.340246
0.033631 0.033631 0.132784
0.056794 0.035126 0.128817
0.116579 0.039643 0.133394
0.189212 0.045747 0.146029
0.257328 0.054902 0.163607
0.315099 0.060731 0.178622
0.379553 0.068086 0.194430
0.442145 0.076570 0.201114
0.495430 0.084260 0.196536
0.055573 0.094087 0.148470
0.049531 0.053925 0.181888
0.171969 0.062715 0.180209
0.253697 0.055390 0.162509
0.311437 0.059602 0.159792
0.378485 0.066835 0.165805
0.448585 0.075807 0.170748
0.501030 0.090700 0.178500
0.546014 0.159274 0.234775
0.099184 0.189548 0.175845
0.145144 0.268498 0.250797
0.232914 0.223911 0.208408
0.367987 0.147585 0.151675
0.384924 0.102632 0.117800
0.456703 0.077302 0.096803
0.514488 0.090272 0.117647
0.557153 0.148714 0.184237
0.674891 0.256626 0.260533
0.142458 0.308568 0.189090
0.195773 0.410254 0.182467
0.313542 0.386847 0.196750
0.489815 0.439460 0.249180
0.540520 0.367895 0.198337
0.569787 0.282368 0.158968
0.591546 0.246983 0.162905
0.621027 0.295903 0.224430
0.682399 0.372656 0.289555
0.200412 0.417090 0.185367
0.298131 0.474891 0.217990
0.382208 0.505455 0.194491
0.511925 0.557244 0.247013
0.637751 0.589227 0.282536
0.643122 0.509926 0.228412
0.633722 0.423880 0.212558
0.646448 0.423621 0.263371
0.685176 0.469154 0.318578
0.266270 0.492134 0.218021
0.321782 0.534478 0.211704
0.409583 0.603815 0.202274
0.517784 0.633814 0.239536
0.639887 0.652827 0.278935
0.689082 0.656214 0.293980
0.673121 0.587304 0.268528
0.670802 0.544854 0.299413
0.699977 0.555688 0.348760
0.296788 0.545892 0.234379
0.330266 0.596674 0.199130
0.400000 0.652338 0.215976
0.510796 0.671107 0.253239
0.623377 0.682948 0.291569
0.676265 0.682979 0.306432
0.699702 0.685115 0.312352
0.697627 0.646296 0.337163
0.715816 0.630701 0.375189
0.302953 0.596124 0.221805
0.342321 0.648646 0.208225
0.407477 0.667048 0.232029
0.524590 0.683955 0.287297
0.617182 0.695705 0.331121
0.663355 0.698207 0.346380
0.681117 0.688716 0.335637
0.701808 0.691920 0.341894
0.720577 0.677394 0.392615
0.310643 0.655390 0.209842
0.374517 0.665187 0.247135
0.465705 0.683925 0.299077
0.568261 0.700130 0.353765
0.623621 0.705165 0.379705
0.662379 0.712520 0.389441
0.685573 0.711940 0.396765
0.693049 0.697871 0.387396
0.714015 0.700984 0.393896
0.037659 0.037659 0.193179
0.051972 0.036683 0.176608
0.110628 0.040894 0.178317
0.176577 0.045747 0.183780
0.252567 0.055756 0.203342
0.314458 0.062318 0.224491
0.373144 0.069703 0.241459
0.423011 0.075349 0.232486
0.478676 0.083497 0.231785
0.058900 0.100618 0.206546
0.042390 0.042817 0.264042
0.101259 0.045319 0.229160
0.232670 0.055573 0.237736
0.309972 0.062226 0.237430
0.370398 0.069245 0.237339
0.427893 0.076081 0.228428
0.479835 0.093019 0.226780
0.536400 0.173404 0.271885
0.107057 0.196475 0.242466
0.111482 0.202762 0.302159
0.111879 0.133455 0.286168
0.285069 0.147524 0.290654
0.360510 0.106050 0.245945
0.434546 0.081605 0.216098
0.489967 0.097627 0.209720
0.542504 0.164797 0.249027
0.656794 0.263859 0.304479
0.156527 0.295323 0.280858
0.203098 0.386908 0.382727
0.221286 0.390661 0.379858
0.362768 0.353765 0.333745
0.505119 0.282780 0.261692
0.555367 0.209369 0.222477
0.558892 0.157733 0.190524
0.668330 0.254368 0.261357
0.706630 0.370184 0.330877
0.199557 0.399023 0.314000
0.239719 0.489021 0.354009
0.239658 0.547082 0.291295
0.389868 0.507652 0.258732
0.600580 0.548119 0.325811
0.623529 0.479149 0.303105
0.639429 0.390982 0.258366
0.680079 0.416480 0.301549
0.710475 0.469947 0.361669
0.231144 0.497169 0.316258
0.250675 0.568933 0.299214
0.296239 0.603754 0.247166
0.409064 0.592035 0.255024
0.594202 0.633021 0.337682
0.677791 0.642847 0.358984
0.683192 0.588037 0.321782
0.697719 0.556573 0.348516
0.723293 0.562219 0.388128
0.252811 0.568811 0.305608
0.267094 0.621546 0.264744
0.320928 0.645319 0.229465
0.412390 0.662989 0.237156
0.590723 0.689570 0.321294
0.670314 0.693202 0.347662
0.701350 0.689448 0.345830
0.718959 0.658839 0.385412
0.736843 0.641932 0.419837
0.271214 0.627253 0.294438
0.297948 0.655818 0.256657
0.367742 0.671351 0.271183
0.464240 0.683803 0.299931
0.597711 0.705013 0.369268
0.660151 0.709834 0.388861
0.691585 0.706386 0.393347
0.712459 0.701137 0.393378
0.741604 0.690913 0.426429
0.276127 0.666163 0.262364
0.339818 0.687678 0.299077
0.406714 0.705776 0.318029
0.520287 0.724208 0.355810
0.606287 0.728756 0.399542
0.663600 0.733059 0.424933
0.700038 0.736324 0.434028
0.726955 0.730312 0.424201
0.740566 0.722164 0.412695
0.041932 0.041932 0.267460
0.051331 0.041779 0.238163
0.102022 0.045075 0.229923
0.173220 0.050599 0.239445
0.233555 0.055329 0.239170
0.302403 0.062104 0.258946
0.359136 0.069734 0.270512
0.406653 0.074128 0.253727
0.459174 0.081880 0.255680
0.067170 0.114199 0.275181
0.046113 0.047883 0.336339
0.067597 0.044404 0.285008
0.184573 0.054688 0.308751
0.280797 0.060945 0.283909
0.350347 0.069123 0.279576
0.405158 0.074830 0.261112
0.456458 0.092195 0.259861
0.517693 0.176181 0.299657
0.111757 0.204288 0.304234
0.100526 0.190127 0.368475
0.060945 0.081300 0.342687
0.172061 0.090120 0.342260
0.320958 0.106508 0.328771
0.398932 0.080781 0.280842
0.456397 0.097414 0.260960
0.520745 0.174838 0.291325
0.631739 0.265843 0.337682
0.161349 0.296635 0.346563
0.177432 0.336980 0.426673
0.176516 0.316442 0.449195
0.205783 0.249393 0.417304
0.421393 0.266361 0.434791
0.476112 0.208270 0.327535
0.531670 0.181735 0.284459
0.644129 0.265812 0.323857
0.692073 0.367895 0.372778
0.205447 0.392065 0.386908
0.233951 0.471595 0.477607
0.259403 0.511925 0.517510
0.308415 0.502220 0.505333
0.487861 0.475349 0.464729
0.595407 0.409934 0.381949
0.686976 0.323842 0.302113
0.707820 0.364019 0.328740
0.706752 0.464332 0.411917
0.243961 0.484138 0.412421
0.262028 0.558251 0.456214
0.265049 0.611780 0.452323
0.291814 0.629389 0.391913
0.483406 0.599374 0.387686
0.655467 0.617350 0.433677
0.704280 0.566171 0.365057
0.717952 0.532601 0.378119
0.725704 0.577356 0.475959
0.268528 0.565118 0.419532
0.265690 0.618463 0.408713
0.278019 0.660029 0.375296
0.286961 0.707088 0.284260
0.494759 0.677638 0.336156
0.646586 0.697047 0.380499
0.719661 0.693324 0.395148
0.740810 0.662318 0.426764
0.749233 0.663996 0.523552
0.267063 0.619593 0.391760
0.277012 0.663935 0.372763
0.307225 0.700099 0.360128
0.365667 0.728939 0.326406
0.516533 0.724086 0.354253
0.644617 0.729946 0.414252
0.710414 0.733913 0.429633
0.742061 0.725582 0.414679
0.760159 0.717403 0.542626
0.271397 0.668574 0.364660
0.315984 0.694636 0.392187
0.355352 0.730068 0.393057
0.516655 0.735714 0.462150
0.611749 0.740261 0.513588
0.674647 0.744808 0.540307
0.711208 0.747097 0.546319
0.748959 0.754788 0.548516
0.767025 0.755886 0.534371
0.046113 0.046540 0.337407
0.049531 0.044038 0.299748
0.086336 0.045838 0.286046
0.164370 0.052827 0.306798
0.223148 0.057527 0.303014
0.280797 0.060914 0.283787
0.339422 0.068818 0.294804
0.396033 0.074952 0.288640
0.454261 0.083680 0.289921
0.068421 0.124514 0.345495
0.049134 0.056092 0.380468
0.056306 0.046326 0.325078
0.142367 0.054444 0.371649
0.236728 0.062287 0.364019
0.317876 0.067750 0.331518
0.390051 0.076326 0.316136
0.444190 0.092714 0.304784
0.496040 0.169986 0.329839
0.122011 0.226932 0.385901
0.087404 0.183871 0.437415
0.049775 0.058625 0.384649
0.080888 0.055329 0.373480
0.217334 0.067689 0.389197
0.367346 0.086183 0.405707
0.439155 0.101228 0.342504
0.491127 0.168429 0.339300
0.593683 0.265507 0.386633
0.168368 0.313573 0.422675
0.152499 0.316686 0.484352
0.118532 0.278599 0.527214
0.105058 0.163500 0.390906
0.263905 0.190753 0.466545
0.425361 0.218219 0.460121
0.486275 0.178225 0.367987
0.590082 0.263737 0.386542
0.667353 0.369360 0.433783
0.197910 0.386175 0.440894
0.217136 0.455116 0.530694
0.199802 0.460899 0.571405
0.234058 0.410025 0.537224
0.324468 0.374868 0.546868
0.525811 0.393118 0.541924
0.622644 0.317586 0.421729
0.674678 0.370459 0.414252
0.680293 0.481178 0.492195
0.238102 0.477455 0.480507
0.235508 0.538689 0.552117
0.235813 0.580316 0.608209
0.302098 0.586725 0.609003
0.413046 0.601114 0.618784
0.581720 0.571283 0.571923
0.644190 0.504753 0.462593
0.705684 0.468635 0.417304
0.709102 0.582238 0.550652
0.259464 0.557427 0.495583
0.246586 0.603082 0.525902
0.255589 0.643275 0.554589
0.312047 0.672114 0.571954
0.402579 0.707240 0.565103
0.597009 0.675502 0.536629
0.719173 0.692653 0.558221
0.745357 0.658930 0.519615
0.743252 0.668635 0.610986
0.255131 0.611566 0.476844
0.256779 0.651270 0.496040
0.309911 0.676844 0.525383
0.358251 0.720913 0.547494
0.502205 0.738003 0.553628
0.614038 0.740475 0.513985
0.711696 0.748104 0.548867
0.765408 0.753567 0.537179
0.760616 0.723262 0.634546
0.254582 0.659480 0.456886
0.311498 0.678981 0.505821
0.357885 0.719997 0.545312
0.490471 0.740230 0.593713
0.634668 0.745480 0.633173
0.689387 0.754147 0.645838
0.724636 0.757565 0.653376
0.758663 0.764675 0.652766
0.771756 0.764920 0.651484
0.049714 0.058198 0.386053
0.047608 0.046632 0.330053
0.076356 0.048310 0.342504
0.144472 0.054963 0.380041
0.212131 0.060853 0.380529
0.265171 0.064576 0.353246
0.317845 0.067872 0.330907
0.385809 0.076661 0.335637
0.449531 0.087373 0.343999
0.068208 0.134310 0.415656
0.048432 0.052491 0.382696
0.048981 0.046876 0.339727
0.094972 0.051240 0.382635
0.184817 0.059022 0.386267
0.273381 0.068238 0.394293
0.368841 0.080873 0.408392
0.435401 0.099031 0.383917
0.481178 0.173983 0.386328
0.111421 0.233829 0.459602
0.091249 0.204410 0.507774
0.049622 0.057008 0.391302
0.058595 0.062013 0.385443
0.152148 0.072969 0.421302
0.278630 0.089021 0.448188
0.412329 0.111666 0.468238
0.477119 0.180362 0.427497
0.555169 0.268376 0.448371
0.154116 0.318303 0.484688
0.129091 0.313329 0.543816
0.115480 0.281224 0.554925
0.064179 0.113100 0.412329
0.144213 0.143908 0.491981
0.300572 0.167575 0.502739
0.451148 0.192782 0.509789
0.543084 0.272709 0.485481
0.640742 0.370336 0.520897
0.201480 0.416297 0.516320
0.177340 0.421195 0.559014
0.151400 0.385672 0.573114
0.138506 0.329335 0.543206
0.174060 0.270832 0.501411
0.357671 0.305409 0.642542
0.546349 0.322225 0.602136
0.631983 0.368902 0.544091
0.664546 0.482582 0.561669
0.229831 0.485847 0.542016
0.217777 0.519463 0.595056
0.211307 0.527123 0.619898
0.237034 0.523278 0.625299
0.324193 0.525765 0.649592
0.444358 0.490364 0.644312
0.617609 0.509697 0.632502
0.666499 0.482490 0.561913
0.692653 0.580987 0.608545
0.235904 0.539239 0.549981
0.233555 0.583093 0.611170
0.253300 0.621607 0.647395
0.278233 0.647089 0.661128
0.379950 0.672541 0.692378
0.553170 0.681605 0.702388
0.662959 0.654719 0.660761
0.697383 0.608515 0.584009
0.734371 0.669245 0.667231
0.237858 0.597589 0.551659
0.251560 0.637690 0.603357
0.289006 0.662837 0.632105
0.369970 0.693935 0.666438
0.430289 0.740078 0.706447
0.598352 0.753872 0.690852
0.692561 0.739590 0.662013
0.765194 0.751583 0.669032
0.760037 0.728817 0.699763
0.244633 0.652064 0.556329
0.295232 0.667445 0.590692
0.378149 0.702724 0.643671
0.446143 0.742855 0.688258
0.598611 0.757015 0.693355
0.698390 0.758541 0.707210
0.731044 0.763027 0.715511
0.762570 0.768277 0.719081
0.773861 0.767330 0.716945
0.048341 0.052491 0.378637
0.046296 0.046845 0.336065
0.059663 0.047578 0.356298
0.107790 0.052155 0.384863
0.170748 0.057252 0.381231
0.232944 0.063416 0.387396
0.297490 0.070527 0.395880
0.370092 0.079988 0.407568
0.437964 0.092042 0.412024
0.081025 0.167697 0.487617
0.048829 0.053315 0.391485
0.049409 0.054688 0.370001
0.071351 0.059113 0.396277
0.147646 0.067140 0.420752
0.235477 0.077729 0.439094
0.325109 0.091585 0.463539
0.413977 0.106569 0.470253
0.473915 0.185763 0.455604
0.109255 0.259342 0.539818
0.100130 0.231449 0.537682
0.060731 0.101991 0.409644
0.088930 0.123568 0.440284
0.168765 0.143313 0.496315
0.263249 0.153719 0.497780
0.355657 0.166506 0.504997
0.450111 0.185763 0.508812
0.530175 0.276555 0.517143
0.130983 0.325017 0.542809
0.129671 0.323064 0.573144
0.110048 0.263157 0.518456
0.105989 0.200748 0.468940
0.187625 0.233371 0.542718
0.304021 0.249577 0.617914
0.422705 0.265538 0.584283
0.507774 0.279667 0.566644
0.616358 0.371527 0.594842
0.164065 0.401617 0.549828
0.149355 0.382544 0.575647
0.153689 0.368353 0.564263
0.174731 0.343862 0.546258
0.201114 0.312474 0.550072
0.316899 0.340276 0.685542
0.494118 0.360876 0.673976
0.598962 0.369146 0.653742
0.657038 0.481575 0.629297
0.210758 0.493172 0.588251
0.193790 0.488869 0.610315
0.216159 0.489784 0.615412
0.290501 0.506401 0.632074
0.334783 0.509438 0.683635
0.336416 0.439368 0.686305
0.560128 0.475227 0.695369
0.656001 0.480049 0.688746
0.698665 0.583124 0.664454
0.218753 0.534051 0.596521
0.226474 0.565759 0.632074
0.248142 0.577417 0.642634
0.318151 0.597528 0.662562
0.387793 0.643183 0.717372
0.519692 0.643183 0.730831
0.597101 0.598871 0.699702
0.703975 0.608118 0.709499
0.734676 0.662623 0.702815
0.234440 0.588129 0.614649
0.255650 0.624994 0.650935
0.273533 0.647028 0.660487
0.338079 0.678614 0.683040
0.399145 0.717647 0.720699
0.514565 0.752316 0.755428
0.676204 0.745815 0.753414
0.723842 0.718288 0.723690
0.756710 0.724269 0.733120
0.255619 0.635218 0.635676
0.279301 0.658106 0.649744
0.351110 0.686702 0.681453
0.417090 0.734340 0.731044
0.559640 0.760037 0.746090
0.673030 0.765621 0.743587
0.724239 0.763302 0.746883
0.754818 0.775082 0.753750
0.783017 0.780636 0.757168
0.047700 0.047700 0.393683
0.046967 0.046967 0.370398
0.047547 0.047181 0.375402
0.073335 0.049592 0.389319
0.139528 0.057984 0.420508
0.207919 0.065034 0.435981
0.275883 0.074342 0.461219
0.354894 0.087984 0.479774
0.418311 0.097871 0.474403
0.079683 0.162142 0.492012
0.059541 0.101411 0.405493
0.071229 0.115084 0.422675
0.116823 0.133669 0.471656
0.181949 0.145876 0.501366
0.249851 0.154147 0.500084
0.315038 0.158602 0.500572
0.383062 0.171939 0.506981
0.452949 0.189334 0.511589
0.131930 0.327947 0.582605
0.093111 0.217533 0.491737
0.100984 0.199405 0.464576
0.154360 0.223758 0.517784
0.221317 0.244236 0.593057
0.303716 0.251530 0.622339
0.383459 0.260166 0.596185
0.454902 0.270329 0.574792
0.505241 0.278935 0.565881
0.134554 0.337285 0.581201
0.119936 0.301488 0.532891
0.145541 0.295476 0.518975
0.202090 0.313726 0.551354
0.260960 0.334752 0.627268
0.358495 0.349950 0.691798
0.466011 0.360235 0.679988
0.550622 0.370398 0.667781
0.601160 0.374060 0.656672
0.147097 0.377600 0.579004
0.156130 0.382330 0.570855
0.211353 0.395102 0.574365
0.281498 0.425406 0.614878
0.335958 0.438468 0.686793
0.458289 0.464057 0.693690
0.560479 0.473518 0.696193
0.622156 0.481666 0.693782
0.655726 0.480415 0.689021
0.178866 0.458656 0.604639
0.204410 0.474678 0.609979
0.294438 0.508629 0.633753
0.371557 0.552728 0.701259
0.460822 0.555261 0.714137
0.554757 0.570153 0.706477
0.630732 0.580468 0.718196
0.673732 0.582818 0.718929
0.704463 0.578058 0.716060
0.212009 0.534142 0.627436
0.236606 0.544854 0.635523
0.315282 0.572351 0.655116
0.391882 0.625696 0.716243
0.522057 0.646387 0.732448
0.614527 0.650080 0.732143
0.675898 0.657099 0.733577
0.714137 0.663813 0.741299
0.739681 0.661677 0.741970
0.234348 0.581811 0.640040
0.247013 0.595361 0.645502
0.326696 0.629664 0.670985
0.385687 0.670100 0.715541
0.529122 0.706813 0.749660
0.645533 0.716060 0.753353
0.697047 0.722194 0.753048
0.735470 0.721523 0.754604
0.759823 0.723751 0.759823
0.261997 0.636378 0.655818
0.268162 0.644526 0.658686
0.338964 0.679347 0.683314
0.398077 0.715785 0.719570
0.509499 0.752407 0.752590
0.666316 0.767697 0.768582
0.717983 0.763363 0.769131
0.750271 0.779293 0.779507
0.791287 0.791287 0.791287
