tools/luts_backup/Kodak Gold Gen.6 200_CIN.cube
# (C) 2014 VisionColor & Patchflyer [www.vision-color.com]
# Generator: VC Patchmatch v.2.1.1 [64/53]
# All work and no play makes Jack a dull boy.
# LUT generated from: Kodak Gold Gen.6 200_Cineon
LUT_3D_SIZE 5
0.086275 0.086275 0.086275
0.295048 0.106050 0.105959
0.398138 0.105989 0.105867
0.476844 0.109651 0.118288
0.572534 0.117647 0.160769
0.149966 0.229679 0.093599
0.304356 0.255161 0.097658
0.445258 0.301274 0.107973
0.525078 0.332067 0.131044
0.600671 0.336156 0.147646
0.286534 0.423407 0.105989
0.407233 0.440925 0.109010
0.492134 0.458686 0.110048
0.560601 0.484474 0.124819
0.615534 0.472175 0.117647
0.402594 0.539269 0.115785
0.465095 0.544915 0.130861
0.534020 0.553185 0.115602
0.588861 0.562982 0.117647
0.615656 0.549493 0.117647
0.376471 0.607813 0.117647
0.499001 0.614984 0.117647
0.561028 0.615656 0.117647
0.607202 0.615656 0.117647
0.611749 0.615656 0.117647
0.094972 0.094972 0.236332
0.223087 0.096895 0.270848
0.372869 0.103914 0.291936
0.476448 0.109682 0.304295
0.543938 0.113710 0.320775
0.151400 0.267216 0.253056
0.301091 0.294987 0.294255
0.466926 0.165377 0.170718
0.562585 0.137575 0.177371
0.598871 0.345769 0.359564
0.296239 0.452186 0.288853
0.396948 0.517906 0.163943
0.567834 0.542992 0.180331
0.611780 0.475624 0.149996
0.612726 0.491737 0.369818
0.368444 0.541497 0.266026
0.398962 0.602777 0.117952
0.558740 0.612970 0.134615
0.618250 0.613825 0.147433
0.630762 0.567346 0.348272
0.330816 0.608545 0.172519
0.428931 0.611872 0.196384
0.529046 0.616022 0.283818
0.601831 0.629816 0.361883
0.634577 0.634577 0.365667
0.098268 0.098268 0.337102
0.194308 0.105745 0.372900
0.335302 0.103792 0.360906
0.455177 0.107881 0.396185
0.537255 0.113710 0.421576
0.152163 0.276280 0.395361
0.120638 0.149752 0.431250
0.419257 0.156313 0.454231
0.535485 0.134310 0.422553
0.600031 0.355688 0.452430
0.243259 0.439368 0.443153
0.291997 0.517815 0.530175
0.478431 0.486152 0.482338
0.591455 0.411002 0.408118
0.623377 0.505852 0.488228
0.334234 0.541924 0.446082
0.359472 0.613458 0.409140
0.459815 0.597589 0.306081
0.631037 0.621210 0.408957
0.630976 0.578943 0.495216
0.356725 0.623499 0.409552
0.406775 0.625116 0.423865
0.511742 0.629145 0.469947
0.601984 0.637659 0.501030
0.647059 0.647059 0.505730
0.106996 0.106996 0.449348
0.152499 0.106935 0.443671
0.282078 0.106447 0.431281
0.434638 0.109651 0.479652
0.525048 0.113710 0.497322
0.127626 0.294133 0.502373
0.112978 0.136263 0.521874
0.239551 0.132692 0.504509
0.500023 0.135225 0.561700
0.564752 0.313359 0.504570
0.210941 0.451240 0.535424
0.130556 0.477272 0.604425
0.219532 0.358480 0.548363
0.524498 0.380545 0.580652
0.591943 0.491157 0.537865
0.253910 0.534081 0.562219
0.137850 0.578424 0.605920
0.291615 0.593317 0.613733
0.570428 0.578546 0.582330
0.633539 0.580072 0.570123
0.232486 0.610468 0.526635
0.290471 0.617029 0.541924
0.481544 0.641718 0.590051
0.588190 0.647852 0.592187
0.650935 0.650935 0.592035
0.113710 0.113710 0.529412
0.109804 0.109804 0.486946
0.225376 0.109804 0.503777
0.377050 0.113588 0.526604
0.505852 0.117647 0.572534
0.117647 0.319493 0.592981
0.139956 0.304448 0.556817
0.293095 0.329198 0.575311
0.435065 0.335149 0.588922
0.529137 0.328893 0.597925
0.117647 0.488075 0.609644
0.188052 0.456764 0.603723
0.351003 0.474220 0.611749
0.484688 0.483009 0.621515
0.568597 0.486427 0.627558
0.145418 0.541192 0.623499
0.259037 0.540581 0.623743
0.439002 0.566155 0.640894
0.555444 0.579980 0.650324
0.623285 0.581109 0.647700
0.117647 0.580377 0.615656
0.208896 0.602380 0.623652
0.415442 0.639185 0.641138
0.577264 0.650843 0.650843
0.658808 0.658808 0.658808
