tools/luts_backup/Kodak Vision3 50D 5203 (NEG)_VS.cube
# (C) 2014 VisionColor & Patchflyer [www.vision-color.com]
# Generator: VC Patchmatch v.2.1.1 [64/53]
# All work and no play makes Jack a dull boy.
# LUT generated from: Kodak Vision3 50D 5203 (NEG)_Cineon
LUT_3D_SIZE 5
0.023758 0.023758 0.023758
0.154528 0.040726 0.041657
0.306310 0.062379 0.062257
0.454658 0.091341 0.084840
0.540108 0.103929 0.104005
0.084535 0.208225 0.092515
0.212726 0.233127 0.094209
0.367224 0.256794 0.110536
0.531273 0.312535 0.156329
0.631983 0.416190 0.228779
0.144350 0.416922 0.163485
0.238361 0.448783 0.165545
0.415320 0.477668 0.188113
0.591302 0.520745 0.246616
0.682246 0.577585 0.311330
0.207630 0.590829 0.254475
0.247318 0.611337 0.253773
0.419959 0.632609 0.282338
0.607065 0.646922 0.316381
0.713939 0.670115 0.368994
0.255116 0.669566 0.328481
0.301656 0.723766 0.290913
0.601267 0.742077 0.378836
0.708705 0.751095 0.410788
0.755550 0.751110 0.420493
0.029374 0.022705 0.112917
0.125460 0.034440 0.116258
0.285817 0.057984 0.141085
0.442222 0.082902 0.149416
0.538323 0.105470 0.160311
0.069886 0.163333 0.187335
0.209766 0.203052 0.215976
0.388754 0.132296 0.116106
0.512139 0.153384 0.138781
0.569390 0.161013 0.152682
0.149416 0.425605 0.279973
0.214984 0.519966 0.218769
0.504189 0.554910 0.289891
0.634577 0.539071 0.302739
0.639521 0.438392 0.261494
0.240681 0.613428 0.363867
0.285573 0.635462 0.357992
0.518608 0.678355 0.338537
0.706828 0.702571 0.410574
0.710307 0.650172 0.380621
0.325048 0.693950 0.466560
0.324331 0.708034 0.432441
0.575845 0.743038 0.463615
0.714824 0.758602 0.507668
0.769406 0.763958 0.520378
0.035370 0.033921 0.252293
0.134905 0.040894 0.255314
0.297551 0.061433 0.260212
0.448890 0.089097 0.265675
0.532372 0.108324 0.246662
0.057160 0.121004 0.309834
0.073304 0.072313 0.338811
0.396689 0.119692 0.334539
0.496452 0.133486 0.248112
0.559014 0.155352 0.240436
0.127062 0.365103 0.392203
0.241856 0.485344 0.493889
0.506950 0.506676 0.509133
0.608301 0.268315 0.238590
0.719265 0.404486 0.330449
0.300938 0.633127 0.542306
0.341222 0.670649 0.540520
0.611215 0.695994 0.604990
0.718914 0.712947 0.592859
0.750942 0.684306 0.502464
0.392584 0.734569 0.622171
0.426062 0.734600 0.610178
0.609506 0.740841 0.642161
0.730892 0.763973 0.670115
0.775021 0.771450 0.673274
0.041321 0.042908 0.399847
0.136843 0.050095 0.408850
0.336965 0.079728 0.414832
0.463844 0.107393 0.399145
0.527077 0.128969 0.392645
0.056214 0.094942 0.428946
0.073014 0.075364 0.436835
0.320333 0.111666 0.464775
0.505638 0.176013 0.472343
0.551659 0.184833 0.407279
0.112871 0.289738 0.486458
0.113313 0.202625 0.483406
0.161074 0.141558 0.490532
0.619287 0.339513 0.595834
0.701732 0.424521 0.601236
0.257206 0.577585 0.588937
0.361303 0.646738 0.653819
0.480064 0.678508 0.682765
0.696254 0.696406 0.695247
0.745068 0.696025 0.696620
0.385458 0.709010 0.670359
0.488655 0.742321 0.699947
0.645594 0.751537 0.712215
0.738048 0.765454 0.731060
0.778943 0.777188 0.737453
0.043717 0.046052 0.481193
0.108721 0.051209 0.484810
0.301961 0.083955 0.501305
0.466133 0.130205 0.501060
0.521721 0.158419 0.502037
0.057710 0.094575 0.498711
0.088518 0.089815 0.507469
0.276188 0.116915 0.518822
0.488853 0.190173 0.527718
0.566735 0.263798 0.554925
0.095903 0.214420 0.530968
0.109972 0.158038 0.524514
0.273014 0.174151 0.552209
0.617868 0.383551 0.674586
0.708659 0.521141 0.703548
0.213397 0.500038 0.610056
0.238651 0.443091 0.608408
0.445182 0.560189 0.712016
0.677592 0.654185 0.723339
0.749920 0.705486 0.748104
0.369314 0.685893 0.690303
0.404761 0.719371 0.722591
0.600717 0.749035 0.751888
0.731670 0.769436 0.769787
0.785046 0.783856 0.784375
