tools/luts_backup/Kodak Ultramax 400_CIN.cube
# (C) 2014 VisionColor & Patchflyer [www.vision-color.com]
# Generator: VC Patchmatch v.2.1.1 [64/53]
# All work and no play makes Jack a dull boy.
# LUT generated from: Kodak Ultramax 400_Cineon
LUT_3D_SIZE 5
0.082368 0.090181 0.082368
0.227268 0.089662 0.092897
0.380133 0.101686 0.124971
0.492805 0.106538 0.139620
0.580377 0.113710 0.160769
0.170413 0.236881 0.091066
0.340826 0.285710 0.097566
0.470069 0.326604 0.120302
0.546197 0.323857 0.140108
0.620447 0.300664 0.160769
0.372290 0.435157 0.103914
0.431189 0.464912 0.127565
0.519707 0.480385 0.125368
0.587427 0.483009 0.117861
0.619562 0.441047 0.135409
0.431739 0.527123 0.109651
0.477028 0.548241 0.124086
0.547478 0.556695 0.113252
0.605798 0.559472 0.113710
0.615656 0.535698 0.113710
0.380377 0.600000 0.113710
0.471931 0.606683 0.113710
0.549004 0.607691 0.113710
0.593530 0.603906 0.113710
0.615656 0.600000 0.113710
0.092988 0.092988 0.265660
0.238132 0.092988 0.262577
0.393957 0.101961 0.288701
0.487526 0.105745 0.315831
0.562310 0.113710 0.306065
0.177035 0.296757 0.280583
0.331670 0.324071 0.311864
0.480842 0.173220 0.199527
0.572106 0.130007 0.184939
0.609918 0.341588 0.345739
0.317174 0.455512 0.304326
0.417975 0.512139 0.163973
0.585595 0.544427 0.190280
0.620935 0.453651 0.165682
0.628229 0.479866 0.350652
0.333379 0.533196 0.253635
0.397253 0.595941 0.115267
0.551415 0.605219 0.139284
0.615930 0.601038 0.129427
0.634119 0.561730 0.349401
0.304082 0.601312 0.133852
0.443885 0.612329 0.239597
0.546441 0.615747 0.321935
0.591821 0.616419 0.324804
0.621973 0.607996 0.290074
0.101961 0.101961 0.413581
0.212558 0.101686 0.375006
0.370611 0.101808 0.376471
0.474739 0.105745 0.400000
0.539178 0.109804 0.378424
0.177432 0.310246 0.413153
0.123110 0.165011 0.466835
0.439673 0.171939 0.446357
0.535607 0.138277 0.380743
0.580652 0.350347 0.409857
0.260624 0.452674 0.448737
0.266636 0.516716 0.520653
0.495918 0.488258 0.482216
0.595758 0.400076 0.383948
0.617761 0.480537 0.449165
0.280308 0.543847 0.443366
0.255497 0.602747 0.379324
0.476692 0.599939 0.331930
0.621942 0.599359 0.366690
0.645075 0.577539 0.490028
0.239078 0.609644 0.364324
0.411139 0.621424 0.436591
0.541009 0.631342 0.484047
0.603204 0.632959 0.494545
0.646784 0.636957 0.484169
0.105867 0.126162 0.499886
0.165866 0.105684 0.471473
0.346899 0.105867 0.494453
0.445167 0.104341 0.455817
0.536553 0.109804 0.461860
0.146426 0.335943 0.527214
0.105867 0.123659 0.503288
0.270985 0.135714 0.519738
0.514031 0.142702 0.555901
0.554803 0.343145 0.490791
0.213382 0.468421 0.538842
0.119387 0.452399 0.594934
0.240162 0.363729 0.542748
0.536828 0.390005 0.570489
0.598535 0.486946 0.532036
0.193088 0.534752 0.542657
0.114412 0.585870 0.611353
0.329274 0.606195 0.626398
0.580530 0.573236 0.578424
0.646174 0.575982 0.574365
0.122225 0.605524 0.524865
0.328405 0.627649 0.572900
0.522332 0.644862 0.589776
0.606012 0.644495 0.590356
0.650935 0.642420 0.589136
0.105867 0.105867 0.505852
0.106813 0.105867 0.494514
0.258671 0.109804 0.521416
0.410254 0.110933 0.550225
0.521569 0.113710 0.564691
0.113710 0.412299 0.614282
0.141939 0.302708 0.535058
0.313756 0.337865 0.575952
0.451789 0.342931 0.583642
0.538628 0.341161 0.585473
0.113710 0.447059 0.601953
0.231098 0.454414 0.588495
0.401846 0.470314 0.607813
0.533623 0.483925 0.625452
0.594232 0.484169 0.619593
0.113710 0.533898 0.615534
0.281559 0.548058 0.624964
0.495186 0.572931 0.640223
0.588464 0.572015 0.650721
0.644953 0.570764 0.647700
0.113710 0.596033 0.615656
0.231662 0.620722 0.625360
0.474250 0.642847 0.643000
0.594202 0.643336 0.650935
0.658808 0.658808 0.658808
