tools/luts_backup/Kodak Elite Color 200_CIN.cube
# (C) 2014 VisionColor & Patchflyer [www.vision-color.com]
# Generator: VC Patchmatch v.2.1.1 [64/53]
# All work and no play makes Jack a dull boy.
# LUT generated from: Kodak Elite Color 200_Cineon
LUT_3D_SIZE 17
0.085603 0.085603 0.085603
0.110414 0.089143 0.091707
0.138491 0.091096 0.092012
0.170443 0.097414 0.097139
0.201785 0.104555 0.102480
0.228733 0.109560 0.104768
0.250675 0.113497 0.106081
0.271000 0.118013 0.107118
0.289342 0.122530 0.108492
0.305608 0.126070 0.109377
0.321599 0.128817 0.110353
0.337469 0.132326 0.111482
0.353002 0.137514 0.114199
0.368658 0.144381 0.118746
0.382513 0.149538 0.122988
0.395697 0.153017 0.124941
0.406897 0.153689 0.122774
0.106569 0.127138 0.089631
0.134188 0.126680 0.103517
0.162600 0.130861 0.108156
0.193790 0.136324 0.113802
0.223636 0.141726 0.118593
0.250736 0.146883 0.120943
0.274052 0.151644 0.122164
0.295323 0.156863 0.123110
0.315068 0.162142 0.124056
0.332372 0.166079 0.124269
0.348302 0.169955 0.124269
0.363439 0.174441 0.125185
0.378302 0.180240 0.127840
0.392248 0.186374 0.129854
0.404974 0.191592 0.131655
0.416327 0.194644 0.132174
0.426123 0.196780 0.131472
0.127596 0.170657 0.100099
0.154940 0.168734 0.110780
0.183780 0.169680 0.124727
0.215244 0.175235 0.131380
0.244175 0.179843 0.136233
0.271336 0.185733 0.139590
0.296056 0.191257 0.141238
0.318059 0.196841 0.142123
0.337896 0.201968 0.143008
0.355718 0.206516 0.143435
0.371862 0.210666 0.143343
0.386267 0.215183 0.143740
0.400092 0.221164 0.145998
0.413275 0.226780 0.147646
0.425422 0.230930 0.147860
0.436439 0.234134 0.147829
0.445716 0.237003 0.148806
0.142855 0.211551 0.111086
0.173434 0.210239 0.123537
0.203769 0.211276 0.138338
0.229801 0.212406 0.149599
0.262425 0.219089 0.156008
0.291814 0.226474 0.161654
0.318578 0.232792 0.165652
0.342077 0.238651 0.167758
0.362158 0.243931 0.168795
0.379705 0.248692 0.169436
0.394995 0.252842 0.169314
0.408667 0.256626 0.169284
0.421759 0.261265 0.170871
0.434302 0.266087 0.172885
0.446632 0.270115 0.174075
0.457893 0.272282 0.173800
0.468147 0.275395 0.174624
0.143923 0.245090 0.113405
0.181216 0.245975 0.127596
0.217563 0.248692 0.145754
0.250523 0.252934 0.166262
0.274846 0.253605 0.176089
0.309606 0.264805 0.183810
0.340276 0.274113 0.191379
0.366064 0.281437 0.196597
0.387121 0.287175 0.199222
0.404456 0.291630 0.200656
0.418860 0.295384 0.201114
0.431891 0.298650 0.201297
0.444953 0.302281 0.202518
0.457588 0.306004 0.204440
0.470405 0.309545 0.206699
0.482734 0.311681 0.207767
0.493812 0.314397 0.208408
0.131228 0.270512 0.108827
0.175051 0.273320 0.120790
0.223178 0.279973 0.142885
0.268101 0.288670 0.173495
0.298283 0.293553 0.195224
0.320623 0.295323 0.205051
0.355322 0.309697 0.214786
0.385412 0.320592 0.223819
0.409888 0.328801 0.230625
0.428809 0.333654 0.234958
0.443458 0.337469 0.237430
0.456397 0.340581 0.238987
0.469459 0.343664 0.240726
0.482460 0.346746 0.242008
0.495613 0.349554 0.243198
0.509514 0.352544 0.244968
0.522210 0.355627 0.246952
0.113069 0.293004 0.103731
0.157809 0.295598 0.110719
0.218448 0.304692 0.129824
0.279179 0.318578 0.167544
0.319036 0.329503 0.207736
0.344091 0.333806 0.226078
0.364569 0.337224 0.235813
0.398047 0.352026 0.246464
0.427008 0.363714 0.256779
0.449805 0.371405 0.264714
0.467140 0.376684 0.271000
0.481544 0.381384 0.275120
0.495064 0.384710 0.278325
0.508873 0.387579 0.280766
0.522576 0.390234 0.282353
0.537102 0.393683 0.284153
0.550347 0.397223 0.285985
0.101381 0.315892 0.101930
0.140017 0.316747 0.104555
0.206210 0.325261 0.116701
0.282963 0.342138 0.152041
0.336553 0.359319 0.207431
0.366400 0.368261 0.242802
0.386023 0.371191 0.256809
0.406256 0.376226 0.264958
0.437964 0.390845 0.275975
0.464668 0.402350 0.285985
0.485420 0.410101 0.294957
0.503136 0.417334 0.303532
0.518608 0.423102 0.309728
0.533471 0.427039 0.314672
0.548363 0.430549 0.318975
0.563073 0.434150 0.322789
0.575769 0.437201 0.324834
0.099214 0.339910 0.102907
0.129793 0.339544 0.104250
0.197421 0.346990 0.111025
0.282719 0.362707 0.138155
0.350042 0.382849 0.196475
0.388128 0.397589 0.249760
0.409186 0.403143 0.273960
0.425513 0.406348 0.283238
0.445594 0.413367 0.291447
0.474586 0.427314 0.301915
0.497993 0.437476 0.311192
0.518456 0.446662 0.321935
0.536858 0.454932 0.332219
0.553216 0.461799 0.340734
0.569329 0.467140 0.348241
0.584222 0.471901 0.354620
0.595911 0.474891 0.357977
0.101259 0.363867 0.105196
0.128969 0.363500 0.107240
0.197971 0.369848 0.110719
0.287480 0.383642 0.131502
0.361120 0.403296 0.185275
0.407477 0.422065 0.250340
0.432746 0.431586 0.285924
0.448402 0.435096 0.298894
0.463416 0.439399 0.305486
0.482490 0.447364 0.313481
0.507042 0.458534 0.322728
0.529137 0.469490 0.333318
0.549798 0.480049 0.345708
0.568200 0.489326 0.357885
0.584619 0.496925 0.368750
0.599084 0.502892 0.377691
0.609857 0.507500 0.383398
0.103548 0.385534 0.107454
0.132540 0.385290 0.109316
0.207858 0.391699 0.113588
0.299931 0.404974 0.131044
0.374121 0.423590 0.181125
0.424353 0.443458 0.251102
0.453346 0.455756 0.295079
0.470253 0.460456 0.311711
0.483558 0.463569 0.318334
0.497963 0.468086 0.324254
0.514366 0.475593 0.329992
0.536889 0.486427 0.339666
0.558740 0.499062 0.352880
0.578943 0.510704 0.367712
0.595972 0.520195 0.382025
0.609857 0.527886 0.394049
0.619410 0.533562 0.402930
0.105318 0.403632 0.109010
0.137087 0.403662 0.109987
0.221225 0.411261 0.116732
0.318212 0.425788 0.137118
0.390295 0.444312 0.186435
0.440925 0.464210 0.256718
0.472084 0.477852 0.304448
0.490181 0.483711 0.322881
0.503258 0.486702 0.329809
0.515709 0.489906 0.334936
0.528710 0.493782 0.339879
0.542748 0.500664 0.344244
0.564202 0.512718 0.356268
0.585138 0.526360 0.372381
0.603326 0.538262 0.389715
0.617395 0.547753 0.405127
0.626764 0.553857 0.416876
0.107088 0.419471 0.110231
0.147219 0.420356 0.110872
0.238987 0.429358 0.119539
0.340429 0.446448 0.149477
0.410956 0.466804 0.204807
0.458869 0.486244 0.270420
0.490150 0.499763 0.316564
0.508843 0.506218 0.335058
0.521721 0.509178 0.341863
0.533257 0.512078 0.346380
0.545007 0.515221 0.350958
0.557031 0.519554 0.355383
0.569879 0.526940 0.360021
0.589441 0.539391 0.374762
0.607721 0.552483 0.393469
0.621759 0.563439 0.411749
0.631525 0.570153 0.425940
0.108492 0.433539 0.112245
0.170352 0.436713 0.113588
0.267063 0.447181 0.125246
0.365179 0.466926 0.166018
0.434028 0.490944 0.232273
0.478859 0.510979 0.293156
0.508202 0.523430 0.333440
0.526452 0.529046 0.350347
0.538994 0.532341 0.357000
0.549706 0.535302 0.361242
0.560815 0.538323 0.365270
0.572137 0.541192 0.369177
0.583307 0.545983 0.373327
0.594598 0.553765 0.378729
0.611933 0.566491 0.396368
0.625483 0.577996 0.416205
0.634577 0.584497 0.432593
0.109682 0.446174 0.114260
0.205722 0.453773 0.120119
0.304265 0.467231 0.139498
0.392401 0.489082 0.189609
0.457008 0.515679 0.262913
0.499336 0.536858 0.321172
0.525872 0.548791 0.355108
0.542260 0.553674 0.369543
0.554467 0.556329 0.375463
0.565301 0.559625 0.379522
0.575463 0.562829 0.383062
0.585504 0.565026 0.386481
0.595392 0.567956 0.390173
0.605463 0.572931 0.394415
0.616632 0.581353 0.401007
0.629419 0.592676 0.420081
0.637079 0.599054 0.437812
0.113710 0.458045 0.117891
0.246738 0.471229 0.126711
0.345159 0.489143 0.160983
0.420600 0.513695 0.220768
0.478737 0.540825 0.293675
0.518547 0.562249 0.347601
0.542535 0.573999 0.376837
0.557061 0.579400 0.390387
0.568566 0.581811 0.396582
0.579217 0.584222 0.400824
0.588647 0.587091 0.404089
0.597162 0.588678 0.406683
0.605676 0.590387 0.409827
0.614008 0.593469 0.413245
0.623621 0.598657 0.418341
0.633570 0.606043 0.425605
0.639673 0.612512 0.442542
0.128603 0.472877 0.124605
0.277226 0.487770 0.132204
0.373846 0.508690 0.177279
0.439704 0.534417 0.243473
0.491096 0.560937 0.310155
0.528984 0.581567 0.356756
0.552911 0.593133 0.384619
0.568505 0.600061 0.401862
0.580407 0.603876 0.412329
0.590143 0.605920 0.419837
0.598291 0.607660 0.425391
0.606134 0.608789 0.428107
0.613611 0.609522 0.430121
0.619684 0.610956 0.432410
0.627253 0.613275 0.436408
0.635859 0.616510 0.442023
0.642542 0.621790 0.448280
0.088716 0.088655 0.109987
0.113497 0.089143 0.113069
0.138979 0.091005 0.112764
0.170077 0.097200 0.117647
0.201358 0.103609 0.122591
0.228763 0.108156 0.124239
0.252171 0.112825 0.125216
0.273930 0.118746 0.127871
0.294255 0.124483 0.131624
0.312627 0.128786 0.133547
0.328710 0.133150 0.134127
0.344366 0.137728 0.134707
0.359808 0.142855 0.135683
0.374182 0.147738 0.137209
0.388006 0.152987 0.139834
0.400305 0.157900 0.142306
0.410742 0.161135 0.142702
0.109102 0.129549 0.135897
0.143862 0.140352 0.143069
0.173281 0.118379 0.118227
0.204562 0.111055 0.108919
0.230716 0.111391 0.107454
0.252079 0.114229 0.107759
0.271397 0.118379 0.108339
0.288029 0.122194 0.109346
0.303685 0.125826 0.109712
0.320439 0.129427 0.109926
0.337591 0.133364 0.111269
0.353491 0.137972 0.113558
0.368475 0.143435 0.117617
0.382208 0.148775 0.122042
0.394659 0.153872 0.125307
0.403815 0.156069 0.125734
0.409949 0.156100 0.123537
0.128725 0.175021 0.144991
0.151675 0.198489 0.126284
0.208103 0.193057 0.150637
0.239872 0.181064 0.140383
0.264836 0.174411 0.135317
0.284764 0.171420 0.131716
0.304173 0.172488 0.129946
0.321630 0.174838 0.129824
0.337926 0.177462 0.129732
0.352880 0.180301 0.129244
0.367864 0.183566 0.129183
0.381994 0.187350 0.130007
0.395483 0.191959 0.132021
0.407721 0.196201 0.133486
0.418647 0.199496 0.133577
0.426734 0.202121 0.133639
0.431373 0.204257 0.133730
0.143709 0.214878 0.157961
0.148226 0.237858 0.119173
0.211032 0.240940 0.145449
0.264958 0.243351 0.171939
0.294865 0.236271 0.167910
0.316106 0.231144 0.164157
0.335943 0.229831 0.162264
0.353704 0.229709 0.160342
0.369085 0.230381 0.158145
0.382971 0.231998 0.156649
0.396155 0.234012 0.155734
0.408545 0.236362 0.155367
0.420050 0.239048 0.155367
0.431159 0.241672 0.155398
0.441657 0.244388 0.154482
0.450019 0.247288 0.154788
0.455604 0.250767 0.157107
0.146242 0.248783 0.162997
0.132082 0.267002 0.111788
0.204807 0.274571 0.135927
0.269841 0.285405 0.175479
0.315679 0.291814 0.203189
0.345495 0.289677 0.201328
0.367987 0.288029 0.200870
0.386145 0.286320 0.199832
0.400458 0.284916 0.196445
0.412726 0.284520 0.193179
0.424170 0.284581 0.190921
0.435645 0.285344 0.189670
0.446479 0.286564 0.188876
0.457313 0.287846 0.188663
0.468147 0.289616 0.188083
0.477058 0.292302 0.188602
0.483284 0.295995 0.191592
0.134798 0.276280 0.158999
0.113375 0.290867 0.104952
0.188296 0.298741 0.120790
0.270176 0.315312 0.164340
0.327947 0.329900 0.215061
0.362554 0.335973 0.235203
0.392584 0.339208 0.236637
0.415229 0.340368 0.239597
0.431739 0.339239 0.239536
0.443793 0.337377 0.237125
0.453681 0.335912 0.234409
0.464088 0.334936 0.232120
0.475349 0.335088 0.230991
0.487037 0.335912 0.230564
0.498756 0.336919 0.230106
0.508354 0.338750 0.230808
0.514733 0.341985 0.233646
0.116365 0.299443 0.150942
0.102480 0.314458 0.102632
0.166690 0.319463 0.109590
0.264042 0.338109 0.146853
0.339300 0.358923 0.210636
0.378149 0.369787 0.251102
0.405463 0.375433 0.264683
0.433631 0.381689 0.268956
0.455360 0.384405 0.273320
0.471809 0.384985 0.276280
0.483742 0.384436 0.277501
0.493996 0.383490 0.276707
0.505516 0.383185 0.276066
0.517937 0.383642 0.275822
0.530297 0.384436 0.275120
0.540276 0.385779 0.275242
0.546715 0.387945 0.276951
0.104921 0.321996 0.144259
0.100008 0.339330 0.103212
0.152071 0.341527 0.105776
0.253269 0.357305 0.128817
0.345342 0.381262 0.194156
0.394659 0.398993 0.256779
0.421149 0.405646 0.279911
0.445533 0.412390 0.290654
0.471138 0.418799 0.296391
0.492012 0.423102 0.302831
0.508446 0.425849 0.309087
0.521782 0.427588 0.313512
0.534386 0.428809 0.315862
0.547601 0.429664 0.317693
0.560204 0.430152 0.318547
0.569482 0.430732 0.318883
0.574914 0.431281 0.318883
0.102205 0.345708 0.137667
0.101289 0.363745 0.105196
0.146731 0.365148 0.106538
0.246403 0.377783 0.121889
0.347906 0.400183 0.177707
0.409583 0.422705 0.253819
0.439918 0.433112 0.291356
0.459785 0.437995 0.303777
0.482765 0.447028 0.313237
0.505882 0.453437 0.319615
0.525261 0.458839 0.328069
0.542138 0.463874 0.337407
0.557519 0.468116 0.345281
0.571527 0.471107 0.350988
0.584283 0.472908 0.354833
0.593072 0.473213 0.356390
0.597101 0.471870 0.355505
0.103487 0.369238 0.133486
0.103883 0.385260 0.107698
0.148348 0.386572 0.108980
0.250340 0.398474 0.121798
0.353643 0.419440 0.169986
0.421607 0.443030 0.248905
0.457954 0.456947 0.298314
0.477729 0.462379 0.315557
0.494606 0.467628 0.322820
0.515282 0.477211 0.331060
0.535851 0.483497 0.338811
0.554864 0.490944 0.350103
0.572961 0.498390 0.362402
0.588251 0.504326 0.373144
0.600671 0.508629 0.381231
0.608942 0.509544 0.384863
0.612146 0.507500 0.383917
0.104921 0.390967 0.133639
0.105348 0.403388 0.109285
0.152590 0.404517 0.110903
0.261570 0.417670 0.124880
0.366613 0.438880 0.170932
0.434058 0.462562 0.248508
0.473365 0.478492 0.304631
0.494606 0.484596 0.325475
0.509789 0.488136 0.333104
0.525841 0.493843 0.338811
0.543542 0.502495 0.345464
0.563165 0.510277 0.356298
0.582605 0.520348 0.370672
0.599207 0.528832 0.385565
0.611475 0.534874 0.397833
0.618708 0.537011 0.404456
0.621302 0.535454 0.405188
0.105653 0.409094 0.134920
0.106111 0.418921 0.110323
0.160525 0.420752 0.112154
0.277470 0.436072 0.130678
0.383215 0.458717 0.180362
0.448707 0.482460 0.256687
0.488777 0.499977 0.314397
0.510704 0.507012 0.336492
0.525414 0.509941 0.344396
0.539391 0.513451 0.349615
0.554772 0.518944 0.355169
0.569665 0.526177 0.360510
0.588830 0.537011 0.374762
0.605890 0.547204 0.391974
0.618585 0.554650 0.407782
0.625635 0.557458 0.417151
0.628290 0.556451 0.420081
0.106844 0.424231 0.136202
0.107942 0.432807 0.111696
0.180117 0.436683 0.114656
0.301427 0.454231 0.139467
0.403296 0.480171 0.199741
0.465919 0.504540 0.275547
0.504601 0.521874 0.329259
0.526726 0.529992 0.351080
0.541283 0.533349 0.358373
0.553857 0.536004 0.363043
0.567315 0.539666 0.368139
0.580896 0.544854 0.373388
0.594324 0.552728 0.378882
0.610651 0.563348 0.395544
0.623346 0.571954 0.413550
0.630610 0.575189 0.425910
0.633570 0.573022 0.430426
0.109010 0.437446 0.137697
0.110964 0.445991 0.114656
0.213016 0.454078 0.120943
0.332982 0.473487 0.152773
0.424903 0.502464 0.223880
0.484474 0.528954 0.300572
0.520195 0.545708 0.348028
0.541161 0.553521 0.368475
0.555444 0.556878 0.375830
0.567468 0.559777 0.380102
0.579370 0.562890 0.384588
0.591424 0.566308 0.389441
0.603265 0.571283 0.394263
0.615595 0.580652 0.400427
0.627375 0.588525 0.418067
0.634302 0.591546 0.432288
0.636896 0.588098 0.438087
0.112123 0.449866 0.140291
0.117739 0.458930 0.119081
0.253056 0.472145 0.130190
0.364019 0.494057 0.173068
0.443275 0.524071 0.248722
0.498939 0.551446 0.320592
0.533562 0.568872 0.364416
0.554070 0.576959 0.384955
0.568322 0.580468 0.394202
0.579644 0.583154 0.399878
0.589929 0.585901 0.403876
0.600244 0.587915 0.407630
0.610437 0.590387 0.411719
0.620874 0.595117 0.416785
0.631281 0.603601 0.422980
0.637537 0.606867 0.436866
0.639155 0.603387 0.443641
0.117372 0.462135 0.143099
0.138247 0.472755 0.126040
0.280461 0.486976 0.139132
0.378454 0.509697 0.185580
0.448066 0.538659 0.256870
0.502281 0.565484 0.318517
0.538933 0.583642 0.360845
0.561456 0.593133 0.386847
0.577111 0.598047 0.401953
0.588373 0.600946 0.412909
0.597436 0.603113 0.419837
0.605982 0.604303 0.423102
0.614130 0.605707 0.426276
0.622522 0.608118 0.430243
0.632105 0.612024 0.435584
0.640864 0.618830 0.441474
0.641566 0.616144 0.447639
0.134005 0.476173 0.147677
0.178378 0.487190 0.137667
0.293858 0.497902 0.146029
0.370794 0.516472 0.183902
0.432776 0.542077 0.236576
0.489784 0.568841 0.286992
0.532616 0.588251 0.328618
0.560693 0.599542 0.364263
0.580133 0.606531 0.390204
0.592828 0.610681 0.410071
0.600671 0.612573 0.425635
0.607843 0.613062 0.432959
0.614710 0.613458 0.435645
0.621393 0.614954 0.437934
0.629572 0.617090 0.441871
0.638025 0.620111 0.447364
0.644495 0.625269 0.452216
0.087739 0.089754 0.137606
0.110140 0.088869 0.137270
0.142611 0.091096 0.137087
0.170291 0.096773 0.136660
0.201694 0.102876 0.140169
0.230137 0.107881 0.143191
0.254124 0.113313 0.144503
0.276677 0.119112 0.147036
0.297612 0.125612 0.150057
0.317082 0.131685 0.152651
0.334447 0.138064 0.154665
0.350164 0.143618 0.156100
0.365179 0.148165 0.156802
0.379034 0.152346 0.157504
0.392554 0.156191 0.158633
0.404944 0.160494 0.160433
0.414618 0.163851 0.161379
0.108003 0.130861 0.158450
0.116793 0.122530 0.169955
0.172030 0.118074 0.164370
0.202976 0.111421 0.145693
0.230991 0.111696 0.137423
0.254063 0.113771 0.135073
0.275425 0.118318 0.135897
0.295140 0.124239 0.137636
0.313298 0.129732 0.138918
0.330022 0.134005 0.139162
0.345892 0.139284 0.139315
0.360815 0.144320 0.139986
0.374914 0.148501 0.141115
0.388281 0.152743 0.142275
0.400275 0.157504 0.144564
0.409186 0.161990 0.147860
0.414557 0.165011 0.150057
0.130648 0.171756 0.180545
0.157259 0.195163 0.202090
0.199100 0.194553 0.195346
0.238163 0.165743 0.159609
0.267033 0.148165 0.135988
0.284794 0.135988 0.121920
0.296452 0.128878 0.115023
0.308629 0.128267 0.112367
0.321050 0.129915 0.111849
0.335180 0.132479 0.111727
0.352209 0.137758 0.113924
0.368109 0.144137 0.118105
0.382147 0.149660 0.122316
0.394507 0.153170 0.125490
0.403632 0.156405 0.127230
0.410254 0.160708 0.128847
0.416327 0.167391 0.132815
0.152224 0.218814 0.198489
0.165713 0.248875 0.202823
0.173251 0.245335 0.155581
0.264652 0.245670 0.194186
0.304540 0.229221 0.174075
0.327337 0.215335 0.158755
0.339849 0.204959 0.148775
0.351720 0.199893 0.142947
0.363165 0.197543 0.139071
0.375494 0.198276 0.137423
0.388037 0.200229 0.136324
0.400031 0.202518 0.136202
0.411658 0.204959 0.136477
0.421729 0.206699 0.136446
0.429206 0.209232 0.136782
0.434791 0.212924 0.138155
0.439033 0.217960 0.142061
0.161624 0.257481 0.211032
0.153353 0.283055 0.195987
0.141329 0.281682 0.128115
0.243046 0.290410 0.166903
0.328283 0.303777 0.221408
0.365026 0.294621 0.208499
0.382361 0.282872 0.197238
0.392981 0.272984 0.189090
0.401770 0.266209 0.181399
0.411872 0.262577 0.175937
0.422217 0.261357 0.172488
0.432258 0.260685 0.170077
0.441566 0.260197 0.167666
0.450050 0.259861 0.165499
0.457130 0.261173 0.164828
0.462898 0.264530 0.165866
0.467201 0.268894 0.170169
0.159457 0.288762 0.217868
0.131655 0.306279 0.184176
0.116152 0.311833 0.112917
0.223209 0.323583 0.138888
0.322148 0.344549 0.207431
0.386664 0.359442 0.257450
0.417914 0.354345 0.249485
0.433173 0.344762 0.243473
0.441779 0.335668 0.236545
0.448920 0.327947 0.228183
0.457160 0.322545 0.221622
0.466041 0.318853 0.216922
0.475105 0.316381 0.213199
0.483772 0.314977 0.210544
0.491249 0.314824 0.209232
0.497169 0.316747 0.209812
0.500877 0.320226 0.213230
0.145510 0.314092 0.217533
0.114961 0.327489 0.173648
0.105409 0.338415 0.107881
0.204776 0.348455 0.120241
0.318730 0.372961 0.187228
0.395575 0.394202 0.257633
0.436225 0.404974 0.287877
0.461524 0.402380 0.285222
0.476722 0.396735 0.284398
0.486152 0.389868 0.281254
0.493965 0.383368 0.276341
0.502068 0.377417 0.270787
0.511345 0.373205 0.265721
0.520775 0.370947 0.262760
0.528191 0.369879 0.260868
0.533562 0.370062 0.260227
0.536400 0.371923 0.262089
0.131136 0.338048 0.215366
0.107546 0.349981 0.164187
0.103517 0.363622 0.107515
0.191043 0.370275 0.113985
0.315618 0.393439 0.168551
0.405035 0.419257 0.251316
0.447547 0.432776 0.296239
0.477180 0.442176 0.311406
0.498939 0.441657 0.312596
0.514580 0.439429 0.316655
0.526665 0.436530 0.319219
0.536400 0.432197 0.318608
0.546014 0.427771 0.316258
0.555840 0.424445 0.313573
0.562707 0.421912 0.310735
0.566522 0.420111 0.308415
0.567803 0.419562 0.308019
0.122255 0.360967 0.212070
0.106935 0.372869 0.157046
0.104433 0.385657 0.108522
0.186526 0.390692 0.113436
0.313909 0.411109 0.154665
0.412940 0.439582 0.241703
0.461921 0.457191 0.301579
0.487434 0.464759 0.319646
0.513329 0.474983 0.329992
0.532525 0.475715 0.335454
0.549279 0.477119 0.344060
0.562829 0.477485 0.350805
0.574060 0.476570 0.354803
0.584039 0.474556 0.355993
0.590875 0.470985 0.354284
0.593408 0.467048 0.351324
0.592676 0.463508 0.348516
0.118624 0.382605 0.208133
0.107179 0.393408 0.151064
0.105379 0.404120 0.109438
0.187167 0.408728 0.113741
0.317662 0.428931 0.150942
0.420478 0.458076 0.235325
0.475227 0.478645 0.305211
0.501518 0.486183 0.328405
0.521080 0.492287 0.337163
0.543450 0.502190 0.345892
0.562066 0.505791 0.355169
0.578759 0.510246 0.367315
0.592309 0.513634 0.377813
0.602655 0.514916 0.384741
0.609247 0.512749 0.386725
0.611719 0.508446 0.384894
0.610376 0.503075 0.380743
0.116609 0.402686 0.208011
0.107668 0.410651 0.148165
0.106355 0.418799 0.110903
0.192203 0.424353 0.115816
0.327428 0.446723 0.155764
0.430549 0.476692 0.238163
0.487007 0.499214 0.310704
0.515282 0.507530 0.337926
0.533104 0.511803 0.346929
0.550988 0.517937 0.353613
0.570184 0.528069 0.361517
0.587732 0.533501 0.374487
0.602777 0.539574 0.389166
0.614008 0.543206 0.401038
0.620233 0.543084 0.407507
0.622309 0.539849 0.408331
0.620874 0.534081 0.404395
0.114870 0.419837 0.210391
0.107912 0.425544 0.147585
0.107790 0.432532 0.113100
0.206180 0.440253 0.120577
0.344884 0.465492 0.167391
0.444617 0.496620 0.251347
0.499336 0.520317 0.321721
0.528008 0.530358 0.350927
0.545342 0.533806 0.360296
0.561090 0.537591 0.366094
0.578210 0.544182 0.372259
0.594842 0.554406 0.379248
0.609613 0.560845 0.395392
0.621088 0.565087 0.410407
0.627497 0.564935 0.420081
0.629694 0.561944 0.423133
0.628321 0.556329 0.420264
0.115084 0.434089 0.211948
0.109010 0.438483 0.147433
0.111604 0.446082 0.115572
0.232212 0.456947 0.127504
0.367376 0.485267 0.182467
0.459754 0.517723 0.269078
0.512596 0.541955 0.337682
0.540703 0.553582 0.367071
0.557946 0.557763 0.376867
0.571923 0.560601 0.382361
0.586084 0.564141 0.387488
0.600732 0.570306 0.393194
0.615351 0.580316 0.400214
0.626001 0.584833 0.416388
0.632349 0.584100 0.428199
0.634882 0.580316 0.433265
0.633967 0.573480 0.431128
0.118624 0.446662 0.213687
0.113100 0.450599 0.148836
0.122255 0.459693 0.120027
0.265171 0.473671 0.135714
0.388495 0.503197 0.195712
0.471504 0.537316 0.283085
0.522850 0.562646 0.349248
0.550896 0.574792 0.379950
0.568811 0.579675 0.392523
0.581842 0.582483 0.399451
0.593713 0.584894 0.404364
0.605890 0.587945 0.409277
0.617853 0.593164 0.414527
0.630488 0.602441 0.421973
0.635950 0.602319 0.433936
0.638025 0.597772 0.440528
0.637385 0.588922 0.439399
0.126955 0.459419 0.218387
0.122957 0.463447 0.151797
0.144564 0.473335 0.127260
0.290898 0.488197 0.143893
0.395422 0.516197 0.201694
0.469947 0.548943 0.277958
0.523308 0.575250 0.339727
0.554833 0.589319 0.376379
0.574975 0.595758 0.396674
0.588220 0.598901 0.410346
0.598596 0.600946 0.418311
0.609033 0.602777 0.422827
0.618738 0.605280 0.427253
0.629419 0.609522 0.433021
0.639582 0.617090 0.439734
0.640711 0.613428 0.445686
0.639673 0.604944 0.445167
0.140230 0.473182 0.224094
0.148531 0.478218 0.156374
0.181491 0.485756 0.137362
0.305730 0.498573 0.151888
0.389899 0.523278 0.201572
0.457801 0.552636 0.257969
0.514885 0.579034 0.310399
0.552789 0.595880 0.355322
0.576379 0.604700 0.385748
0.591516 0.609125 0.407691
0.601099 0.611048 0.423957
0.609552 0.611780 0.431159
0.617365 0.612940 0.434699
0.625910 0.615045 0.439216
0.636072 0.618250 0.445167
0.643793 0.624140 0.450904
0.642176 0.617090 0.449104
0.160464 0.486366 0.225193
0.189792 0.492256 0.162783
0.230137 0.497566 0.152773
0.308446 0.504601 0.159548
0.374701 0.522515 0.185550
0.440223 0.548333 0.222934
0.500572 0.574884 0.266972
0.544182 0.594141 0.317754
0.572473 0.605035 0.359503
0.590539 0.610651 0.388708
0.600610 0.613062 0.413306
0.607538 0.613794 0.429786
0.614374 0.614130 0.435706
0.620813 0.615534 0.438544
0.629175 0.617670 0.442664
0.638270 0.620691 0.448768
0.644862 0.625940 0.453681
0.088869 0.095064 0.167178
0.110933 0.091005 0.162692
0.136568 0.091157 0.161868
0.173434 0.098054 0.163058
0.203403 0.104829 0.163272
0.232059 0.108858 0.165194
0.256382 0.113588 0.165927
0.279484 0.119570 0.167636
0.300633 0.126223 0.170016
0.320012 0.132845 0.171633
0.337926 0.139895 0.172915
0.354040 0.147036 0.174624
0.369238 0.152651 0.175998
