tools/luts_backup/Kodak Elite Color 200_FC.cube
# (C) 2014 VisionColor & Patchflyer [www.vision-color.com]
# Generator: VC Patchmatch v.2.1.1 [64/53]
# All work and no play makes Jack a dull boy.
# LUT generated from: Kodak Elite Color 200_FC01
LUT_3D_SIZE 9
0.023484 0.023484 0.023484
0.051896 0.024475 0.024964
0.095155 0.028214 0.027176
0.139727 0.030549 0.026963
0.185550 0.033280 0.026566
0.229526 0.035096 0.026505
0.281849 0.038697 0.027131
0.336233 0.043915 0.029831
0.392004 0.045487 0.029389
0.034791 0.062821 0.020752
0.069749 0.059815 0.032105
0.117968 0.062928 0.035996
0.174807 0.066911 0.036698
0.231861 0.072114 0.035950
0.288426 0.077150 0.035325
0.342962 0.083162 0.035996
0.399359 0.088975 0.036545
0.451087 0.092821 0.036728
0.035538 0.113329 0.019959
0.082826 0.110506 0.034714
0.134066 0.111086 0.050721
0.211536 0.125536 0.056916
0.287633 0.134951 0.060334
0.352270 0.141131 0.061295
0.414267 0.146838 0.061997
0.482048 0.153094 0.064576
0.551110 0.157382 0.065629
0.016373 0.163317 0.012512
0.074983 0.165316 0.020996
0.168627 0.183444 0.062577
0.233112 0.190051 0.081880
0.344182 0.220066 0.094987
0.440009 0.235706 0.107057
0.516976 0.245274 0.113924
0.600748 0.252842 0.118074
0.694286 0.264500 0.121462
0.008728 0.223575 0.010163
0.056031 0.220798 0.012222
0.199634 0.255085 0.050706
0.294484 0.282094 0.106813
0.370413 0.296696 0.122271
0.504845 0.340841 0.141634
0.620661 0.375662 0.165560
0.728084 0.404013 0.186679
0.820737 0.422217 0.200687
0.007568 0.296529 0.009018
0.058839 0.290867 0.010605
0.227878 0.327565 0.040162
0.375860 0.382345 0.123400
0.452811 0.398047 0.147112
0.539834 0.425635 0.160876
0.680156 0.485115 0.190631
0.805768 0.543023 0.233768
0.879484 0.583581 0.270024
0.006104 0.367300 0.007248
0.075959 0.363424 0.010239
0.283528 0.420920 0.052232
0.461830 0.490745 0.143801
0.552529 0.513130 0.174990
0.627176 0.528923 0.186938
0.711086 0.563699 0.200748
0.840742 0.642298 0.253269
0.902602 0.701564 0.314107
0.005432 0.433143 0.007034
0.127672 0.444678 0.016297
0.372320 0.545495 0.091661
0.557031 0.634028 0.190249
0.649012 0.655589 0.221958
0.721325 0.677089 0.234195
0.792966 0.694194 0.247120
0.864683 0.739330 0.268284
0.913970 0.803281 0.340688
0.008011 0.514702 0.006607
0.209522 0.545632 0.033967
0.452384 0.684535 0.135760
0.640177 0.784543 0.235492
0.734813 0.820874 0.286137
0.800061 0.834440 0.312673
0.855253 0.841093 0.323781
0.888869 0.854231 0.337987
0.926635 0.875196 0.364660
0.024033 0.025071 0.053758
0.053712 0.023758 0.050034
0.094453 0.027161 0.048173
0.142382 0.030091 0.047700
0.194461 0.034028 0.048402
0.246799 0.038895 0.048798
0.300267 0.043137 0.048219
0.355032 0.046525 0.047990
0.404807 0.050004 0.048600
0.035447 0.062379 0.069001
0.075013 0.071061 0.071763
0.149020 0.045609 0.038361
0.193698 0.035599 0.028962
0.228397 0.035599 0.027100
0.280308 0.038834 0.027008
0.335393 0.043992 0.029541
0.382849 0.046799 0.031159
0.408362 0.051957 0.033112
0.043076 0.120272 0.077592
0.029740 0.148150 0.022705
0.186450 0.154498 0.074937
0.280568 0.131350 0.059358
0.327214 0.115679 0.051652
0.376440 0.110780 0.047242
0.427375 0.109285 0.044923
0.469978 0.109819 0.043488
0.495903 0.116320 0.045914
0.028275 0.180743 0.073838
0.010544 0.221500 0.011505
0.158495 0.243427 0.045640
0.351781 0.283070 0.119539
0.458213 0.266484 0.117754
0.514382 0.243442 0.112184
0.573251 0.228428 0.103868
0.632670 0.223621 0.099977
0.660487 0.226383 0.101106
0.013214 0.250340 0.064240
0.007767 0.296818 0.009277
0.146715 0.312413 0.026322
0.397726 0.384787 0.130129
0.536980 0.424216 0.160891
0.653941 0.428244 0.179736
0.741115 0.426505 0.194629
0.804074 0.412879 0.195377
0.813840 0.394949 0.188754
0.008927 0.327443 0.056977
0.005997 0.365698 0.007660
0.155886 0.386465 0.025116
0.453422 0.490135 0.137728
0.589090 0.519951 0.181613
0.711742 0.567117 0.202869
0.825574 0.601816 0.245274
0.879103 0.612451 0.278080
0.882872 0.585138 0.272663
0.006744 0.398245 0.056794
0.005707 0.433555 0.007095
0.204166 0.477836 0.037156
0.517143 0.615030 0.168032
0.660868 0.660227 0.224277
0.759258 0.681407 0.241489
0.861601 0.735668 0.266712
0.902953 0.749249 0.319524
0.908095 0.712734 0.325002
0.007706 0.466484 0.056504
0.014862 0.511299 0.007263
0.243198 0.561959 0.047150
0.545419 0.727092 0.171511
0.716365 0.792065 0.257893
0.801511 0.810132 0.298100
0.868193 0.825772 0.317861
0.919432 0.863630 0.346456
0.920058 0.824552 0.356313
0.021118 0.535531 0.056886
0.060334 0.553933 0.018738
0.208179 0.588663 0.037354
0.476356 0.734081 0.096773
0.706813 0.827314 0.202014
0.808225 0.854002 0.290074
0.856947 0.856336 0.335790
0.893568 0.865049 0.351614
0.932311 0.885420 0.377310
0.024033 0.029664 0.097704
0.049012 0.024735 0.089555
0.095460 0.027985 0.083131
0.146120 0.030579 0.078859
0.199390 0.033936 0.075151
0.252354 0.039139 0.072236
0.306981 0.045380 0.070527
0.364355 0.050340 0.070542
0.416098 0.053391 0.073030
0.034302 0.066545 0.109178
0.039063 0.055344 0.153262
0.146166 0.046510 0.125612
0.204334 0.038178 0.077974
0.251362 0.039399 0.064210
0.303578 0.044205 0.058762
0.357961 0.048371 0.056489
0.401862 0.051240 0.056626
0.429175 0.056886 0.063340
0.051713 0.115648 0.129183
0.063691 0.159792 0.185275
0.154299 0.153567 0.153246
0.277394 0.099229 0.076493
0.329198 0.060548 0.041352
0.355444 0.046571 0.030045
0.383001 0.045594 0.029480
0.410956 0.052720 0.034379
0.467002 0.082322 0.051774
0.065156 0.205127 0.178149
0.055192 0.278462 0.179080
0.040116 0.237354 0.038926
0.333059 0.273625 0.143618
0.480552 0.223560 0.103075
0.520989 0.181735 0.080568
0.541527 0.158511 0.067720
0.556008 0.151904 0.062989
0.603723 0.165988 0.074174
0.067552 0.295537 0.211902
0.040208 0.354803 0.148226
0.014115 0.369177 0.015900
0.257053 0.383597 0.071748
0.584100 0.460426 0.176608
0.741848 0.460761 0.201633
0.791897 0.403174 0.191348
0.786358 0.348821 0.167269
0.803769 0.328847 0.155810
0.068666 0.375692 0.227481
0.033875 0.424796 0.129641
0.007599 0.448066 0.008362
0.280461 0.511727 0.073396
0.648295 0.614527 0.197482
0.818662 0.676371 0.241123
0.889311 0.675044 0.296513
0.887907 0.606989 0.282109
0.885008 0.549035 0.255375
0.081712 0.456092 0.245151
0.033539 0.493278 0.116075
0.016449 0.510842 0.007416
0.361379 0.635538 0.096651
0.707454 0.783703 0.243717
0.836179 0.810224 0.302358
0.916823 0.859571 0.341192
0.915221 0.773953 0.344121
0.910567 0.704952 0.321050
0.107088 0.538918 0.264057
0.044038 0.555291 0.093370
0.058640 0.551949 0.019074
0.301015 0.642695 0.059022
0.672114 0.814633 0.183383
0.816999 0.852171 0.295705
0.878630 0.858289 0.344808
0.931716 0.884291 0.373846
0.921340 0.826108 0.355413
0.141543 0.624125 0.268681
0.060746 0.588418 0.062272
0.119265 0.565911 0.037995
0.346487 0.671336 0.076509
0.656535 0.823651 0.181491
0.802838 0.855497 0.242695
0.855436 0.855512 0.311604
0.892439 0.864897 0.349676
0.932692 0.885420 0.376349
0.024094 0.033936 0.146975
0.047623 0.026749 0.141100
0.089586 0.027771 0.132845
0.145815 0.030640 0.125887
0.201251 0.034211 0.120165
0.256367 0.038605 0.112337
0.308354 0.042741 0.105333
0.363867 0.046571 0.102770
0.413520 0.051423 0.105760
0.034714 0.073854 0.160662
0.026505 0.046906 0.207645
0.086168 0.035584 0.190829
0.204761 0.040589 0.172610
0.256901 0.039307 0.127077
0.309453 0.043046 0.106081
0.362997 0.047349 0.095689
0.406500 0.052308 0.096834
0.433646 0.057023 0.110567
0.047837 0.120760 0.179294
0.042008 0.134447 0.243534
0.072541 0.129229 0.284367
0.264042 0.110765 0.227436
0.349279 0.067247 0.131273
0.380652 0.051377 0.087755
0.405966 0.051896 0.074281
0.434943 0.058350 0.080003
0.491066 0.086900 0.105226
0.060182 0.183780 0.218769
0.068132 0.260502 0.312139
0.101961 0.276173 0.325734
0.295628 0.301518 0.291875
0.418326 0.197620 0.161685
0.462455 0.095491 0.061723
0.428794 0.060975 0.038773
0.468910 0.083680 0.054002
0.619440 0.166384 0.124575
0.083467 0.302296 0.296712
0.116899 0.401877 0.371817
0.102632 0.436332 0.290806
0.094255 0.329900 0.084154
0.522774 0.431083 0.233677
0.719356 0.344289 0.164828
0.714412 0.264897 0.122866
0.705592 0.234043 0.108492
0.802518 0.287877 0.163684
0.120256 0.409384 0.356313
0.161074 0.497795 0.392599
0.102754 0.531319 0.235782
0.040864 0.443061 0.033661
0.507454 0.553796 0.152773
0.771374 0.617578 0.224796
0.888991 0.638178 0.287953
0.885237 0.537087 0.251484
0.902480 0.497093 0.248264
0.166522 0.499001 0.398093
0.208118 0.595087 0.416678
0.114244 0.609384 0.206058
0.056443 0.542611 0.023713
0.476143 0.707179 0.112459
0.815930 0.810987 0.278004
0.916777 0.857755 0.338491
0.915908 0.762814 0.340002
0.922576 0.696757 0.317189
0.231464 0.607858 0.456870
0.226413 0.681926 0.398520
0.089647 0.615976 0.123384
0.119921 0.564981 0.038560
0.503578 0.751019 0.128725
0.802502 0.855543 0.244862
0.873945 0.858366 0.330678
0.932692 0.885496 0.380789
0.928557 0.822019 0.343297
0.301549 0.728893 0.507454
0.172137 0.694362 0.276585
0.105119 0.602716 0.116487
0.245640 0.589563 0.109789
0.564736 0.775174 0.264607
0.792874 0.866102 0.305287
0.863005 0.857389 0.268055
0.900847 0.859037 0.319326
0.934890 0.880903 0.361990
0.024949 0.037736 0.196948
0.045655 0.028717 0.191333
0.084977 0.029633 0.184771
0.137591 0.031159 0.178515
0.201892 0.034440 0.167712
0.257832 0.039673 0.160433
0.315358 0.044587 0.150637
0.370871 0.047608 0.145098
0.418555 0.052201 0.147265
0.034119 0.083909 0.217105
0.024125 0.043168 0.249683
0.065721 0.031937 0.235187
0.151400 0.034592 0.224933
0.256275 0.041779 0.207965
0.314641 0.045335 0.175219
0.370474 0.048493 0.153750
0.412039 0.052506 0.153338
0.437873 0.060090 0.175921
0.043809 0.132006 0.240345
0.034668 0.124269 0.299611
0.032593 0.123278 0.381079
0.151049 0.088334 0.319127
0.341268 0.082231 0.281147
0.387778 0.054215 0.192157
0.410544 0.052567 0.152697
0.439918 0.060365 0.163760
0.499931 0.094133 0.195819
0.050904 0.188785 0.271809
0.044358 0.220295 0.342931
0.039185 0.243809 0.414099
0.145266 0.238941 0.392126
0.399741 0.229191 0.361089
0.488991 0.113970 0.220630
0.455039 0.068330 0.142107
0.494636 0.090715 0.147478
0.622324 0.180941 0.230137
0.071611 0.267231 0.322057
0.103517 0.362539 0.425406
0.112978 0.397086 0.470573
0.248264 0.442130 0.484642
0.489387 0.490700 0.476097
0.613779 0.334401 0.296162
0.609720 0.165103 0.123705
0.622934 0.170733 0.128496
0.811673 0.362463 0.314031
0.113741 0.397131 0.408225
0.177462 0.503594 0.494652
0.227756 0.592187 0.544686
0.227375 0.576867 0.453223
0.274998 0.473396 0.217548
0.708751 0.592096 0.315694
0.890410 0.508537 0.251575
0.885847 0.412100 0.218524
0.894057 0.524468 0.363088
0.178241 0.509789 0.472175
0.261860 0.632319 0.549142
0.323781 0.745190 0.591836
0.193149 0.691524 0.325353
0.175418 0.502647 0.084794
0.729809 0.760113 0.275212
0.896849 0.789151 0.291890
0.924208 0.736568 0.328298
0.925551 0.708934 0.405966
0.261616 0.629908 0.536019
0.333928 0.753536 0.602884
0.310124 0.783597 0.530007
0.190219 0.687907 0.254520
0.246357 0.590555 0.112902
0.713085 0.844022 0.299565
0.875105 0.856260 0.285908
0.934005 0.879561 0.361669
0.936034 0.830839 0.384604
0.351751 0.774105 0.616754
0.343435 0.804547 0.598032
0.316838 0.777935 0.479072
0.306294 0.688319 0.334356
0.428885 0.697948 0.321477
0.671473 0.844526 0.451240
0.858152 0.879332 0.363439
0.910582 0.860395 0.314275
0.939086 0.868666 0.341604
0.024216 0.040833 0.244587
0.043656 0.030610 0.236988
0.078508 0.030579 0.230930
0.131106 0.032471 0.224659
0.187900 0.035508 0.219913
0.254658 0.040970 0.206165
0.314488 0.046174 0.200488
0.375387 0.050278 0.193927
0.426719 0.055711 0.195575
0.031617 0.090471 0.273899
0.023346 0.045930 0.303029
0.055909 0.031189 0.281819
0.123018 0.033783 0.277058
0.206897 0.039902 0.267796
0.307820 0.048325 0.250889
0.373312 0.052079 0.225727
0.419516 0.056123 0.221057
0.441520 0.065995 0.249958
0.036347 0.141207 0.307408
0.029480 0.124620 0.358648
0.024109 0.093187 0.417060
0.090196 0.063890 0.360632
0.231968 0.063935 0.335164
0.378592 0.063325 0.311574
0.417868 0.058442 0.256397
0.443076 0.069184 0.261952
0.502342 0.112001 0.298131
0.038666 0.198230 0.331731
0.029435 0.213138 0.400229
0.023194 0.220081 0.478767
0.064439 0.222889 0.500557
0.266880 0.193973 0.441718
0.474983 0.151049 0.403098
0.456672 0.087480 0.307958
0.503166 0.113359 0.295735
0.631983 0.213062 0.361959
0.058579 0.269657 0.370275
0.068513 0.319249 0.449363
0.061982 0.347265 0.512886
0.109499 0.370611 0.538308
0.310201 0.399176 0.534691
0.594659 0.388769 0.552636
0.620081 0.214649 0.364462
0.633478 0.204761 0.315175
0.791699 0.383413 0.459831
0.105318 0.362905 0.427054
0.168292 0.472282 0.541573
0.222431 0.554635 0.631342
0.259602 0.562112 0.633906
0.473579 0.638621 0.660258
0.657023 0.654368 0.640772
0.811856 0.509117 0.468971
0.823133 0.396262 0.350469
0.881132 0.598093 0.559869
0.176181 0.495598 0.512413
0.271397 0.632395 0.625605
0.361913 0.767452 0.725017
0.378988 0.791684 0.731960
0.447715 0.766567 0.643275
0.527321 0.702296 0.475013
0.858961 0.754543 0.424018
0.922835 0.710872 0.424491
0.916213 0.744060 0.601221
0.274388 0.640467 0.596613
0.361501 0.774380 0.695918
0.404562 0.834913 0.733928
0.443366 0.853605 0.714199
0.436377 0.804929 0.554681
0.451835 0.707851 0.355077
0.839841 0.869261 0.388846
0.935760 0.862119 0.344961
0.933944 0.860990 0.584405
0.374533 0.790265 0.686809
0.398993 0.830671 0.720851
0.448325 0.856931 0.721538
0.510170 0.856825 0.678019
0.532723 0.828855 0.589883
0.602014 0.840879 0.548531
0.782010 0.886687 0.568505
0.897017 0.893462 0.492226
0.937987 0.888426 0.460899
0.023224 0.045151 0.302113
0.042100 0.032029 0.284550
0.072297 0.030976 0.280369
0.123445 0.033539 0.278202
0.178134 0.037079 0.271763
0.240177 0.042481 0.263508
0.309804 0.048295 0.250874
0.373816 0.053330 0.243915
0.429709 0.058000 0.246983
0.029007 0.098833 0.343999
0.023011 0.056016 0.377462
0.049592 0.035279 0.342550
0.105089 0.036851 0.335470
0.182300 0.042557 0.327977
0.267079 0.048981 0.311742
0.363638 0.056840 0.294987
0.417853 0.060533 0.286702
0.436805 0.072282 0.317830
0.029511 0.155047 0.376242
0.024399 0.136812 0.434134
0.023331 0.096223 0.471763
0.068574 0.064897 0.421683
0.175708 0.065309 0.397864
0.304433 0.061479 0.356573
0.409033 0.065660 0.337331
0.435508 0.077638 0.340017
0.491478 0.130800 0.388281
0.028016 0.214298 0.403601
0.019455 0.221225 0.471290
0.017639 0.215991 0.543130
0.035233 0.213367 0.590082
0.159792 0.171740 0.512642
0.373159 0.137926 0.437339
0.446906 0.094377 0.375570
0.492653 0.133577 0.403922
0.627039 0.246311 0.487098
0.046204 0.283055 0.429145
0.045472 0.314443 0.502617
0.034760 0.328038 0.573144
0.050813 0.350561 0.637781
0.174228 0.340856 0.594781
0.448875 0.344686 0.615946
0.613077 0.254154 0.532250
0.631266 0.254765 0.510628
0.788907 0.420401 0.607248
0.093751 0.363104 0.471717
0.131518 0.431617 0.565148
0.148516 0.471855 0.638621
0.152651 0.485725 0.673014
0.325124 0.544259 0.700191
0.513222 0.580804 0.708583
0.795789 0.553750 0.748318
0.807874 0.446097 0.621302
0.876387 0.599023 0.693370
0.168261 0.472755 0.539315
0.266438 0.605158 0.671565
0.367422 0.732021 0.792020
0.387549 0.746029 0.817487
0.507225 0.788891 0.829892
0.665156 0.823911 0.831968
0.818845 0.805600 0.795285
0.893874 0.688563 0.662577
0.913787 0.771191 0.747936
0.274006 0.625849 0.638209
0.373266 0.773678 0.764599
0.428840 0.840024 0.827131
0.492424 0.865187 0.846601
0.598505 0.889784 0.852140
0.655238 0.890684 0.799969
0.699443 0.869184 0.649180
0.922408 0.882643 0.603113
0.934249 0.881743 0.773632
0.387427 0.800916 0.748394
0.419837 0.844785 0.796719
0.482567 0.865751 0.819654
0.589990 0.888472 0.830335
0.666194 0.900954 0.820493
0.686976 0.899550 0.769223
0.762921 0.904112 0.712291
0.890547 0.917800 0.720027
0.936263 0.913375 0.685786
0.022919 0.055436 0.375769
0.041184 0.035859 0.346914
0.068040 0.033021 0.338933
0.116823 0.035889 0.336065
0.170947 0.040589 0.330632
0.229175 0.045731 0.317205
0.292592 0.050553 0.308354
0.367453 0.056901 0.296620
0.425956 0.061372 0.297704
0.025238 0.113497 0.419516
0.022568 0.091020 0.468116
0.047379 0.063172 0.430014
0.095796 0.061494 0.411765
0.175525 0.063783 0.399558
0.261051 0.059754 0.366659
0.343648 0.061021 0.345571
0.410101 0.065568 0.336690
0.432120 0.076295 0.349355
0.021347 0.171984 0.455238
0.019471 0.174228 0.524239
0.028122 0.180133 0.582879
0.072328 0.141726 0.523201
0.184146 0.140169 0.491524
0.315526 0.116915 0.429969
0.413977 0.088304 0.371832
0.431815 0.079240 0.358160
0.486793 0.133364 0.409903
0.018738 0.233219 0.474174
0.015320 0.252506 0.555215
0.027817 0.283528 0.638880
0.066194 0.273350 0.634516
0.177798 0.246677 0.583505
0.371832 0.231632 0.549737
0.495186 0.165011 0.450782
0.486320 0.131456 0.412802
0.624933 0.258656 0.543481
0.037568 0.301274 0.499901
0.032288 0.327520 0.576226
0.040696 0.360021 0.652506
0.099748 0.386603 0.689632
0.196231 0.374655 0.670481
0.409018 0.390860 0.682902
0.613306 0.320882 0.614588
0.619501 0.255283 0.541756
0.786313 0.442939 0.717403
0.087434 0.375265 0.530831
0.099977 0.413336 0.605936
0.109621 0.442374 0.670207
0.183078 0.493629 0.717250
0.326314 0.545205 0.761791
0.444129 0.547173 0.767788
0.693248 0.531075 0.789273
0.801434 0.464317 0.740795
0.872572 0.619669 0.816663
0.166430 0.474372 0.591455
0.216419 0.550149 0.682261
0.238315 0.589792 0.735027
0.310964 0.635081 0.784573
0.459052 0.711208 0.835920
0.594781 0.755703 0.861402
0.698466 0.743908 0.863310
0.887877 0.709026 0.862516
0.910674 0.774273 0.857801
0.271031 0.609979 0.673487
0.378973 0.743496 0.800641
0.432792 0.796765 0.854154
0.494362 0.843214 0.875929
0.602243 0.879423 0.900099
0.717433 0.907897 0.913725
0.805097 0.914687 0.913481
0.914244 0.902403 0.895323
0.938338 0.895872 0.884901
0.391287 0.788449 0.791455
0.430579 0.836591 0.843107
0.496391 0.863722 0.862745
0.611719 0.894408 0.879499
0.714046 0.917815 0.893919
0.773190 0.925628 0.896773
0.833768 0.932769 0.890257
0.902708 0.938415 0.879713
0.940414 0.933242 0.872450
0.022446 0.078553 0.469062
0.040909 0.055146 0.429541
0.064088 0.048753 0.413260
0.111009 0.051804 0.406821
0.168170 0.054215 0.399283
0.229023 0.056275 0.379492
0.292699 0.058289 0.364630
0.356420 0.061631 0.351003
0.418647 0.067948 0.342809
0.019745 0.143893 0.508156
0.026856 0.183612 0.589380
0.052934 0.150713 0.543511
0.107836 0.141573 0.511284
0.203861 0.141787 0.488502
0.299474 0.122210 0.442710
0.388281 0.092943 0.386221
0.425162 0.081544 0.362158
0.429007 0.077363 0.357046
0.015442 0.203510 0.532601
0.026291 0.263111 0.637629
0.061891 0.271839 0.640238
0.121416 0.245441 0.595697
0.247608 0.255909 0.584588
0.376745 0.236255 0.554940
0.475486 0.186007 0.473426
0.501534 0.149310 0.427512
0.484154 0.130694 0.408576
0.013764 0.262654 0.555810
0.027771 0.322438 0.656275
0.081804 0.358007 0.682963
0.194369 0.373236 0.667491
0.307576 0.384070 0.675685
0.462806 0.387884 0.682780
0.587198 0.333898 0.631251
0.647028 0.282979 0.572091
0.623316 0.251881 0.540810
0.028931 0.323629 0.574838
0.041733 0.374166 0.656474
0.117433 0.421683 0.698207
0.272297 0.483467 0.732387
0.423774 0.533700 0.764584
0.536553 0.537118 0.779049
0.678248 0.513588 0.777661
0.794659 0.469978 0.746288
0.785077 0.442359 0.725078
0.080461 0.388113 0.593912
0.091325 0.427863 0.668910
0.180987 0.492775 0.717250
0.354025 0.580194 0.778714
0.513802 0.655772 0.831220
0.611719 0.685450 0.849027
0.737682 0.669627 0.853208
0.858381 0.644678 0.849622
0.870909 0.617639 0.837705
0.157992 0.478691 0.642557
0.171710 0.510796 0.696910
0.258534 0.576135 0.755367
0.430289 0.674556 0.821195
0.583673 0.751842 0.862928
0.680781 0.799069 0.883421
0.782116 0.818677 0.893767
0.888548 0.804929 0.894011
0.911376 0.779507 0.885206
0.263188 0.597635 0.717327
0.283528 0.636530 0.768322
0.363622 0.698940 0.819989
0.515084 0.782376 0.864561
0.647745 0.850553 0.893004
0.734310 0.875120 0.907668
0.833097 0.895201 0.917678
0.909117 0.911040 0.927016
0.937346 0.900832 0.921920
0.397940 0.773053 0.820462
0.431479 0.798062 0.853925
0.492653 0.842557 0.874998
0.603159 0.879667 0.902647
0.715251 0.913649 0.918868
0.789380 0.926009 0.925719
0.850126 0.934234 0.929610
0.907851 0.941756 0.936385
0.948928 0.948928 0.939361
