tools/luts_backup/Kodak Elite Color 200_VS.cube
# (C) 2014 VisionColor & Patchflyer [www.vision-color.com]
# Generator: VC Patchmatch v.2.1.1 [64/53]
# All work and no play makes Jack a dull boy.
# LUT generated from: Kodak Elite Color 200_VisionSpace
LUT_3D_SIZE 5
0.027832 0.027832 0.027832
0.100710 0.038575 0.037659
0.160220 0.054597 0.048615
0.218540 0.067811 0.057252
0.277897 0.082246 0.067445
0.073915 0.136843 0.059144
0.170596 0.149660 0.089204
0.283848 0.187167 0.122103
0.354620 0.207828 0.135683
0.428382 0.226291 0.150271
0.074830 0.226749 0.076387
0.259525 0.292027 0.141543
0.388113 0.341436 0.204410
0.554467 0.413825 0.269230
0.655116 0.454948 0.307378
0.097902 0.327123 0.099245
0.352483 0.419867 0.187381
0.539940 0.518395 0.296239
0.626978 0.559045 0.330663
0.731075 0.647517 0.420203
0.127108 0.413672 0.125429
0.506676 0.610773 0.316503
0.668177 0.700832 0.406928
0.717952 0.712428 0.439521
0.757382 0.732937 0.473610
0.032593 0.037018 0.091463
0.095888 0.042206 0.086915
0.173770 0.058167 0.094148
0.245762 0.078553 0.101747
0.306645 0.094148 0.112337
0.087434 0.150332 0.161715
0.203250 0.202609 0.202243
0.264012 0.100191 0.081575
0.273808 0.081971 0.067170
0.346899 0.134798 0.106600
0.156924 0.313115 0.266667
0.112123 0.328710 0.113893
0.550546 0.477684 0.287022
0.639338 0.439994 0.298070
0.610956 0.387076 0.274907
0.204990 0.428626 0.323278
0.137881 0.415564 0.128054
0.651911 0.682094 0.378912
0.750362 0.723323 0.457008
0.735470 0.649653 0.425574
0.262425 0.564355 0.359808
0.263981 0.493904 0.189212
0.633143 0.691890 0.372595
0.718929 0.718990 0.434028
0.761624 0.739162 0.482429
0.040253 0.050690 0.145907
0.090852 0.047211 0.149813
0.178225 0.062562 0.158938
0.249912 0.081239 0.164370
0.308324 0.096101 0.172274
0.095399 0.167086 0.228489
0.085878 0.158419 0.278141
0.297337 0.134035 0.267887
0.305089 0.096437 0.176059
0.388647 0.154116 0.232059
0.159213 0.295232 0.322087
0.228275 0.401389 0.436912
0.502266 0.503029 0.493797
0.497902 0.232898 0.196674
0.678798 0.402487 0.365682
0.272740 0.500816 0.476234
0.405158 0.659144 0.582635
0.290654 0.470481 0.216281
0.733669 0.689601 0.419135
0.745052 0.653376 0.482002
0.429786 0.672969 0.600214
0.394919 0.674403 0.511086
0.468467 0.638422 0.389456
0.723537 0.733608 0.468345
0.763302 0.729183 0.460426
0.044312 0.062196 0.194095
0.082521 0.049500 0.191562
0.167056 0.066712 0.212833
0.252537 0.088716 0.224735
0.320806 0.107912 0.237919
0.092988 0.188846 0.289128
0.068421 0.127291 0.288060
0.187839 0.106600 0.293980
0.318242 0.119234 0.287022
0.411353 0.200137 0.359167
0.145541 0.302312 0.364385
0.148714 0.333257 0.429908
0.250568 0.374868 0.529427
0.560891 0.314565 0.512215
0.657984 0.456596 0.574273
0.271550 0.469795 0.508934
0.442847 0.654597 0.678920
0.549371 0.683803 0.700069
0.704341 0.701167 0.699092
0.732998 0.691524 0.685084
0.461799 0.686091 0.666651
0.536583 0.719387 0.702419
0.658839 0.741726 0.713954
0.701595 0.744595 0.684688
0.768521 0.758694 0.675929
0.060395 0.106569 0.274601
0.086732 0.073610 0.260990
0.174960 0.091157 0.281376
0.253849 0.103944 0.284611
0.324865 0.122652 0.291783
0.094575 0.231998 0.360632
0.163699 0.301549 0.454505
0.298085 0.305303 0.552819
0.450752 0.248905 0.449592
0.406653 0.200381 0.368933
0.141207 0.328191 0.425391
0.249119 0.422736 0.541009
0.462760 0.537224 0.651881
0.614221 0.531533 0.654108
0.656611 0.476127 0.633051
0.281498 0.471595 0.549157
0.350042 0.557763 0.645380
0.597436 0.669429 0.709590
0.696498 0.706966 0.730617
0.738460 0.697017 0.731319
0.468086 0.674372 0.693812
0.542016 0.708064 0.724544
0.682551 0.752255 0.757443
0.739406 0.768795 0.770260
0.786923 0.786923 0.786221
