tools/luts_backup/Kodak Gold Gen.6 200_VS.cube
# (C) 2014 VisionColor & Patchflyer [www.vision-color.com]
# Generator: VC Patchmatch v.2.1.1 [64/53]
# All work and no play makes Jack a dull boy.
# LUT generated from: Kodak Gold Gen.6 200_VisionSpace
LUT_3D_SIZE 9
0.028138 0.028138 0.028138
0.078157 0.030365 0.030365
0.163119 0.046204 0.046174
0.234562 0.055299 0.053895
0.261112 0.054108 0.054047
0.298833 0.057008 0.057008
0.364446 0.064179 0.067811
0.439429 0.072450 0.084382
0.514794 0.082856 0.102663
0.043336 0.064942 0.031220
0.088228 0.070954 0.040253
0.163119 0.087892 0.051423
0.244327 0.106630 0.062531
0.307073 0.123598 0.070832
0.359991 0.134981 0.081697
0.421942 0.143618 0.094026
0.487709 0.151827 0.106783
0.548211 0.160800 0.126375
0.076448 0.122805 0.051179
0.125551 0.135744 0.058106
0.188998 0.152010 0.065858
0.265080 0.174716 0.077089
0.347936 0.206729 0.091279
0.420111 0.236759 0.108980
0.476234 0.249790 0.123262
0.529107 0.253941 0.133028
0.580835 0.265934 0.147738
0.140139 0.221164 0.077485
0.197086 0.236881 0.084321
0.264744 0.257115 0.093202
0.327214 0.276768 0.103304
0.402319 0.312413 0.119539
0.474830 0.348638 0.142763
0.525994 0.357275 0.155428
0.576623 0.362280 0.164614
0.612573 0.364294 0.173037
0.213321 0.340917 0.107668
0.273960 0.362127 0.118410
0.337407 0.375525 0.127810
0.401923 0.392630 0.139467
0.458564 0.412848 0.152895
0.523247 0.447089 0.177859
0.573663 0.467720 0.195712
0.619318 0.467811 0.203616
0.635950 0.454017 0.200870
0.298863 0.459388 0.146242
0.348608 0.476814 0.159548
0.402502 0.489357 0.171817
0.460395 0.502098 0.182956
0.520684 0.517143 0.196841
0.567529 0.533867 0.212924
0.621271 0.558953 0.235721
0.647456 0.552331 0.239109
0.655940 0.537285 0.235447
0.377417 0.556329 0.183536
0.414618 0.560967 0.196048
0.460304 0.572595 0.210330
0.510460 0.583978 0.220890
0.570794 0.596246 0.234928
0.615076 0.609552 0.251591
0.649866 0.620569 0.265904
0.666865 0.604974 0.264530
0.673335 0.601251 0.264958
0.425849 0.629725 0.214969
0.470710 0.633692 0.225742
0.520684 0.641352 0.241550
0.570642 0.652064 0.256596
0.623011 0.665217 0.275639
0.654108 0.669886 0.286564
0.682094 0.669001 0.295262
0.692927 0.669184 0.298833
0.691279 0.660548 0.294652
0.383062 0.669245 0.219028
0.507286 0.682826 0.251225
0.547112 0.690150 0.264042
0.600031 0.695399 0.280613
0.640803 0.699245 0.294377
0.676081 0.702937 0.307256
0.697200 0.705348 0.315526
0.702388 0.705928 0.317601
0.702388 0.705928 0.317601
0.028534 0.028534 0.069917
0.057038 0.031983 0.074830
0.126406 0.039948 0.086580
0.192966 0.046815 0.096376
0.246067 0.054261 0.101930
0.298405 0.058686 0.107576
0.361639 0.065705 0.120363
0.421363 0.071717 0.130556
0.495094 0.083680 0.155154
0.039979 0.068757 0.066072
0.092256 0.077607 0.086305
0.213535 0.065309 0.064912
0.262425 0.055848 0.055360
0.297734 0.057069 0.057221
0.363073 0.063874 0.067781
0.441474 0.072572 0.084779
0.505974 0.089204 0.110079
0.545769 0.152865 0.179660
0.066621 0.159731 0.069245
0.137301 0.200473 0.080018
0.283085 0.243748 0.104921
0.344732 0.205783 0.091829
0.397070 0.197452 0.098634
0.452674 0.195865 0.109194
0.503960 0.190402 0.116823
0.551293 0.200961 0.138277
0.595056 0.271214 0.214603
0.148684 0.257572 0.111818
0.211307 0.336187 0.107057
0.331640 0.370672 0.127565
0.455665 0.408911 0.153872
0.488533 0.379705 0.153353
0.525505 0.353353 0.154177
0.565545 0.337774 0.157290
0.597223 0.339239 0.173983
0.618219 0.378180 0.245335
0.229770 0.367956 0.151095
0.298894 0.459007 0.146700
0.382940 0.485695 0.168063
0.479713 0.503960 0.186160
0.570703 0.535698 0.214054
0.596368 0.514351 0.215427
0.622187 0.485740 0.210391
0.633417 0.456306 0.210513
0.636530 0.467414 0.272251
0.311131 0.473976 0.189792
0.374060 0.555840 0.182681
0.438697 0.568689 0.203464
0.512901 0.583612 0.220310
0.591608 0.599359 0.241550
0.650019 0.619287 0.265476
0.659754 0.588190 0.256260
0.663539 0.561120 0.253910
0.664485 0.551446 0.299504
0.354162 0.550561 0.208316
0.417548 0.626856 0.212253
0.487282 0.634424 0.231022
0.557733 0.648554 0.252628
0.626123 0.662898 0.275822
0.667353 0.668910 0.290745
0.690303 0.667903 0.297551
0.687617 0.640314 0.291356
0.692073 0.620539 0.332708
0.359106 0.613977 0.207584
0.399298 0.665675 0.221256
0.507622 0.677394 0.249760
0.578668 0.688350 0.274540
0.638117 0.696193 0.296971
0.684321 0.703853 0.317082
0.705501 0.705409 0.325414
0.707149 0.705531 0.326238
0.711788 0.688411 0.358892
0.337194 0.662013 0.208682
0.403784 0.671748 0.225620
0.496284 0.684718 0.256809
0.577630 0.696559 0.297276
0.626459 0.700221 0.324987
0.668452 0.712276 0.357153
0.708980 0.723903 0.380224
0.726253 0.726436 0.388952
0.726406 0.726406 0.388037
0.033906 0.033906 0.113497
0.058198 0.036835 0.129152
0.106477 0.040711 0.139528
0.168490 0.045960 0.148409
0.235203 0.054261 0.164828
0.300298 0.060761 0.169528
0.363378 0.068269 0.184390
0.413886 0.073640 0.191592
0.469429 0.081819 0.206027
0.045014 0.072969 0.119265
0.046357 0.047822 0.156344
0.148714 0.056428 0.183536
0.234684 0.054688 0.162844
0.299351 0.060029 0.148348
0.361456 0.066560 0.150454
0.420264 0.073335 0.156374
0.481788 0.089967 0.176211
0.526940 0.156161 0.239078
0.081636 0.158999 0.148074
0.126497 0.236820 0.226078
0.198520 0.191684 0.190768
0.332799 0.129854 0.135927
0.363348 0.095064 0.098024
0.436896 0.076051 0.087831
0.502617 0.093233 0.113130
0.546502 0.153292 0.179995
0.665766 0.259068 0.273716
0.128939 0.279728 0.171420
0.171206 0.399542 0.164920
0.288548 0.367651 0.178592
0.448249 0.416541 0.226474
0.503777 0.361944 0.183871
0.539025 0.288777 0.146700
0.571740 0.273014 0.159945
0.604639 0.316503 0.227024
0.697536 0.402258 0.313024
0.178225 0.410407 0.170047
0.298344 0.478279 0.215305
0.361425 0.515221 0.194186
0.491402 0.548791 0.234531
0.614069 0.583764 0.270390
0.631434 0.525093 0.230838
0.633021 0.460105 0.217166
0.635126 0.453132 0.266392
0.682887 0.489479 0.327703
0.286152 0.488472 0.225101
0.342504 0.555138 0.227787
0.410986 0.620386 0.209201
0.526757 0.638666 0.244419
0.636347 0.658747 0.280766
0.689998 0.665034 0.299504
0.676295 0.601556 0.277775
0.670771 0.566461 0.305211
0.688716 0.564691 0.347967
0.336553 0.564233 0.251560
0.348241 0.615259 0.220890
0.405524 0.662867 0.221805
0.538201 0.678859 0.259861
0.636835 0.695613 0.298497
0.696223 0.705135 0.325444
0.708644 0.704860 0.330694
0.704097 0.662379 0.353155
0.713863 0.640223 0.377630
0.344182 0.619471 0.249424
0.343175 0.660426 0.216251
0.410986 0.673579 0.231418
0.530175 0.687953 0.275822
0.614221 0.698817 0.318853
0.677485 0.713802 0.361944
0.720455 0.724880 0.384558
0.725399 0.725612 0.387335
0.734340 0.706233 0.401404
0.340551 0.667781 0.239048
0.384588 0.675502 0.252659
0.447852 0.679774 0.274449
0.534417 0.691402 0.319371
0.597436 0.700435 0.357610
0.655360 0.718441 0.388190
0.704494 0.736019 0.402930
0.741878 0.745510 0.416175
0.745724 0.745724 0.417060
0.036530 0.036530 0.154055
0.054780 0.038544 0.176547
0.096956 0.041962 0.189914
0.154971 0.046204 0.192844
0.226474 0.054017 0.213169
0.298100 0.062104 0.221286
0.353460 0.069429 0.231693
0.404608 0.075257 0.240696
0.456855 0.083375 0.250889
0.049073 0.078157 0.175021
0.038697 0.039002 0.190555
0.090150 0.045899 0.226505
0.198459 0.053864 0.223484
0.290044 0.061860 0.231418
0.352453 0.069062 0.230716
0.409094 0.075441 0.231571
0.461341 0.091279 0.242557
0.521660 0.161929 0.293614
0.086549 0.162753 0.215579
0.090181 0.167239 0.272038
0.096864 0.109712 0.263828
0.243351 0.123049 0.277378
0.335943 0.091737 0.236881
0.411841 0.078767 0.212680
0.469368 0.095460 0.214725
0.527977 0.161379 0.263249
0.669123 0.286259 0.362585
0.135103 0.267185 0.259434
0.188693 0.367834 0.372686
0.210544 0.375921 0.371283
0.330144 0.332799 0.328771
0.466926 0.255314 0.253666
0.513497 0.189960 0.202014
0.544915 0.158267 0.183841
0.671321 0.261936 0.276738
0.719661 0.433814 0.414740
0.192020 0.385046 0.298619
0.236515 0.486122 0.347295
0.259922 0.559106 0.286931
0.395392 0.516167 0.260166
0.579370 0.550988 0.320378
0.601953 0.484276 0.297444
0.624598 0.413474 0.260624
0.688533 0.448493 0.319280
0.717708 0.525505 0.426276
0.228916 0.500481 0.309850
0.261601 0.601373 0.259907
0.352728 0.624720 0.273014
0.424811 0.601526 0.259709
0.593225 0.640131 0.336706
0.685695 0.660517 0.372930
0.682063 0.599939 0.325078
0.688502 0.564874 0.348058
0.715694 0.582177 0.414588
0.267643 0.605158 0.266651
0.344839 0.641871 0.286473
0.353918 0.663325 0.254124
0.414069 0.670466 0.234379
0.589837 0.694209 0.309026
0.691768 0.716823 0.375036
0.726528 0.724941 0.391638
0.725277 0.673701 0.390204
0.734859 0.654444 0.432013
0.327062 0.654932 0.281315
0.363531 0.678737 0.290044
0.384222 0.680415 0.276097
0.448768 0.681392 0.277073
0.572564 0.696223 0.340612
0.655512 0.717922 0.389105
0.727382 0.741146 0.410468
0.745144 0.745144 0.416510
0.752926 0.716945 0.457801
0.364874 0.695277 0.307683
0.385199 0.697230 0.312749
0.424689 0.697414 0.324865
0.480934 0.701534 0.339025
0.557427 0.719844 0.363684
0.641321 0.733028 0.420081
0.707698 0.747951 0.464698
0.754086 0.761593 0.477272
0.760525 0.760525 0.474342
0.037781 0.037781 0.190707
0.051362 0.041108 0.210697
0.090425 0.046265 0.228153
0.140444 0.050202 0.236240
0.199191 0.053193 0.222141
0.275578 0.060975 0.242985
0.331975 0.067933 0.265232
0.397253 0.077058 0.286656
0.454078 0.086336 0.298863
0.053223 0.086183 0.229984
0.042908 0.042908 0.245640
0.067292 0.045411 0.255711
0.134249 0.050446 0.260288
0.244541 0.059571 0.270817
0.323705 0.067872 0.282628
0.391638 0.076753 0.291539
0.454902 0.093507 0.300755
0.514244 0.163302 0.341466
0.090761 0.169375 0.275975
0.077882 0.145968 0.322911
0.056397 0.070161 0.295476
0.133700 0.075441 0.302739
0.293065 0.094362 0.334325
0.385138 0.080812 0.311543
0.453285 0.097658 0.302129
0.518883 0.166629 0.333196
0.639277 0.280888 0.397925
0.137362 0.262943 0.320958
0.157626 0.306310 0.406912
0.155306 0.283665 0.421729
0.179232 0.218814 0.413092
0.386816 0.238529 0.438392
0.450202 0.186084 0.345266
0.524224 0.173404 0.315129
0.651362 0.282231 0.382666
0.708766 0.409339 0.442481
0.189609 0.370092 0.374670
0.246799 0.475471 0.496468
0.277836 0.516716 0.534264
0.311711 0.505028 0.509361
0.456367 0.469154 0.463066
0.563363 0.408103 0.395438
0.683986 0.338704 0.334585
0.718196 0.424903 0.407630
0.703120 0.522789 0.491127
0.240787 0.472786 0.410620
0.287510 0.560327 0.458030
0.311864 0.632090 0.463279
0.314977 0.639811 0.399344
0.482948 0.606989 0.390524
0.652476 0.633524 0.443076
0.685817 0.571542 0.368093
0.713283 0.561700 0.413489
0.710658 0.590570 0.501274
0.279301 0.576806 0.411154
0.299443 0.653681 0.408804
0.304265 0.710262 0.364645
0.351064 0.714504 0.303471
0.474983 0.667964 0.325933
0.642252 0.707210 0.389197
0.741238 0.729824 0.428717
0.740444 0.675959 0.439521
0.731502 0.665797 0.532403
0.293675 0.659907 0.379599
0.305333 0.714595 0.365805
0.313329 0.737911 0.316213
0.372107 0.727596 0.315923
0.482460 0.702785 0.339574
0.617105 0.728573 0.397833
0.723903 0.752499 0.466560
0.759304 0.759304 0.473396
0.757382 0.723232 0.559899
0.308507 0.722713 0.371328
0.316655 0.735012 0.341817
0.347448 0.736202 0.371725
0.427283 0.733211 0.414206
0.553124 0.736446 0.479454
0.643854 0.743374 0.527825
0.711116 0.753689 0.560632
0.754177 0.769039 0.572778
0.770443 0.770443 0.579278
0.043427 0.043427 0.246433
0.047913 0.043763 0.247105
0.080476 0.046448 0.259281
0.116426 0.049226 0.264775
0.175601 0.053101 0.246159
0.245975 0.059419 0.267216
0.316289 0.067933 0.304631
0.384985 0.077913 0.327825
0.447944 0.089082 0.342504
0.054932 0.091951 0.289036
0.046357 0.046357 0.311131
0.053773 0.046662 0.302770
0.103914 0.049592 0.297459
0.188006 0.056153 0.300542
0.305760 0.071015 0.359014
0.377325 0.079103 0.356970
0.436561 0.093080 0.353979
0.491859 0.152560 0.373510
0.092439 0.178103 0.339696
0.072053 0.143374 0.387732
0.050355 0.054047 0.369848
0.069459 0.053010 0.338750
0.187366 0.063264 0.356023
0.356023 0.087404 0.430091
0.425147 0.097383 0.384405
0.487343 0.152621 0.378241
0.589136 0.266667 0.415778
0.142550 0.276219 0.390906
0.135531 0.284489 0.458198
0.104524 0.235828 0.490578
0.096757 0.148119 0.393683
0.225574 0.160693 0.428122
0.403021 0.194934 0.465034
0.476295 0.157046 0.396857
0.582254 0.264439 0.418555
0.689357 0.378180 0.459480
0.191592 0.372961 0.441901
0.214908 0.433036 0.529442
0.209796 0.454154 0.573907
0.229084 0.402762 0.535271
0.289799 0.356130 0.543999
0.495979 0.381582 0.557214
0.621027 0.308766 0.455848
0.697475 0.388205 0.454322
0.682948 0.503059 0.523613
0.246738 0.474830 0.496742
0.272587 0.544488 0.578851
0.269108 0.585962 0.613092
0.307256 0.584222 0.592798
0.401144 0.594202 0.609445
0.565606 0.576959 0.577539
0.633417 0.532586 0.513176
0.701930 0.523827 0.491951
0.697230 0.598657 0.565301
0.291173 0.559594 0.501579
0.308568 0.619654 0.544152
0.307530 0.656672 0.563012
0.329717 0.674067 0.556924
0.354604 0.694331 0.526772
0.579644 0.674220 0.542306
0.710140 0.700557 0.569970
0.730983 0.664942 0.530510
0.721889 0.668086 0.598932
0.318975 0.631800 0.498451
0.322759 0.671626 0.526513
0.344152 0.690486 0.529870
0.346532 0.716701 0.515999
0.411246 0.735195 0.505928
0.554955 0.734401 0.475425
0.709438 0.753964 0.559442
0.770352 0.769497 0.580621
0.751644 0.727504 0.638514
0.329076 0.684871 0.501610
0.345159 0.698360 0.510399
0.346593 0.717739 0.513909
0.397391 0.732326 0.544091
0.560143 0.741329 0.609277
0.654383 0.750027 0.636042
0.711879 0.760922 0.648096
0.758358 0.774350 0.660639
0.776516 0.776516 0.666926
0.045930 0.045930 0.311315
0.045960 0.045716 0.303258
0.068116 0.047333 0.305364
0.104829 0.049256 0.296818
0.154910 0.053285 0.294377
0.225834 0.060090 0.314153
0.305058 0.071015 0.361944
0.373541 0.080323 0.381872
0.430060 0.090791 0.389715
0.060639 0.104707 0.364324
0.049378 0.049531 0.371008
0.049104 0.048493 0.341405
0.077180 0.050263 0.335576
0.152407 0.056397 0.346410
0.252171 0.067567 0.388861
0.356725 0.083986 0.432197
0.417548 0.096529 0.419440
0.459876 0.141421 0.402655
0.088930 0.188754 0.413703
0.075654 0.150942 0.454109
0.055329 0.065461 0.422004
0.053834 0.059388 0.372351
0.128038 0.068269 0.397345
0.255161 0.081270 0.433021
0.390204 0.104524 0.473976
0.451484 0.147738 0.431983
0.534264 0.248478 0.449470
0.137179 0.285649 0.460243
0.121004 0.284611 0.517327
0.099611 0.226108 0.525719
0.070100 0.121584 0.450965
0.122576 0.129580 0.470985
0.279850 0.148409 0.492744
0.422980 0.166537 0.501823
0.514855 0.244694 0.474067
0.645228 0.362493 0.532982
0.189975 0.386938 0.505150
0.190249 0.428717 0.565972
0.173617 0.428092 0.591638
0.148119 0.345174 0.565118
0.160327 0.263508 0.503502
0.325994 0.293965 0.645899
0.518578 0.311025 0.609766
0.628565 0.354742 0.553552
0.654932 0.491524 0.572595
0.239933 0.477852 0.552972
0.240024 0.517388 0.603632
0.239353 0.541314 0.631739
0.243046 0.523278 0.627802
0.303868 0.506416 0.622370
0.398795 0.484169 0.640833
0.578698 0.503624 0.633112
0.654963 0.488624 0.571801
0.673579 0.591852 0.616297
0.273625 0.543297 0.579736
0.267369 0.589563 0.616266
0.256657 0.611322 0.639490
0.271427 0.625788 0.651667
0.352056 0.646540 0.667445
0.489448 0.671839 0.698940
0.652979 0.662348 0.666010
0.686275 0.619898 0.597650
0.723659 0.674311 0.662257
0.302861 0.617151 0.573114
0.292271 0.647944 0.597589
0.305211 0.661067 0.611749
0.339330 0.675319 0.628473
0.381353 0.710140 0.661860
0.513832 0.748684 0.682246
0.668727 0.737240 0.659724
0.762173 0.758206 0.677363
0.755306 0.731228 0.697566
0.304570 0.666712 0.567803
0.317540 0.670100 0.581231
0.347143 0.681697 0.596216
0.380255 0.717739 0.640894
0.514229 0.751369 0.686671
0.637873 0.759823 0.702907
0.712947 0.764035 0.716945
0.754025 0.774258 0.721401
0.777890 0.777890 0.723812
0.049165 0.049165 0.370275
0.048554 0.048524 0.348669
0.055024 0.048798 0.339361
0.086824 0.050996 0.335576
0.138521 0.055085 0.339940
0.210544 0.062226 0.369787
0.283482 0.071839 0.407172
0.359319 0.084077 0.430121
0.419745 0.094575 0.442237
0.066560 0.117708 0.427527
0.054322 0.060304 0.425208
0.050721 0.055116 0.376226
0.058381 0.057038 0.373266
0.124483 0.063905 0.394903
0.209689 0.071687 0.415930
0.293736 0.083711 0.450111
0.390478 0.100832 0.476326
0.442969 0.149630 0.449653
0.091829 0.208133 0.488106
0.079805 0.156619 0.491768
0.068574 0.116976 0.451789
0.076417 0.110292 0.431403
0.146426 0.129183 0.479347
0.243687 0.136568 0.485359
0.329290 0.145022 0.495583
0.418677 0.158389 0.500603
0.499702 0.246677 0.499184
0.130312 0.308385 0.527916
0.121431 0.295628 0.556542
0.108980 0.249882 0.532708
0.105623 0.204715 0.495918
0.165194 0.220920 0.527428
0.282139 0.238529 0.611475
0.394049 0.254917 0.582849
0.479988 0.265629 0.566491
0.598810 0.359411 0.608331
0.182040 0.413062 0.562371
0.174441 0.437415 0.595941
0.166293 0.397284 0.586480
0.168856 0.352880 0.567895
0.180941 0.310399 0.555077
0.281590 0.339086 0.665629
0.438209 0.352911 0.690089
0.570336 0.371771 0.677363
0.630213 0.477424 0.634577
0.224063 0.484108 0.588586
0.223850 0.516350 0.625940
0.221866 0.500084 0.622278
0.249577 0.487709 0.621881
0.292760 0.479393 0.632990
0.298772 0.441306 0.655009
0.472328 0.469642 0.690517
0.617365 0.485206 0.698726
0.664088 0.583825 0.657526
0.248112 0.535027 0.613001
0.246494 0.571649 0.639948
0.263371 0.570855 0.643214
0.305669 0.581476 0.654505
0.360388 0.613703 0.692866
0.423621 0.625666 0.727413
0.536461 0.597498 0.706538
0.666896 0.615442 0.706355
0.721187 0.674342 0.701015
0.269230 0.592096 0.616510
0.254765 0.612299 0.642603
0.265934 0.625666 0.653895
0.313787 0.652216 0.671473
0.375097 0.684871 0.693843
0.431647 0.736568 0.740505
0.621180 0.742092 0.753689
0.727291 0.727413 0.729671
0.761105 0.734462 0.734340
0.283604 0.647028 0.614588
0.292729 0.651606 0.624506
0.329656 0.667201 0.650813
0.383185 0.694636 0.687831
0.458335 0.744472 0.735317
0.617029 0.763729 0.749447
0.704768 0.770047 0.752895
0.755032 0.778683 0.756008
0.784726 0.784726 0.758724
0.053315 0.053315 0.431006
0.050080 0.050080 0.389776
0.048981 0.048981 0.364233
0.057313 0.049805 0.370581
0.115267 0.055024 0.392920
0.179873 0.061189 0.404059
0.242130 0.070130 0.429175
0.311620 0.080812 0.463691
0.395758 0.097169 0.484047
0.069459 0.119051 0.472236
0.067842 0.116548 0.452461
0.066621 0.104280 0.423682
0.094942 0.116640 0.448829
0.161379 0.131838 0.486610
0.232609 0.134890 0.484657
0.292851 0.136904 0.485695
0.350225 0.144076 0.495155
0.416083 0.156405 0.496468
0.098482 0.217685 0.540856
0.094911 0.210025 0.511864
0.102235 0.201999 0.494606
0.136324 0.213230 0.507042
0.204410 0.235172 0.561532
0.284459 0.244419 0.623529
0.358373 0.251225 0.593988
0.424292 0.263188 0.586328
0.481819 0.267185 0.567437
0.135592 0.337804 0.573510
0.129976 0.314244 0.558648
0.139528 0.299382 0.544335
0.178042 0.309819 0.552941
0.241794 0.333959 0.589548
0.312200 0.345159 0.688807
0.412634 0.352605 0.692073
0.497597 0.364935 0.686488
0.571160 0.377386 0.681361
0.175784 0.447028 0.601312
0.173861 0.415686 0.592828
0.190707 0.396521 0.586084
0.247745 0.417090 0.605737
0.297032 0.441398 0.650492
0.374029 0.456275 0.700435
0.469673 0.466743 0.691402
0.536522 0.466438 0.692836
0.618677 0.482795 0.698421
0.210208 0.505272 0.623865
0.211551 0.488319 0.618524
0.246311 0.483101 0.619348
0.315862 0.512993 0.647822
0.363378 0.540551 0.705898
0.468894 0.566125 0.717708
0.558770 0.579736 0.706477
0.611749 0.579095 0.707118
0.658167 0.585199 0.713863
0.234592 0.548913 0.638483
0.248753 0.540368 0.634974
0.295109 0.556207 0.647791
0.353765 0.595026 0.688624
0.426368 0.630060 0.730922
0.541970 0.646052 0.739101
0.635096 0.665766 0.736568
0.686885 0.675349 0.736446
0.719570 0.677821 0.740871
0.241856 0.584131 0.642481
0.265782 0.589349 0.647669
0.308324 0.604578 0.658900
0.372412 0.648554 0.696376
0.438300 0.687007 0.737118
0.573541 0.706783 0.750271
0.673304 0.721950 0.754391
0.729976 0.733700 0.758755
0.764858 0.739376 0.766476
0.251621 0.613611 0.648890
0.259342 0.619959 0.649592
0.314031 0.651637 0.671412
0.372076 0.682429 0.692256
0.431388 0.740444 0.742672
0.586114 0.761685 0.761685
0.697658 0.770687 0.770687
0.750179 0.779629 0.779629
0.791287 0.791287 0.791287
