tools/luts_backup/Kodak Vision3 250D 5207 (NEG)_FC.cube
# (C) 2014 VisionColor & Patchflyer [www.vision-color.com]
# Generator: VC Patchmatch v.2.1.1 [64/53]
# All work and no play makes Jack a dull boy.
# LUT generated from: Kodak Vision3 250D 5207 (NEG)_FC01
LUT_3D_SIZE 5
0.023056 0.025788 0.023560
0.200946 0.023117 0.016068
0.287160 0.017029 0.014588
0.427131 0.013458 0.011109
0.781430 0.008881 0.007538
0.053803 0.175540 0.022675
0.174563 0.172030 0.032715
0.451728 0.115785 0.008362
0.646021 0.022644 0.007050
0.818936 0.009110 0.007324
0.340337 0.430594 0.061204
0.296132 0.444923 0.065156
0.512932 0.436988 0.066499
0.916777 0.228122 0.007370
0.975189 0.244648 0.008270
0.858961 0.850965 0.091524
0.784253 0.816205 0.085847
0.556390 0.748486 0.082200
0.905974 0.715053 0.108690
0.995270 0.673411 0.137560
0.983993 0.956741 0.138689
0.982940 0.954543 0.135653
0.928710 0.946471 0.136706
0.969116 0.938674 0.187320
0.997452 0.929763 0.239887
0.018296 0.021164 0.185077
0.162203 0.014694 0.222217
0.260471 0.011948 0.203525
0.333562 0.013642 0.043839
0.716594 0.009201 0.007843
0.008927 0.191272 0.205859
0.175113 0.150820 0.159991
0.569955 0.114946 0.077470
0.654185 0.048631 0.007263
0.734554 0.009094 0.007752
0.240085 0.534585 0.099046
0.304875 0.498863 0.104967
0.603311 0.488579 0.062638
0.962539 0.301564 0.014160
0.956909 0.204059 0.005783
0.744564 0.901244 0.105913
0.733257 0.875044 0.070878
0.731319 0.857557 0.038956
0.971206 0.827161 0.108705
0.994766 0.620142 0.111879
0.984344 0.973770 0.091981
0.984665 0.970993 0.091661
0.942901 0.955581 0.087465
0.951614 0.942916 0.134127
0.991775 0.913603 0.209598
0.014206 0.016907 0.388998
0.047547 0.013733 0.393088
0.156878 0.010605 0.359213
0.306218 0.009720 0.300618
0.823880 0.007034 0.102800
0.001663 0.162646 0.560464
0.071336 0.095277 0.519997
0.398260 0.039582 0.420905
0.504265 0.007507 0.276631
0.716152 0.008469 0.031525
0.077516 0.677394 0.662028
0.179889 0.569345 0.591913
0.467735 0.462974 0.479026
0.892180 0.307485 0.308858
0.988128 0.168383 0.071168
0.393561 0.879286 0.384909
0.407736 0.877104 0.367239
0.586419 0.859083 0.309178
0.942794 0.874144 0.282277
0.995468 0.679454 0.182055
0.866529 0.972778 0.365698
0.890974 0.971588 0.293736
0.890410 0.967361 0.243000
0.957595 0.968063 0.164843
0.997894 0.950820 0.129305
0.010254 0.011597 0.781979
0.010925 0.012253 0.706111
0.041901 0.010071 0.733608
0.201526 0.006744 0.745769
0.903792 0.006943 0.661952
0.001831 0.064881 0.820081
0.006760 0.026184 0.837186
0.211170 0.007355 0.888426
0.242451 0.006607 0.719722
0.767788 0.006912 0.466484
0.009430 0.631266 0.980041
0.056580 0.522713 0.965652
0.227008 0.412055 0.900236
0.504738 0.282963 0.790265
0.974166 0.135271 0.479576
0.247898 0.932586 0.909850
0.289143 0.906126 0.902678
0.416342 0.877775 0.869795
0.837003 0.851011 0.845747
0.968856 0.759274 0.733425
0.629740 0.966293 0.811490
0.558648 0.949920 0.712276
0.608621 0.952651 0.679942
0.779507 0.957000 0.578668
0.985229 0.963714 0.620295
0.009537 0.010880 0.854231
0.009552 0.010880 0.853834
0.027115 0.009125 0.899779
0.117678 0.006226 0.868986
0.531212 0.006195 0.899763
0.000748 0.093797 0.882353
0.009384 0.012894 0.855894
0.092927 0.007462 0.947799
0.197055 0.005615 0.902083
0.693980 0.006653 0.924025
0.001373 0.624720 0.977203
0.006226 0.493767 0.986709
0.096941 0.370703 0.985489
0.367407 0.340475 0.935576
0.640253 0.243320 0.914702
0.176013 0.930816 0.977890
0.376135 0.896361 0.958404
0.506203 0.865156 0.946746
0.766842 0.847181 0.933104
0.867750 0.824445 0.911925
0.459937 0.972808 0.963958
0.541756 0.970657 0.955825
0.589471 0.958755 0.948837
0.736248 0.950790 0.941146
0.956527 0.955596 0.944488
