tools/luts_backup/Kodak Ultramax 400_FC.cube
# (C) 2014 VisionColor & Patchflyer [www.vision-color.com]
# Generator: VC Patchmatch v.2.1.1 [64/53]
# All work and no play makes Jack a dull boy.
# LUT generated from: Kodak Ultramax 400_FC01
LUT_3D_SIZE 5
0.021515 0.025727 0.021515
0.121920 0.021744 0.023331
0.353307 0.023499 0.034531
0.671260 0.024979 0.040620
0.940414 0.027741 0.050568
0.052064 0.104616 0.011948
0.210407 0.136477 0.012741
0.479149 0.172610 0.020218
0.732921 0.166308 0.030014
0.969284 0.143069 0.042741
0.225132 0.351049 0.010666
0.328008 0.414389 0.016281
0.566476 0.443000 0.019150
0.809140 0.444129 0.020325
0.933471 0.345464 0.028046
0.316579 0.588815 0.012238
0.417624 0.652384 0.016281
0.634653 0.669596 0.017258
0.849744 0.669490 0.020127
0.889906 0.590936 0.020447
0.212161 0.857008 0.010880
0.394598 0.860700 0.014435
0.627375 0.851575 0.017502
0.792844 0.833295 0.019989
0.873976 0.816052 0.020981
0.024826 0.024826 0.189258
0.127810 0.021286 0.157427
0.369512 0.022797 0.168170
0.627344 0.023667 0.191211
0.874037 0.027405 0.169390
0.046921 0.155840 0.136172
0.183490 0.172045 0.157519
0.584878 0.054231 0.070344
0.908919 0.033936 0.063111
0.920272 0.186633 0.191882
0.142367 0.400290 0.129229
0.287053 0.547707 0.029740
0.778485 0.621576 0.051392
0.930541 0.370901 0.041825
0.915526 0.433539 0.193011
0.150607 0.629114 0.076539
0.239139 0.839170 0.011536
0.634730 0.843793 0.025544
0.876722 0.820874 0.024994
0.913527 0.673320 0.193164
0.114778 0.891920 0.011460
0.321202 0.888304 0.071061
0.613596 0.867399 0.152468
0.774273 0.864088 0.160021
0.879286 0.837140 0.127520
0.026596 0.026596 0.594186
0.099016 0.024216 0.386007
0.311330 0.022278 0.325261
0.572442 0.023911 0.346029
0.784970 0.025925 0.283482
0.045029 0.166629 0.380774
0.029725 0.054795 0.738048
0.433158 0.053330 0.453468
0.755962 0.037400 0.282002
0.803143 0.197314 0.291020
0.089189 0.393774 0.383215
0.093156 0.561959 0.577218
0.477729 0.456199 0.439643
0.842786 0.268605 0.241917
0.881819 0.435981 0.360296
0.100145 0.658137 0.337957
0.073198 0.891905 0.201648
0.407172 0.824414 0.156985
0.877455 0.804623 0.216907
0.932158 0.726345 0.462943
0.061112 0.923583 0.178531
0.267994 0.893843 0.315618
0.603769 0.899580 0.442267
0.818448 0.902693 0.478691
0.935393 0.912551 0.454170
0.025422 0.035706 0.920348
0.061387 0.026139 0.785336
0.257053 0.023728 0.722866
0.477089 0.023346 0.512627
0.753429 0.026215 0.485115
0.026383 0.196628 0.806378
0.025635 0.034638 0.931823
0.144640 0.036484 0.859403
0.636103 0.040208 0.800092
0.697581 0.189624 0.483452
0.056748 0.435538 0.694697
0.011002 0.406775 0.926345
0.082628 0.225528 0.778973
0.612589 0.253635 0.730648
0.805814 0.452247 0.580133
0.041367 0.640391 0.672969
0.009415 0.827420 0.921126
0.165164 0.840711 0.895811
0.735958 0.711910 0.728481
0.932494 0.721126 0.715572
0.006989 0.913191 0.577874
0.159365 0.908644 0.712306
0.557717 0.931823 0.769055
0.833677 0.931090 0.777874
0.941619 0.926009 0.775586
0.027253 0.027253 0.945937
0.027848 0.027359 0.922988
0.135958 0.025895 0.891722
0.371725 0.026032 0.879072
0.670863 0.028260 0.839246
0.011109 0.317296 0.973114
0.026596 0.158022 0.872923
0.155505 0.186206 0.873259
0.385855 0.190005 0.827207
0.627329 0.188678 0.799619
0.010071 0.393362 0.939010
0.071092 0.393027 0.884031
0.268498 0.412909 0.877943
0.584710 0.444404 0.885161
0.782681 0.445197 0.862287
0.009293 0.642176 0.949172
0.112306 0.646983 0.924712
0.478248 0.710399 0.914275
0.762768 0.707820 0.928923
0.925887 0.704753 0.923156
0.009613 0.861921 0.926787
0.073716 0.907164 0.911025
0.435233 0.924956 0.917937
0.795453 0.928115 0.933547
0.953887 0.953887 0.945693
