tools/luts_backup/Kodak Vision3 500T 5219 (NEG)_FC.cube
# (C) 2014 VisionColor & Patchflyer [www.vision-color.com]
# Generator: VC Patchmatch v.2.1.1 [64/53]
# All work and no play makes Jack a dull boy.
# LUT generated from: BMD Film to Kodak Vision3 500T 5219 (NEG)_FC01
LUT_3D_SIZE 9
0.027451 0.027451 0.027451
0.109804 0.023529 0.019608
0.211765 0.050980 0.031373
0.368643 0.098039 0.058824
0.572549 0.121569 0.082353
0.674510 0.117647 0.090196
0.690196 0.101961 0.086275
0.690196 0.094118 0.082353
0.690196 0.086275 0.082353
0.058824 0.062745 0.023529
0.098039 0.054902 0.023529
0.215686 0.070588 0.039216
0.360800 0.109804 0.062745
0.568643 0.137255 0.086275
0.682353 0.137255 0.094118
0.694118 0.113725 0.090196
0.701961 0.125490 0.094118
0.701961 0.137255 0.098039
0.062745 0.152941 0.047059
0.109804 0.164706 0.054902
0.219608 0.152941 0.058824
0.380407 0.176471 0.078431
0.611780 0.219608 0.109804
0.705882 0.215686 0.117647
0.717647 0.184314 0.109804
0.709804 0.164706 0.101961
0.709804 0.160784 0.101961
0.090196 0.286290 0.090196
0.133333 0.294133 0.090196
0.309819 0.345113 0.121569
0.447074 0.329427 0.129412
0.674525 0.368643 0.160784
0.764706 0.396078 0.184314
0.756863 0.341192 0.164706
0.749020 0.309819 0.152941
0.745098 0.290196 0.145098
0.211765 0.658839 0.200000
0.262760 0.603937 0.192157
0.419623 0.603952 0.207858
0.525521 0.533364 0.196094
0.764721 0.552956 0.239231
0.815686 0.580407 0.262760
0.811780 0.564736 0.250996
0.815686 0.552956 0.247059
0.800000 0.509819 0.227466
0.282353 0.878431 0.266667
0.349020 0.870588 0.278431
0.588235 0.862745 0.337255
0.811765 0.894118 0.419608
0.921569 0.917647 0.478431
0.917647 0.890181 0.458808
0.905882 0.862730 0.439216
0.901961 0.850965 0.427436
0.890196 0.827436 0.411749
0.305882 0.894118 0.282353
0.384314 0.898039 0.298039
0.647059 0.901961 0.372549
0.870588 0.925490 0.462745
0.937255 0.937255 0.498039
0.937255 0.937255 0.494118
0.937255 0.937255 0.494118
0.937255 0.933333 0.494118
0.933333 0.929412 0.490196
0.329412 0.886275 0.294118
0.407843 0.886275 0.305882
0.670604 0.901961 0.380392
0.894118 0.929412 0.474510
0.941176 0.941176 0.498039
0.937255 0.937255 0.494118
0.941176 0.941176 0.498039
0.937255 0.937255 0.498039
0.937255 0.937255 0.498039
0.349020 0.886275 0.294118
0.423529 0.878431 0.309804
0.694133 0.901961 0.388235
0.901961 0.925490 0.474510
0.941176 0.941176 0.501961
0.937255 0.937255 0.494118
0.933333 0.933333 0.494118
0.941176 0.941176 0.501961
0.933333 0.933333 0.494118
0.031373 0.011765 0.074510
0.066667 0.015686 0.066667
0.184314 0.023529 0.082353
0.407858 0.050980 0.109804
0.674510 0.094118 0.152941
0.682368 0.086275 0.137255
0.666667 0.078431 0.133333
0.682353 0.082353 0.121569
0.682353 0.082353 0.125490
0.031373 0.054902 0.066667
0.074510 0.066667 0.058824
0.282353 0.070588 0.058824
0.466682 0.105882 0.082353
0.694133 0.141176 0.113725
0.776471 0.133333 0.117647
0.729412 0.094118 0.129412
0.690196 0.082353 0.105882
0.686275 0.078431 0.109804
0.047059 0.156863 0.074510
0.078431 0.164706 0.050980
0.219608 0.160784 0.062745
0.392172 0.188235 0.086275
0.592172 0.223529 0.113725
0.709804 0.223529 0.121569
0.713726 0.176471 0.109804
0.709804 0.160784 0.101961
0.701961 0.149020 0.101961
0.082353 0.270604 0.105882
0.109804 0.345113 0.101961
0.286290 0.352956 0.121569
0.439231 0.341176 0.133333
0.654917 0.368643 0.160784
0.764706 0.388235 0.180392
0.756863 0.349035 0.164706
0.752941 0.317662 0.156863
0.741176 0.282368 0.141176
0.203922 0.662760 0.227451
0.211780 0.639246 0.188235
0.400015 0.592172 0.203937
0.576486 0.619623 0.235309
0.768643 0.588251 0.254917
0.815686 0.588251 0.262760
0.815686 0.576501 0.258839
0.819608 0.572564 0.254917
0.803922 0.521584 0.231388
0.262745 0.882353 0.270588
0.290196 0.886275 0.262745
0.545098 0.850980 0.325490
0.756863 0.886275 0.400000
0.909804 0.909804 0.466667
0.917647 0.894102 0.462745
0.909804 0.870573 0.443137
0.905882 0.862730 0.435294
0.898039 0.839200 0.419593
0.266667 0.909804 0.266667
0.321569 0.917647 0.278431
0.576486 0.905882 0.345098
0.843137 0.929412 0.450980
0.933333 0.937255 0.494118
0.933333 0.933333 0.494118
0.937255 0.937255 0.498039
0.937255 0.933333 0.494118
0.933333 0.933333 0.494118
0.282353 0.901961 0.274510
0.345098 0.913725 0.286275
0.623529 0.917647 0.364706
0.882353 0.933333 0.470588
0.937255 0.937255 0.498039
0.937255 0.937255 0.498039
0.941176 0.941176 0.501961
0.937255 0.937255 0.494118
0.933333 0.933333 0.494118
0.317647 0.890196 0.286275
0.368627 0.905882 0.294118
0.647074 0.909804 0.368627
0.894118 0.929412 0.474510
0.933333 0.933333 0.490196
0.937255 0.937255 0.498039
0.937255 0.937255 0.498039
0.937255 0.937255 0.498039
0.933333 0.933333 0.490196
0.007843 0.007843 0.137255
0.007843 0.003922 0.129412
0.090196 0.015686 0.133333
0.243137 0.035294 0.168627
0.490227 0.066667 0.262760
0.733333 0.117647 0.325490
0.588235 0.070588 0.188235
0.643137 0.078431 0.172549
0.647059 0.078431 0.172549
0.007843 0.015686 0.152941
0.019608 0.031373 0.215686
0.156863 0.035294 0.196078
0.380392 0.054902 0.207843
0.560800 0.078431 0.254902
0.725490 0.109804 0.290196
0.611765 0.074510 0.207843
0.658824 0.078431 0.176471
0.666667 0.082353 0.172549
0.043137 0.129412 0.156863
0.047059 0.137255 0.168627
0.168627 0.152941 0.156863
0.427451 0.164706 0.156863
0.654917 0.168627 0.168627
0.815686 0.168627 0.200000
0.796078 0.137255 0.219608
0.721569 0.094118 0.200000
0.690196 0.086275 0.168627
0.078431 0.254917 0.203922
0.090196 0.278447 0.200000
0.172549 0.349035 0.145098
0.411780 0.333349 0.137255
0.662760 0.345098 0.160784
0.784314 0.333333 0.168627
0.788235 0.286290 0.156863
0.764706 0.219623 0.129412
0.752941 0.215686 0.129412
0.152941 0.486290 0.305898
0.168627 0.545113 0.290211
0.254917 0.596109 0.180392
0.529427 0.658839 0.235309
0.749035 0.611780 0.258839
0.811765 0.568643 0.254917
0.811765 0.541192 0.243153
0.803922 0.517662 0.231373
0.792157 0.470603 0.211780
0.266667 0.799985 0.419608
0.282353 0.858808 0.376471
0.400000 0.874510 0.282353
0.647059 0.870588 0.356863
0.874510 0.901961 0.450980
0.905882 0.882338 0.447059
0.901961 0.854887 0.431357
0.901961 0.850965 0.427436
0.886275 0.807828 0.396063
0.305882 0.882353 0.439216
0.286275 0.909804 0.376471
0.450980 0.937255 0.329412
0.713726 0.909804 0.396078
0.905882 0.933333 0.478431
0.933333 0.933333 0.490196
0.933333 0.933333 0.494118
0.937255 0.937255 0.498039
0.933333 0.929412 0.490196
0.301961 0.890196 0.419608
0.286275 0.913725 0.372549
0.490196 0.937255 0.349020
0.776471 0.925490 0.419608
0.917647 0.933333 0.486275
0.945098 0.945098 0.501961
0.937255 0.937255 0.498039
0.941176 0.941176 0.498039
0.941176 0.941176 0.501961
0.294118 0.894118 0.380392
0.282353 0.917647 0.337255
0.517647 0.941176 0.356863
0.800015 0.925490 0.427451
0.937255 0.945098 0.498039
0.937255 0.937255 0.494118
0.937255 0.937255 0.494118
0.937255 0.937255 0.494118
0.941176 0.941176 0.498039
0.007843 0.007843 0.207843
0.007843 0.007843 0.203922
0.019608 0.007843 0.192157
0.149020 0.023529 0.192157
0.341176 0.047059 0.290196
0.454871 0.062745 0.262730
0.439216 0.054902 0.188235
0.501961 0.062745 0.176471
0.529412 0.066667 0.168627
0.007843 0.007843 0.203922
0.007843 0.011765 0.196078
0.027451 0.011765 0.235294
0.168627 0.027451 0.196078
0.325490 0.047059 0.254902
0.482322 0.066667 0.274495
0.474510 0.058824 0.211765
0.560769 0.070588 0.200000
0.584314 0.070588 0.192157
0.035294 0.094118 0.219608
0.039216 0.101961 0.223529
0.074510 0.129412 0.333333
0.282353 0.117647 0.298039
0.447059 0.090196 0.294118
0.588220 0.078431 0.294118
0.525505 0.066667 0.235294
0.541176 0.066667 0.192157
0.603906 0.074510 0.196078
0.078431 0.239216 0.282368
0.078431 0.239216 0.278431
0.101961 0.298054 0.337255
0.325490 0.305898 0.305882
0.560800 0.294118 0.278431
0.780392 0.270604 0.274525
0.858824 0.235309 0.254902
0.835294 0.184329 0.207843
0.772549 0.141176 0.149020
0.141176 0.443153 0.403937
0.137255 0.431388 0.384329
0.168627 0.541192 0.380407
0.345113 0.592172 0.298054
0.635309 0.556878 0.278447
0.831373 0.529427 0.286290
0.858824 0.482368 0.258839
0.843137 0.431388 0.223545
0.819608 0.376486 0.192157
0.235294 0.701946 0.505882
0.243122 0.717632 0.482353
0.270588 0.850965 0.403937
0.458824 0.882353 0.345098
0.772549 0.878431 0.400000
0.894102 0.854887 0.431373
0.905882 0.827436 0.415686
0.898039 0.799969 0.392142
0.870588 0.737224 0.349004
0.313726 0.847059 0.603922
0.321569 0.874510 0.576471
0.301961 0.929412 0.372549
0.537255 0.929412 0.345098
0.835294 0.933333 0.443137
0.933333 0.941176 0.490196
0.941176 0.937255 0.494118
0.933333 0.925490 0.486275
0.933333 0.917647 0.478431
0.325490 0.862745 0.615702
0.329412 0.886275 0.572564
0.360784 0.949020 0.435294
0.592157 0.917647 0.349020
0.854917 0.925490 0.450980
0.937255 0.945098 0.494118
0.945098 0.945098 0.501961
0.937255 0.937255 0.498039
0.933333 0.933333 0.494118
0.329412 0.870588 0.603937
0.321569 0.890196 0.556878
0.368627 0.945098 0.462745
0.643137 0.933333 0.372549
0.886275 0.937255 0.470588
0.937255 0.937255 0.494118
0.945098 0.945098 0.501961
0.941176 0.941176 0.498039
0.933333 0.933333 0.490196
0.007843 0.007843 0.223529
0.011765 0.011765 0.223529
0.011765 0.011765 0.211765
0.082353 0.015686 0.184314
0.407843 0.066667 0.341176
0.250980 0.035294 0.188235
0.321553 0.039216 0.180392
0.376455 0.050980 0.164706
0.376471 0.047059 0.145098
0.011765 0.011765 0.227451
0.007843 0.007843 0.207843
0.007843 0.007843 0.200000
0.082353 0.015686 0.188235
0.282353 0.039216 0.254902
0.262745 0.035294 0.192157
0.349004 0.047059 0.196078
0.407843 0.054902 0.192157
0.439216 0.054902 0.184314
0.019608 0.035294 0.223529
0.015686 0.035294 0.223529
0.023529 0.054902 0.286275
0.098039 0.035294 0.372549
0.254902 0.039216 0.250980
0.301961 0.039216 0.200000
0.329412 0.043137 0.176471
0.349020 0.043137 0.156863
0.431357 0.054902 0.188235
0.070588 0.200000 0.313726
0.066667 0.192157 0.298054
0.066667 0.200015 0.317662
0.176471 0.243137 0.411780
0.403922 0.215686 0.380392
0.545083 0.156863 0.345113
0.596078 0.121569 0.298039
0.568627 0.086275 0.227466
0.498039 0.070588 0.172549
0.129412 0.392157 0.447074
0.125490 0.380392 0.443153
0.137255 0.415702 0.450996
0.227451 0.474525 0.498054
0.494118 0.494133 0.482368
0.709789 0.454917 0.427466
0.819608 0.419623 0.352956
0.847059 0.384329 0.294133
0.827466 0.349035 0.239231
0.200000 0.580377 0.596078
0.180392 0.533318 0.603922
0.207843 0.599985 0.619608
0.321553 0.768597 0.588235
0.576471 0.811749 0.505898
0.811749 0.776455 0.509804
0.886259 0.725475 0.447059
0.890196 0.674479 0.388235
0.886275 0.611734 0.325490
0.317647 0.807828 0.717647
0.321569 0.815671 0.713726
0.349020 0.866651 0.721584
0.376486 0.917647 0.549050
0.678431 0.937255 0.552956
0.890181 0.933333 0.572564
0.933333 0.921569 0.545113
0.937255 0.901961 0.517647
0.929412 0.878416 0.482353
0.352941 0.847059 0.768627
0.356863 0.862745 0.760784
0.356863 0.890196 0.705898
0.407858 0.949020 0.474540
0.717662 0.945098 0.533364
0.917632 0.960784 0.588251
0.952941 0.952941 0.568643
0.956863 0.952941 0.552956
0.945098 0.945098 0.525505
0.368627 0.866667 0.788251
0.360784 0.862745 0.772564
0.368627 0.901961 0.713741
0.423529 0.956863 0.454917
0.749035 0.941176 0.521599
0.929397 0.960784 0.588251
0.952941 0.952941 0.568643
0.956863 0.956863 0.552956
0.956863 0.956863 0.537270
0.011765 0.011765 0.239216
0.011765 0.011765 0.235294
0.011765 0.011765 0.223529
0.019608 0.011765 0.192157
0.113771 0.019608 0.219623
0.215717 0.031373 0.215702
0.243137 0.031373 0.160784
0.278431 0.035294 0.137255
0.274510 0.035294 0.117647
0.007843 0.007843 0.235294
0.007843 0.007843 0.227451
0.007843 0.007843 0.200000
0.011765 0.007843 0.160784
0.133364 0.019608 0.184314
0.219623 0.031373 0.192157
0.262745 0.035294 0.192157
0.309804 0.043137 0.176471
0.321569 0.039216 0.160784
0.011765 0.011765 0.247059
0.007843 0.007843 0.239216
0.007843 0.011765 0.192157
0.007843 0.007843 0.168658
0.094133 0.015686 0.164706
0.203922 0.027451 0.164706
0.192157 0.027451 0.145098
0.329412 0.043137 0.207843
0.388235 0.050980 0.227451
0.050980 0.145113 0.325505
0.054902 0.145113 0.317647
0.047059 0.133349 0.286290
0.074525 0.176486 0.431388
0.207874 0.125505 0.427451
0.384329 0.086290 0.360800
0.372580 0.058839 0.282368
0.321599 0.047059 0.207858
0.274540 0.035294 0.164721
0.125490 0.364706 0.513726
0.133333 0.384314 0.541161
0.113725 0.337270 0.478447
0.145113 0.380407 0.596094
0.341207 0.396094 0.615686
0.529427 0.388251 0.541176
0.650996 0.337285 0.458839
0.721599 0.298070 0.403937
0.752972 0.282383 0.364706
0.176471 0.505882 0.647044
0.160784 0.458808 0.647044
0.152941 0.439231 0.674510
0.247059 0.623529 0.749004
0.431388 0.678416 0.745083
0.686259 0.694102 0.686259
0.811765 0.647044 0.592142
0.882353 0.631357 0.541161
0.894118 0.596063 0.498024
0.301961 0.760784 0.776471
0.298039 0.749004 0.772549
0.298039 0.737255 0.819608
0.372549 0.831373 0.839216
0.556878 0.878431 0.823514
0.784314 0.894118 0.764706
0.894118 0.882353 0.705867
0.929412 0.870588 0.650965
0.925490 0.823529 0.580377
0.352941 0.823529 0.827451
0.356863 0.831373 0.827451
0.396078 0.874510 0.866667
0.431373 0.898039 0.862730
0.611780 0.933333 0.819593
0.847059 0.949020 0.811749
0.949020 0.960784 0.780377
0.952941 0.945098 0.705882
0.960784 0.941176 0.686259
0.368627 0.847059 0.839216
0.372549 0.847059 0.839216
0.400000 0.882353 0.870588
0.458824 0.909804 0.866651
0.631388 0.945098 0.827420
0.866667 0.952941 0.823529
0.952941 0.964706 0.792157
0.960784 0.964706 0.741176
0.968627 0.968627 0.733318
0.011765 0.011765 0.243137
0.007843 0.007843 0.243137
0.007843 0.007843 0.231373
0.007843 0.007843 0.203922
0.007843 0.007843 0.176471
0.058824 0.015686 0.164706
0.160784 0.027451 0.168627
0.203922 0.027451 0.105882
0.196078 0.023529 0.082353
0.011765 0.011765 0.254902
0.007843 0.007843 0.250980
0.011765 0.011765 0.235294
0.007843 0.007843 0.192157
0.007843 0.007843 0.156863
0.101961 0.019608 0.152941
0.196078 0.031373 0.192157
0.247059 0.035294 0.156863
0.254902 0.031373 0.137255
0.011765 0.011765 0.270588
0.011765 0.011765 0.262745
0.007843 0.007843 0.184314
0.007843 0.007843 0.156863
0.011765 0.007843 0.129412
0.109804 0.015686 0.117647
0.164706 0.023529 0.152941
0.286275 0.043137 0.235294
0.341176 0.047059 0.247059
0.031373 0.074525 0.345113
0.031373 0.074525 0.329412
0.027451 0.070603 0.262760
0.039216 0.098054 0.356893
0.054917 0.050996 0.513726
0.239216 0.047059 0.380407
0.266682 0.039216 0.270619
0.211795 0.031373 0.196094
0.294148 0.043137 0.243153
0.113725 0.329427 0.552956
0.125490 0.356878 0.611780
0.105882 0.305898 0.517678
0.109819 0.313741 0.596109
0.247074 0.341192 0.733333
0.380392 0.290211 0.658839
0.525505 0.274525 0.552956
0.615717 0.235309 0.478447
0.670604 0.231388 0.454917
0.180392 0.509804 0.686275
0.192157 0.533333 0.705882
0.207843 0.556848 0.780392
0.207843 0.552926 0.776471
0.341176 0.568612 0.839216
0.560769 0.607828 0.803922
0.709789 0.592142 0.709789
0.815686 0.572534 0.670573
0.850980 0.564691 0.639200
0.270588 0.698039 0.780392
0.282353 0.713726 0.792157
0.305882 0.745083 0.831373
0.333333 0.772549 0.847059
0.458839 0.800000 0.878431
0.666651 0.839216 0.874510
0.854902 0.862745 0.843137
0.909804 0.854902 0.811765
0.921569 0.843122 0.792142
0.333333 0.792157 0.827451
0.341176 0.800000 0.831373
0.352941 0.815686 0.839216
0.400000 0.870588 0.878431
0.533349 0.894118 0.909804
0.737240 0.925490 0.913725
0.901961 0.937255 0.901961
0.945098 0.937255 0.874510
0.945098 0.921569 0.827451
0.360784 0.831373 0.847059
0.368627 0.839216 0.850980
0.376471 0.850980 0.854902
0.419608 0.890196 0.890196
0.560800 0.921569 0.913725
0.772549 0.941176 0.917647
0.937255 0.964706 0.925490
0.960784 0.964706 0.905882
0.964706 0.964706 0.882353
0.011765 0.011765 0.223529
0.011765 0.011765 0.219608
0.007843 0.007843 0.215686
0.007843 0.007843 0.211765
0.007843 0.007843 0.196078
0.007843 0.007843 0.176471
0.090196 0.015686 0.160784
0.160784 0.023529 0.129412
0.160784 0.019608 0.074510
0.011765 0.011765 0.239216
0.007843 0.007843 0.247059
0.011765 0.011765 0.227451
0.011765 0.011765 0.223529
0.007843 0.007843 0.200000
0.019608 0.011765 0.192157
0.117647 0.019608 0.188235
0.192157 0.027451 0.172549
0.207843 0.027451 0.129412
0.011765 0.011765 0.278431
0.011765 0.011765 0.286275
0.007843 0.007843 0.227451
0.007843 0.007843 0.188235
0.007843 0.007843 0.168627
0.011765 0.007843 0.129412
0.094118 0.015686 0.137255
0.227451 0.031373 0.231373
0.301961 0.043137 0.250980
0.027451 0.050996 0.372549
0.023529 0.047074 0.364706
0.019608 0.043153 0.286275
0.031373 0.070603 0.286320
0.023529 0.027451 0.400046
0.078447 0.019623 0.270649
0.156878 0.027451 0.235325
0.188266 0.027451 0.215717
0.309819 0.047059 0.286290
0.098039 0.274525 0.552956
0.098039 0.278447 0.564721
0.094118 0.270604 0.537270
0.094118 0.266682 0.549050
0.184329 0.305898 0.788251
0.270604 0.231403 0.741192
0.443137 0.235309 0.647074
0.552956 0.219623 0.552956
0.623545 0.203937 0.513741
0.168627 0.470573 0.705882
0.172549 0.478431 0.705882
0.164706 0.454887 0.741176
0.168627 0.470588 0.749020
0.270588 0.498024 0.850980
0.474495 0.537240 0.854902
0.607828 0.541161 0.803922
0.749020 0.529397 0.729412
0.815686 0.525475 0.713710
0.250980 0.658824 0.784314
0.258824 0.670588 0.792157
0.266667 0.678431 0.796078
0.282353 0.701961 0.815686
0.396078 0.737255 0.878431
0.580377 0.764691 0.890196
0.780392 0.807843 0.870588
0.862745 0.815686 0.854902
0.894118 0.807843 0.847059
0.325490 0.776471 0.831373
0.329412 0.784314 0.835294
0.345098 0.807843 0.839216
0.380392 0.847059 0.870588
0.474525 0.858824 0.901961
0.666651 0.886275 0.913725
0.850980 0.909804 0.917647
0.925490 0.925490 0.917647
0.937255 0.921569 0.905882
0.349020 0.807843 0.843137
0.352941 0.815686 0.843137
0.368627 0.839216 0.850980
0.403922 0.874510 0.878431
0.501976 0.898039 0.909804
0.698024 0.921569 0.929412
0.886275 0.945098 0.941176
0.949020 0.956863 0.941176
0.956863 0.956863 0.929412
0.007843 0.007843 0.188235
0.007843 0.007843 0.184314
0.007843 0.007843 0.184314
0.007843 0.007843 0.192157
0.007843 0.007843 0.188235
0.003922 0.003922 0.164706
0.023529 0.007843 0.141176
0.098039 0.015686 0.113725
0.137255 0.019608 0.094118
0.007843 0.007843 0.219608
0.011765 0.011765 0.235294
0.011765 0.011765 0.215686
0.011765 0.011765 0.219608
0.007843 0.007843 0.207843
0.007843 0.007843 0.200000
0.047059 0.011765 0.180392
0.133333 0.019608 0.164706
0.184314 0.023529 0.141176
0.011765 0.011765 0.274510
0.011765 0.011765 0.282353
0.011765 0.011765 0.278431
0.011765 0.011765 0.235294
0.007843 0.007843 0.231373
0.007843 0.007843 0.184314
0.070588 0.015686 0.200000
0.184314 0.027451 0.239216
0.262745 0.039216 0.254902
0.019608 0.031373 0.368643
0.019608 0.035309 0.376486
0.019608 0.039216 0.333333
0.031373 0.070603 0.301991
0.011765 0.015686 0.254978
0.031373 0.015686 0.294163
0.086290 0.019608 0.219654
0.160800 0.027451 0.231403
0.250996 0.039216 0.274525
0.094118 0.254917 0.576486
0.086275 0.239231 0.568643
0.090196 0.250996 0.588251
0.090196 0.247074 0.541207
0.141192 0.282368 0.768643
0.196078 0.196094 0.780407
0.360784 0.196094 0.698054
0.498054 0.200015 0.611780
0.564721 0.188251 0.549035
0.156863 0.439216 0.709804
0.160784 0.450965 0.717647
0.152941 0.423514 0.717647
0.149020 0.407843 0.721569
0.219623 0.447059 0.835294
0.427436 0.513710 0.882353
0.525475 0.490181 0.858824
0.686259 0.498024 0.792157
0.772549 0.494102 0.749004
0.231373 0.615686 0.780392
0.250980 0.650965 0.796078
0.250980 0.647044 0.796078
0.247059 0.639216 0.796078
0.345098 0.690196 0.870588
0.525475 0.725475 0.890196
0.733318 0.772549 0.878431
0.811765 0.756863 0.862745
0.866667 0.780377 0.854902
0.305882 0.749020 0.823529
0.313726 0.756863 0.827451
0.329412 0.784314 0.835294
0.356863 0.819608 0.850980
0.435309 0.835294 0.894118
0.631357 0.874510 0.921569
0.807843 0.890196 0.921569
0.913725 0.917647 0.933333
0.933333 0.913725 0.925490
0.337255 0.792157 0.835294
0.345098 0.807843 0.843137
0.364706 0.835294 0.850980
0.396078 0.870588 0.874510
0.486275 0.890196 0.909804
0.647059 0.905882 0.921569
0.847059 0.933333 0.945098
0.933333 0.949020 0.949020
0.956863 0.956863 0.949020
