tools/luts_backup/Kodak Elite Chrome 200_CIN.cube
# (C) 2014 VisionColor & Patchflyer [www.vision-color.com]
# Generator: VC Patchmatch v.2.1.1 [64/53]
# All work and no play makes Jack a dull boy.
# LUT generated from: Kodak Elite Chrome 200_Cineon
LUT_3D_SIZE 5
0.090181 0.090181 0.090181
0.259037 0.093294 0.104860
0.339086 0.113741 0.113741
0.426307 0.148592 0.148592
0.478401 0.156863 0.156863
0.135195 0.276127 0.110811
0.294713 0.304784 0.147341
0.415991 0.313481 0.193271
0.475624 0.311223 0.208499
0.511315 0.311070 0.207340
0.170443 0.388220 0.158694
0.277256 0.429267 0.185977
0.464942 0.476478 0.262882
0.563897 0.492287 0.314092
0.595666 0.485756 0.326940
0.225895 0.501244 0.221073
0.310246 0.518517 0.239963
0.472938 0.545647 0.293187
0.590326 0.572869 0.359228
0.637964 0.585412 0.400000
0.262730 0.560754 0.254917
0.359014 0.571649 0.274174
0.505882 0.592523 0.331487
0.609644 0.628351 0.391760
0.643122 0.635279 0.423499
0.107454 0.102022 0.264866
0.261814 0.110597 0.257023
0.360235 0.138643 0.254307
0.442390 0.166506 0.270207
0.484260 0.172335 0.272496
0.137758 0.265202 0.278538
0.322210 0.316503 0.324010
0.421149 0.188113 0.186526
0.476204 0.177462 0.175296
0.500237 0.278843 0.283146
0.187076 0.407843 0.313359
0.240848 0.484504 0.239628
0.565881 0.552697 0.354101
0.588983 0.478630 0.327001
0.572290 0.441016 0.345892
0.229740 0.508873 0.344457
0.269932 0.556573 0.261906
0.504036 0.592767 0.335149
0.637659 0.628321 0.417029
0.635615 0.579492 0.432197
0.284520 0.572412 0.375006
0.363897 0.576959 0.339544
0.516594 0.601495 0.389136
0.614862 0.635279 0.438087
0.650935 0.639216 0.462898
0.117525 0.113741 0.327459
0.252659 0.122164 0.356786
0.374243 0.156466 0.358709
0.448463 0.178347 0.356329
0.482216 0.172274 0.348882
0.167483 0.284611 0.381415
0.182956 0.196811 0.414130
0.464576 0.244938 0.448432
0.481849 0.186526 0.352148
0.503899 0.279423 0.368566
0.217899 0.396063 0.415808
0.304692 0.488350 0.504234
0.499886 0.503502 0.496071
0.513603 0.315999 0.316701
0.578302 0.423651 0.423651
0.305241 0.523186 0.482246
0.362066 0.587701 0.513298
0.375463 0.569146 0.357275
0.640955 0.624079 0.459022
0.650446 0.583581 0.499519
0.366674 0.594110 0.521569
0.374945 0.591302 0.466682
0.473213 0.605982 0.449409
0.611688 0.641230 0.488807
0.650935 0.635401 0.496345
0.126528 0.108522 0.388220
0.257847 0.142916 0.440589
0.375341 0.175784 0.458015
0.463142 0.201236 0.450538
0.483497 0.177157 0.417365
0.215427 0.342535 0.477546
0.158328 0.155428 0.452796
0.378058 0.225193 0.523186
0.500786 0.216159 0.488106
0.535729 0.324163 0.487282
0.229038 0.411353 0.482673
0.276402 0.450629 0.542504
0.358144 0.414603 0.551537
0.572534 0.404776 0.557397
0.607691 0.474769 0.548669
0.307836 0.509544 0.526635
0.418769 0.594263 0.615320
0.470954 0.593133 0.613489
0.604883 0.592126 0.598444
0.647700 0.584802 0.590295
0.422675 0.612024 0.590326
0.462684 0.615717 0.593317
0.528862 0.628656 0.594781
0.590692 0.642664 0.584283
0.654902 0.650935 0.582818
0.121584 0.101961 0.439216
0.256199 0.155276 0.486275
0.368750 0.196323 0.519585
0.463874 0.210513 0.507927
0.494118 0.192172 0.482368
0.242863 0.376257 0.533257
0.319036 0.378851 0.541314
0.435401 0.400946 0.583551
0.537011 0.389227 0.573236
0.557092 0.356542 0.541009
0.266667 0.450996 0.545068
0.364782 0.481117 0.572931
0.490059 0.513695 0.615534
0.581140 0.517113 0.621973
0.621546 0.503655 0.605859
0.324651 0.523186 0.576165
0.396429 0.537285 0.590539
0.522545 0.576867 0.628473
0.599115 0.592584 0.641535
0.654505 0.591913 0.635554
0.427466 0.600000 0.623499
0.476173 0.611872 0.630671
0.545068 0.629389 0.641413
0.605890 0.645899 0.655482
0.662715 0.662715 0.662715
