tools/luts_backup/Kodak Ultramax 400_FPE.cube
# (C) 2014 VisionColor & Patchflyer [www.vision-color.com]
# Generator: VC Patchmatch v.2.1.1 [64/53]
# All work and no play makes Jack a dull boy.
# LUT generated from: Kodak Ultramax 400_FPE
LUT_3D_SIZE 9
0.032486 0.036225 0.035950
0.044984 0.036255 0.035264
0.079576 0.041489 0.035416
0.148150 0.047929 0.038697
0.230335 0.048875 0.040208
0.312734 0.045228 0.041962
0.388083 0.044694 0.044831
0.440940 0.046616 0.047730
0.490486 0.049790 0.050416
0.034760 0.049714 0.037125
0.072541 0.059098 0.036866
0.150103 0.074586 0.037568
0.255970 0.089082 0.040253
0.349187 0.092515 0.043030
0.419272 0.084154 0.046632
0.478126 0.074784 0.050340
0.513634 0.059129 0.051560
0.525292 0.052338 0.052415
0.051484 0.085557 0.040574
0.132570 0.125063 0.039857
0.244923 0.151263 0.039857
0.375570 0.178271 0.044221
0.480751 0.198535 0.049500
0.550698 0.198428 0.052613
0.594980 0.179934 0.055070
0.639338 0.158160 0.058045
0.657526 0.124712 0.058030
0.166201 0.207248 0.038437
0.251774 0.246494 0.040421
0.385794 0.295262 0.046983
0.488121 0.303655 0.051377
0.608927 0.334218 0.062425
0.680018 0.343847 0.069566
0.719692 0.326375 0.071260
0.755749 0.306676 0.072282
0.752377 0.257832 0.068193
0.331823 0.342321 0.045518
0.386770 0.374975 0.049866
0.479866 0.412802 0.059007
0.607340 0.445533 0.073716
0.699992 0.462058 0.084657
0.771481 0.469368 0.093278
0.818494 0.460746 0.097627
0.828244 0.424552 0.094057
0.813901 0.370672 0.085023
0.446540 0.433555 0.057618
0.468711 0.461646 0.063081
0.561349 0.494682 0.074876
0.670741 0.521935 0.091524
0.764492 0.541070 0.106676
0.831907 0.550652 0.116091
0.874922 0.544640 0.120470
0.883604 0.522042 0.117037
0.859861 0.470161 0.105074
0.486198 0.494652 0.068498
0.528099 0.517464 0.074968
0.613428 0.546777 0.087541
0.716396 0.570489 0.104311
0.809812 0.592905 0.121599
0.876310 0.602319 0.132403
0.902785 0.598733 0.135882
0.905959 0.583459 0.133196
0.897704 0.555917 0.126268
0.459480 0.536919 0.072984
0.516014 0.554314 0.079957
0.629877 0.585138 0.095430
0.743496 0.612222 0.114153
0.841962 0.634165 0.133455
0.895140 0.644038 0.144533
0.913634 0.634623 0.145617
0.924178 0.633997 0.147417
0.923339 0.631006 0.146624
0.314305 0.527016 0.064805
0.465537 0.566629 0.078309
0.597528 0.600504 0.094881
0.724636 0.630732 0.114534
0.822248 0.651255 0.132570
0.879210 0.658625 0.143786
0.908629 0.665782 0.151110
0.923323 0.658915 0.152605
0.930205 0.662684 0.154818
0.029053 0.035218 0.054719
0.037873 0.036545 0.056153
0.091844 0.043915 0.064591
0.167269 0.049042 0.071748
0.252140 0.049256 0.076570
0.317113 0.046967 0.075502
0.389776 0.046326 0.077546
0.449180 0.047547 0.075792
0.493355 0.049409 0.071794
0.028717 0.055985 0.064576
0.068925 0.075227 0.077546
0.145815 0.054536 0.045457
0.226169 0.049180 0.040085
0.309346 0.045411 0.041810
0.386069 0.044663 0.044694
0.443580 0.046769 0.047776
0.488701 0.049744 0.051560
0.550378 0.061753 0.082734
0.043091 0.114031 0.073579
0.129732 0.175448 0.045823
0.400641 0.257542 0.048981
0.474784 0.194766 0.049195
0.498924 0.148577 0.049622
0.530312 0.113878 0.052293
0.555520 0.081498 0.052918
0.572488 0.064958 0.054017
0.661509 0.159045 0.086244
0.120378 0.224521 0.076753
0.319387 0.334798 0.044816
0.473960 0.405539 0.058030
0.689662 0.457359 0.082948
0.710552 0.386313 0.076432
0.716686 0.324224 0.070832
0.730877 0.274876 0.067567
0.735653 0.239780 0.066911
0.759167 0.296162 0.093095
0.234409 0.335164 0.067185
0.445319 0.433387 0.057542
0.525856 0.482063 0.069902
0.703990 0.529702 0.097276
0.831632 0.548394 0.115572
0.847349 0.505287 0.109148
0.839445 0.446738 0.098665
0.822538 0.385626 0.087694
0.828351 0.408392 0.105089
0.313466 0.421225 0.059724
0.479149 0.494163 0.067933
0.559655 0.530556 0.079774
0.715709 0.571939 0.104417
0.843626 0.596780 0.127474
0.900130 0.599130 0.135546
0.896712 0.560342 0.126909
0.886305 0.513085 0.116091
0.878706 0.504433 0.119005
0.320165 0.461112 0.056565
0.445533 0.531716 0.071107
0.553002 0.563989 0.084565
0.718425 0.606073 0.109712
0.849973 0.635554 0.135149
0.908568 0.637232 0.145373
0.924636 0.637522 0.148241
0.919341 0.614450 0.142824
0.910643 0.595804 0.139055
0.282399 0.490776 0.058305
0.351461 0.534783 0.066987
0.522499 0.580362 0.084749
0.701869 0.626780 0.111009
0.827008 0.654780 0.133486
0.897704 0.667521 0.148791
0.920638 0.665919 0.153933
0.932097 0.665873 0.156069
0.928222 0.649592 0.152331
0.225315 0.502983 0.059876
0.357549 0.545296 0.069062
0.552956 0.602029 0.092103
0.707607 0.645838 0.118776
0.805463 0.671778 0.136812
0.873518 0.683879 0.148501
0.898955 0.680781 0.151904
0.919203 0.674937 0.155047
0.933318 0.683024 0.159045
0.029892 0.036286 0.094331
0.037919 0.038376 0.093874
0.088518 0.043671 0.103700
0.173220 0.047211 0.111650
0.260639 0.046677 0.121111
0.330739 0.045243 0.128710
0.396460 0.045701 0.135622
0.448875 0.046860 0.132280
0.488899 0.048768 0.115953
0.031876 0.061051 0.114656
0.030686 0.040391 0.132235
0.146502 0.053849 0.145388
0.255894 0.047318 0.120409
0.324819 0.045853 0.108400
0.392187 0.045975 0.102861
0.450355 0.047288 0.095628
0.493507 0.049363 0.091814
0.560159 0.072435 0.141695
0.037308 0.128374 0.140215
0.051789 0.204471 0.216464
0.198291 0.190906 0.174182
0.327077 0.123934 0.105837
0.391043 0.060410 0.057740
0.443320 0.047044 0.048631
0.490303 0.049973 0.052476
0.556970 0.064485 0.081895
0.667033 0.191714 0.171435
0.062165 0.227481 0.161624
0.120394 0.324773 0.162860
0.316716 0.361120 0.104814
0.611902 0.439719 0.119951
0.686290 0.342641 0.074144
0.674708 0.210407 0.061097
0.661692 0.147509 0.060044
0.704555 0.211215 0.086152
0.765179 0.338323 0.190646
0.124941 0.331930 0.165454
0.213809 0.407263 0.102693
0.431647 0.469322 0.062730
0.668956 0.545724 0.096406
0.867613 0.582818 0.127626
0.867674 0.495857 0.110430
0.826459 0.392935 0.089158
0.816373 0.385214 0.100603
0.829404 0.451682 0.198932
0.169345 0.405463 0.147021
0.227146 0.446586 0.059892
0.441718 0.527382 0.070222
0.659007 0.589197 0.099596
0.871138 0.637934 0.139361
0.925139 0.636713 0.148287
0.906218 0.568246 0.130327
0.888258 0.523705 0.122805
0.879316 0.542535 0.206744
0.145205 0.435447 0.095995
0.217365 0.473518 0.054978
0.367285 0.537591 0.068040
0.619242 0.605219 0.097856
0.826581 0.654841 0.133577
0.911086 0.668101 0.152270
0.932692 0.667323 0.156558
0.922820 0.634867 0.149020
0.906859 0.627802 0.220096
0.121813 0.445670 0.055909
0.201190 0.493553 0.058274
0.363119 0.547723 0.069718
0.619867 0.620951 0.102785
0.789090 0.667567 0.133852
0.879667 0.684733 0.149493
0.912428 0.679194 0.154253
0.934005 0.681788 0.159060
0.923934 0.683757 0.211124
0.113878 0.462699 0.053300
0.247318 0.523568 0.064775
0.465385 0.597971 0.095888
0.661677 0.663325 0.146639
0.763882 0.694530 0.185794
0.839597 0.715953 0.207492
0.883436 0.721279 0.200824
0.906920 0.704280 0.175662
0.928191 0.704570 0.175250
0.031037 0.035126 0.143618
0.032929 0.035660 0.131991
0.076265 0.040543 0.141695
0.156664 0.044404 0.150973
0.257404 0.044984 0.165194
0.336370 0.044434 0.182223
0.396765 0.045945 0.193698
0.436713 0.047303 0.174716
0.480507 0.048600 0.162615
0.033906 0.062638 0.166140
0.033371 0.035706 0.195941
0.063203 0.039414 0.182055
0.228656 0.042710 0.202701
0.332967 0.044129 0.198260
0.393729 0.045853 0.189227
0.440391 0.047303 0.168734
0.486305 0.048646 0.154589
0.563088 0.087007 0.193362
0.038025 0.135790 0.208713
0.039551 0.137819 0.265538
0.049363 0.090059 0.210285
0.277531 0.123064 0.248585
0.387182 0.060655 0.196811
0.446632 0.047410 0.151446
0.493599 0.049439 0.129931
0.561669 0.077653 0.161425
0.657649 0.211521 0.228458
0.045747 0.229587 0.251377
0.051087 0.318624 0.366262
0.113542 0.343465 0.352911
0.378241 0.350225 0.314702
0.503014 0.272221 0.223316
0.553445 0.145739 0.137163
0.561990 0.070481 0.087480
0.663188 0.188006 0.171725
0.745708 0.352575 0.273686
0.061082 0.323568 0.283803
0.066499 0.393820 0.317113
0.114748 0.436240 0.267628
0.430411 0.480354 0.230137
0.718929 0.553246 0.272786
0.784878 0.468605 0.155245
0.786328 0.343420 0.101152
0.797040 0.391196 0.190875
0.811337 0.470558 0.316442
0.077165 0.396582 0.281193
0.072450 0.426169 0.231159
0.097917 0.447120 0.086793
0.408804 0.527367 0.080003
0.753872 0.627207 0.154498
0.894041 0.640558 0.158358
0.902861 0.570565 0.134401
0.877791 0.543770 0.205127
0.862623 0.563958 0.342428
0.071290 0.426688 0.237018
0.062028 0.431754 0.133364
0.124285 0.470298 0.055436
0.376761 0.550790 0.070893
0.739727 0.653635 0.125093
0.892287 0.683345 0.151598
0.932525 0.680613 0.158679
0.917556 0.661463 0.217304
0.900114 0.656672 0.380652
0.058167 0.436759 0.170642
0.071550 0.451453 0.074250
0.200855 0.521401 0.073396
0.460990 0.597498 0.096406
0.713878 0.682170 0.170459
0.837293 0.712413 0.202411
0.898909 0.714336 0.187198
0.927275 0.705180 0.175280
0.917266 0.716197 0.378058
0.053895 0.431846 0.087083
0.137041 0.518898 0.141009
0.342916 0.605280 0.206378
0.577401 0.684932 0.290440
0.703929 0.725353 0.353445
0.800839 0.752285 0.387396
0.860548 0.766674 0.394080
0.908125 0.766293 0.361013
0.928237 0.750362 0.316579
0.033417 0.035554 0.198016
0.034012 0.035721 0.180407
0.063890 0.039338 0.182849
0.142535 0.041199 0.200687
0.229892 0.042481 0.204166
0.324071 0.042771 0.222614
0.386908 0.045212 0.229206
0.426047 0.047318 0.203922
0.468894 0.048783 0.197299
0.036042 0.065919 0.225376
0.035630 0.036927 0.241291
0.040803 0.037095 0.217502
0.148196 0.040360 0.259220
0.294514 0.041306 0.249012
0.378576 0.044587 0.239933
0.425986 0.047288 0.212818
0.472038 0.049561 0.201694
0.551843 0.093080 0.233951
0.039612 0.138888 0.267796
0.040757 0.119371 0.317372
0.037720 0.045991 0.259419
0.121263 0.055589 0.278111
0.342962 0.059312 0.290410
0.425406 0.047608 0.235874
0.474571 0.050538 0.202686
0.553079 0.091341 0.222705
0.640330 0.225132 0.275196
0.044404 0.230152 0.319738
0.045991 0.261646 0.398840
0.046571 0.240787 0.409155
0.125719 0.210346 0.326986
0.423499 0.264530 0.374578
0.513588 0.155489 0.279988
0.562509 0.097230 0.211292
0.649973 0.218769 0.254978
0.716960 0.353750 0.323919
0.051545 0.323201 0.370626
0.051560 0.378363 0.458793
0.055299 0.411276 0.493477
0.214298 0.470787 0.474235
0.533013 0.489418 0.454261
0.634958 0.417395 0.356680
0.695888 0.298482 0.239734
0.742870 0.344396 0.270024
0.787106 0.462699 0.374685
0.056962 0.392660 0.385657
0.051560 0.427207 0.421500
0.048981 0.434272 0.395315
0.142153 0.518776 0.371786
0.537514 0.585031 0.392691
0.775921 0.636347 0.433829
0.851362 0.567498 0.302754
0.846418 0.532708 0.332189
0.852522 0.586954 0.457816
0.056199 0.436133 0.374899
0.049210 0.435248 0.336126
0.050111 0.445930 0.268482
0.111513 0.516991 0.202197
0.533822 0.630442 0.189075
0.795438 0.708110 0.307347
0.915648 0.712200 0.267857
0.910185 0.681483 0.387091
0.903258 0.694545 0.521737
0.049638 0.435615 0.312520
0.049683 0.444587 0.261952
0.084749 0.514778 0.270176
0.297124 0.613504 0.294362
0.571038 0.682841 0.284733
0.769726 0.742061 0.372610
0.880125 0.766323 0.382788
0.929107 0.755032 0.319326
0.923827 0.764202 0.550835
0.048371 0.437186 0.245472
0.074586 0.510719 0.299504
0.240604 0.613352 0.373587
0.527489 0.705882 0.450858
0.674968 0.753536 0.512169
0.785077 0.784131 0.547433
0.848173 0.797024 0.558373
0.908324 0.814527 0.563195
0.933806 0.813901 0.543404
0.035554 0.036790 0.241260
0.035157 0.036423 0.219699
0.049454 0.038361 0.222873
0.121675 0.040269 0.253544
0.205554 0.040299 0.260838
0.294560 0.041306 0.248890
0.366781 0.043381 0.256443
0.420935 0.046876 0.244373
0.469856 0.049042 0.239200
0.039033 0.067567 0.281331
0.037613 0.038666 0.268788
0.036683 0.037247 0.236301
0.087053 0.041260 0.289296
0.216403 0.041352 0.306493
0.338369 0.041444 0.290227
0.417060 0.046342 0.272435
0.467506 0.049775 0.256336
0.536294 0.088380 0.276738
0.042237 0.152987 0.341405
0.042695 0.105760 0.359030
0.037842 0.038956 0.271855
0.043488 0.039292 0.270695
0.183276 0.042557 0.319402
0.395117 0.044388 0.347768
0.470268 0.050858 0.296407
0.533440 0.086412 0.289631
0.621668 0.225834 0.335378
0.045212 0.238407 0.389929
0.045518 0.227497 0.438041
0.047791 0.183429 0.451652
0.040757 0.096468 0.318990
0.213077 0.147585 0.375204
0.470924 0.164889 0.416861
0.534600 0.095933 0.325444
0.620874 0.221759 0.335882
0.700923 0.366888 0.391470
0.048661 0.308782 0.419867
0.051743 0.351522 0.505852
0.051942 0.338308 0.535164
0.056321 0.332845 0.497932
0.270985 0.362799 0.461204
0.562951 0.418585 0.498650
0.637873 0.311757 0.375937
0.706615 0.364736 0.371160
0.761288 0.479713 0.453285
0.051987 0.383734 0.461219
0.052430 0.395697 0.528954
0.054520 0.400687 0.571649
0.059770 0.456443 0.581720
0.337850 0.582406 0.588174
0.633921 0.588205 0.561410
0.723857 0.514260 0.441093
0.787274 0.467445 0.380865
0.829725 0.588556 0.523888
0.051499 0.422293 0.464332
0.050217 0.417166 0.483803
0.050965 0.426505 0.496391
0.055665 0.475898 0.507729
0.260395 0.644266 0.535271
0.656077 0.692119 0.534142
0.859648 0.736584 0.567971
0.897169 0.688502 0.517525
0.888243 0.701381 0.607080
0.048615 0.424216 0.425147
0.048341 0.429328 0.431907
0.054322 0.478737 0.453895
0.126513 0.600702 0.497627
0.450538 0.709575 0.532723
0.679026 0.754711 0.512978
0.848280 0.798550 0.561090
0.932143 0.811551 0.547311
0.912871 0.779004 0.649241
0.047303 0.427100 0.379950
0.054795 0.483192 0.432242
0.130785 0.602350 0.497047
0.414389 0.714107 0.572900
0.647364 0.771389 0.617639
0.770169 0.806989 0.650553
0.841672 0.822538 0.671550
0.905699 0.839750 0.680354
0.926741 0.840879 0.679606
0.037827 0.038911 0.272343
0.035370 0.036683 0.236973
0.043595 0.038773 0.253590
0.088319 0.041245 0.294545
0.177264 0.041657 0.312200
0.260533 0.040711 0.303075
0.338399 0.041505 0.289784
0.413077 0.045640 0.290852
0.470909 0.048569 0.295048
0.041764 0.068986 0.326253
0.037400 0.038254 0.268315
0.035859 0.037064 0.242802
0.048081 0.039338 0.279973
0.137774 0.041535 0.309194
0.267140 0.041764 0.330648
0.395727 0.044190 0.348196
0.467994 0.049592 0.333532
0.532784 0.088701 0.346731
0.044114 0.151080 0.393484
0.045396 0.115434 0.406882
0.037812 0.038773 0.274342
0.037613 0.039475 0.270924
0.090196 0.043854 0.321126
0.268757 0.046143 0.370321
0.447684 0.048981 0.403082
0.534585 0.090669 0.387427
0.601633 0.224277 0.402441
0.045563 0.229175 0.438605
0.048600 0.213779 0.474723
0.048493 0.181949 0.468894
0.041550 0.057252 0.314473
0.054994 0.083345 0.356161
0.281132 0.101244 0.421378
0.504997 0.094820 0.460349
0.598718 0.225925 0.438361
0.684001 0.373297 0.469978
0.050614 0.321782 0.488731
0.050340 0.308583 0.518013
0.049439 0.274495 0.516670
0.048478 0.229480 0.480522
0.048173 0.194705 0.427863
0.312261 0.283680 0.501259
0.579873 0.305898 0.535409
0.676814 0.372137 0.491249
0.744839 0.498177 0.532738
0.052155 0.372610 0.517342
0.054231 0.370169 0.560754
0.054673 0.365042 0.578729
0.055192 0.374411 0.587457
0.108171 0.460243 0.597406
0.413321 0.487114 0.586313
0.685405 0.535027 0.615610
0.747234 0.497765 0.532601
0.804944 0.592126 0.589990
0.052323 0.396399 0.527260
0.054292 0.399405 0.573098
0.056077 0.416922 0.603220
0.057389 0.435645 0.616861
0.080690 0.547707 0.669917
0.521706 0.694286 0.702068
0.738537 0.688533 0.671183
0.817182 0.621973 0.566094
0.875822 0.695994 0.670054
0.051530 0.410529 0.512093
0.053101 0.422034 0.550301
0.056184 0.448554 0.577600
0.068299 0.526085 0.621134
0.205051 0.678523 0.674846
0.573816 0.780041 0.698497
0.771145 0.792538 0.669474
0.915084 0.823056 0.698116
0.905013 0.785000 0.725872
0.050126 0.419165 0.492348
0.054017 0.457023 0.528572
0.076677 0.554879 0.587015
0.256779 0.695109 0.657572
0.572168 0.783581 0.701701
0.749447 0.816876 0.721752
0.819471 0.831815 0.741527
0.894392 0.848341 0.762097
0.918807 0.847257 0.761501
0.037354 0.038254 0.266377
0.035508 0.036790 0.240528
0.038163 0.038315 0.254765
0.055604 0.039963 0.285557
0.119829 0.041474 0.302770
0.207752 0.042008 0.320455
0.301167 0.041382 0.333913
0.397162 0.044236 0.347555
0.469352 0.048554 0.354437
0.044053 0.086839 0.379141
0.037552 0.038361 0.272877
0.037201 0.038392 0.262562
0.039612 0.039078 0.278538
0.085374 0.042329 0.318639
0.203647 0.043809 0.354177
0.334890 0.044266 0.385809
0.447456 0.048066 0.403098
0.535866 0.093492 0.415488
0.047654 0.162890 0.450233
0.046769 0.136416 0.435920
0.041306 0.051789 0.307500
0.042481 0.062608 0.330388
0.082399 0.082734 0.370230
0.224033 0.089631 0.406912
0.369268 0.088426 0.436072
0.504082 0.086580 0.458503
0.593408 0.228656 0.473716
0.048508 0.225116 0.478294
0.049546 0.218372 0.496757
0.047272 0.170230 0.439887
0.043931 0.118410 0.383490
0.059052 0.159091 0.432547
0.238849 0.206256 0.480034
0.436255 0.219013 0.510765
0.564401 0.215091 0.524498
0.667201 0.375723 0.542809
0.049607 0.293248 0.506706
0.049546 0.271336 0.517372
0.049210 0.261540 0.506661
0.048310 0.249042 0.489052
0.051957 0.235691 0.477546
0.224079 0.309117 0.534051
0.498680 0.353826 0.584787
0.643366 0.359152 0.597269
0.735149 0.504158 0.605386
0.053346 0.356085 0.552712
0.053346 0.342290 0.565927
0.053666 0.350210 0.573770
0.060365 0.405447 0.597894
0.146929 0.459388 0.613870
0.209094 0.412528 0.589853
0.575219 0.480415 0.652903
0.723522 0.494377 0.666255
0.804746 0.603616 0.665125
0.054276 0.376287 0.561532
0.055619 0.385870 0.591211
0.056916 0.399603 0.606653
0.061540 0.454475 0.636606
0.153536 0.576089 0.680751
0.457527 0.642023 0.720455
0.607645 0.605737 0.702968
0.806363 0.632547 0.730037
0.864561 0.694575 0.726452
0.054322 0.401175 0.575525
0.056321 0.418555 0.606180
0.057008 0.432578 0.614511
0.063493 0.486625 0.646296
0.103807 0.606180 0.698482
0.386816 0.750195 0.761761
0.704601 0.799451 0.799115
0.823438 0.773785 0.763302
0.892592 0.776287 0.773404
0.055085 0.424506 0.590097
0.056443 0.440070 0.600504
0.064942 0.501259 0.643030
0.156237 0.657404 0.710063
0.479377 0.776455 0.759533
0.693370 0.820249 0.782971
0.792248 0.831647 0.792035
0.848997 0.852247 0.798764
0.917861 0.866194 0.816770
0.037720 0.038270 0.271473
0.036805 0.037598 0.259953
0.037018 0.037720 0.262623
0.041215 0.038834 0.275853
0.076951 0.041276 0.314427
0.163195 0.042039 0.343160
0.262547 0.043931 0.373632
0.372381 0.045045 0.400351
0.447807 0.047471 0.403906
0.044053 0.082094 0.379080
0.041169 0.051682 0.305379
0.041871 0.057969 0.319203
0.045380 0.070069 0.346197
0.098100 0.085039 0.379599
0.201587 0.091264 0.404669
0.305684 0.087587 0.423178
0.410300 0.088319 0.443412
0.507668 0.089372 0.461738
0.049668 0.221424 0.504387
0.045274 0.130983 0.404410
0.043793 0.117342 0.380713
0.046876 0.141604 0.417700
0.098009 0.181689 0.449012
0.236896 0.208560 0.481102
0.375082 0.217212 0.503243
0.482994 0.217731 0.515297
0.560586 0.215183 0.522972
0.049836 0.230060 0.506935
0.048234 0.204868 0.463783
0.046967 0.204776 0.454658
0.052216 0.237095 0.478950
0.109773 0.287221 0.513558
0.294789 0.326345 0.547768
0.462715 0.353429 0.581003
0.572198 0.362921 0.597131
0.645914 0.365270 0.601205
0.049638 0.266392 0.518090
0.049393 0.272709 0.515038
0.051148 0.300114 0.525963
0.081086 0.364248 0.559640
0.208286 0.411475 0.589837
0.420172 0.452918 0.624659
0.575738 0.478737 0.653315
0.668666 0.492058 0.664500
0.722957 0.494667 0.666560
0.051972 0.323033 0.555657
0.052934 0.338903 0.566217
0.061631 0.409552 0.599741
0.199832 0.508858 0.641108
0.390478 0.541146 0.668925
0.540688 0.569223 0.693019
0.667597 0.588174 0.720851
0.745602 0.597650 0.729274
0.803113 0.597620 0.729961
0.054978 0.367620 0.585000
0.056184 0.381765 0.598596
0.061830 0.446250 0.628214
0.184237 0.570687 0.675929
0.459480 0.645624 0.723308
0.612024 0.664240 0.746090
0.728801 0.680262 0.766842
0.805798 0.694514 0.782025
0.860441 0.696849 0.786084
0.055955 0.394553 0.598444
0.056321 0.404608 0.605661
0.062257 0.467994 0.643336
0.116960 0.583551 0.685679
0.440391 0.709682 0.753048
0.648951 0.750103 0.786664
0.744961 0.767315 0.801450
0.830777 0.772427 0.812833
0.886198 0.779156 0.822477
0.056626 0.424475 0.609354
0.056825 0.429557 0.611582
0.063630 0.487648 0.646555
0.101259 0.602167 0.697063
0.377005 0.747707 0.757427
0.673548 0.822995 0.817060
0.774212 0.830488 0.830716
0.831769 0.858457 0.851423
0.916259 0.880354 0.872343
