tools/luts_backup/Kodak Vision3 50D 5203 (DP)_FPE.cube
# (C) 2014 VisionColor & Patchflyer [www.vision-color.com]
# Generator: VC Patchmatch v.2.1.1 [64/53]
# All work and no play makes Jack a dull boy.
# LUT generated from: Kodak Vision3 50D 5203 (DP)_FPE
LUT_3D_SIZE 17
0.034607 0.038911 0.039475
0.035737 0.035248 0.036088
0.035172 0.033631 0.033661
0.038560 0.034089 0.033005
0.046723 0.035111 0.031724
0.053925 0.036072 0.031067
0.067750 0.037507 0.031067
0.088991 0.039811 0.032456
0.106126 0.041642 0.033265
0.116136 0.042115 0.033249
0.118227 0.042237 0.033249
0.126543 0.042710 0.033234
0.174029 0.043046 0.034043
0.249744 0.043626 0.038010
0.290822 0.043961 0.040192
0.307912 0.043961 0.041047
0.324788 0.043885 0.041947
0.030365 0.053376 0.040543
0.044327 0.058854 0.039002
0.055116 0.045182 0.033356
0.045853 0.036957 0.032517
0.052720 0.036286 0.031220
0.066728 0.037522 0.030991
0.081147 0.038956 0.031876
0.098711 0.040940 0.033036
0.117205 0.042206 0.033249
0.131823 0.042908 0.033204
0.144518 0.043046 0.033173
0.161837 0.043061 0.033524
0.198749 0.042954 0.035340
0.253559 0.043732 0.038224
0.291279 0.043961 0.040208
0.310353 0.043977 0.041169
0.327901 0.043915 0.042115
0.033555 0.076341 0.039200
0.040009 0.081102 0.038499
0.055085 0.082872 0.038453
0.095308 0.067536 0.033921
0.097261 0.051591 0.032532
0.102861 0.045701 0.032639
0.114794 0.044221 0.033265
0.127337 0.043748 0.033326
0.140337 0.043351 0.033097
0.152728 0.043229 0.033371
0.168673 0.043015 0.033738
0.186160 0.043030 0.034730
0.211368 0.043107 0.035996
0.253010 0.043778 0.038178
0.296315 0.044038 0.040467
0.315297 0.043992 0.041428
0.329824 0.043931 0.042222
0.033356 0.092882 0.039841
0.035523 0.094575 0.039979
0.033112 0.094514 0.040116
0.063188 0.102983 0.042588
0.150973 0.098970 0.037766
0.207218 0.089113 0.035691
0.240116 0.078248 0.035996
0.254017 0.065370 0.036225
0.248524 0.053498 0.036545
0.234714 0.048539 0.036622
0.225208 0.045533 0.036423
0.228641 0.044327 0.036759
0.249302 0.044175 0.037934
0.306630 0.045197 0.040925
0.382895 0.046616 0.044831
0.361135 0.044831 0.043870
0.332723 0.043961 0.042374
0.035340 0.115496 0.046647
0.035767 0.117418 0.046815
0.034012 0.121935 0.047379
0.034348 0.125673 0.047517
0.120592 0.149737 0.055024
0.253132 0.151598 0.045151
0.344121 0.140139 0.042679
0.392569 0.121462 0.044175
0.400259 0.099062 0.044388
0.386313 0.076631 0.043351
0.358938 0.061601 0.042298
0.331914 0.052415 0.041428
0.326528 0.048646 0.041566
0.378103 0.049470 0.044343
0.486213 0.057069 0.048966
0.464393 0.051225 0.048341
0.350271 0.044312 0.043305
0.051499 0.164187 0.057847
0.050309 0.163485 0.057710
0.047776 0.169085 0.057420
0.040299 0.170214 0.056199
0.044083 0.174044 0.055940
0.203159 0.217151 0.062776
0.369619 0.224247 0.054673
0.464118 0.194537 0.048798
0.520668 0.162295 0.050782
0.516838 0.127367 0.051270
0.495506 0.097520 0.049561
0.465873 0.076036 0.047395
0.435370 0.062226 0.046143
0.431373 0.054841 0.046372
0.484092 0.057496 0.048783
0.514260 0.059678 0.050416
0.427207 0.048173 0.046769
0.131334 0.239292 0.067643
0.125216 0.235126 0.067445
0.117906 0.238819 0.066590
0.094606 0.238666 0.063996
0.066926 0.229664 0.059785
0.080095 0.234485 0.059129
0.297612 0.296300 0.063340
0.489174 0.299504 0.061463
0.588373 0.253803 0.057588
0.625940 0.203433 0.056962
0.610773 0.154330 0.055619
0.571160 0.113970 0.053590
0.523033 0.082719 0.050477
0.461112 0.059831 0.047349
0.432685 0.050690 0.046876
0.527886 0.064622 0.051148
0.549355 0.069108 0.052567
0.271397 0.327047 0.074296
0.262852 0.322652 0.074876
0.251133 0.322438 0.075044
0.221256 0.319203 0.073732
0.169924 0.307546 0.069627
0.138735 0.298299 0.064103
0.208377 0.319539 0.065370
0.475822 0.392737 0.073869
0.632181 0.361913 0.074739
0.703929 0.305074 0.068620
0.711391 0.239811 0.063767
0.673289 0.174228 0.059007
0.611780 0.122179 0.055665
0.517510 0.073838 0.050156
0.412955 0.050004 0.045975
0.537301 0.069673 0.051637
0.664729 0.124681 0.058610
0.435187 0.416297 0.074464
0.432212 0.414816 0.074937
0.425772 0.415259 0.075242
0.400427 0.414054 0.077836
0.339727 0.399283 0.077836
0.270207 0.377630 0.075181
0.286183 0.381811 0.073259
0.431769 0.425284 0.074128
0.657862 0.463355 0.095277
0.757748 0.411490 0.092546
0.789273 0.346975 0.080110
0.772931 0.268650 0.070069
0.719005 0.192630 0.062303
0.644312 0.132158 0.057374
0.544732 0.079881 0.051804
0.610483 0.102464 0.055802
0.763836 0.202777 0.065675
0.602914 0.502342 0.091447
0.597803 0.499641 0.088945
0.595590 0.500343 0.087648
0.589502 0.503990 0.089738
0.546304 0.497414 0.088808
0.462577 0.473838 0.084627
0.400916 0.450263 0.081300
0.469352 0.468528 0.082948
0.628550 0.511360 0.099260
0.780056 0.492653 0.113939
0.840116 0.452995 0.111849
0.854093 0.398596 0.096788
0.825086 0.314458 0.079103
0.791821 0.255375 0.070451
0.763333 0.223468 0.066728
0.771664 0.223987 0.067369
0.842954 0.294041 0.078599
0.761685 0.584482 0.123980
0.750195 0.576699 0.117861
0.742351 0.572534 0.112657
0.746853 0.576059 0.114580
0.722454 0.572992 0.114305
0.655253 0.556161 0.107271
0.562890 0.527611 0.096590
0.531121 0.512581 0.093019
0.609155 0.530648 0.100328
0.751492 0.565820 0.123384
0.842329 0.511894 0.129122
0.895186 0.506539 0.143694
0.895354 0.471214 0.128008
0.874723 0.403555 0.100404
0.877012 0.386023 0.097093
0.881453 0.382269 0.097368
0.889708 0.383200 0.098940
0.868635 0.645289 0.152834
0.858946 0.637568 0.145983
0.850767 0.631601 0.139361
0.846799 0.630091 0.138903
0.826444 0.625452 0.137850
0.782422 0.612116 0.132052
0.711803 0.589532 0.121721
0.639323 0.565087 0.110491
0.641917 0.561028 0.110155
0.722911 0.581476 0.122988
0.820966 0.600885 0.141634
0.875319 0.552560 0.146883
0.914244 0.558679 0.173983
0.916472 0.530953 0.163928
0.917403 0.497215 0.148409
0.918547 0.483970 0.143542
0.916640 0.464332 0.134249
0.912963 0.681773 0.168673
0.908980 0.677928 0.166354
0.904250 0.672724 0.161898
0.898039 0.668605 0.160220
0.886290 0.665232 0.160479
0.864942 0.658396 0.158358
0.817441 0.640833 0.148989
0.760678 0.619883 0.137713
0.729961 0.607599 0.131579
0.761196 0.614923 0.137942
0.828595 0.635508 0.152575
0.875898 0.636027 0.161837
0.902068 0.604837 0.174716
0.927047 0.594186 0.200137
0.934539 0.569924 0.199557
0.936461 0.549035 0.191394
0.936324 0.532021 0.183551
0.933074 0.707713 0.182986
0.931899 0.706172 0.181949
0.930190 0.703716 0.180270
0.927489 0.700877 0.178775
0.922332 0.698238 0.178607
0.909422 0.694286 0.178363
0.888395 0.685634 0.173861
0.855268 0.668833 0.163226
0.820386 0.655085 0.155795
0.825544 0.655741 0.158190
0.867491 0.670344 0.171588
0.897704 0.676310 0.182681
0.915755 0.663157 0.191699
0.929976 0.639658 0.217060
0.944091 0.622507 0.235554
0.946456 0.604547 0.234455
0.947967 0.588449 0.230381
0.943816 0.724483 0.195117
0.943358 0.723781 0.194522
0.942885 0.723018 0.193881
0.942123 0.722072 0.193133
0.940093 0.721798 0.192676
0.935210 0.722240 0.193393
0.926528 0.719905 0.194125
0.906462 0.710536 0.189227
0.882872 0.697017 0.181140
0.877379 0.693584 0.181506
0.894347 0.702602 0.192233
0.918074 0.709133 0.206455
0.929854 0.700999 0.221454
0.937499 0.683116 0.238590
0.950652 0.662150 0.262119
0.951583 0.648157 0.267796
0.950088 0.634226 0.271061
0.949325 0.740383 0.212207
0.949020 0.739376 0.211017
0.948775 0.738521 0.209903
0.948623 0.737957 0.209369
0.948211 0.737972 0.209598
0.946700 0.739849 0.211872
0.941772 0.742229 0.213062
0.932555 0.739406 0.210208
0.920531 0.730266 0.202930
0.907744 0.724208 0.201831
0.918593 0.731502 0.217365
0.929900 0.737087 0.235767
0.942412 0.730266 0.252110
0.948363 0.715221 0.266743
0.955230 0.698390 0.286061
0.956603 0.687312 0.299489
0.956115 0.677577 0.316976
0.954009 0.753628 0.229999
0.953841 0.753307 0.229511
0.953414 0.752361 0.228397
0.953109 0.751827 0.227665
0.952911 0.752163 0.227848
0.952285 0.753750 0.229328
0.950271 0.757473 0.232715
0.946349 0.761349 0.235401
0.936660 0.758007 0.231373
0.929030 0.752438 0.229877
0.930236 0.756603 0.243290
0.938766 0.760220 0.262730
0.949065 0.753323 0.281498
0.957778 0.740429 0.295933
0.959945 0.726909 0.312413
0.960159 0.716350 0.324331
0.958801 0.706386 0.343893
0.027085 0.031342 0.038331
0.044038 0.035187 0.051957
0.064195 0.036942 0.048081
0.067567 0.036286 0.039689
0.059129 0.035462 0.034577
0.055009 0.035523 0.032319
0.059327 0.036545 0.030854
0.076692 0.038422 0.031632
0.093278 0.040299 0.032792
0.105440 0.041611 0.033265
0.116472 0.042145 0.033249
0.130755 0.042863 0.033204
0.168414 0.043030 0.033722
0.233158 0.043381 0.037125
0.280888 0.043931 0.039689
0.305303 0.043961 0.040925
0.326040 0.043900 0.042008
0.028046 0.059480 0.069566
0.041840 0.055955 0.061433
0.066209 0.042481 0.043015
0.060746 0.037430 0.034974
0.059586 0.036637 0.031724
0.073365 0.038117 0.031510
0.085100 0.039353 0.032166
0.094423 0.040406 0.032853
0.106905 0.041688 0.033265
0.121477 0.042435 0.033249
0.136614 0.042939 0.033112
0.152880 0.043122 0.033371
0.177325 0.043000 0.034226
0.220050 0.043229 0.036439
0.272694 0.044144 0.039231
0.310369 0.043961 0.041169
0.330938 0.043946 0.042283
0.028977 0.082353 0.051987
0.041611 0.081971 0.047776
0.069520 0.091600 0.044770
0.121599 0.076692 0.037888
0.135454 0.061433 0.034241
0.136355 0.050599 0.033417
0.143191 0.046632 0.033356
0.156756 0.045197 0.033585
0.171710 0.044358 0.033814
0.178805 0.043793 0.034257
0.183780 0.043275 0.034577
0.194766 0.043061 0.035187
0.214481 0.043153 0.036149
0.245884 0.043549 0.037812
0.290150 0.043992 0.040146
0.343755 0.044480 0.042939
0.356130 0.044587 0.043610
0.030762 0.102907 0.043717
0.048310 0.109331 0.044373
0.053437 0.112535 0.044312
0.079606 0.118761 0.046586
0.172381 0.110552 0.042359
0.238193 0.096925 0.037613
0.271443 0.081773 0.037171
0.288014 0.069841 0.037964
0.297276 0.061936 0.038804
0.288060 0.053834 0.038819
0.266224 0.048310 0.038392
0.250156 0.045121 0.037873
0.251743 0.044053 0.038087
0.269413 0.044282 0.039033
0.308659 0.044358 0.041077
0.356619 0.044877 0.043626
0.364996 0.044877 0.044053
0.036393 0.130877 0.045777
0.045090 0.132784 0.046464
0.048890 0.138231 0.048295
0.044526 0.140841 0.050156
0.104479 0.159670 0.059007
0.256626 0.165606 0.052613
0.367254 0.145357 0.044114
0.424308 0.121981 0.045686
0.428885 0.103853 0.046128
0.420996 0.087785 0.045426
0.398352 0.068482 0.044190
0.364385 0.055314 0.043076
0.336019 0.048859 0.042069
0.333852 0.046357 0.042283
0.382956 0.048203 0.044694
0.459022 0.052262 0.047974
0.447120 0.049973 0.047639
0.055436 0.174609 0.053925
0.057023 0.168841 0.054475
0.073472 0.180774 0.056184
0.069612 0.189105 0.056992
0.065919 0.192660 0.058595
0.198489 0.229816 0.066316
0.389670 0.238056 0.058991
0.499413 0.196963 0.050355
0.539864 0.159289 0.051865
0.532265 0.130892 0.052049
0.514061 0.105135 0.050767
0.492088 0.082597 0.048783
0.462943 0.066270 0.047059
0.442985 0.057893 0.046677
0.470542 0.058564 0.047913
0.548135 0.072221 0.052415
0.550332 0.069688 0.052644
0.139879 0.248676 0.061906
0.125826 0.233066 0.063005
0.147601 0.243153 0.062104
0.144778 0.250675 0.061494
0.123140 0.251713 0.062226
0.152132 0.265538 0.065431
0.333577 0.314916 0.069718
0.520974 0.311238 0.065873
0.611841 0.253712 0.058885
0.633494 0.203204 0.057420
0.624475 0.162737 0.056260
0.598321 0.130083 0.055009
0.569711 0.102190 0.053513
0.539864 0.082322 0.051545
0.532921 0.073365 0.051225
0.582834 0.086275 0.054444
0.620554 0.100786 0.056443
0.291142 0.339071 0.067155
0.267659 0.324437 0.068040
0.275639 0.325887 0.066285
0.265232 0.327092 0.064912
0.219867 0.318471 0.067231
0.206027 0.320424 0.069093
0.287098 0.349279 0.072679
0.497536 0.404776 0.078614
0.642115 0.374655 0.078141
0.708446 0.315755 0.070375
0.722194 0.258427 0.065614
0.707271 0.206516 0.061830
0.671962 0.162387 0.058793
0.629694 0.124788 0.056626
0.593118 0.098024 0.054887
0.617624 0.105608 0.056199
0.682857 0.140475 0.059586
0.459007 0.428855 0.072984
0.445808 0.421637 0.071931
0.439475 0.418128 0.071870
0.420294 0.415976 0.071336
0.368887 0.404654 0.073365
0.305821 0.387778 0.074769
0.336233 0.400290 0.075608
0.467826 0.439872 0.078889
0.660105 0.476921 0.099351
0.753689 0.429908 0.096696
0.790112 0.373007 0.085420
0.794079 0.310765 0.076051
0.772747 0.251682 0.068788
0.724758 0.190768 0.062638
0.671290 0.144137 0.058808
0.683345 0.147066 0.059464
0.761090 0.203952 0.065522
0.622965 0.512169 0.093629
0.615198 0.508278 0.090227
0.609689 0.506035 0.089662
0.593057 0.502968 0.088945
0.549355 0.494606 0.087251
0.477409 0.476371 0.084260
0.441276 0.465644 0.083009
0.521553 0.489021 0.088304
0.660029 0.526436 0.106722
0.786130 0.521965 0.123156
0.835889 0.476509 0.118746
0.850401 0.419760 0.102098
0.842512 0.353567 0.086687
0.816678 0.289342 0.075837
0.778561 0.234501 0.068345
0.784054 0.234440 0.068788
0.841810 0.295369 0.078614
0.770886 0.588022 0.123995
0.763745 0.582193 0.117311
0.760098 0.581827 0.116304
0.754131 0.580499 0.115709
0.726635 0.572442 0.112703
0.659831 0.555108 0.105760
0.589776 0.536034 0.098787
0.597940 0.536049 0.101106
0.685588 0.557427 0.114305
0.792386 0.581827 0.133928
0.862074 0.552438 0.145953
0.892576 0.517327 0.146822
0.890822 0.462715 0.124285
0.877470 0.402914 0.101030
0.865995 0.357290 0.089998
0.869352 0.353719 0.089891
0.890730 0.388571 0.100313
0.871397 0.644648 0.149447
0.867735 0.639643 0.143359
0.866484 0.640787 0.141497
0.863584 0.640635 0.140383
0.853925 0.634440 0.138186
0.804440 0.618784 0.131121
0.731762 0.596262 0.122316
0.688243 0.580880 0.117632
0.713222 0.584283 0.122942
0.788632 0.605768 0.139269
0.861509 0.612680 0.154650
0.904433 0.585748 0.173938
0.919768 0.552316 0.176974
0.920150 0.508553 0.153857
0.912245 0.478569 0.137377
0.911467 0.466117 0.132174
0.918441 0.472526 0.138750
0.914229 0.681147 0.166735
0.911391 0.677485 0.163195
0.910643 0.675288 0.158328
0.910033 0.675196 0.156130
0.903136 0.669047 0.154086
0.882429 0.662455 0.151995
0.831769 0.645197 0.145892
0.777432 0.626017 0.138827
0.759564 0.617594 0.137102
0.793362 0.625727 0.144869
0.857679 0.644831 0.159915
0.899016 0.644236 0.175662
0.924163 0.623117 0.202487
0.933944 0.587503 0.205081
0.934905 0.563638 0.195743
0.936019 0.550118 0.190433
0.937545 0.539559 0.188556
0.932860 0.706569 0.180911
0.931868 0.705242 0.179980
0.931060 0.703014 0.176303
0.930541 0.701030 0.172732
0.925551 0.697230 0.171984
0.913420 0.692470 0.171756
0.891463 0.685328 0.170153
0.859586 0.669734 0.162341
0.823743 0.655818 0.155642
0.826841 0.655589 0.157748
0.867109 0.669718 0.170657
0.897856 0.678065 0.183215
0.917479 0.667933 0.195041
0.931487 0.647532 0.222660
0.942855 0.623972 0.235187
0.945525 0.607813 0.234318
0.947875 0.593530 0.232166
0.943130 0.723186 0.193652
0.942916 0.722957 0.193576
0.942626 0.722332 0.192935
0.942016 0.721202 0.191546
0.939986 0.720562 0.191012
0.935317 0.720668 0.191516
0.926787 0.718471 0.192538
0.908034 0.710277 0.188724
0.882887 0.695674 0.179675
0.872511 0.689311 0.177600
0.884932 0.695888 0.186007
0.909560 0.705837 0.198581
0.925063 0.702327 0.213382
0.934707 0.686549 0.229587
0.946151 0.665492 0.255604
0.950942 0.649104 0.263142
0.950454 0.635904 0.265248
0.948745 0.738262 0.209384
0.948623 0.737758 0.208881
0.948516 0.737545 0.208591
0.948425 0.737285 0.208408
0.948028 0.737072 0.208408
0.946639 0.738125 0.209781
0.942153 0.740017 0.210559
0.933425 0.737697 0.207919
0.921950 0.729320 0.201846
0.902724 0.719234 0.196948
0.906279 0.721859 0.203815
0.923339 0.731716 0.223087
0.934295 0.730739 0.238895
0.943969 0.717632 0.253239
0.951431 0.701274 0.270939
0.955184 0.685710 0.288411
0.956298 0.677409 0.302815
0.953368 0.752285 0.228260
0.953140 0.751827 0.227710
0.952941 0.751568 0.227268
0.952895 0.751507 0.227131
0.952926 0.751720 0.227405
0.952529 0.752712 0.228336
0.950744 0.755550 0.231067
0.947066 0.759365 0.233921
0.937881 0.756481 0.229603
0.928115 0.748043 0.222522
0.925322 0.746654 0.228275
0.930907 0.752743 0.245212
0.941497 0.752148 0.263661
0.951049 0.740322 0.279118
0.957870 0.725902 0.295171
0.958801 0.713039 0.312764
0.959319 0.705943 0.329580
0.026169 0.030533 0.040345
0.032273 0.032929 0.058167
0.063783 0.038895 0.075441
0.091371 0.041260 0.075120
0.099901 0.041444 0.066163
0.101366 0.040528 0.055970
0.095521 0.038880 0.043687
0.085313 0.038025 0.035721
0.086595 0.038880 0.033387
0.094743 0.040284 0.033158
0.105455 0.041596 0.033295
0.119692 0.042329 0.033249
0.142199 0.042969 0.033112
0.187991 0.043107 0.034836
0.251377 0.043671 0.038102
0.291264 0.043961 0.040208
0.314900 0.043977 0.041413
0.027237 0.038788 0.061295
0.031739 0.035706 0.061295
0.082643 0.042267 0.082948
0.116655 0.043275 0.075364
0.128420 0.042908 0.063615
0.126406 0.041321 0.050675
0.111330 0.039948 0.038788
0.095903 0.039719 0.034577
0.096574 0.040436 0.033371
0.107012 0.041642 0.033326
0.122118 0.042481 0.033249
0.140948 0.042985 0.033082
0.165103 0.043015 0.033600
0.200214 0.042939 0.035416
0.249317 0.043626 0.037995
0.290364 0.043961 0.040162
0.319677 0.043931 0.041672
0.030533 0.097887 0.123430
0.030671 0.087572 0.108675
0.056703 0.080003 0.095369
0.120089 0.069856 0.073411
0.149386 0.057572 0.054841
0.149599 0.048631 0.040314
0.139712 0.045457 0.035492
0.147189 0.044602 0.033646
0.160311 0.044038 0.033631
0.172244 0.043351 0.033921
0.176898 0.043122 0.034195
0.183536 0.043046 0.034577
0.197452 0.042939 0.035294
0.221057 0.043244 0.036500
0.256275 0.043824 0.038361
0.309911 0.044007 0.041154
0.346639 0.044205 0.043107
0.030060 0.123690 0.099794
0.030411 0.114321 0.083742
0.046448 0.109575 0.075669
0.106401 0.129107 0.067826
0.198627 0.117952 0.054810
0.263523 0.103212 0.041794
0.303777 0.085328 0.038819
0.311727 0.071336 0.039048
0.315221 0.062455 0.039719
0.315679 0.056199 0.040223
0.302510 0.050935 0.040024
0.279271 0.047318 0.039338
0.262409 0.044862 0.038605
0.263661 0.044129 0.038743
0.288289 0.044038 0.040055
0.393454 0.047532 0.045274
0.498527 0.058228 0.049607
0.031327 0.141726 0.072511
0.032288 0.138582 0.064607
0.063828 0.147601 0.065431
0.094713 0.163592 0.061448
0.166110 0.182971 0.061158
0.298192 0.171984 0.052903
0.389609 0.145953 0.045136
0.440024 0.119631 0.046296
0.442023 0.099413 0.046769
0.440894 0.085512 0.046494
0.436790 0.072145 0.045991
0.415274 0.060945 0.045274
0.372259 0.051743 0.043854
0.336919 0.046296 0.042466
0.331365 0.044968 0.042252
0.394690 0.047318 0.045335
0.491814 0.056809 0.049348
0.040452 0.178698 0.058366
0.049058 0.183490 0.057359
0.094392 0.193988 0.063157
0.133272 0.210910 0.062074
0.139773 0.220081 0.060487
0.252186 0.251820 0.061738
0.418387 0.238911 0.055589
0.517372 0.195911 0.051087
0.549401 0.153048 0.052522
0.536187 0.121065 0.052140
0.524468 0.100313 0.051057
0.518227 0.085542 0.050202
0.501198 0.073747 0.049165
0.461997 0.059754 0.047395
0.434089 0.052720 0.046723
0.465492 0.054902 0.048020
0.545449 0.069902 0.052293
0.119051 0.252567 0.059648
0.120119 0.250004 0.059556
0.157824 0.253117 0.064485
0.209216 0.272007 0.063462
0.215503 0.281834 0.060868
0.234104 0.292821 0.061570
0.399405 0.338735 0.066621
0.558572 0.311543 0.062715
0.636637 0.250767 0.059495
0.637034 0.186481 0.057282
0.608454 0.143069 0.055543
0.595636 0.123003 0.054826
0.589761 0.109667 0.054582
0.567361 0.092302 0.053315
0.539620 0.075975 0.051606
0.548333 0.074754 0.052308
0.605692 0.093675 0.055695
0.274296 0.343709 0.060945
0.260899 0.334646 0.060594
0.273747 0.332082 0.064851
0.325399 0.348760 0.065827
0.341161 0.360815 0.061036
0.332235 0.362753 0.060838
0.386786 0.379873 0.065492
0.559792 0.420951 0.080720
0.684337 0.378408 0.078676
0.727275 0.308324 0.070176
0.715892 0.235019 0.063767
0.696437 0.190280 0.060777
0.685100 0.169818 0.059648
0.665354 0.146731 0.058473
0.635950 0.120882 0.057008
0.629664 0.112062 0.056779
0.664408 0.128359 0.058549
0.460365 0.438727 0.067613
0.447257 0.431128 0.066209
0.439857 0.424292 0.066865
0.465064 0.430320 0.070161
0.480095 0.440833 0.071000
0.454673 0.437308 0.068147
0.453605 0.437217 0.070848
0.531746 0.457511 0.080629
0.694850 0.484291 0.101961
0.774762 0.437675 0.098665
0.798444 0.374090 0.085496
0.797330 0.310948 0.076310
0.788968 0.270283 0.071595
0.766217 0.231296 0.067216
0.731106 0.188556 0.063050
0.711727 0.166400 0.061295
0.730144 0.176318 0.062776
0.624018 0.517601 0.089509
0.619821 0.516472 0.088914
0.613046 0.511223 0.087449
0.615412 0.509529 0.088472
0.612604 0.512154 0.089082
0.579644 0.505913 0.085206
0.542229 0.496117 0.082460
0.579767 0.505760 0.090730
0.680766 0.532830 0.110201
0.796780 0.531426 0.126879
0.840711 0.488930 0.122057
0.855009 0.437552 0.106767
0.854704 0.383551 0.092988
0.841978 0.331975 0.083375
0.817746 0.280064 0.075013
0.793378 0.243259 0.069932
0.801724 0.245991 0.070726
0.764706 0.585260 0.116838
0.749477 0.585290 0.115892
0.761578 0.583642 0.115541
0.757946 0.579980 0.114717
0.745724 0.575662 0.112932
0.707561 0.565423 0.107134
0.655009 0.551720 0.100999
0.659983 0.554345 0.106249
0.731502 0.576104 0.122728
0.809644 0.591226 0.140322
0.863951 0.567330 0.150652
0.891005 0.533379 0.150225
0.895720 0.489403 0.135012
0.888563 0.436179 0.113359
0.877287 0.380819 0.095750
0.858732 0.333196 0.085359
0.859022 0.324681 0.084138
0.877333 0.644114 0.143252
0.832105 0.642100 0.141512
0.868559 0.641169 0.140230
0.865354 0.638437 0.139193
0.856077 0.632868 0.136797
0.825269 0.621729 0.131014
0.773236 0.605722 0.123018
0.746914 0.599115 0.122759
0.785443 0.612863 0.136553
0.846723 0.630884 0.154269
0.883619 0.626657 0.167605
0.910323 0.603677 0.182315
0.921462 0.572091 0.185199
0.923064 0.529656 0.164553
0.916075 0.485649 0.141909
0.905562 0.440772 0.119615
0.902220 0.421134 0.111833
0.922210 0.680140 0.158892
0.904021 0.688029 0.163622
0.915953 0.676646 0.156283
0.914412 0.675059 0.155215
0.908888 0.670039 0.152895
0.896910 0.662257 0.149142
0.860639 0.649668 0.142596
0.818326 0.637156 0.137926
0.822843 0.640574 0.146334
0.867643 0.657404 0.162860
0.898665 0.662989 0.178119
0.916899 0.655222 0.197757
0.934218 0.639094 0.226291
0.941238 0.607279 0.222461
0.937652 0.570504 0.201541
0.934646 0.535531 0.179278
0.933013 0.517037 0.168673
0.938033 0.704372 0.171054
0.936385 0.706523 0.171572
0.935500 0.701747 0.169421
0.934295 0.699168 0.166796
0.930861 0.694362 0.163500
0.922484 0.686976 0.160128
0.901473 0.680369 0.157412
0.874372 0.669062 0.154116
0.852338 0.662943 0.155322
0.869764 0.671031 0.165515
0.897124 0.685130 0.182864
0.919661 0.688670 0.200855
0.933410 0.681498 0.226261
0.945068 0.663157 0.252949
0.946303 0.633524 0.245624
0.945434 0.606058 0.232334
0.946883 0.585504 0.224552
0.945190 0.720485 0.183856
0.944854 0.720729 0.184756
0.944152 0.720256 0.185458
0.943221 0.718517 0.182544
0.940597 0.714443 0.176959
0.935699 0.712489 0.176379
0.927352 0.710216 0.177005
0.909773 0.704463 0.176776
0.886809 0.692866 0.172244
0.879118 0.689693 0.174395
0.893187 0.699535 0.186679
0.917998 0.710735 0.202335
0.930526 0.710506 0.223346
0.938582 0.697459 0.239460
0.946471 0.674342 0.258244
0.950561 0.652186 0.261097
0.949874 0.636164 0.262226
0.948852 0.735317 0.198016
0.948638 0.735409 0.199023
0.948486 0.735714 0.200458
0.948348 0.735607 0.201389
0.947555 0.734661 0.199908
0.946181 0.734783 0.200137
0.942031 0.736156 0.201251
0.933883 0.734615 0.201633
0.923140 0.728023 0.199329
0.902632 0.717037 0.193652
0.901869 0.717556 0.197665
0.920317 0.728511 0.215412
0.930938 0.731136 0.232334
0.941192 0.721447 0.247532
0.945907 0.705684 0.260670
0.954040 0.687037 0.280064
0.955901 0.677333 0.291768
0.952956 0.750988 0.222873
0.952804 0.750820 0.223224
0.952773 0.750759 0.223850
0.952834 0.750957 0.224552
0.952865 0.751385 0.225483
0.952468 0.751949 0.226291
0.950744 0.754086 0.228809
0.947204 0.757412 0.231357
0.938506 0.754681 0.227100
0.928161 0.745495 0.218387
0.922362 0.740139 0.218219
0.926207 0.746181 0.234043
0.934020 0.748989 0.249348
0.945693 0.741360 0.266773
0.952804 0.727153 0.280919
0.957259 0.712077 0.297932
0.958572 0.703792 0.314107
0.026139 0.030533 0.044358
0.029496 0.032532 0.059083
0.044068 0.035554 0.075486
0.069566 0.039582 0.085725
0.095003 0.041947 0.091279
0.110994 0.042878 0.086915
0.123293 0.043229 0.078325
0.130388 0.043076 0.065858
0.133150 0.041779 0.052415
0.128405 0.040955 0.040101
0.114549 0.041032 0.035752
0.112718 0.041566 0.033783
0.127459 0.042710 0.033310
