tools/luts_backup/Kodak Vision3 250D 5207 (NEG)_VS.cube
# (C) 2014 VisionColor & Patchflyer [www.vision-color.com]
# Generator: VC Patchmatch v.2.1.1 [64/53]
# All work and no play makes Jack a dull boy.
# LUT generated from: Kodak Vision3 250D 5207 (NEG)_VisionSpace
LUT_3D_SIZE 9
0.027771 0.030426 0.028229
0.116030 0.036439 0.032624
0.158114 0.041901 0.036500
0.175143 0.039582 0.037293
0.199985 0.039063 0.037140
0.209934 0.039155 0.037232
0.263310 0.040040 0.038087
0.398322 0.044984 0.043671
0.440345 0.048432 0.047150
0.045991 0.089540 0.039521
0.119753 0.101778 0.049805
0.203830 0.105348 0.052399
0.265965 0.096010 0.050813
0.253666 0.051362 0.040192
0.260319 0.040528 0.038270
0.300450 0.040436 0.038514
0.397345 0.045319 0.043763
0.447028 0.048951 0.047639
0.113649 0.201572 0.083497
0.140627 0.212985 0.089326
0.218326 0.216739 0.103273
0.313878 0.214542 0.100404
0.357855 0.173831 0.073732
0.369757 0.103593 0.054688
0.383093 0.059571 0.046143
0.522606 0.109560 0.067781
0.459785 0.050690 0.048981
0.237369 0.309056 0.143771
0.240330 0.312230 0.144503
0.232090 0.323339 0.145327
0.303319 0.326421 0.156680
0.435172 0.310277 0.148348
0.516777 0.262257 0.106416
0.505119 0.160693 0.079561
0.477546 0.068544 0.054353
0.553185 0.136309 0.076997
0.388083 0.431846 0.201236
0.386801 0.432395 0.203311
0.365591 0.438743 0.203494
0.347860 0.435737 0.197604
0.485740 0.449622 0.222354
0.607111 0.421714 0.214252
0.612879 0.306661 0.127398
0.513375 0.138949 0.074632
0.659663 0.326772 0.140261
0.573922 0.596933 0.285191
0.551720 0.597162 0.260899
0.554818 0.599680 0.275883
0.475608 0.565164 0.259800
0.483940 0.544518 0.255924
0.636255 0.533837 0.283574
0.710384 0.567147 0.320912
0.696406 0.494530 0.269459
0.708553 0.488167 0.268559
0.705653 0.703456 0.371893
0.694240 0.696071 0.359503
0.676326 0.684474 0.353185
0.632532 0.666010 0.336614
0.576196 0.643458 0.312535
0.630518 0.647822 0.332036
0.703639 0.648310 0.359960
0.751308 0.654749 0.387701
0.759945 0.636774 0.383459
0.758175 0.749569 0.414130
0.756344 0.747829 0.412451
0.751522 0.744106 0.409735
0.730739 0.735409 0.402777
0.691585 0.720088 0.383581
0.701198 0.717098 0.391516
0.741146 0.720058 0.409888
0.781155 0.722408 0.422950
0.798550 0.719234 0.424140
0.790463 0.776394 0.442573
0.789090 0.775296 0.441962
0.787900 0.774289 0.441230
0.781643 0.772488 0.438819
0.756466 0.764553 0.429389
0.750515 0.760739 0.426978
0.781765 0.765347 0.434089
0.808469 0.767758 0.439673
0.819608 0.765225 0.443061
0.028565 0.029999 0.091005
0.101228 0.036683 0.101930
0.168002 0.038239 0.111238
0.173983 0.037415 0.085939
0.179110 0.038422 0.049409
0.197482 0.038941 0.037751
0.232975 0.039734 0.037812
0.349889 0.042237 0.040833
0.428962 0.047547 0.046265
0.040742 0.087617 0.101747
0.087678 0.091615 0.097475
0.241032 0.107607 0.080903
0.308049 0.105287 0.072297
0.273167 0.076051 0.052552
0.262028 0.050233 0.040650
0.289799 0.040253 0.038300
0.351965 0.042390 0.041016
0.460578 0.050507 0.048981
0.096040 0.220523 0.126436
0.108248 0.208316 0.091279
0.244419 0.229648 0.117372
0.387335 0.239750 0.121462
0.437507 0.193210 0.088991
0.442420 0.152468 0.072694
0.424231 0.079500 0.053010
0.417029 0.048737 0.045838
0.522881 0.104585 0.066529
0.228946 0.332006 0.142428
0.217258 0.328740 0.141939
0.278050 0.348028 0.150515
0.374334 0.362493 0.172335
0.503716 0.328313 0.153323
0.531243 0.249195 0.104158
0.547234 0.212741 0.096071
0.528923 0.141772 0.076539
0.579553 0.187503 0.092134
0.404623 0.472374 0.196628
0.381826 0.460533 0.192172
0.405356 0.478050 0.203128
0.403632 0.468940 0.204440
0.519234 0.476539 0.236759
0.610101 0.441703 0.228305
0.635676 0.382010 0.176715
0.633906 0.309346 0.130922
0.640192 0.295979 0.125856
0.567147 0.610346 0.264836
0.567086 0.613062 0.263310
0.555703 0.600397 0.260624
0.508110 0.583459 0.258000
0.558679 0.587549 0.286717
0.661006 0.598077 0.322057
0.702113 0.568872 0.320439
0.693782 0.482490 0.260563
0.688807 0.431525 0.216587
0.709895 0.715511 0.353307
0.700343 0.714473 0.345586
0.688777 0.709712 0.334997
0.648859 0.684504 0.319310
0.634180 0.666804 0.333593
0.694270 0.677699 0.370581
0.757870 0.696712 0.406836
0.757900 0.660029 0.392645
0.754788 0.627253 0.376196
0.757931 0.751217 0.404913
0.756558 0.749416 0.406012
0.748714 0.745724 0.394141
0.727199 0.733730 0.388952
0.690364 0.718044 0.376745
0.696498 0.715236 0.386297
0.740047 0.724483 0.410864
0.773800 0.723140 0.422370
0.794095 0.718410 0.423468
0.787778 0.774472 0.439582
0.787289 0.773983 0.439521
0.787778 0.774258 0.440436
0.782528 0.772000 0.439033
0.759213 0.763485 0.429786
0.734981 0.753140 0.419562
0.756252 0.754879 0.427222
0.787808 0.757198 0.432746
0.811185 0.759609 0.438148
0.026673 0.028565 0.123598
0.068635 0.030915 0.153933
0.137942 0.035615 0.166995
0.172061 0.036622 0.177920
0.194247 0.037140 0.167117
0.214633 0.037293 0.123201
0.222507 0.038087 0.063142
0.314733 0.040772 0.040284
0.403693 0.045319 0.044007
0.041016 0.093935 0.178622
0.062562 0.079347 0.181399
0.194705 0.081758 0.188357
0.252934 0.063294 0.180972
0.255924 0.046784 0.153475
0.262028 0.041413 0.101656
0.260563 0.039826 0.044587
0.307073 0.040620 0.038788
0.395056 0.044800 0.043488
0.074098 0.213779 0.220829
0.110262 0.220188 0.225956
0.222873 0.200046 0.209384
0.377600 0.181857 0.165530
0.425208 0.179538 0.146242
0.428382 0.152560 0.104280
0.415320 0.095705 0.056519
0.375067 0.046723 0.043030
0.415076 0.046387 0.045106
0.166323 0.360265 0.241032
0.161929 0.360601 0.209567
0.265507 0.343999 0.179263
0.381140 0.358373 0.203189
0.513588 0.330846 0.196139
0.560388 0.275288 0.152148
0.578546 0.229862 0.104280
0.557763 0.179309 0.088350
0.528222 0.109789 0.068269
0.345983 0.502510 0.240635
0.338918 0.487968 0.229984
0.381445 0.483665 0.243168
0.443778 0.493828 0.240177
0.543038 0.493492 0.241337
0.637507 0.456931 0.228931
0.648585 0.371939 0.161578
0.648035 0.328206 0.135683
0.639826 0.289174 0.123995
0.513161 0.624414 0.292576
0.517281 0.622278 0.289708
0.520088 0.616022 0.292790
0.550927 0.612299 0.292454
0.586847 0.605615 0.277958
0.670527 0.602869 0.297459
0.715541 0.590265 0.302037
0.710933 0.526741 0.272663
0.697108 0.456901 0.234943
0.680690 0.724819 0.382544
0.667689 0.712764 0.366247
0.669734 0.706752 0.350317
0.668849 0.700313 0.339330
0.662928 0.695308 0.319066
0.709682 0.697780 0.357031
0.753414 0.701991 0.392737
0.763912 0.677211 0.398962
0.748196 0.607782 0.356420
0.761318 0.768490 0.411353
0.758877 0.766445 0.407874
0.747616 0.758755 0.399145
0.730770 0.747768 0.386297
0.721309 0.744259 0.359136
0.739284 0.742519 0.379492
0.774044 0.747066 0.425757
0.785733 0.736446 0.428717
0.786557 0.699672 0.416815
0.792599 0.786618 0.425452
0.792721 0.785550 0.424018
0.792294 0.784604 0.424384
0.784146 0.779873 0.420020
0.763058 0.769009 0.408789
0.752499 0.764035 0.409369
0.767361 0.763210 0.431922
0.779995 0.754726 0.431525
0.803159 0.753933 0.433295
0.025788 0.027619 0.158907
0.033539 0.027741 0.161715
0.080903 0.030579 0.174899
0.137758 0.034302 0.187503
0.166567 0.036103 0.189578
0.203037 0.037507 0.194461
0.233646 0.037934 0.182498
0.339513 0.041505 0.103761
0.420356 0.045747 0.049378
0.029297 0.043030 0.173342
0.041474 0.041749 0.182345
0.127565 0.052277 0.217227
0.197635 0.049165 0.218021
0.234623 0.040986 0.216739
0.255497 0.038911 0.201419
0.272740 0.039185 0.168826
0.303899 0.039704 0.067720
0.378912 0.043885 0.042573
0.105776 0.224887 0.311528
0.131991 0.214633 0.319158
0.162234 0.174777 0.327886
0.295872 0.151644 0.282445
0.363104 0.130465 0.244785
0.365423 0.086427 0.209171
0.378515 0.062226 0.154543
0.371588 0.043244 0.057038
0.383978 0.044099 0.042878
0.153353 0.378561 0.355093
0.184543 0.377630 0.370459
0.215122 0.361517 0.360418
0.348150 0.328313 0.329229
0.552621 0.295995 0.278386
0.605554 0.244556 0.233600
0.544305 0.195483 0.174151
0.531365 0.144839 0.093492
0.483818 0.077607 0.056794
0.260624 0.537972 0.377752
0.237583 0.517464 0.322271
0.280766 0.508003 0.290837
0.394873 0.486473 0.281315
0.538705 0.504097 0.291051
0.646296 0.473014 0.310735
0.651698 0.386282 0.259236
0.643488 0.328206 0.188495
0.649073 0.292287 0.128969
0.368673 0.648371 0.295201
0.378775 0.645930 0.294469
0.423117 0.632807 0.296727
0.491554 0.626245 0.314092
0.601801 0.637232 0.352056
0.683986 0.642237 0.366308
0.727596 0.613458 0.356756
0.711177 0.507530 0.274418
0.692226 0.411933 0.188937
0.591867 0.720180 0.367773
0.591073 0.710597 0.369390
0.604166 0.706935 0.375311
0.621698 0.704585 0.378149
0.657771 0.705837 0.388556
0.715419 0.715816 0.398383
0.762844 0.724300 0.403418
0.775357 0.693874 0.376226
0.764279 0.644663 0.339452
0.728511 0.773342 0.420356
0.718044 0.763821 0.415625
0.721614 0.758144 0.419989
0.723507 0.754910 0.417853
0.729976 0.754360 0.418555
0.745205 0.757534 0.404425
0.780697 0.760220 0.410254
0.793088 0.747982 0.419165
0.793423 0.726802 0.424079
0.780484 0.795254 0.439338
0.785061 0.795041 0.443214
0.783749 0.793332 0.443854
0.771572 0.786831 0.440009
0.770352 0.783780 0.439246
0.772152 0.782925 0.425269
0.796109 0.783871 0.425605
0.802945 0.771023 0.439063
0.805264 0.751278 0.438025
0.024659 0.026490 0.190799
0.025635 0.027039 0.178653
0.052125 0.027161 0.203677
0.107332 0.030335 0.227085
0.135470 0.032502 0.220157
0.166323 0.035279 0.205814
0.220371 0.038209 0.218143
0.347356 0.044892 0.205051
0.475563 0.053437 0.137346
0.024628 0.027955 0.200656
0.027253 0.026673 0.193027
0.069337 0.029358 0.222507
0.144503 0.037049 0.246372
0.175021 0.035828 0.234470
0.209659 0.037079 0.238102
0.236118 0.038636 0.225711
0.300053 0.040620 0.165743
0.370092 0.042573 0.046601
0.062593 0.194217 0.360723
0.074556 0.165652 0.347662
0.114809 0.135164 0.341680
0.222599 0.120089 0.328496
0.292180 0.085328 0.300908
0.309148 0.050477 0.268849
0.316533 0.043305 0.224979
0.363165 0.045075 0.175845
0.402930 0.044862 0.065034
0.137850 0.366094 0.475822
0.165469 0.348486 0.471244
0.204105 0.326024 0.456657
0.257023 0.299107 0.487327
0.430121 0.264988 0.436301
0.486122 0.225116 0.360891
0.472267 0.154498 0.278096
0.490974 0.091295 0.180194
0.497292 0.059510 0.090837
0.277562 0.573007 0.567849
0.300328 0.556069 0.558541
0.302586 0.540200 0.551125
0.337652 0.523873 0.529427
0.483604 0.480552 0.490013
0.648844 0.449912 0.442405
0.714046 0.357351 0.358572
0.670085 0.281147 0.258625
0.628931 0.261494 0.184985
0.339696 0.668147 0.543679
0.336065 0.663081 0.527108
0.338628 0.653376 0.465950
0.385687 0.640772 0.429007
0.520806 0.631434 0.431357
0.667308 0.649104 0.426932
0.750942 0.634134 0.418357
0.752041 0.532937 0.358892
0.702541 0.435981 0.303044
0.462455 0.723995 0.456565
0.451621 0.722408 0.437034
0.470115 0.724056 0.441825
0.500862 0.716823 0.389059
0.593591 0.716274 0.411032
0.695781 0.726741 0.428397
0.764035 0.731258 0.432013
0.791012 0.707576 0.418891
0.771572 0.640803 0.394354
0.666041 0.774350 0.478050
0.662013 0.764889 0.422400
0.657084 0.761501 0.414160
0.659785 0.759915 0.407599
0.684199 0.759976 0.417762
0.727230 0.765743 0.430640
0.777340 0.770077 0.438788
0.802213 0.757961 0.436377
0.799130 0.734188 0.429938
0.739223 0.796323 0.485023
0.749050 0.797665 0.471992
0.750576 0.794003 0.450050
0.748043 0.789761 0.439155
0.749050 0.788174 0.432258
0.760525 0.787503 0.433448
0.779873 0.785214 0.442329
0.804990 0.780606 0.441413
0.813504 0.775204 0.443915
0.022736 0.024231 0.241550
0.023316 0.025116 0.216800
0.024994 0.024994 0.218601
0.056764 0.026337 0.245548
0.098390 0.029267 0.247837
0.105287 0.029908 0.237858
0.169924 0.034577 0.234287
0.411383 0.056092 0.323796
0.524865 0.065583 0.294621
0.022736 0.024414 0.245579
0.022797 0.024170 0.239963
0.035279 0.024689 0.255192
0.095888 0.028840 0.281804
0.147829 0.032441 0.293706
0.156222 0.033082 0.275822
0.179690 0.034760 0.260288
0.255314 0.039612 0.234226
0.457740 0.053590 0.179187
0.052796 0.151202 0.406012
0.037140 0.089647 0.355596
0.051240 0.069963 0.345373
0.146166 0.054292 0.365881
0.214832 0.049744 0.360204
0.224765 0.039277 0.323033
0.252445 0.040589 0.297887
0.343786 0.047456 0.272709
0.435370 0.050935 0.164767
0.116182 0.358297 0.552544
0.115312 0.316945 0.532677
0.150896 0.298329 0.515129
0.210040 0.272908 0.526375
0.330068 0.241733 0.552117
0.371481 0.191028 0.451545
0.398337 0.128313 0.389258
0.460151 0.076982 0.295171
0.530083 0.064973 0.212070
0.251301 0.545724 0.628077
0.259632 0.511482 0.614496
0.285420 0.500801 0.609522
0.300053 0.479942 0.616571
0.378256 0.450919 0.636439
0.526360 0.409049 0.594171
0.618143 0.353353 0.543572
0.640055 0.282490 0.410407
0.646922 0.238758 0.282445
0.377539 0.676875 0.676417
0.374975 0.673976 0.676692
0.375799 0.669551 0.674159
0.394965 0.665339 0.666865
0.473350 0.654475 0.653376
0.632898 0.637446 0.640009
0.700801 0.627085 0.622324
0.730312 0.547341 0.535378
0.769192 0.443015 0.394583
0.422400 0.737148 0.654200
0.413642 0.731899 0.670436
0.415473 0.726589 0.639521
0.436530 0.719966 0.610697
0.498131 0.712642 0.589853
0.647547 0.710506 0.606424
0.738277 0.727138 0.598337
0.786007 0.718807 0.563210
0.796078 0.679988 0.496757
0.607202 0.762661 0.639521
0.571801 0.753750 0.588754
0.556848 0.750607 0.581613
0.567712 0.748379 0.557504
0.599145 0.751705 0.528649
0.674464 0.758907 0.534997
0.749691 0.767575 0.539666
0.800870 0.766506 0.523674
0.816739 0.760708 0.494484
0.697810 0.787533 0.624842
0.705135 0.790341 0.599283
0.693202 0.785489 0.530022
0.692226 0.784360 0.513024
0.696773 0.785367 0.490700
0.717708 0.790707 0.477089
0.748257 0.788449 0.481056
0.787137 0.785794 0.459876
0.824674 0.792264 0.468391
0.022370 0.023743 0.315068
0.022431 0.023774 0.292027
0.022431 0.023804 0.281773
0.027100 0.023957 0.287938
0.049195 0.025513 0.302586
0.063844 0.026551 0.300542
0.172091 0.035187 0.379736
0.378759 0.059541 0.439063
0.516777 0.081758 0.433783
0.022431 0.023804 0.281743
0.022431 0.023804 0.281285
0.022766 0.023774 0.282139
0.060517 0.026123 0.326879
0.123903 0.030518 0.356329
0.137453 0.031525 0.349493
0.123140 0.030488 0.313787
0.222751 0.038911 0.341497
0.526665 0.080293 0.415366
0.038209 0.091661 0.409613
0.033173 0.071290 0.391943
0.026154 0.040925 0.353246
0.086229 0.037293 0.407813
0.179629 0.039704 0.442817
0.206058 0.039612 0.428534
0.197452 0.037293 0.378180
0.291691 0.046479 0.372656
0.464485 0.062440 0.338201
0.104341 0.325490 0.571832
0.095674 0.293965 0.555016
0.090547 0.270222 0.545037
0.134295 0.241993 0.531151
0.238209 0.213443 0.580606
0.302556 0.169726 0.522972
0.304677 0.098497 0.466835
0.399145 0.076738 0.452430
0.534569 0.078614 0.379492
0.214313 0.531228 0.650141
0.219409 0.506783 0.639460
0.237934 0.481559 0.628901
0.262623 0.448173 0.623194
0.310384 0.435416 0.675380
0.419074 0.392081 0.675959
0.492546 0.339834 0.644099
0.567452 0.301534 0.564584
0.609598 0.240620 0.424262
0.351720 0.655665 0.691890
0.366369 0.653040 0.696529
0.370977 0.644221 0.695644
0.375494 0.643519 0.705684
0.415900 0.635996 0.711421
0.557992 0.621515 0.695155
0.630243 0.595041 0.671534
0.686702 0.543221 0.658534
0.729030 0.455497 0.594369
0.411261 0.740139 0.733486
0.420539 0.734005 0.740078
0.422126 0.731716 0.733181
0.436622 0.726467 0.725917
0.491218 0.725124 0.723995
0.621790 0.721401 0.719387
0.717891 0.721706 0.721553
0.751064 0.716304 0.712581
0.761593 0.689601 0.681666
0.518456 0.772885 0.729488
0.482734 0.765835 0.730465
0.469032 0.760922 0.721035
0.480293 0.758511 0.708339
0.517388 0.755154 0.696651
0.621576 0.752224 0.692073
0.718532 0.754574 0.702388
0.776852 0.768887 0.703151
0.799588 0.767605 0.690181
0.647089 0.785061 0.719417
0.662074 0.783017 0.703334
0.602502 0.770138 0.674281
0.610071 0.773159 0.682979
0.635767 0.771756 0.666957
0.664424 0.772915 0.640528
0.707362 0.782040 0.621210
0.770321 0.788846 0.621881
0.812192 0.796384 0.649836
0.022461 0.023804 0.343389
0.022461 0.023804 0.342168
0.022461 0.023804 0.340887
0.025360 0.023926 0.353399
0.033082 0.024567 0.367956
0.042939 0.025299 0.376013
0.157229 0.034882 0.443915
0.297459 0.051026 0.488869
0.460029 0.081086 0.500969
0.022431 0.023774 0.334691
0.022370 0.023743 0.315465
0.022370 0.023743 0.317235
0.034913 0.024567 0.351629
0.105898 0.029908 0.420905
0.129183 0.032044 0.436225
0.162051 0.035279 0.442939
0.219333 0.040650 0.419806
0.497810 0.090883 0.498665
0.027802 0.048493 0.397681
0.028260 0.050568 0.399329
0.025513 0.037751 0.389654
0.037354 0.031006 0.416449
0.123354 0.034943 0.474861
0.177981 0.038178 0.479469
0.192264 0.038605 0.459754
0.236698 0.042725 0.438727
0.464973 0.079622 0.485451
0.095338 0.292439 0.579370
0.091981 0.281178 0.571344
0.083253 0.250217 0.556481
0.072801 0.191119 0.537316
0.166918 0.205280 0.564294
0.239536 0.172839 0.561318
0.277714 0.115465 0.526452
0.327947 0.077104 0.511406
0.487465 0.093721 0.505150
0.195926 0.529427 0.666041
0.191272 0.502693 0.654719
0.183642 0.458549 0.638697
0.191333 0.405203 0.617884
0.274983 0.405783 0.635538
0.347082 0.401480 0.715297
0.430976 0.359426 0.702296
0.497765 0.316213 0.652644
0.553140 0.249622 0.554528
0.314366 0.642176 0.701442
0.364370 0.652857 0.709468
0.362310 0.636591 0.703212
0.375341 0.637919 0.719356
0.397498 0.625528 0.731624
0.514046 0.620127 0.727047
0.591714 0.597025 0.696712
0.623041 0.559792 0.693751
0.692134 0.482475 0.685664
0.410773 0.732906 0.749691
0.427344 0.731685 0.758236
0.420294 0.726040 0.754482
0.446418 0.725216 0.754086
0.507256 0.719600 0.753689
0.605783 0.715663 0.748043
0.693721 0.714290 0.740475
0.716213 0.707576 0.732143
0.741329 0.695399 0.728664
0.477821 0.774929 0.770016
0.476417 0.770230 0.765621
0.482033 0.764096 0.763912
0.495857 0.762081 0.760739
0.556695 0.760006 0.759670
0.644129 0.759793 0.758968
0.714931 0.761715 0.759640
0.763912 0.765560 0.764157
0.780545 0.766506 0.763851
0.588800 0.789456 0.768002
0.601434 0.789670 0.760678
0.538964 0.780697 0.749569
0.536034 0.779293 0.755459
0.602777 0.782528 0.757778
0.639704 0.780148 0.752255
0.685603 0.778561 0.740658
0.757321 0.783047 0.749294
0.797604 0.794583 0.764309
0.022522 0.023896 0.359472
0.022522 0.023865 0.358740
0.022522 0.023865 0.358343
0.025879 0.024140 0.378515
0.038392 0.025055 0.397986
0.044068 0.025483 0.399847
0.117769 0.031281 0.446418
0.224399 0.042512 0.488472
0.357641 0.061494 0.512932
0.022675 0.024140 0.376349
0.022675 0.024018 0.377752
0.022827 0.024109 0.391608
0.096101 0.029847 0.473426
0.121645 0.032441 0.474678
0.102113 0.029999 0.448615
0.203464 0.040253 0.487617
0.315312 0.054414 0.507256
0.414801 0.072328 0.511986
0.050202 0.130526 0.512474
0.022980 0.025299 0.387213
0.023072 0.026612 0.364233
0.023987 0.026917 0.394461
0.100191 0.033753 0.500633
0.128634 0.035584 0.506950
0.178317 0.038392 0.503868
0.292973 0.051789 0.513085
0.434424 0.077729 0.519493
0.110658 0.340108 0.619623
0.070649 0.204974 0.542351
0.068971 0.198932 0.538842
0.075471 0.202930 0.564141
0.149035 0.202045 0.574426
0.223972 0.193927 0.593729
0.266636 0.163989 0.568933
0.309972 0.133165 0.547845
0.443397 0.141161 0.540337
0.203616 0.544930 0.683040
0.180163 0.490501 0.659541
0.173236 0.448814 0.646265
0.174823 0.406058 0.632532
0.234394 0.389181 0.632654
0.342535 0.416190 0.727626
0.402670 0.383017 0.726040
0.467430 0.354513 0.705684
0.545357 0.324453 0.650980
0.314672 0.664393 0.722560
0.384817 0.669734 0.727474
0.369223 0.638773 0.714443
0.370092 0.624430 0.719173
0.368872 0.601907 0.727382
0.503700 0.620829 0.741024
0.578531 0.611063 0.720577
0.620386 0.598123 0.708614
0.649805 0.565713 0.707210
0.410864 0.722835 0.753628
0.411566 0.722286 0.759243
0.471473 0.733944 0.772244
0.513329 0.729183 0.770809
0.554406 0.720974 0.765408
0.635203 0.717342 0.759091
0.695674 0.718990 0.752377
0.716518 0.718837 0.746487
0.726925 0.714076 0.742428
0.449592 0.766659 0.782132
0.459388 0.768765 0.780697
0.544060 0.768582 0.780575
0.543786 0.761379 0.777554
0.631159 0.761959 0.775937
0.671931 0.757839 0.772854
0.723934 0.760037 0.772488
0.760342 0.765011 0.773251
0.772976 0.769680 0.774807
0.531182 0.788479 0.788357
0.544701 0.789425 0.784909
0.587121 0.789609 0.785672
0.623072 0.784482 0.782834
0.616663 0.781643 0.780606
0.633661 0.777127 0.776394
0.696590 0.778134 0.777279
0.766323 0.787106 0.785275
0.793088 0.792752 0.791348
