tools/luts_backup/Kodak Vision3 50D 5203 (DP)_VS.cube
# (C) 2014 VisionColor & Patchflyer [www.vision-color.com]
# Generator: VC Patchmatch v.2.1.1 [64/53]
# All work and no play makes Jack a dull boy.
# LUT generated from: Kodak Vision3 50D 5203 (DP)_VisionSpace
LUT_3D_SIZE 17
0.035767 0.035767 0.035767
0.041321 0.025238 0.030060
0.038178 0.020783 0.022553
0.050202 0.021698 0.021180
0.062898 0.023560 0.021759
0.073426 0.024750 0.022217
0.090059 0.025788 0.022522
0.111421 0.027222 0.022980
0.128054 0.028321 0.023316
0.137789 0.028840 0.023438
0.139925 0.028931 0.023438
0.148348 0.029419 0.023560
0.192111 0.032258 0.024750
0.254185 0.038941 0.029603
0.290867 0.043244 0.033204
0.306523 0.045045 0.034882
0.323827 0.046937 0.036713
0.039216 0.090578 0.039216
0.068757 0.088685 0.042756
0.076600 0.053773 0.031037
0.061982 0.029633 0.023438
0.071443 0.025757 0.022431
0.088930 0.026123 0.022583
0.103975 0.026764 0.022766
0.121035 0.027893 0.023194
0.138888 0.028962 0.023499
0.153231 0.029786 0.023682
0.165408 0.030579 0.023987
0.181888 0.031403 0.024201
0.212161 0.033997 0.025940
0.257511 0.039368 0.029908
0.291264 0.043305 0.033265
0.308782 0.045319 0.035126
0.327398 0.047303 0.037079
0.067597 0.127321 0.048524
0.076509 0.129152 0.047883
0.090272 0.123964 0.047944
0.117037 0.089052 0.038422
0.118135 0.060365 0.030610
0.123201 0.043061 0.026673
0.134920 0.034882 0.024842
0.148196 0.032074 0.024201
0.160922 0.031128 0.024048
0.173404 0.031189 0.024109
0.187747 0.031800 0.024384
0.202060 0.033021 0.025269
0.222263 0.035157 0.026703
0.256870 0.039521 0.029938
0.295659 0.044190 0.033845
0.313573 0.045838 0.035615
0.329564 0.047578 0.037324
0.076448 0.152712 0.054017
0.079713 0.153384 0.054658
0.076722 0.155856 0.055055
0.107729 0.150454 0.061616
0.164034 0.128847 0.057160
0.201663 0.113619 0.045411
0.226200 0.102663 0.043488
0.239384 0.085756 0.040162
0.239689 0.065736 0.035187
0.233249 0.050752 0.031189
0.229587 0.042542 0.029084
0.234379 0.039490 0.028565
0.252445 0.040925 0.030030
0.301030 0.051270 0.036194
0.376684 0.068727 0.046296
0.359594 0.056428 0.041932
0.332860 0.047944 0.037690
0.089815 0.187289 0.073610
0.091463 0.189487 0.074525
0.090547 0.198886 0.077241
0.092866 0.204044 0.078859
0.162966 0.197543 0.094087
0.238437 0.185183 0.091859
0.291264 0.172335 0.071687
0.327825 0.161837 0.066346
0.346197 0.145235 0.063508
0.344701 0.121492 0.057343
0.328664 0.096315 0.049622
0.312856 0.075746 0.043214
0.312718 0.065217 0.040528
0.364843 0.077668 0.047608
0.477546 0.119722 0.066957
0.463447 0.100923 0.061067
0.351080 0.051637 0.040101
0.129580 0.239353 0.100832
0.128389 0.239384 0.100557
0.128756 0.249210 0.102602
0.122042 0.258183 0.103059
0.128054 0.258305 0.103639
0.224063 0.256901 0.123323
0.313939 0.251957 0.128542
0.375967 0.231540 0.106416
0.430930 0.212924 0.087953
0.454688 0.192264 0.083803
0.452003 0.165255 0.076661
0.431846 0.138369 0.068269
0.409018 0.115114 0.060578
0.413062 0.102724 0.057710
0.474189 0.119875 0.066743
0.508812 0.131960 0.072480
0.428092 0.080964 0.053315
0.201114 0.297795 0.133608
0.196750 0.294896 0.131899
0.194980 0.301183 0.132753
0.184756 0.308568 0.131289
0.167178 0.311040 0.126253
0.176181 0.310094 0.126894
0.285237 0.323095 0.151156
0.391989 0.317021 0.162997
0.472190 0.290227 0.141573
0.526085 0.261952 0.113664
0.541711 0.230457 0.100160
0.528161 0.195789 0.090272
0.494804 0.159335 0.078401
0.442176 0.118257 0.063905
0.424689 0.091981 0.055879
0.518975 0.141573 0.075715
0.539284 0.151827 0.079896
0.284382 0.360571 0.168215
0.280110 0.357641 0.166995
0.276112 0.360204 0.167300
0.264454 0.363989 0.166079
0.241733 0.364385 0.159976
0.226917 0.363348 0.154208
0.259846 0.368139 0.161715
0.384909 0.395941 0.190219
0.497185 0.376410 0.200504
0.559960 0.343252 0.176684
0.590234 0.303120 0.139086
0.596948 0.256428 0.111391
0.567758 0.210071 0.096986
0.494987 0.149493 0.075898
0.403342 0.085527 0.052583
0.523735 0.149783 0.078157
0.621149 0.223972 0.105074
0.373709 0.430076 0.201053
0.372213 0.428824 0.200992
0.369711 0.430411 0.201633
0.359091 0.433280 0.202762
0.332937 0.429496 0.198367
0.302358 0.421149 0.189914
0.308736 0.422156 0.190005
0.374472 0.441184 0.204288
0.509285 0.462409 0.238193
0.588373 0.429374 0.239628
0.620935 0.389029 0.212451
0.629694 0.334371 0.162676
0.629541 0.277180 0.122942
0.593881 0.224292 0.102998
0.518837 0.162310 0.080995
0.577005 0.196216 0.094148
0.661524 0.296162 0.142336
0.472801 0.508309 0.240604
0.468772 0.506020 0.237186
0.467247 0.507424 0.235721
0.466514 0.512886 0.240543
0.445701 0.511208 0.240238
0.402975 0.496483 0.230900
0.372686 0.480659 0.221164
0.403357 0.488136 0.226932
0.489921 0.514611 0.249973
0.598398 0.500908 0.276616
0.649531 0.476783 0.281010
0.665766 0.441642 0.258640
0.656977 0.377203 0.201328
0.652369 0.331930 0.165164
0.642771 0.307759 0.153002
0.649866 0.310567 0.156329
0.682094 0.371786 0.203372
0.578347 0.586084 0.294591
0.568185 0.579797 0.284062
0.560220 0.577325 0.274144
0.564523 0.580957 0.278691
0.554086 0.580255 0.282078
0.517403 0.569039 0.275120
0.463737 0.547021 0.259251
0.444282 0.533165 0.250858
0.486229 0.542809 0.260685
0.571786 0.564935 0.289860
0.644617 0.526635 0.303716
0.691981 0.533501 0.329595
0.697566 0.507942 0.315740
0.685176 0.452476 0.270253
0.689632 0.440726 0.263233
0.696132 0.440116 0.265766
0.705470 0.444038 0.271702
0.652033 0.643763 0.344793
0.643580 0.637476 0.334997
0.633661 0.632380 0.320989
0.631312 0.630579 0.320531
0.621820 0.626917 0.321202
0.599130 0.617914 0.314946
0.558053 0.601556 0.300450
0.513695 0.582300 0.283635
0.513603 0.576471 0.281376
0.560723 0.588220 0.296727
0.621180 0.601587 0.321721
0.671046 0.567224 0.333257
0.713344 0.580102 0.361913
0.715755 0.559472 0.355077
0.718624 0.534691 0.341650
0.726223 0.527306 0.340002
0.727260 0.512963 0.331304
0.694667 0.679194 0.378729
0.690303 0.675776 0.374487
0.684321 0.671595 0.366796
0.678340 0.667414 0.363134
0.668330 0.662379 0.359869
0.651698 0.655177 0.352911
0.625208 0.643275 0.340032
0.592676 0.628809 0.324224
0.573754 0.619135 0.315404
0.591302 0.621637 0.321843
0.628382 0.632105 0.339452
0.664790 0.635767 0.356359
0.698177 0.614984 0.367315
0.732082 0.610773 0.374701
0.745174 0.594202 0.372198
0.753292 0.580804 0.370459
0.753536 0.568566 0.367102
0.723415 0.703212 0.399359
0.721553 0.701808 0.398138
0.718807 0.699611 0.396246
0.714687 0.696712 0.393744
0.707088 0.692836 0.390265
0.693721 0.686763 0.384436
0.675319 0.678096 0.375463
0.651911 0.667109 0.363256
0.632136 0.658381 0.352209
0.634699 0.657282 0.353979
0.657710 0.663508 0.365820
0.684321 0.668788 0.378546
0.708003 0.661372 0.386786
0.737148 0.645777 0.385290
0.762661 0.636042 0.389349
0.774197 0.625544 0.389563
0.777371 0.614313 0.387091
0.742519 0.717586 0.412024
0.741604 0.717006 0.411444
0.740627 0.716365 0.410864
0.739162 0.715511 0.410040
0.735805 0.714656 0.408728
0.728176 0.713191 0.406287
0.714534 0.708217 0.401160
0.694759 0.699306 0.391760
0.676143 0.690120 0.382391
0.671839 0.686641 0.380346
0.685176 0.690333 0.387579
0.707332 0.695308 0.396460
0.728328 0.691035 0.397620
0.750088 0.679805 0.398199
0.774777 0.667231 0.402899
0.787106 0.659144 0.404364
0.791714 0.648920 0.403021
0.760250 0.730098 0.419257
0.759182 0.729305 0.418921
0.758419 0.728664 0.418708
0.757900 0.728237 0.418524
0.756649 0.727932 0.418097
0.752316 0.728084 0.416876
0.742947 0.727749 0.414588
0.728023 0.722774 0.410071
0.710018 0.714809 0.404150
0.700587 0.710536 0.400427
0.710079 0.713375 0.401617
0.728054 0.717494 0.404669
0.747646 0.714137 0.407721
0.766690 0.704677 0.411261
0.785824 0.694423 0.414832
0.796628 0.687861 0.419959
0.799344 0.679622 0.424079
0.776303 0.740688 0.423926
0.775723 0.740414 0.423774
0.774350 0.739559 0.423316
0.773312 0.739040 0.423041
0.772793 0.739162 0.422919
0.771176 0.739773 0.422583
0.765560 0.740902 0.421302
0.753964 0.741054 0.418463
0.737911 0.735592 0.413672
0.727565 0.730892 0.409705
0.731807 0.732143 0.409369
0.746029 0.735073 0.413550
0.764797 0.731380 0.418891
0.784268 0.724178 0.423163
0.797086 0.716060 0.429694
0.803189 0.708705 0.433387
0.803616 0.699367 0.437079
0.014466 0.018311 0.038331
0.058381 0.024567 0.067506
0.085451 0.024506 0.060792
0.089174 0.023651 0.047517
0.080507 0.022248 0.032929
0.075898 0.022858 0.025666
0.081849 0.024720 0.022858
0.099702 0.026276 0.022736
0.115541 0.027558 0.023163
0.127443 0.028321 0.023316
0.138125 0.028870 0.023468
0.152285 0.029664 0.023621
0.187503 0.031800 0.024414
0.239689 0.037293 0.028290
0.281804 0.042145 0.032258
0.304112 0.044770 0.034638
0.325231 0.047089 0.036866
0.040803 0.096406 0.090455
0.065003 0.075929 0.083467
0.098360 0.041474 0.055360
0.086488 0.027466 0.033722
0.083894 0.024720 0.024933
0.096284 0.026184 0.023041
0.107729 0.026886 0.022858
0.116670 0.027588 0.023133
0.128817 0.028382 0.023346
0.143191 0.029206 0.023529
0.157778 0.030091 0.023804
0.173678 0.030976 0.024048
0.194858 0.032349 0.024811
0.229191 0.035981 0.027344
0.274327 0.041291 0.031525
0.308782 0.045319 0.035126
0.330816 0.047730 0.037476
0.055268 0.143252 0.073487
0.075288 0.134463 0.060456
0.108339 0.133639 0.063386
0.142306 0.101320 0.051911
0.151125 0.075105 0.038178
0.153170 0.051331 0.029175
0.161013 0.039002 0.025818
0.175143 0.035737 0.025238
0.188724 0.035157 0.025238
0.195254 0.034302 0.025299
0.199863 0.033417 0.025299
0.208988 0.033783 0.025757
0.224765 0.035462 0.026947
0.250767 0.038605 0.029297
0.290135 0.043366 0.033234
0.341314 0.052796 0.039582
0.355566 0.054231 0.041077
0.075837 0.175113 0.064515
0.100435 0.166903 0.067170
0.105959 0.168673 0.067842
0.126009 0.167636 0.074800
0.183902 0.143130 0.073426
0.225803 0.123842 0.053559
0.249424 0.109468 0.047272
0.264286 0.095674 0.044587
0.274174 0.085298 0.042664
0.272435 0.070832 0.038819
0.260075 0.053651 0.033661
0.251377 0.043641 0.030671
0.255009 0.040528 0.030091
0.270939 0.041627 0.031434
0.305821 0.047120 0.035401
0.353216 0.056703 0.041535
0.364996 0.056611 0.042359
0.098787 0.206821 0.077211
0.110994 0.199771 0.079011
0.117372 0.205020 0.083467
0.114290 0.212222 0.086183
0.158022 0.213535 0.099855
0.244938 0.199283 0.105257
0.310033 0.180575 0.082033
0.353613 0.166598 0.069520
0.369818 0.154482 0.067689
0.372045 0.138827 0.063844
0.361959 0.114473 0.056855
0.341390 0.087892 0.048463
0.321950 0.067720 0.041840
0.323919 0.059937 0.040070
0.373144 0.074220 0.047395
0.452186 0.103853 0.060975
0.446174 0.092592 0.057618
0.137270 0.249271 0.101015
0.136110 0.240452 0.099336
0.150698 0.248264 0.104707
0.152255 0.259464 0.108461
0.151675 0.265843 0.111177
0.226230 0.271275 0.130312
0.328664 0.264225 0.138918
0.405539 0.237644 0.112398
0.454994 0.215000 0.091371
0.468391 0.197543 0.086213
0.468696 0.176272 0.080751
0.458427 0.151675 0.073671
0.436637 0.127932 0.065980
0.422721 0.110353 0.060395
0.456031 0.118318 0.064973
0.534142 0.155215 0.080354
0.539910 0.152712 0.080171
0.208042 0.305791 0.132845
0.196231 0.292149 0.127962
0.208896 0.297490 0.130800
0.210636 0.306737 0.133272
0.202396 0.313970 0.134585
0.219150 0.321782 0.141939
0.305592 0.336217 0.161807
0.416251 0.328496 0.173190
0.493462 0.293523 0.145205
0.533593 0.263630 0.116197
0.549401 0.237812 0.102632
0.546197 0.213016 0.096071
0.534142 0.187015 0.088502
0.514961 0.163119 0.080903
0.514244 0.153048 0.078279
0.562249 0.175998 0.087831
0.592737 0.196628 0.095399
0.294514 0.369726 0.168185
0.281788 0.358694 0.163577
0.284810 0.358495 0.162905
0.281697 0.362432 0.162722
0.263279 0.363806 0.162020
0.259510 0.369543 0.164279
0.297169 0.381994 0.175631
0.398367 0.406043 0.198245
0.504768 0.387335 0.208347
0.561761 0.351522 0.184588
0.590570 0.317189 0.151171
0.606744 0.282521 0.125322
0.603998 0.249775 0.110628
0.584375 0.215991 0.099763
0.563653 0.188540 0.091157
0.585199 0.199588 0.095613
0.629725 0.238346 0.109865
0.386435 0.440879 0.203738
0.378805 0.434684 0.200504
0.375235 0.431662 0.199313
0.366506 0.432395 0.198611
0.343954 0.429313 0.196841
0.317403 0.424308 0.192905
0.331991 0.431907 0.197787
0.394369 0.451743 0.212558
0.510445 0.475410 0.244083
0.583947 0.443626 0.247105
0.617578 0.406943 0.227008
0.632166 0.366690 0.191150
0.638605 0.324117 0.155352
0.635981 0.277760 0.124804
0.614069 0.237751 0.108309
0.624353 0.242237 0.110567
0.658747 0.295918 0.140993
0.485130 0.517800 0.244724
0.478691 0.514351 0.239078
0.475608 0.512276 0.238621
0.467552 0.511177 0.239048
0.445853 0.507454 0.237430
0.409049 0.496666 0.230777
0.392432 0.490730 0.227420
0.432410 0.504448 0.237736
0.511055 0.528130 0.260807
0.601267 0.528161 0.289403
0.643793 0.495247 0.288914
0.660731 0.455726 0.268528
0.662715 0.407904 0.229587
0.659022 0.359167 0.186282
0.653407 0.316930 0.154482
0.658045 0.318654 0.157473
0.680232 0.371939 0.202701
0.582864 0.589837 0.294072
0.574258 0.585901 0.281804
0.571817 0.586542 0.279850
0.569009 0.585687 0.280247
0.554696 0.579675 0.278630
0.518288 0.567590 0.272099
0.478462 0.553429 0.262943
0.482795 0.551537 0.264591
0.534386 0.564202 0.280308
0.602060 0.582452 0.308263
0.660761 0.564904 0.329381
0.688380 0.541222 0.332036
0.694026 0.499916 0.309606
0.688441 0.453162 0.272648
0.683803 0.417838 0.242039
0.688838 0.417136 0.243427
0.705837 0.448203 0.274937
0.652796 0.644556 0.341466
0.645899 0.640803 0.328801
0.642634 0.642695 0.322942
0.640955 0.643854 0.321111
0.634485 0.637385 0.317357
0.608438 0.624659 0.311528
0.568612 0.607721 0.301579
0.543694 0.594842 0.294163
0.557153 0.593408 0.298619
0.600641 0.604639 0.316655
0.654200 0.615198 0.344152
0.700099 0.599664 0.363958
0.722286 0.576898 0.362676
0.719936 0.543786 0.347448
0.716152 0.519951 0.330938
0.720241 0.512093 0.327489
0.728939 0.519646 0.336248
0.694850 0.679377 0.376013
0.690852 0.676600 0.370062
0.688258 0.676600 0.362799
0.685695 0.677302 0.357671
0.678859 0.671046 0.353002
0.661555 0.662043 0.348180
0.632319 0.649134 0.338750
0.602502 0.634485 0.327123
0.591333 0.626062 0.322698
0.609857 0.628290 0.330541
0.647395 0.640314 0.350805
0.686976 0.644038 0.370581
0.725185 0.631830 0.379370
0.744259 0.607630 0.376135
0.746090 0.590021 0.371283
0.751278 0.581323 0.370153
0.756039 0.574456 0.369329
0.722652 0.702785 0.398505
0.721065 0.701595 0.397436
0.719051 0.700496 0.395575
0.716426 0.699428 0.391119
0.709285 0.694697 0.387701
0.696010 0.687709 0.383154
0.677119 0.678981 0.375189
0.653864 0.668055 0.362921
0.633722 0.658900 0.352331
0.635126 0.657099 0.353521
0.657221 0.663142 0.365240
0.684565 0.670161 0.379095
0.710384 0.665125 0.388159
0.740322 0.652003 0.387518
0.760616 0.636683 0.388952
0.772000 0.627466 0.389471
0.777279 0.618067 0.388220
0.740993 0.716670 0.410986
0.740627 0.716426 0.410803
0.739956 0.715969 0.410346
0.738613 0.715206 0.409400
0.735195 0.714076 0.407996
0.727840 0.712398 0.405524
0.714748 0.707515 0.400580
0.695644 0.698970 0.391669
0.675624 0.689052 0.381445
0.667414 0.683864 0.377325
0.677119 0.686122 0.382391
0.697841 0.692012 0.393530
0.719539 0.691341 0.396826
0.740871 0.681544 0.396429
0.765286 0.668177 0.400153
0.782864 0.659266 0.402960
0.790097 0.650690 0.402716
0.758297 0.728542 0.418708
0.757839 0.728145 0.418555
0.757504 0.727993 0.418463
0.757198 0.727749 0.418341
0.756008 0.727321 0.417914
0.751919 0.727047 0.416754
0.743160 0.726528 0.414557
0.729091 0.722103 0.410376
0.710536 0.713954 0.403662
0.695827 0.707485 0.397375
0.699123 0.707668 0.398901
0.715938 0.712703 0.402106
0.734432 0.713466 0.404303
0.754025 0.705440 0.407141
0.773373 0.695247 0.410742
0.791623 0.686366 0.414923
0.798428 0.680720 0.420020
0.774197 0.739498 0.423285
0.773404 0.739071 0.423041
0.772824 0.738827 0.422889
0.772641 0.738766 0.422858
0.772763 0.738888 0.422889
0.771725 0.739284 0.422675
0.766781 0.739956 0.421454
0.755947 0.740169 0.418799
0.739528 0.735073 0.414069
0.724392 0.727932 0.409033
0.721889 0.725948 0.406928
0.732754 0.729061 0.408301
0.748806 0.729397 0.412848
0.767971 0.722713 0.417273
0.786648 0.714046 0.420996
0.797879 0.705898 0.427832
0.802884 0.700282 0.432837
0.010407 0.015930 0.040681
0.039185 0.022339 0.080323
0.087098 0.028199 0.098848
0.114595 0.030549 0.098726
0.122805 0.029999 0.089693
0.123995 0.028473 0.076143
0.117861 0.026001 0.056245
0.108309 0.024201 0.036286
0.110658 0.024872 0.026734
0.117525 0.026947 0.023957
0.127504 0.028229 0.023407
0.141421 0.029053 0.023499
0.163180 0.030365 0.023896
0.203525 0.033326 0.025513
0.255589 0.039155 0.029755
0.291264 0.043275 0.033234
0.313146 0.045777 0.035584
0.020142 0.045655 0.078889
0.040620 0.030365 0.089265
0.107240 0.033967 0.107240
0.138827 0.033478 0.102022
0.149325 0.031525 0.088930
0.146944 0.028748 0.069520
0.133181 0.025879 0.045624
0.119417 0.025116 0.029114
0.119509 0.026856 0.024262
0.129030 0.028260 0.023529
0.143832 0.029236 0.023560
0.161929 0.030335 0.023896
0.184726 0.031525 0.024231
0.213382 0.034058 0.025971
0.253788 0.038941 0.029572
0.290440 0.043183 0.033173
0.318273 0.046326 0.036103
0.048371 0.156100 0.146578
0.067414 0.137972 0.138827
0.099367 0.113313 0.135195
0.176516 0.083619 0.108125
0.179995 0.063996 0.080629
0.172396 0.043580 0.052766
0.161715 0.036286 0.033509
0.166659 0.034363 0.026734
0.179904 0.033326 0.024933
0.190341 0.032807 0.024750
0.194369 0.032593 0.024872
0.199893 0.032868 0.025147
0.211154 0.033814 0.025818
0.229984 0.036103 0.027405
0.259800 0.039734 0.030182
0.308202 0.045472 0.035157
0.347570 0.050660 0.039551
0.064881 0.201297 0.134920
0.077302 0.185763 0.118471
0.087556 0.176211 0.089631
0.148653 0.178073 0.091402
0.211246 0.151125 0.092409
0.248539 0.134432 0.075166
0.276585 0.116243 0.054444
0.283177 0.100496 0.047395
0.288792 0.089113 0.044770
0.294011 0.079377 0.042634
0.288518 0.066499 0.038972
0.272984 0.052399 0.034363
0.263066 0.043580 0.031464
0.265934 0.040986 0.030915
0.288243 0.043458 0.033112
0.386847 0.073762 0.048341
0.491249 0.125154 0.069398
0.084688 0.231449 0.114626
0.093080 0.226230 0.100679
0.126833 0.214908 0.096315
0.154574 0.221592 0.102846
0.196994 0.226535 0.110811
0.270909 0.205081 0.110201
0.328405 0.184482 0.088685
0.368200 0.166537 0.070863
0.384375 0.153140 0.068452
0.395880 0.141451 0.066316
0.401526 0.127871 0.063294
0.388403 0.108431 0.057282
0.355001 0.081819 0.047944
0.327230 0.060212 0.040345
0.325963 0.053407 0.038544
0.388830 0.073243 0.048371
0.485145 0.120851 0.067842
0.126070 0.269780 0.108370
0.135744 0.266392 0.108034
0.166903 0.257267 0.114534
0.190982 0.265080 0.119600
0.196994 0.273503 0.121492
0.254734 0.284489 0.134676
0.346761 0.266423 0.138338
0.421805 0.238865 0.111940
0.468513 0.213260 0.091920
0.480171 0.192203 0.085725
0.483803 0.174350 0.081422
0.486702 0.160494 0.078096
0.475776 0.144808 0.073243
0.443259 0.118410 0.064027
0.420737 0.098268 0.057160
0.455665 0.110597 0.062959
0.533776 0.151858 0.079469
0.200931 0.316045 0.133059
0.200351 0.312840 0.132021
0.216648 0.306157 0.136385
0.242924 0.314366 0.142245
0.248142 0.323674 0.143618
0.258625 0.331487 0.148074
0.337789 0.350561 0.167056
0.442191 0.331365 0.171725
0.516533 0.294713 0.140139
0.545861 0.254444 0.111101
0.547356 0.223560 0.098848
0.549310 0.207248 0.094850
0.552087 0.196506 0.092317
0.538598 0.177859 0.086519
0.519753 0.157198 0.079744
0.531823 0.157839 0.080842
0.581537 0.187747 0.092287
0.290089 0.379355 0.166354
0.282582 0.372259 0.163027
0.286213 0.366064 0.164431
0.309651 0.373480 0.170382
0.318196 0.383734 0.171176
0.315053 0.387427 0.171603
0.342489 0.396582 0.180941
0.437095 0.420264 0.207156
0.534157 0.394049 0.209995
0.577783 0.349233 0.176501
0.596948 0.301259 0.137621
0.608362 0.270130 0.117266
0.612299 0.257008 0.113558
0.606958 0.238270 0.107729
0.593347 0.214694 0.100099
0.593378 0.206912 0.098085
0.619562 0.226352 0.105043
0.387686 0.453391 0.200412
0.380056 0.446525 0.197177
0.375479 0.439506 0.196017
0.388510 0.442008 0.200870
0.397360 0.451926 0.203952
0.385275 0.452476 0.201144
0.385611 0.452110 0.204135
0.426841 0.463127 0.217868
0.535195 0.484840 0.252201
0.597406 0.452293 0.250919
0.622797 0.409018 0.225238
0.634607 0.367300 0.190082
0.642725 0.339162 0.167041
0.645289 0.311330 0.147173
0.643214 0.278431 0.126772
0.640681 0.260945 0.118288
0.651423 0.271031 0.123903
0.483146 0.525979 0.237491
0.480735 0.525185 0.236851
0.475731 0.519387 0.233860
0.477348 0.516487 0.235294
0.477226 0.520287 0.237858
0.460380 0.518395 0.234897
0.441413 0.511742 0.233036
0.462989 0.516442 0.242893
0.523537 0.532830 0.265110
0.608270 0.537743 0.295323
0.645777 0.506645 0.294163
0.662074 0.469627 0.276982
0.667933 0.431174 0.249256
0.667689 0.394171 0.217685
0.664118 0.354070 0.183230
0.662013 0.325780 0.161257
0.667903 0.329747 0.165408
0.574472 0.590723 0.279942
0.568612 0.593194 0.283268
0.571633 0.589746 0.276432
0.568856 0.585168 0.275059
0.562112 0.581415 0.273838
0.541360 0.574823 0.269352
0.512810 0.565576 0.264897
0.518456 0.566247 0.272496
0.562860 0.579644 0.293278
0.614542 0.592187 0.317937
0.662562 0.577905 0.335698
0.686183 0.554131 0.336217
0.694942 0.521294 0.322942
0.695033 0.479957 0.295109
0.690303 0.436988 0.259922
0.684108 0.401465 0.228824
0.687709 0.396704 0.225956
0.649927 0.646571 0.325963
0.630823 0.647425 0.333165
0.642481 0.644678 0.318120
0.639826 0.641962 0.315373
0.633509 0.636378 0.311284
0.616175 0.627436 0.304906
0.588098 0.615259 0.298497
0.575952 0.609277 0.301396
0.601343 0.616083 0.318486
0.639582 0.628077 0.341833
0.674495 0.628351 0.359411
0.706844 0.615015 0.371557
0.723903 0.592432 0.367742
0.722957 0.560815 0.358312
0.720333 0.526757 0.336675
0.714290 0.490425 0.310063
0.713985 0.475715 0.298711
0.697597 0.683223 0.363958
0.684535 0.684871 0.369970
0.689326 0.679622 0.355413
0.686488 0.678706 0.350866
0.679866 0.674067 0.344488
0.667475 0.665675 0.336492
0.643610 0.654841 0.329747
0.622522 0.644678 0.327672
0.627070 0.643580 0.337621
0.653742 0.651759 0.356725
0.684413 0.658991 0.374853
0.714656 0.655695 0.385565
0.747402 0.646510 0.387457
0.757321 0.624292 0.383856
0.752132 0.596490 0.374517
0.747097 0.570397 0.366247
0.744350 0.556756 0.361852
0.725673 0.706111 0.391394
0.723049 0.707057 0.391913
0.721218 0.703426 0.387854
0.717861 0.702052 0.381811
0.709834 0.697444 0.372900
0.698054 0.689174 0.365850
0.679988 0.680232 0.360265
0.659236 0.670130 0.354345
0.647883 0.664179 0.354162
0.659022 0.666651 0.365301
0.683650 0.675776 0.379767
0.711635 0.680812 0.393103
0.738827 0.677668 0.395087
0.763607 0.666255 0.398993
0.768185 0.644984 0.393927
0.771328 0.626184 0.388830
0.774197 0.611841 0.385199
0.742306 0.718013 0.409155
0.741970 0.717830 0.409247
0.740871 0.716976 0.408911
0.738674 0.716030 0.407294
0.732815 0.713497 0.402594
0.724483 0.710109 0.398993
0.712337 0.704829 0.395148
0.694820 0.697078 0.387762
0.676905 0.688319 0.379400
0.671199 0.684565 0.377295
0.683101 0.688869 0.384710
0.705898 0.696834 0.397284
0.728115 0.698146 0.399756
0.747921 0.690211 0.400488
0.765652 0.674617 0.402197
0.779293 0.660914 0.402319
0.787869 0.650690 0.401923
0.757717 0.728542 0.419532
0.757351 0.728237 0.419623
0.757168 0.728023 0.419715
0.756741 0.727687 0.419318
0.754269 0.726711 0.418647
0.750057 0.725887 0.417304
0.742184 0.725032 0.415076
0.729030 0.720974 0.410315
0.711147 0.713344 0.402930
0.694881 0.706203 0.395727
0.694789 0.705196 0.396490
0.710109 0.710140 0.401007
0.728206 0.713436 0.403845
0.746639 0.707576 0.405371
0.764218 0.697536 0.408270
0.784390 0.686305 0.411841
0.796231 0.681208 0.416327
0.772366 0.738979 0.423468
0.771939 0.738705 0.423224
0.771908 0.738552 0.423102
0.772152 0.738643 0.423072
0.772366 0.738857 0.423072
0.771328 0.738949 0.422736
0.766537 0.739132 0.421424
0.756069 0.739101 0.418799
0.740078 0.734249 0.414252
0.723232 0.726040 0.408789
0.715633 0.721859 0.405432
0.723476 0.723873 0.406012
0.737514 0.726619 0.408057
0.755184 0.722316 0.412879
0.773770 0.713710 0.416510
0.790311 0.704555 0.420935
0.800687 0.699702 0.427832
0.009979 0.016999 0.048127
0.028046 0.021088 0.081300
0.064485 0.026673 0.102754
0.094667 0.030304 0.111757
0.118654 0.033143 0.116487
0.133883 0.033814 0.113741
0.145022 0.033539 0.106020
0.151156 0.031800 0.091737
0.153109 0.029328 0.072541
0.149233 0.027070 0.051026
0.137118 0.026276 0.032959
0.135500 0.027710 0.025147
0.149355 0.029389 0.023804
