tools/luts_backup/Kodak Gold Gen.6 200_FC.cube
# (C) 2014 VisionColor & Patchflyer [www.vision-color.com]
# Generator: VC Patchmatch v.2.1.1 [64/53]
# All work and no play makes Jack a dull boy.
# LUT generated from: Kodak Gold Gen.6 200_FC01
LUT_3D_SIZE 5
0.023728 0.023728 0.023728
0.198352 0.026642 0.026596
0.395300 0.025086 0.025025
0.619516 0.026169 0.030014
0.919753 0.029206 0.050462
0.041001 0.100755 0.013046
0.168688 0.111101 0.014115
0.415808 0.147539 0.016724
0.656031 0.176944 0.024949
0.915221 0.180301 0.034882
0.118914 0.338842 0.008942
0.284749 0.359564 0.012467
0.487480 0.391485 0.015167
0.710246 0.450095 0.020722
0.912184 0.416526 0.021561
0.255985 0.635569 0.012070
0.387091 0.644602 0.017395
0.591653 0.659617 0.017273
0.785107 0.685115 0.020310
0.886778 0.633402 0.021454
0.204837 0.887404 0.011414
0.466438 0.884306 0.016403
0.669551 0.876081 0.019135
0.843107 0.872175 0.021714
0.860182 0.871687 0.021912
0.025650 0.025650 0.146181
0.111650 0.022919 0.170016
0.322438 0.023697 0.174884
0.591730 0.025162 0.176593
0.814435 0.027207 0.189395
0.035950 0.129030 0.113481
0.151568 0.143908 0.143069
0.549722 0.050431 0.053574
0.883223 0.037400 0.058625
0.879499 0.191669 0.210132
0.121126 0.396414 0.113741
0.246296 0.569268 0.028626
0.713649 0.620310 0.045579
0.904646 0.424643 0.033906
0.875746 0.464866 0.218097
0.196185 0.646860 0.087556
0.240589 0.864668 0.012024
0.659907 0.871244 0.023941
0.877195 0.865721 0.033631
0.904830 0.692164 0.191760
0.138415 0.911635 0.026825
0.288563 0.894362 0.042985
0.555871 0.874250 0.113725
0.811856 0.896071 0.209873
0.906828 0.906828 0.218967
0.025879 0.025879 0.334279
0.082628 0.026261 0.385641
0.247517 0.023484 0.301442
0.513939 0.024567 0.342214
0.765332 0.027481 0.375158
0.034531 0.134051 0.359640
0.030503 0.047578 0.602304
0.388128 0.045594 0.496376
0.747448 0.035721 0.372229
0.859739 0.204501 0.377005
0.077180 0.367422 0.377600
0.116670 0.558755 0.605631
0.430518 0.451072 0.440238
0.819272 0.288060 0.282780
0.885145 0.503059 0.455024
0.156588 0.637491 0.341970
0.182864 0.892683 0.257160
0.363867 0.821790 0.128222
0.898238 0.873777 0.286503
0.896773 0.731060 0.476432
0.178866 0.914488 0.257084
0.258732 0.904631 0.288304
0.512215 0.895460 0.403967
0.814298 0.914260 0.496757
0.935699 0.935699 0.514992
0.028122 0.028122 0.742092
0.053513 0.027115 0.672694
0.167742 0.024811 0.527779
0.443320 0.025330 0.597955
0.702541 0.027863 0.600977
0.019913 0.150958 0.754543
0.027588 0.040040 0.961822
0.114305 0.035615 0.826719
0.595758 0.036576 0.833646
0.741375 0.156878 0.529992
0.055772 0.392630 0.693690
0.013321 0.473121 0.949981
0.068040 0.219348 0.820432
0.575280 0.239826 0.772671
0.781643 0.463569 0.598383
0.084047 0.617121 0.729747
0.015930 0.803449 0.906828
0.122179 0.804517 0.879744
0.703044 0.729702 0.741787
0.902159 0.734844 0.702068
0.065675 0.900755 0.564355
0.114977 0.898039 0.607919
0.444389 0.924498 0.768521
0.771725 0.936873 0.783123
0.941695 0.941695 0.786999
0.029923 0.029923 0.972229
0.028946 0.028946 0.895796
0.105470 0.026474 0.856718
0.305150 0.026688 0.820371
0.618296 0.029541 0.874968
0.015656 0.175784 0.978424
0.025620 0.159350 0.941894
0.134249 0.176501 0.886809
0.351324 0.180743 0.857649
0.598535 0.174243 0.850172
0.010254 0.501808 0.951202
0.043214 0.405066 0.937484
0.190539 0.425940 0.905989
0.446693 0.442451 0.883482
0.695598 0.451392 0.885466
0.020661 0.662806 0.958984
0.091539 0.627970 0.931640
0.341619 0.688029 0.919982
0.655512 0.734539 0.929290
0.873259 0.738537 0.923262
0.010132 0.808179 0.934157
0.056870 0.860151 0.921431
0.303410 0.918624 0.916320
0.740459 0.941299 0.933410
0.953887 0.953887 0.945693
