tools/luts_backup/Kodak Elite Chrome 200_VS.cube
# (C) 2014 VisionColor & Patchflyer [www.vision-color.com]
# Generator: VC Patchmatch v.2.1.1 [64/53]
# All work and no play makes Jack a dull boy.
# LUT generated from: Kodak Elite Chrome 200_VisionSpace
LUT_3D_SIZE 5
0.029999 0.029999 0.029999
0.131624 0.037995 0.042695
0.203494 0.053223 0.053223
0.305303 0.079927 0.079927
0.376867 0.091188 0.091188
0.075685 0.164004 0.064759
0.190951 0.199405 0.094697
0.318456 0.216739 0.129519
0.399847 0.220462 0.146029
0.456336 0.225589 0.152499
0.117891 0.289586 0.111360
0.206455 0.351415 0.145205
0.427726 0.443626 0.231846
0.592981 0.487282 0.299138
0.634760 0.478126 0.309575
0.190280 0.477150 0.187289
0.268742 0.515709 0.216129
0.471519 0.580621 0.293370
0.669886 0.646601 0.367559
0.739223 0.674037 0.406378
0.245151 0.594446 0.239658
0.340307 0.617945 0.271092
0.543969 0.667750 0.345800
0.715694 0.737514 0.412940
0.760281 0.751186 0.450965
0.040742 0.038392 0.135164
0.136873 0.049348 0.133303
0.228672 0.070771 0.140383
0.327642 0.095583 0.162081
0.386877 0.104921 0.168856
0.076905 0.156344 0.166506
0.222232 0.215061 0.224338
0.312505 0.104372 0.103456
0.380255 0.104219 0.102998
0.481086 0.180514 0.184146
0.137240 0.318700 0.227054
0.185489 0.447364 0.184604
0.627222 0.608423 0.344579
0.625559 0.463920 0.303014
0.616999 0.393271 0.278630
0.206455 0.492500 0.293919
0.247196 0.588403 0.241276
0.539742 0.668818 0.344030
0.751553 0.740719 0.439857
0.738155 0.665034 0.433661
0.275700 0.616785 0.352819
0.297704 0.650080 0.270817
0.553567 0.693721 0.358068
0.725948 0.749996 0.460243
0.771420 0.758724 0.503258
0.047791 0.046174 0.187716
0.132662 0.057252 0.217472
0.245853 0.085573 0.230686
0.336004 0.107179 0.236606
0.381231 0.107637 0.231418
0.099153 0.177584 0.265232
0.094759 0.103151 0.297978
0.373144 0.163119 0.351232
0.384375 0.117098 0.236789
0.457038 0.191714 0.273411
0.156710 0.306432 0.328344
0.259159 0.460197 0.486656
0.501778 0.507729 0.495048
0.538735 0.212634 0.213306
0.661189 0.357870 0.357870
0.275364 0.529747 0.464088
0.336034 0.659175 0.540536
0.291752 0.643610 0.269108
0.756313 0.736446 0.489479
0.755581 0.675319 0.545068
0.344274 0.669764 0.557275
0.321019 0.674281 0.449119
0.462882 0.703731 0.422934
0.725093 0.759426 0.539178
0.771206 0.754299 0.557488
0.053010 0.045380 0.242527
0.140810 0.072297 0.311650
0.250095 0.102663 0.342626
0.357946 0.130037 0.341161
0.381537 0.114565 0.299351
0.145663 0.242679 0.396918
0.076661 0.075227 0.330571
0.262745 0.142733 0.449531
0.413489 0.150881 0.394324
0.509575 0.248356 0.431922
0.175448 0.328771 0.418860
0.230198 0.391424 0.525658
0.267964 0.343343 0.602686
0.609613 0.345296 0.585611
0.676905 0.460304 0.589044
0.280827 0.502617 0.528466
0.408881 0.675776 0.704250
0.482521 0.678431 0.706447
0.701564 0.690089 0.696071
0.739925 0.684993 0.690486
0.415503 0.705135 0.675196
0.473732 0.713832 0.683284
0.606378 0.734646 0.695827
0.712764 0.757626 0.706416
0.781216 0.777981 0.712642
0.051698 0.043427 0.298222
0.142580 0.081727 0.374701
0.247196 0.120241 0.434852
0.358038 0.141939 0.420844
0.397406 0.131441 0.380194
0.178622 0.285801 0.490547
0.228641 0.292912 0.553155
0.376104 0.324498 0.663508
0.545586 0.321660 0.605127
0.553002 0.289525 0.528801
0.224399 0.391211 0.527398
0.298863 0.455421 0.619226
0.489250 0.531975 0.687526
0.644160 0.550134 0.694179
0.695583 0.524529 0.676356
0.312139 0.531090 0.602869
0.354437 0.572961 0.658778
0.576837 0.655390 0.716731
0.698543 0.691981 0.733639
0.754421 0.698238 0.739223
0.423499 0.685725 0.715908
0.499947 0.708919 0.731075
0.637781 0.738705 0.750820
0.734157 0.768368 0.775265
0.796506 0.796506 0.796506
