tools/luts_backup/Kodak Elite Color 200_CIN.cube
# (C) 2014 VisionColor & Patchflyer [www.vision-color.com]
# Generator: VC Patchmatch v.2.1.1 [64/53]
# All work and no play makes Jack a dull boy.
# LUT generated from: Kodak Elite Color 200_Cineon
LUT_3D_SIZE 5
0.085603 0.085603 0.085603
0.201785 0.104555 0.102480
0.289342 0.122530 0.108492
0.353002 0.137514 0.114199
0.406897 0.153689 0.122774
0.143923 0.245090 0.113405
0.274846 0.253605 0.176089
0.387121 0.287175 0.199222
0.444953 0.302281 0.202518
0.493812 0.314397 0.208408
0.099214 0.339910 0.102907
0.350042 0.382849 0.196475
0.445594 0.413367 0.291447
0.536858 0.454932 0.332219
0.595911 0.474891 0.357977
0.107088 0.419471 0.110231
0.410956 0.466804 0.204807
0.521721 0.509178 0.341863
0.569879 0.526940 0.360021
0.631525 0.570153 0.425940
0.128603 0.472877 0.124605
0.491096 0.560937 0.310155
0.580407 0.603876 0.412329
0.613611 0.609522 0.430121
0.642542 0.621790 0.448280
0.092226 0.103029 0.195438
0.204410 0.105501 0.190951
0.302647 0.126253 0.192569
0.371313 0.153536 0.194095
0.422156 0.171115 0.201480
0.176455 0.254795 0.266148
0.305486 0.304906 0.304631
0.387182 0.183658 0.150301
0.403235 0.153780 0.122957
0.449775 0.221866 0.175387
0.225925 0.400671 0.357244
0.136599 0.419593 0.140169
0.529503 0.489632 0.342596
0.587060 0.466926 0.351080
0.585870 0.433173 0.320928
0.255039 0.474128 0.389899
0.148287 0.473548 0.127962
0.572381 0.593347 0.388769
0.638514 0.615442 0.437293
0.634821 0.571160 0.429175
0.323125 0.535821 0.410864
0.302983 0.509728 0.191165
0.557946 0.603479 0.344762
0.613764 0.613794 0.424048
0.645014 0.625940 0.453285
0.100587 0.124727 0.278294
0.195895 0.112032 0.280552
0.308080 0.129671 0.284215
0.378058 0.152865 0.281621
0.426307 0.169497 0.284642
0.168063 0.273960 0.344823
0.146273 0.264683 0.399664
0.406165 0.222202 0.379492
0.423590 0.170230 0.289677
0.470466 0.241001 0.336248
0.229191 0.386999 0.410742
0.286046 0.456550 0.481209
0.500694 0.501152 0.495918
0.516518 0.323415 0.283040
0.593439 0.449378 0.426093
0.347143 0.502770 0.490730
0.434485 0.581079 0.536828
0.348714 0.494148 0.260182
0.629969 0.595148 0.413306
0.641718 0.572351 0.467567
0.447456 0.589654 0.544732
0.432776 0.588983 0.500420
0.481605 0.567468 0.435523
0.614923 0.623468 0.448524
0.648890 0.619135 0.436683
0.101961 0.141756 0.335698
0.180484 0.115389 0.331273
0.293645 0.135378 0.347173
0.379736 0.161471 0.351019
0.435462 0.181674 0.357824
0.146578 0.296696 0.405188
0.121706 0.229221 0.416663
0.304723 0.193881 0.411414
0.431617 0.196017 0.404120
0.479744 0.287266 0.443244
0.192447 0.394049 0.448951
0.173663 0.417273 0.493446
0.338796 0.435004 0.519982
0.534966 0.390890 0.510338
0.593164 0.473945 0.540490
0.338079 0.489601 0.510582
0.452155 0.579065 0.596277
0.505608 0.595361 0.607843
0.603418 0.599695 0.597498
0.638117 0.590173 0.583703
0.460212 0.598169 0.584070
0.495735 0.618524 0.604974
0.556939 0.632319 0.604303
0.586572 0.633539 0.571527
0.647517 0.637293 0.561944
0.113741 0.203433 0.408301
0.178195 0.155001 0.390875
0.294774 0.171969 0.406317
0.377142 0.181552 0.406470
0.436255 0.199680 0.407599
0.123415 0.337469 0.459785
0.214603 0.391058 0.510460
0.384588 0.389441 0.515343
0.483528 0.340612 0.482856
0.477424 0.287053 0.451392
0.162356 0.413977 0.491676
0.289738 0.468299 0.547936
0.476020 0.517113 0.585901
0.563165 0.509758 0.592309
0.593744 0.483131 0.577050
0.329320 0.492103 0.540063
0.398352 0.529320 0.580713
0.532280 0.584863 0.619776
0.592706 0.603326 0.633051
0.638178 0.592462 0.630091
0.463752 0.590814 0.604822
0.499092 0.610437 0.624750
0.570672 0.637507 0.642664
0.609949 0.646174 0.648219
0.655604 0.655604 0.654475
