tools/luts_backup/Kodak Vision3 250D 5207 (NEG)_CIN.cube
# (C) 2014 VisionColor & Patchflyer [www.vision-color.com]
# Generator: VC Patchmatch v.2.1.1 [64/53]
# All work and no play makes Jack a dull boy.
# LUT generated from: Kodak Vision3 250D 5207 (NEG)_Cineon
LUT_3D_SIZE 9
0.085847 0.090944 0.086824
0.239933 0.091798 0.080598
0.294682 0.096651 0.080964
0.315587 0.088167 0.081453
0.343481 0.082582 0.076997
0.354040 0.081209 0.075624
0.403845 0.074769 0.069215
0.502190 0.059419 0.054078
0.528954 0.056733 0.051392
0.114290 0.184665 0.100099
0.227573 0.198642 0.092622
0.332280 0.195468 0.083345
0.395483 0.175753 0.074495
0.393317 0.101625 0.070497
0.401190 0.076326 0.069947
0.434028 0.070100 0.064546
0.501488 0.060792 0.054444
0.533257 0.056306 0.050965
0.190066 0.311681 0.134249
0.226352 0.321599 0.136599
0.322179 0.320226 0.153719
0.416632 0.311406 0.130404
0.458961 0.265232 0.073457
0.477180 0.174456 0.057008
0.490974 0.097810 0.056641
0.583215 0.157900 0.042481
0.541833 0.057099 0.049989
0.324132 0.396765 0.198581
0.326299 0.399115 0.197665
0.314946 0.407843 0.195743
0.385687 0.407050 0.201511
0.491676 0.387610 0.161257
0.551446 0.340200 0.064469
0.563195 0.231189 0.043641
0.552697 0.095186 0.048096
0.605432 0.192065 0.038972
0.437903 0.472114 0.217716
0.436805 0.472389 0.222385
0.418891 0.476875 0.225834
0.403967 0.475898 0.219730
0.502708 0.478035 0.221683
0.596399 0.454231 0.180835
0.621637 0.370413 0.054612
0.568887 0.203769 0.051820
0.666896 0.382483 0.054582
0.534997 0.552300 0.221988
0.520195 0.554345 0.180087
0.521569 0.555261 0.208713
0.477058 0.539117 0.231296
0.486580 0.527642 0.233585
0.596368 0.513939 0.235019
0.664363 0.526543 0.248264
0.672236 0.489555 0.204944
0.691737 0.485267 0.201755
0.613581 0.611322 0.248112
0.605646 0.607446 0.234745
0.592737 0.600732 0.242466
0.561730 0.591180 0.247990
0.526940 0.579644 0.245090
0.564630 0.579004 0.254032
0.629236 0.573999 0.268528
0.681605 0.573602 0.294072
0.701961 0.561761 0.294865
0.652583 0.641566 0.268009
0.651118 0.640406 0.266941
0.646754 0.637995 0.267002
0.627710 0.633082 0.272312
0.595300 0.624811 0.268101
0.604608 0.621302 0.280613
0.642878 0.619043 0.301427
0.686030 0.616144 0.329290
0.706325 0.612055 0.342840
0.679774 0.660517 0.292790
0.678553 0.659815 0.290959
0.677485 0.659083 0.290074
0.670283 0.657923 0.294560
0.643427 0.653712 0.294987
0.637964 0.650111 0.308537
0.668635 0.648981 0.338659
0.696376 0.647272 0.363989
0.709072 0.643946 0.374884
0.084047 0.088167 0.201724
0.217227 0.090639 0.218357
0.305699 0.082094 0.227451
0.313695 0.080507 0.186038
0.320104 0.084199 0.112581
0.340734 0.082765 0.079316
0.376501 0.078828 0.073243
0.470588 0.064942 0.059449
0.521660 0.057435 0.052094
0.083986 0.184695 0.208591
0.181247 0.185580 0.192569
0.363531 0.196506 0.149264
0.429389 0.184329 0.118288
0.405737 0.143587 0.088533
0.400732 0.098360 0.071138
0.425879 0.071290 0.065675
0.471931 0.065003 0.059571
0.542443 0.056153 0.049836
0.159640 0.328679 0.209201
0.207462 0.309941 0.185275
0.346410 0.330297 0.175387
0.469001 0.329931 0.150240
0.507073 0.279484 0.090730
0.517357 0.231113 0.060731
0.514885 0.127733 0.052522
0.513787 0.064820 0.052918
0.584253 0.149599 0.042420
0.308232 0.415045 0.184146
0.296483 0.412787 0.188327
0.356725 0.424475 0.182101
0.439521 0.429450 0.198184
0.533013 0.396612 0.145083
0.564477 0.326619 0.059937
0.587060 0.286229 0.040009
0.584436 0.202960 0.041108
0.620111 0.253544 0.035523
0.443091 0.494301 0.180087
0.427161 0.489082 0.184115
0.442451 0.497047 0.189761
0.443030 0.492348 0.198459
0.519738 0.491035 0.223667
0.594690 0.465858 0.194980
0.631006 0.425834 0.117357
0.641749 0.370535 0.053239
0.653529 0.358099 0.037995
0.528069 0.561517 0.171115
0.527520 0.563226 0.165652
0.522301 0.556115 0.175204
0.494820 0.548089 0.202670
0.526329 0.547295 0.239078
0.602350 0.547021 0.254612
0.653315 0.528130 0.250614
0.673060 0.483497 0.196933
0.682246 0.453864 0.143862
0.614801 0.621363 0.191897
0.606317 0.621637 0.181704
0.597528 0.619165 0.169680
0.570428 0.603876 0.184604
0.562890 0.591791 0.240024
0.610193 0.594049 0.272740
0.670680 0.600671 0.308415
0.687678 0.576226 0.299138
0.699886 0.556420 0.287938
0.652338 0.643458 0.245823
0.651270 0.642054 0.250889
0.643915 0.640436 0.232303
0.625269 0.632807 0.245914
0.595026 0.623682 0.256260
0.601068 0.620447 0.274296
0.640253 0.622553 0.301579
0.677516 0.617578 0.323095
0.702052 0.611902 0.338659
0.677394 0.659358 0.286351
0.676997 0.658961 0.286900
0.677394 0.659113 0.288457
0.671778 0.657588 0.291569
0.646937 0.652613 0.292699
0.625269 0.646052 0.292302
0.645533 0.643946 0.316991
0.678187 0.641627 0.341100
0.702358 0.640711 0.364874
0.076692 0.082277 0.258915
0.165377 0.078889 0.296025
0.267918 0.077760 0.305913
0.309117 0.074189 0.316381
0.334203 0.072267 0.301579
0.356695 0.071839 0.241062
0.365972 0.075227 0.137346
0.445045 0.068421 0.067079
0.505425 0.058961 0.053620
0.076265 0.191287 0.313207
0.137575 0.168276 0.307530
0.319371 0.160250 0.311986
0.388006 0.118074 0.308202
0.394171 0.085115 0.277317
0.401099 0.074739 0.202441
0.401404 0.074311 0.088060
0.439216 0.069368 0.063905
0.500237 0.059754 0.054322
0.097749 0.324681 0.332677
0.176516 0.326757 0.332830
0.322454 0.302953 0.310399
0.426429 0.289738 0.274388
0.492988 0.268254 0.221134
0.505882 0.233158 0.147875
0.503655 0.159213 0.065217
0.487678 0.069734 0.056794
0.512749 0.058289 0.052949
0.228916 0.433600 0.322850
0.258457 0.427222 0.307500
0.362097 0.413184 0.295720
0.443427 0.425361 0.263554
0.536217 0.397498 0.227512
0.581689 0.346914 0.157031
0.601831 0.303502 0.068376
0.601770 0.246815 0.039460
0.587945 0.157214 0.041901
0.393072 0.508507 0.275700
0.388617 0.501945 0.263584
0.425452 0.498268 0.279484
0.468055 0.502556 0.246067
0.533135 0.498604 0.213291
0.616846 0.473091 0.175082
0.644465 0.418357 0.084092
0.653559 0.385016 0.040497
0.654475 0.352178 0.038972
0.490639 0.571283 0.245792
0.493446 0.570031 0.239048
0.496498 0.565881 0.248508
0.516258 0.562463 0.237278
0.542321 0.557244 0.193576
0.611475 0.549889 0.193362
0.666163 0.539483 0.184512
0.682185 0.505455 0.177630
0.686488 0.468177 0.159533
0.584100 0.629450 0.268559
0.576928 0.621607 0.252415
0.580468 0.617548 0.221744
0.581933 0.612970 0.203189
0.578912 0.610559 0.164920
0.620539 0.607630 0.217533
0.667109 0.605646 0.264134
0.690761 0.586969 0.290501
0.700282 0.545617 0.267094
0.648829 0.658595 0.242832
0.646876 0.657160 0.238285
0.637781 0.651637 0.232914
0.624292 0.644007 0.224887
0.616510 0.643427 0.168276
0.635645 0.639429 0.207218
0.672511 0.637415 0.286046
0.687068 0.626551 0.326726
0.707362 0.599939 0.315526
0.679988 0.671351 0.237522
0.680842 0.670436 0.235019
0.680659 0.669551 0.237095
0.672175 0.666285 0.236942
0.650935 0.659083 0.235264
0.640528 0.655421 0.248295
0.657099 0.651484 0.291142
0.671168 0.640833 0.333165
0.696162 0.637385 0.354894
0.072602 0.077943 0.306584
0.093812 0.076875 0.308721
0.185733 0.074891 0.321019
0.267338 0.073671 0.330510
0.302556 0.073030 0.330419
0.342870 0.070253 0.333135
0.373907 0.066957 0.317235
0.463050 0.059876 0.198596
0.514549 0.056886 0.069612
0.072786 0.109773 0.320348
0.105440 0.106081 0.324651
0.247349 0.112978 0.358495
0.334630 0.096345 0.357610
0.374060 0.071504 0.355474
0.394324 0.063966 0.337499
0.409857 0.063813 0.297642
0.436316 0.066285 0.136736
0.490425 0.061433 0.056092
0.154971 0.330877 0.419379
0.210483 0.318486 0.419745
0.269047 0.279942 0.389013
0.393256 0.248631 0.381598
0.461524 0.209659 0.357366
0.475319 0.140841 0.329839
0.487007 0.097932 0.265492
0.483833 0.063813 0.102586
0.493446 0.060822 0.055756
0.170718 0.449073 0.428809
0.230869 0.445228 0.439277
0.325353 0.424506 0.423865
0.418799 0.404028 0.404639
0.516838 0.384558 0.371984
0.560143 0.336507 0.325826
0.568475 0.273152 0.242908
0.575860 0.211460 0.108721
0.554955 0.112535 0.050080
0.301915 0.526604 0.420325
0.328283 0.508965 0.396582
0.380529 0.500877 0.387396
0.448249 0.492836 0.377295
0.521294 0.502190 0.346563
0.608423 0.482002 0.323186
0.637446 0.426810 0.275471
0.651240 0.383062 0.175219
0.659754 0.354986 0.063554
0.424826 0.572839 0.370901
0.429465 0.572168 0.367437
0.451392 0.567773 0.353185
0.487678 0.565179 0.350408
0.545190 0.572015 0.326909
0.609552 0.571252 0.299306
0.668544 0.550591 0.275044
0.689052 0.495216 0.196582
0.690608 0.441291 0.094469
0.529564 0.623011 0.354192
0.527184 0.618982 0.337865
0.533959 0.617823 0.324041
0.545953 0.614710 0.326848
0.571191 0.613977 0.322606
0.618402 0.618860 0.287098
0.669520 0.621210 0.263020
0.703975 0.598505 0.219821
0.713436 0.567468 0.186374
0.613397 0.657496 0.364202
0.606195 0.652155 0.346044
0.610162 0.649683 0.321996
0.612787 0.648035 0.303288
0.619623 0.647730 0.291752
0.635309 0.650385 0.247791
0.677058 0.648829 0.234485
0.700587 0.636622 0.258000
0.710323 0.619165 0.286809
0.656641 0.673579 0.354253
0.661952 0.674372 0.340856
0.661585 0.673671 0.333135
0.650446 0.669673 0.327276
0.651148 0.668147 0.312169
0.655390 0.670039 0.254612
0.686610 0.668360 0.238102
0.701656 0.654475 0.278874
0.707515 0.636042 0.326604
0.068269 0.073610 0.344335
0.071290 0.075380 0.330510
0.133547 0.070008 0.356085
0.225528 0.067323 0.375250
0.263951 0.068116 0.366125
0.302007 0.070375 0.348638
0.360418 0.067536 0.358129
0.469764 0.055177 0.336629
0.554162 0.048096 0.234272
0.066865 0.076478 0.354955
0.075227 0.073518 0.346105
0.164736 0.071321 0.373358
0.273777 0.075654 0.391119
0.311498 0.068513 0.377752
0.349371 0.065400 0.379339
0.375769 0.065278 0.364996
0.432929 0.061280 0.292027
0.483528 0.062104 0.074479
0.065827 0.302861 0.465705
0.112764 0.271916 0.459876
0.204959 0.234623 0.443671
0.339971 0.207034 0.438178
0.419867 0.143679 0.427344
0.439063 0.074891 0.403143
0.446876 0.057557 0.360693
0.481056 0.054322 0.300084
0.503899 0.057588 0.114458
0.126802 0.440436 0.520470
0.191470 0.426551 0.517998
0.273075 0.406470 0.502068
0.355596 0.384344 0.485664
0.462623 0.359869 0.465736
0.513573 0.311849 0.435630
0.532494 0.224201 0.382712
0.557336 0.129870 0.283009
0.560998 0.074693 0.150561
0.246616 0.550591 0.546563
0.301640 0.538140 0.539879
0.347692 0.524163 0.530571
0.407721 0.510979 0.513481
0.492500 0.490791 0.496406
0.583001 0.472877 0.468559
0.613672 0.421897 0.422690
0.627863 0.355184 0.330953
0.644007 0.326345 0.211963
0.362982 0.593378 0.514015
0.372198 0.587762 0.506539
0.398779 0.576562 0.480278
0.435645 0.568475 0.461540
0.505150 0.564355 0.455894
0.584009 0.572442 0.439689
0.649897 0.562158 0.424186
0.673548 0.509636 0.379355
0.682399 0.455299 0.307012
0.467964 0.620508 0.464469
0.464515 0.618433 0.455833
0.473793 0.619837 0.456977
0.492287 0.613977 0.423713
0.536522 0.614038 0.426520
0.596582 0.619989 0.421744
0.651240 0.621363 0.405234
0.690120 0.604486 0.375723
0.703120 0.563561 0.336172
0.571038 0.655116 0.455177
0.569665 0.648890 0.411749
0.566766 0.646754 0.403937
0.568383 0.645960 0.394842
0.583917 0.645075 0.400214
0.613916 0.648280 0.401312
0.657496 0.649775 0.393469
0.696101 0.640986 0.343252
0.713161 0.623987 0.300160
0.618433 0.670985 0.446754
0.626307 0.672175 0.433356
0.628382 0.670130 0.410346
0.626947 0.667597 0.396490
0.628229 0.667323 0.380743
0.638453 0.667170 0.368627
0.661189 0.667933 0.319997
0.699702 0.663020 0.275349
0.715724 0.656825 0.280034
0.060761 0.066011 0.395911
0.063844 0.069184 0.371984
0.068574 0.068574 0.373541
0.141100 0.065095 0.396979
0.211398 0.065187 0.396063
0.222110 0.066102 0.386328
0.305791 0.066529 0.378058
0.513268 0.050141 0.451209
0.595239 0.042298 0.419409
0.060273 0.066255 0.399481
0.061067 0.065980 0.394507
0.094881 0.064149 0.407416
0.206607 0.062104 0.426398
0.278202 0.060426 0.433814
0.289189 0.062104 0.418372
0.316777 0.063386 0.402533
0.394232 0.062470 0.372992
0.542107 0.048859 0.295766
0.048646 0.256153 0.505974
0.053803 0.178973 0.478279
0.106035 0.147601 0.471412
0.269276 0.105333 0.486213
0.352132 0.083772 0.481575
0.364904 0.058564 0.455512
0.392370 0.057832 0.433845
0.467964 0.054505 0.407965
0.527184 0.050233 0.278599
0.058000 0.435401 0.580011
0.096117 0.405371 0.570306
0.183062 0.388739 0.557855
0.293873 0.363043 0.545007
0.408225 0.336400 0.532830
0.460853 0.271992 0.514580
0.496040 0.185657 0.489937
0.542138 0.094835 0.419623
0.593256 0.058946 0.328435
0.188891 0.538079 0.610651
0.236652 0.517540 0.602380
0.291554 0.509453 0.593500
0.344686 0.495064 0.583398
0.433707 0.476661 0.570520
0.515251 0.452506 0.550683
0.569207 0.414694 0.527550
0.610895 0.352102 0.462318
0.644373 0.305684 0.357855
0.329229 0.609003 0.608576
0.345220 0.603815 0.606378
0.380865 0.594293 0.597803
0.413550 0.587640 0.588739
0.471077 0.578515 0.577844
0.561425 0.565362 0.567803
0.623316 0.554437 0.550622
0.651637 0.514916 0.508202
0.671901 0.467201 0.435599
0.424475 0.634302 0.572503
0.414099 0.631922 0.584131
0.423407 0.626459 0.564477
0.443885 0.620050 0.546868
0.481086 0.614343 0.533562
0.560082 0.611078 0.530541
0.627314 0.617060 0.521965
0.672145 0.609491 0.502678
0.688350 0.585748 0.468818
0.525841 0.651392 0.546990
0.510155 0.644892 0.520287
0.504051 0.642390 0.518273
0.510277 0.640772 0.504540
0.531884 0.640162 0.490608
0.576257 0.642756 0.489509
0.630579 0.646082 0.486702
0.677638 0.643244 0.472236
0.697383 0.638849 0.451148
0.582513 0.666407 0.530236
0.590204 0.667475 0.516258
0.585840 0.663264 0.483009
0.585687 0.662440 0.472877
0.589319 0.663203 0.458351
0.603418 0.667170 0.444800
0.627070 0.664240 0.443732
0.662654 0.661280 0.416114
0.702205 0.664637 0.413382
0.054658 0.059876 0.456641
0.056367 0.061555 0.438972
0.057160 0.062348 0.430732
0.071199 0.061402 0.435615
0.123873 0.060395 0.445960
0.152468 0.060456 0.443427
0.307256 0.052613 0.497688
0.495430 0.047913 0.536828
0.605371 0.041352 0.535210
0.057160 0.062379 0.430701
0.057191 0.062409 0.430335
0.058259 0.062226 0.431067
0.145159 0.058045 0.463264
0.245579 0.054200 0.482704
0.264347 0.054322 0.477699
0.245335 0.058564 0.451484
0.363561 0.054658 0.470100
0.611597 0.040772 0.519585
0.048127 0.179583 0.514458
0.049531 0.149737 0.504173
0.052827 0.098039 0.481300
0.184497 0.075776 0.515038
0.314580 0.057130 0.539117
0.345892 0.049409 0.530510
0.336614 0.051759 0.496620
0.428504 0.052216 0.491432
0.549584 0.046693 0.460609
0.036957 0.412360 0.605127
0.039826 0.388647 0.596857
0.060533 0.368444 0.587549
0.178241 0.340032 0.578912
0.335103 0.308171 0.574884
0.411200 0.248524 0.576074
0.432044 0.147509 0.552209
0.508446 0.081651 0.546258
0.613184 0.047623 0.491707
0.108446 0.532341 0.642969
0.147997 0.518059 0.637110
0.209277 0.503044 0.628168
0.279133 0.482887 0.619898
0.376272 0.469337 0.611841
0.459907 0.443473 0.597436
0.502220 0.407248 0.586053
0.577173 0.357717 0.575036
0.646174 0.289845 0.490425
0.272251 0.600855 0.640742
0.303960 0.596277 0.642939
0.338842 0.585748 0.635370
0.378607 0.578759 0.630091
0.431983 0.569726 0.623957
0.516106 0.558495 0.615259
0.567346 0.540368 0.603235
0.613642 0.512840 0.591455
0.652674 0.469581 0.552392
0.384100 0.643610 0.637446
0.401984 0.636439 0.641993
0.408331 0.633692 0.635004
0.427985 0.627558 0.627070
0.468849 0.623652 0.622675
0.538689 0.618128 0.616144
0.608209 0.612268 0.612085
0.648951 0.604700 0.600946
0.669062 0.586877 0.579431
0.478431 0.658991 0.619715
0.456550 0.654688 0.623133
0.448432 0.651301 0.616388
0.458015 0.648432 0.606409
0.482399 0.644373 0.596857
0.534630 0.641382 0.586938
0.597925 0.639399 0.581659
0.653284 0.643824 0.577905
0.678431 0.641169 0.568994
0.543816 0.666865 0.601373
0.552148 0.665705 0.585870
0.522759 0.656275 0.572412
0.526207 0.658503 0.577325
0.539239 0.658045 0.562036
0.558068 0.658015 0.540703
0.591730 0.660853 0.528801
0.642481 0.662135 0.526299
0.682887 0.665156 0.539391
0.052766 0.057984 0.476478
0.052857 0.058045 0.475624
0.052949 0.058137 0.474739
0.062470 0.056855 0.483558
0.082826 0.055970 0.492195
0.106630 0.055360 0.496773
0.288609 0.047669 0.541161
0.434669 0.044129 0.576013
0.562371 0.041962 0.598932
0.053346 0.058564 0.470405
0.054627 0.059846 0.456916
0.054505 0.059724 0.458167
0.088777 0.056886 0.481880
0.218204 0.049866 0.524773
0.251560 0.048096 0.535668
0.294560 0.047547 0.540551
0.360174 0.049928 0.524193
0.600153 0.041505 0.600977
0.049165 0.110033 0.508537
0.048981 0.113817 0.509392
0.049866 0.088777 0.504326
0.087694 0.069215 0.522087
0.241367 0.054780 0.562676
0.313207 0.046845 0.567895
0.330297 0.046448 0.552728
0.378058 0.047944 0.537530
0.564050 0.043610 0.581018
0.035492 0.386954 0.619196
0.035981 0.377630 0.613672
0.037263 0.351568 0.606531
0.073075 0.294575 0.591424
0.247608 0.300984 0.599268
0.345892 0.259144 0.602625
0.403967 0.173846 0.601404
0.458503 0.094347 0.597955
0.589319 0.055802 0.606592
0.045975 0.532250 0.664851
0.076616 0.517205 0.658259
0.109361 0.493874 0.649592
0.174517 0.461891 0.637049
0.318044 0.455726 0.631495
0.413062 0.449851 0.625269
0.468086 0.422354 0.619135
0.512932 0.384176 0.614771
0.611811 0.286152 0.613306
0.199405 0.596490 0.666835
0.290120 0.597589 0.663020
0.304082 0.585260 0.658289
0.363806 0.577844 0.652186
0.414466 0.565057 0.645808
0.493904 0.558434 0.638361
0.539422 0.542901 0.629175
0.566003 0.522667 0.623194
0.622248 0.483726 0.616663
0.357824 0.644190 0.663783
0.408087 0.634089 0.660121
0.400671 0.631006 0.658595
0.432624 0.626520 0.652613
0.477729 0.619226 0.649012
0.530724 0.613642 0.644129
0.587854 0.608484 0.639948
0.610864 0.601740 0.633265
0.641627 0.591211 0.627253
0.446479 0.663447 0.658503
0.446906 0.659510 0.654871
0.453162 0.653803 0.653620
0.463142 0.651301 0.649927
0.499397 0.647089 0.646723
0.545678 0.644465 0.643702
0.592065 0.642756 0.640375
0.638331 0.640650 0.638636
0.661524 0.638575 0.635157
0.512322 0.670314 0.647913
0.519036 0.670283 0.640528
0.488136 0.664729 0.634943
0.486488 0.663661 0.640345
0.520684 0.664393 0.639185
0.540734 0.661646 0.632868
0.567742 0.659632 0.617365
0.622492 0.658900 0.612726
0.666590 0.662379 0.622370
0.051728 0.056977 0.487190
0.051789 0.057008 0.486732
0.051820 0.057008 0.486488
0.062074 0.055390 0.498878
0.095216 0.053895 0.510338
0.107942 0.053742 0.511284
0.235019 0.048005 0.542351
0.365087 0.044251 0.574945
0.484474 0.041596 0.602625
0.050752 0.056397 0.497444
0.050690 0.055909 0.498329
0.050141 0.055085 0.506737
0.201419 0.046632 0.561822
0.239765 0.046967 0.563439
0.211490 0.048432 0.543389
0.342535 0.044312 0.574243
0.450813 0.042420 0.594018
0.525963 0.041230 0.606531
0.039338 0.227268 0.588312
0.050141 0.059113 0.503899
0.051453 0.064881 0.489723
0.052094 0.063325 0.508171
0.205692 0.054841 0.581903
0.248173 0.050935 0.588525
0.313298 0.044251 0.587518
0.431495 0.042298 0.598657
0.542382 0.040375 0.617884
0.032532 0.422156 0.649714
0.037324 0.308949 0.602838
0.037964 0.302937 0.600793
0.067613 0.305715 0.613764
0.218830 0.298177 0.618341
0.322637 0.284077 0.620142
0.378058 0.242298 0.622156
0.431312 0.191699 0.622309
0.541711 0.164324 0.634089
0.031067 0.540948 0.684901
0.053819 0.511070 0.667964
0.089464 0.489082 0.662470
0.134691 0.463416 0.656306
0.261769 0.448096 0.646235
0.406531 0.457923 0.641749
0.450446 0.437522 0.635248
0.489876 0.416739 0.632807
0.548089 0.382162 0.631098
0.162890 0.613611 0.692012
0.316182 0.606043 0.674617
0.311696 0.585931 0.671046
0.347646 0.572259 0.665675
0.380377 0.554864 0.658686
0.488334 0.558923 0.650477
0.529351 0.551019 0.643336
0.558373 0.542016 0.637537
0.583368 0.524529 0.632532
0.329595 0.642908 0.682826
0.376867 0.632441 0.672023
0.450111 0.631373 0.667506
0.479194 0.625879 0.664485
0.502800 0.618647 0.660029
0.546532 0.613581 0.655909
0.587884 0.611231 0.651789
0.606836 0.609155 0.646174
0.619471 0.604913 0.640772
0.419623 0.659998 0.675990
0.428992 0.660517 0.672847
0.491005 0.654414 0.666499
0.491890 0.648463 0.664912
0.538445 0.645991 0.661555
0.563195 0.641474 0.658961
0.599786 0.640192 0.656397
0.634058 0.640101 0.653315
0.646815 0.642267 0.649958
0.480323 0.671534 0.671412
0.488350 0.671717 0.667140
0.511070 0.670192 0.666072
0.531090 0.664851 0.663142
0.528008 0.662745 0.661677
0.537774 0.658595 0.657801
0.575311 0.656977 0.655940
0.629786 0.659266 0.656123
0.660517 0.659907 0.657740
