tools/luts_backup/Kodak Vision3 500T 5219 (C41)_CIN.cube
# (C) 2014 VisionColor & Patchflyer [www.vision-color.com]
# Generator: VC Patchmatch v.2.1.1 [64/53]
# All work and no play makes Jack a dull boy.
# LUT generated from: BMD Film to Kodak Vision3 500T 5219 (C41)_Cineon
LUT_3D_SIZE 5
0.125490 0.113725 0.117647
0.309804 0.129412 0.129412
0.482353 0.172549 0.203922
0.494118 0.176471 0.239216
0.494118 0.172549 0.172549
0.184314 0.341176 0.172549
0.333333 0.349020 0.200000
0.474510 0.301961 0.207843
0.513726 0.188235 0.215686
0.521569 0.262745 0.207843
0.243137 0.490196 0.239216
0.325490 0.478431 0.250980
0.478431 0.482353 0.278431
0.560784 0.458824 0.301961
0.560784 0.435294 0.282353
0.337255 0.596078 0.333333
0.356863 0.584314 0.325490
0.486275 0.568627 0.349020
0.556863 0.568627 0.384314
0.588235 0.549020 0.380392
0.333333 0.596078 0.345098
0.329412 0.596078 0.341176
0.482353 0.600000 0.380392
0.549020 0.600000 0.415686
0.607843 0.611765 0.478431
0.149020 0.121569 0.317647
0.298039 0.133333 0.298039
0.482353 0.180392 0.341176
0.498039 0.188235 0.325490
0.498039 0.176471 0.266667
0.176471 0.313726 0.313726
0.345098 0.333333 0.333333
0.533333 0.266667 0.341176
0.509804 0.192157 0.317647
0.564706 0.258824 0.239216
0.243137 0.486275 0.235294
0.309804 0.474510 0.243137
0.474510 0.478431 0.274510
0.564706 0.462745 0.305882
0.556863 0.431373 0.282353
0.333333 0.592157 0.352941
0.333333 0.588235 0.313726
0.486275 0.568627 0.349020
0.560784 0.572549 0.392157
0.588235 0.549020 0.388235
0.349020 0.592157 0.419608
0.345098 0.596078 0.400000
0.470588 0.615686 0.388235
0.560784 0.607843 0.427451
0.619608 0.615686 0.490196
0.180392 0.141176 0.454902
0.192157 0.141176 0.462745
0.482353 0.196078 0.458824
0.498039 0.196078 0.439216
0.498039 0.192157 0.419608
0.180392 0.152941 0.478431
0.215686 0.160784 0.486275
0.482353 0.192157 0.458824
0.498039 0.196078 0.439216
0.564706 0.282353 0.450980
0.258824 0.462745 0.470588
0.258824 0.470588 0.470588
0.501961 0.494118 0.498039
0.611765 0.466667 0.470588
0.611765 0.454902 0.443137
0.368627 0.596078 0.482353
0.360784 0.596078 0.478431
0.466667 0.596078 0.407843
0.568627 0.572549 0.403922
0.607843 0.552941 0.450980
0.384314 0.596078 0.517647
0.380392 0.600000 0.513726
0.490196 0.631373 0.525490
0.576471 0.631373 0.529412
0.635294 0.627451 0.537255
0.203922 0.156863 0.486275
0.223529 0.145098 0.466667
0.423545 0.184314 0.490196
0.498039 0.203922 0.498039
0.498039 0.203922 0.498039
0.207843 0.258824 0.537255
0.247059 0.235294 0.560784
0.400015 0.188235 0.501961
0.498039 0.203922 0.498039
0.556863 0.352941 0.556863
0.250980 0.423529 0.541176
0.266667 0.447059 0.549020
0.482353 0.478431 0.603922
0.572549 0.423529 0.572549
0.592157 0.490196 0.576471
0.427451 0.592157 0.596078
0.423529 0.592157 0.592157
0.482353 0.596078 0.596078
0.603922 0.603922 0.603922
0.619608 0.588235 0.584314
0.427451 0.600000 0.584314
0.427451 0.600000 0.580392
0.517647 0.623529 0.592157
0.603922 0.639216 0.611765
0.639216 0.635294 0.596078
0.247059 0.309804 0.560784
0.305882 0.188235 0.513726
0.443153 0.188235 0.490196
0.498039 0.203922 0.498039
0.498039 0.203922 0.498039
0.258824 0.431373 0.541176
0.407843 0.447059 0.600000
0.486275 0.368627 0.584314
0.556863 0.356863 0.556863
0.556863 0.345098 0.556863
0.317647 0.513726 0.564706
0.403922 0.545098 0.596078
0.529412 0.552941 0.611765
0.596078 0.525490 0.600000
0.592157 0.509804 0.592157
0.427451 0.596078 0.596078
0.450980 0.600000 0.603922
0.549020 0.619608 0.627451
0.623529 0.627451 0.635294
0.627451 0.607843 0.627451
0.439216 0.600000 0.600000
0.447059 0.603922 0.603922
0.541176 0.627451 0.627451
0.607843 0.643137 0.643137
0.654902 0.654902 0.654902
