tools/luts_backup/Kodak Gold Gen.6 200_FC.cube
# (C) 2014 VisionColor & Patchflyer [www.vision-color.com]
# Generator: VC Patchmatch v.2.1.1 [64/53]
# All work and no play makes Jack a dull boy.
# LUT generated from: Kodak Gold Gen.6 200_FC01
LUT_3D_SIZE 17
0.023728 0.023728 0.023728
0.039109 0.023194 0.023194
0.073564 0.023301 0.023301
0.128893 0.025116 0.025116
0.198352 0.026642 0.026596
0.271656 0.027100 0.026307
0.331685 0.027863 0.026368
0.367407 0.026673 0.025818
0.395300 0.025086 0.025025
0.431266 0.024949 0.024949
0.479500 0.024842 0.024842
0.541115 0.025284 0.026184
0.619516 0.026169 0.030014
0.699382 0.026444 0.034577
0.770703 0.027314 0.039994
0.862562 0.027802 0.043565
0.919753 0.029206 0.050462
0.025254 0.035904 0.020630
0.043641 0.034714 0.019974
0.073213 0.036057 0.020310
0.120180 0.037842 0.020340
0.184421 0.041154 0.021118
0.249928 0.044587 0.021592
0.313878 0.047608 0.022263
0.366720 0.048890 0.022202
0.408637 0.048707 0.021637
0.451331 0.048814 0.022446
0.500572 0.049241 0.024308
0.561654 0.050309 0.026810
0.629633 0.051026 0.030076
0.705898 0.050813 0.033524
0.780041 0.051514 0.037705
0.858885 0.051377 0.042878
0.918517 0.055375 0.051255
0.030274 0.052384 0.016983
0.048356 0.052796 0.016266
0.075090 0.053254 0.016770
0.116487 0.054475 0.017411
0.170733 0.058564 0.017395
0.230015 0.061280 0.017700
0.296162 0.066453 0.019287
0.358480 0.072007 0.019989
0.410269 0.075502 0.019760
0.459403 0.078080 0.021103
0.514611 0.080735 0.023896
0.573938 0.082536 0.026520
0.640345 0.082734 0.029191
0.709804 0.082948 0.031922
0.781018 0.083894 0.035431
0.854963 0.084565 0.040223
0.913420 0.085679 0.048157
0.032990 0.073136 0.015442
0.055070 0.073701 0.015045
0.082002 0.073884 0.015381
0.115129 0.076707 0.015259
0.159976 0.078721 0.015747
0.215778 0.083330 0.015595
0.279606 0.089784 0.016846
0.350790 0.099123 0.018021
0.415290 0.108629 0.018814
0.472740 0.117342 0.020066
0.532647 0.122210 0.022812
0.590829 0.125917 0.025437
0.646891 0.126894 0.027481
0.714717 0.126574 0.029313
0.781018 0.126482 0.032090
0.850599 0.129107 0.035325
0.912795 0.131701 0.040848
0.041001 0.100755 0.013046
0.063905 0.103838 0.013275
0.091081 0.104616 0.013275
0.128191 0.106767 0.013931
0.168688 0.111101 0.014115
0.218738 0.117571 0.015061
0.279576 0.124712 0.015640
0.346273 0.134463 0.016358
0.415808 0.147539 0.016724
0.482048 0.161501 0.018280
0.544106 0.170138 0.020523
0.602213 0.176318 0.022980
0.656031 0.176944 0.024949
0.718196 0.174350 0.026505
0.783566 0.174304 0.028748
0.847227 0.176913 0.031510
0.915221 0.180301 0.034882
0.056138 0.139803 0.011551
0.079912 0.142840 0.011566
0.109895 0.146944 0.011551
0.147631 0.149660 0.012055
0.194690 0.155596 0.013031
0.242924 0.163058 0.013794
0.297414 0.169039 0.014725
0.356588 0.182132 0.015091
0.423514 0.196353 0.015824
0.490852 0.214649 0.017350
0.551278 0.229435 0.019409
0.606989 0.235752 0.021363
0.664744 0.235355 0.022583
0.730541 0.229328 0.023972
0.798154 0.231083 0.025742
0.853056 0.230762 0.027619
0.924849 0.233356 0.030655
0.075715 0.193912 0.010590
0.103731 0.197650 0.011185
0.138811 0.201617 0.011444
0.175845 0.205753 0.011688
0.226886 0.212757 0.012207
0.272923 0.217685 0.012924
0.322637 0.227161 0.013657
0.381964 0.242313 0.014664
0.444068 0.261189 0.015259
0.509422 0.278706 0.016815
0.563867 0.298985 0.018799
0.618402 0.305165 0.020737
0.678843 0.301579 0.021714
0.749035 0.294896 0.022385
0.817411 0.298848 0.023346
0.877729 0.294987 0.024308
0.927077 0.294453 0.025986
0.094575 0.265019 0.009751
0.127764 0.268132 0.010422
0.166934 0.273091 0.011048
0.208286 0.276677 0.011505
0.256275 0.281865 0.012131
0.307286 0.287556 0.012894
0.357626 0.294636 0.013764
0.407401 0.303243 0.014343
0.469734 0.333333 0.015412
0.529442 0.348989 0.016663
0.578149 0.365698 0.018524
0.631220 0.380926 0.020050
0.693965 0.377493 0.021134
0.769116 0.369329 0.021759
0.833021 0.367453 0.022248
0.892775 0.361318 0.022919
0.918364 0.359167 0.022751
0.118914 0.338842 0.008942
0.148333 0.351598 0.009339
0.190784 0.355001 0.010651
0.235386 0.356344 0.011627
0.284749 0.359564 0.012467
0.338231 0.364797 0.013367
0.391104 0.371603 0.014115
0.443732 0.382834 0.014664
0.487480 0.391485 0.015167
0.546883 0.417533 0.017075
0.597147 0.429908 0.018357
0.646708 0.444541 0.019730
0.710246 0.450095 0.020722
0.780209 0.449851 0.021469
0.850248 0.439872 0.021714
0.888457 0.422995 0.021775
0.912184 0.416526 0.021561
0.148714 0.414511 0.009201
0.180606 0.429694 0.010254
0.217746 0.436088 0.011444
0.263737 0.438560 0.012680
0.310140 0.441382 0.013565
0.361364 0.446632 0.014313
0.418479 0.451301 0.015152
0.473991 0.458518 0.015686
0.518639 0.465019 0.015763
0.556451 0.474876 0.016297
0.621241 0.496483 0.018601
0.673289 0.510063 0.019409
0.732540 0.515190 0.020279
0.789624 0.515923 0.020996
0.855406 0.510628 0.021347
0.880385 0.488502 0.021118
0.906050 0.471778 0.021454
0.184054 0.498558 0.010132
0.216678 0.505425 0.011734
0.249760 0.512245 0.012634
0.293217 0.514382 0.014069
0.335027 0.517128 0.014725
0.383810 0.520134 0.015335
0.435019 0.522988 0.015732
0.490028 0.525704 0.016373
0.539223 0.532052 0.016556
0.587625 0.534310 0.016968
0.634455 0.548730 0.018021
0.699367 0.567178 0.019333
0.759930 0.576959 0.020233
0.808759 0.570077 0.020600
0.855879 0.556878 0.020966
0.878767 0.543038 0.021134
0.898604 0.529885 0.021408
0.219791 0.566094 0.011261
0.246921 0.570535 0.012634
0.281621 0.576333 0.014160
0.322225 0.578042 0.015579
0.355825 0.580545 0.015930
0.399207 0.582284 0.016403
0.451713 0.584451 0.016312
0.507271 0.587884 0.016510
0.557717 0.594003 0.016861
0.610620 0.602609 0.017288
0.660685 0.607645 0.018143
0.713970 0.622461 0.019257
0.771481 0.622156 0.019959
0.827375 0.618067 0.020706
0.860456 0.595239 0.021027
0.884169 0.583520 0.021241
0.892042 0.583200 0.021424
0.255985 0.635569 0.012070
0.276692 0.634531 0.012955
0.313191 0.635554 0.014786
0.350362 0.638636 0.016800
0.387091 0.644602 0.017395
0.422675 0.649897 0.017517
0.474067 0.651759 0.017258
0.529519 0.654902 0.016754
0.591653 0.659617 0.017273
0.637964 0.666346 0.017929
0.692271 0.674296 0.018845
0.741299 0.681193 0.019699
0.785107 0.685115 0.020310
0.837385 0.668376 0.020951
0.862837 0.643900 0.021134
0.885390 0.630549 0.021408
0.886778 0.633402 0.021454
0.282200 0.707652 0.012589
0.307530 0.706477 0.013230
0.343145 0.702800 0.014405
0.384833 0.704860 0.016022
0.420676 0.710658 0.016953
0.457557 0.716716 0.017151
0.505608 0.719295 0.017258
0.562493 0.725460 0.017365
0.620691 0.729641 0.018051
0.677165 0.735332 0.018952
0.719524 0.737987 0.019623
0.771603 0.733577 0.020264
0.819013 0.735622 0.020935
0.845411 0.727047 0.021210
0.869001 0.704112 0.021378
0.882551 0.679728 0.021546
0.881682 0.695659 0.021592
0.293187 0.773938 0.012985
0.328023 0.774121 0.013794
0.367773 0.768277 0.014481
0.412467 0.768185 0.015518
0.452796 0.773266 0.016495
0.492348 0.779843 0.016999
0.541665 0.783642 0.017212
0.602991 0.791760 0.017960
0.655680 0.798260 0.018723
0.699443 0.797162 0.019440
0.739315 0.799237 0.019974
0.782986 0.799054 0.020676
0.837629 0.785565 0.021363
0.859037 0.789212 0.021592
0.873610 0.781292 0.021759
0.878401 0.746899 0.021714
0.877989 0.758648 0.021759
0.271595 0.845136 0.012558
0.331945 0.847959 0.013855
0.384817 0.842649 0.014939
0.427909 0.842878 0.015595
0.471763 0.843900 0.016373
0.509789 0.844297 0.016861
0.552254 0.842710 0.017380
0.609125 0.840482 0.018112
0.665599 0.839551 0.018967
0.705730 0.838178 0.019608
0.749660 0.837049 0.020188
0.800534 0.839872 0.021027
0.835920 0.843107 0.021546
0.868574 0.833402 0.021897
0.872236 0.835126 0.021988
0.872786 0.831922 0.021988
0.872999 0.829526 0.021988
0.204837 0.887404 0.011414
0.321050 0.885725 0.013687
0.399313 0.880217 0.015244
0.430350 0.882383 0.015747
0.466438 0.884306 0.016403
0.521538 0.883131 0.017090
0.570626 0.880186 0.017762
0.614359 0.877974 0.018265
0.669551 0.876081 0.019135
0.720378 0.874479 0.019898
0.771939 0.873533 0.020661
0.817990 0.872831 0.021408
0.843107 0.872175 0.021714
0.859144 0.871717 0.021897
0.860182 0.871687 0.021912
0.860182 0.871687 0.021912
0.860182 0.871687 0.021912
0.023743 0.023743 0.037903
0.034028 0.023026 0.039597
0.060090 0.022202 0.040635
0.107027 0.022904 0.043702
0.170001 0.024201 0.048188
0.234531 0.024414 0.049821
0.293721 0.025238 0.049607
0.339467 0.025605 0.048798
0.377340 0.024964 0.045838
0.423331 0.024826 0.045472
0.475502 0.024750 0.047410
0.534325 0.025269 0.048814
0.605203 0.026154 0.052308
0.677409 0.026398 0.056413
0.746014 0.027161 0.060548
0.827771 0.027771 0.067323
0.894453 0.029175 0.076600
0.024491 0.037095 0.034867
0.041611 0.037079 0.037522
0.103792 0.029068 0.029145
0.187076 0.027481 0.027451
0.262150 0.027466 0.026749
0.324697 0.027955 0.026062
0.364416 0.026566 0.025391
0.395880 0.025391 0.025132
0.431968 0.024949 0.024949
0.480125 0.024964 0.025116
0.540734 0.025467 0.026734
0.616739 0.026078 0.030076
0.696956 0.026459 0.034516
0.772168 0.027222 0.040269
0.855116 0.028382 0.046067
0.899336 0.032029 0.054978
0.905745 0.051606 0.075990
0.027863 0.054444 0.030426
0.038331 0.066972 0.019883
0.100084 0.069596 0.020737
0.165972 0.058885 0.018402
0.234318 0.057130 0.018784
0.303014 0.057694 0.020233
0.361837 0.058366 0.020722
0.407935 0.057908 0.021073
0.450416 0.056229 0.021927
0.500648 0.055680 0.024155
0.564508 0.056229 0.026596
0.630472 0.056153 0.029160
0.704707 0.055894 0.033341
0.787976 0.055650 0.038224
0.856291 0.056687 0.043732
0.903166 0.061082 0.052399
0.901823 0.084718 0.074861
0.034195 0.078737 0.027588
0.043488 0.099290 0.013657
0.090776 0.103075 0.013779
0.165759 0.111421 0.015000
0.214466 0.093156 0.015671
0.279240 0.090471 0.017182
0.350500 0.092897 0.018006
0.413077 0.095293 0.019043
0.467277 0.097032 0.021073
0.524102 0.098344 0.023941
0.582406 0.099016 0.026551
0.640421 0.098466 0.028672
0.706020 0.097871 0.031205
0.783810 0.096696 0.034546
0.851575 0.095552 0.039170
0.895216 0.100145 0.046296
0.892149 0.129335 0.069581
0.042344 0.112551 0.024308
0.055879 0.138537 0.011749
0.099550 0.143938 0.011627
0.159365 0.148455 0.012406
0.240864 0.161212 0.014023
0.282628 0.144884 0.014817
0.347127 0.141421 0.015854
0.415778 0.147845 0.016754
0.481315 0.153399 0.018494
0.539071 0.156283 0.020905
0.596017 0.155612 0.023713
0.651835 0.153140 0.026520
0.713252 0.151492 0.028382
0.783093 0.151049 0.030594
0.849836 0.149310 0.034134
0.897124 0.151339 0.040574
0.898726 0.179583 0.064652
0.056550 0.158892 0.020966
0.073533 0.191241 0.010361
0.119020 0.201114 0.011124
0.173602 0.204440 0.011658
0.246906 0.213596 0.012558
0.319814 0.224903 0.013626
0.368277 0.214420 0.014740
0.430488 0.216861 0.015610
0.492576 0.225177 0.017029
0.549569 0.229358 0.019486
0.601465 0.226978 0.021256
0.666636 0.219257 0.023285
0.728969 0.212222 0.025559
0.792676 0.209705 0.026963
0.854536 0.210773 0.029191
0.905303 0.211261 0.036011
0.908965 0.234577 0.060487
0.075486 0.214969 0.018128
0.094041 0.263111 0.009613
0.141238 0.266957 0.010544
0.197543 0.274418 0.011307
0.261707 0.280385 0.012177
0.338735 0.293187 0.013550
0.409293 0.305089 0.014511
0.457832 0.301228 0.015259
0.511467 0.305638 0.016464
0.564614 0.309499 0.018570
0.617761 0.307469 0.020783
0.679515 0.298268 0.021698
0.749874 0.288808 0.022675
0.814099 0.281804 0.023804
0.871458 0.280827 0.025254
0.912810 0.281270 0.030823
0.915648 0.296071 0.055375
0.095659 0.280079 0.017517
0.118654 0.340139 0.008911
0.160616 0.350790 0.009873
0.219242 0.355077 0.011643
0.281453 0.357763 0.012512
0.351949 0.365103 0.013794
0.427390 0.378561 0.014832
0.492821 0.391470 0.015610
0.540993 0.396460 0.016907
0.583993 0.394522 0.018326
0.639063 0.397177 0.020096
0.697917 0.390967 0.021286
0.769680 0.376379 0.021698
0.829587 0.364706 0.022095
0.880400 0.356085 0.022904
0.917372 0.353292 0.026535
0.910735 0.363775 0.051041
0.123323 0.358358 0.018250
0.148135 0.418784 0.009262
0.187549 0.431342 0.010681
0.241566 0.439872 0.012253
0.302205 0.442771 0.013458
0.366415 0.446921 0.014343
0.439704 0.453223 0.015198
0.504799 0.458000 0.015640
0.564645 0.476051 0.016831
0.618723 0.477378 0.018357
0.664073 0.478050 0.019745
0.721157 0.481178 0.020615
0.784085 0.470268 0.021103
0.843397 0.451987 0.021332
0.881849 0.431754 0.021759
0.913649 0.418967 0.024369
0.902129 0.425498 0.048173
0.154513 0.431189 0.018326
0.183093 0.494835 0.010178
0.221515 0.504372 0.011734
0.271748 0.512474 0.013352
0.325490 0.517296 0.014725
0.383764 0.518349 0.015229
0.448173 0.522713 0.015640
0.518730 0.525689 0.016342
0.575509 0.531228 0.016449
0.637858 0.553124 0.018036
0.695338 0.547616 0.019074
0.749645 0.551980 0.020264
0.798871 0.541161 0.020630
0.851881 0.526238 0.021042
0.882780 0.504372 0.021515
0.907454 0.485588 0.023941
0.902998 0.481239 0.046830
0.186069 0.502174 0.019150
0.219486 0.564706 0.011261
0.255543 0.570275 0.012665
0.299046 0.574823 0.014557
0.344503 0.582238 0.015839
0.399329 0.582132 0.016342
0.461814 0.584710 0.016419
0.527672 0.588251 0.016785
0.590967 0.598306 0.017334
0.650645 0.609003 0.017975
0.714290 0.622629 0.019226
0.769574 0.614588 0.019944
0.818357 0.601617 0.020630
0.855787 0.580362 0.021042
0.884276 0.561105 0.021530
0.901274 0.550027 0.023804
0.907210 0.542702 0.045991
0.214450 0.571832 0.019242
0.254932 0.637095 0.012039
0.285145 0.637354 0.013184
0.326146 0.636851 0.015076
0.370214 0.643427 0.017334
0.415732 0.646616 0.016876
0.479744 0.649531 0.017029
0.545083 0.656641 0.017197
0.609506 0.662028 0.017762
0.669520 0.673152 0.018479
0.731945 0.677897 0.019547
0.786587 0.682887 0.020310
0.831357 0.660533 0.020859
0.862409 0.633234 0.021134
0.884001 0.610651 0.021637
0.894606 0.608576 0.023911
0.906767 0.597925 0.046052
0.237644 0.637446 0.017624
0.278065 0.706157 0.012467
0.312840 0.705135 0.013535
0.353872 0.703655 0.014740
0.404471 0.709453 0.016770
0.449775 0.714809 0.017304
0.504601 0.717311 0.017334
0.573159 0.724788 0.017578
0.631556 0.729931 0.018158
0.689509 0.734661 0.019120
0.752850 0.735042 0.019989
0.799512 0.732540 0.020645
0.843305 0.729381 0.021195
0.865660 0.697490 0.021347
0.881971 0.673030 0.021744
0.889845 0.672511 0.024170
0.902419 0.648249 0.047990
0.249287 0.703685 0.014939
0.286824 0.772427 0.012818
0.332113 0.770916 0.013855
0.378714 0.770977 0.014984
0.427741 0.771832 0.016220
0.480858 0.774945 0.017212
0.532860 0.780453 0.017456
0.601480 0.786679 0.018021
0.661799 0.792691 0.018814
0.712016 0.795880 0.019638
0.759045 0.796857 0.020294
0.818494 0.787488 0.021164
0.848081 0.784955 0.021485
0.870542 0.779812 0.021714
0.878202 0.740673 0.021988
0.884153 0.736400 0.023728
0.896193 0.723033 0.047303
0.243977 0.771649 0.012390
0.265126 0.838499 0.012436
0.340902 0.833310 0.013993
0.391943 0.836896 0.015106
0.439826 0.837995 0.015885
0.494606 0.836759 0.016861
0.546746 0.838300 0.017456
0.607446 0.838865 0.018219
0.667720 0.840040 0.019211
0.721248 0.838880 0.020081
0.770581 0.839658 0.020829
0.812909 0.839704 0.021546
0.854246 0.832853 0.022065
0.869230 0.833463 0.022263
0.872602 0.831128 0.022324
0.879622 0.814206 0.024552
0.890990 0.799512 0.041718
0.220233 0.840391 0.011536
0.222110 0.880018 0.011627
0.328527 0.876249 0.013809
0.393164 0.872862 0.015152
0.436942 0.875700 0.015991
0.494743 0.878843 0.017273
0.549599 0.877852 0.018219
0.604440 0.874968 0.019226
0.665583 0.874083 0.020462
0.723568 0.874281 0.021881
0.780682 0.874220 0.023026
0.829221 0.873610 0.023957
0.858579 0.873487 0.024537
0.869505 0.872007 0.024781
0.870497 0.872145 0.024826
0.870604 0.871855 0.024704
0.886183 0.851881 0.047990
0.180240 0.889967 0.010712
0.226200 0.885084 0.011719
0.317815 0.876204 0.013657
0.370062 0.880812 0.014710
0.421622 0.882795 0.016388
0.489326 0.891585 0.019928
0.556497 0.892195 0.024872
0.607172 0.887816 0.028717
0.659449 0.884749 0.032898
0.714351 0.885252 0.038376
0.766278 0.887373 0.043412
0.816739 0.886366 0.046082
0.859190 0.884962 0.047990
0.878584 0.884382 0.049409
0.883131 0.884169 0.050340
0.883238 0.884108 0.050690
0.883299 0.884169 0.050294
0.024048 0.024048 0.065492
0.035416 0.024140 0.071794
0.053620 0.023423 0.076616
0.088121 0.022553 0.075929
0.143328 0.022736 0.080659
0.198672 0.022827 0.082841
0.253239 0.022629 0.082673
0.301305 0.024063 0.082887
0.352026 0.024826 0.080461
0.409781 0.024720 0.078660
0.467063 0.024811 0.080629
0.531350 0.025269 0.083268
0.600061 0.025803 0.087800
0.661799 0.025849 0.091005
0.719783 0.026276 0.092790
0.794278 0.027543 0.100954
0.874189 0.029038 0.111040
0.022766 0.037003 0.059983
0.029664 0.029236 0.083055
0.073106 0.026963 0.100511
0.137133 0.023575 0.079469
0.205539 0.023117 0.071031
0.269612 0.023911 0.065583
0.320378 0.024781 0.060578
0.368124 0.024903 0.057450
0.420630 0.024781 0.055177
0.474815 0.024872 0.052888
0.535119 0.025467 0.054597
0.603647 0.026062 0.058595
0.672709 0.026261 0.061402
0.742367 0.026795 0.066423
0.824979 0.028305 0.073976
0.880415 0.031891 0.083467
0.877760 0.050019 0.109331
0.025422 0.054658 0.051926
0.033295 0.072953 0.069200
0.069139 0.057465 0.064179
0.149203 0.048951 0.050629
0.263661 0.038041 0.037629
0.346929 0.029511 0.028870
0.395193 0.026322 0.025803
0.431968 0.025162 0.025116
0.476753 0.024949 0.025101
0.538216 0.025467 0.026825
0.616815 0.026032 0.030137
0.695750 0.026459 0.034470
0.775433 0.027253 0.040253
0.854429 0.029023 0.046418
0.894057 0.034104 0.056489
0.898405 0.050813 0.077653
0.886992 0.080110 0.110872
0.031571 0.085557 0.048722
0.042725 0.120516 0.046342
0.067857 0.108797 0.033982
0.151446 0.113161 0.037308
0.236728 0.090684 0.027115
0.337682 0.081270 0.022187
0.408530 0.075517 0.020859
0.457023 0.071321 0.021866
0.508736 0.069398 0.024323
0.569360 0.067674 0.027054
0.637934 0.065553 0.029618
0.706691 0.063890 0.032639
0.782208 0.063691 0.037308
0.851225 0.064332 0.044038
0.893950 0.069062 0.054826
0.896880 0.089662 0.075074
0.882460 0.129244 0.113054
0.042481 0.124681 0.045014
0.056458 0.168627 0.034028
0.078630 0.170855 0.016297
0.153460 0.175814 0.018875
0.267155 0.194156 0.021149
0.335943 0.159030 0.017563
0.411185 0.146792 0.017395
0.475868 0.139086 0.019120
0.532311 0.133257 0.022034
0.593271 0.129595 0.024933
0.650706 0.125673 0.027787
0.713741 0.120455 0.030198
0.780957 0.115129 0.032944
0.845640 0.113191 0.037888
0.888685 0.119493 0.047745
0.893843 0.144076 0.069535
0.893782 0.187182 0.111391
0.055650 0.175708 0.041474
0.075761 0.222248 0.028168
0.095476 0.251423 0.011017
0.170321 0.259464 0.012573
0.270558 0.267674 0.014191
0.388998 0.291371 0.016693
0.437903 0.252918 0.016007
0.492454 0.237873 0.017075
0.548150 0.225147 0.019165
0.602472 0.212650 0.021729
0.661006 0.200015 0.023987
0.721630 0.191089 0.026246
0.786694 0.184360 0.028656
0.846357 0.179599 0.032731
0.889647 0.185229 0.041794
0.898589 0.206470 0.064210
0.895445 0.245228 0.107561
0.075853 0.233936 0.038407
0.097963 0.286290 0.025940
0.117937 0.332219 0.009293
0.188006 0.348211 0.011093
0.277195 0.354009 0.012924
0.381323 0.364889 0.014588
0.485100 0.386328 0.016251
0.521569 0.354177 0.016785
0.568185 0.339651 0.018708
0.621286 0.319005 0.020203
0.680873 0.296452 0.021729
0.742443 0.278447 0.022858
0.809491 0.268025 0.024537
0.864561 0.260319 0.027832
0.903319 0.263050 0.036347
0.909285 0.278767 0.059480
0.893477 0.309850 0.104891
0.098283 0.300786 0.036973
0.124697 0.360113 0.025193
0.147921 0.417426 0.009323
0.208377 0.432868 0.011582
0.287022 0.438071 0.013199
0.380102 0.444984 0.014603
0.474510 0.451438 0.015656
0.563836 0.474556 0.016907
0.600427 0.449836 0.018006
0.647562 0.433448 0.019852
0.705119 0.409033 0.020966
0.772396 0.383459 0.021790
0.829999 0.364523 0.022339
0.881010 0.350759 0.023987
0.912077 0.344045 0.031769
0.911757 0.354177 0.053773
0.887495 0.375341 0.101061
0.126146 0.373816 0.038758
0.152804 0.431708 0.023590
0.183978 0.498253 0.010346
0.233814 0.511788 0.012314
0.302434 0.516808 0.014267
0.381201 0.515984 0.015152
0.470314 0.521370 0.016007
0.551247 0.530663 0.016495
0.640055 0.551125 0.017990
0.683986 0.532845 0.019348
0.731762 0.511650 0.020462
0.788266 0.491157 0.021073
0.841505 0.464790 0.021439
0.884749 0.436637 0.022568
0.910430 0.419486 0.028656
0.906783 0.420233 0.050248
0.880766 0.432197 0.097108
0.159396 0.449821 0.040543
0.182422 0.502449 0.022095
0.220813 0.569223 0.011475
0.266453 0.575357 0.013352
0.326375 0.580606 0.015366
0.389746 0.581949 0.016144
0.469978 0.586191 0.016510
0.553033 0.592264 0.016815
0.627970 0.603525 0.017655
0.715694 0.622003 0.019287
0.764599 0.599222 0.020111
0.806210 0.573892 0.020737
0.848615 0.547951 0.021073
0.881224 0.518090 0.021897
0.904982 0.496559 0.026993
0.904372 0.487373 0.047959
0.881941 0.488136 0.091859
0.189349 0.517128 0.040192
0.209796 0.570443 0.021454
0.250996 0.635737 0.011917
0.293797 0.639567 0.013611
0.350362 0.642954 0.015808
0.406516 0.645151 0.016831
0.479362 0.649943 0.016968
0.561715 0.655711 0.017288
0.635889 0.659968 0.018006
0.713756 0.671946 0.019272
0.787228 0.682200 0.020325
0.825208 0.644297 0.020722
0.857603 0.614206 0.021134
0.883604 0.588769 0.022080
0.900542 0.567605 0.026871
0.906218 0.555886 0.046738
0.893935 0.546960 0.086061
0.206943 0.574472 0.037659
0.228641 0.638407 0.019409
0.273106 0.702495 0.012360
0.319234 0.704540 0.013733
0.375814 0.706584 0.015747
0.430014 0.711696 0.016922
0.496559 0.717586 0.017350
0.580560 0.726329 0.017777
0.650980 0.728298 0.018494
0.716320 0.731655 0.019486
0.788998 0.730877 0.020493
0.841154 0.730526 0.021180
0.861021 0.681086 0.021317
0.883009 0.657420 0.022217
0.894438 0.630838 0.027649
0.903807 0.617807 0.047944
0.904860 0.603815 0.083650
0.215152 0.636118 0.032090
0.236210 0.705318 0.015244
0.280858 0.770535 0.012650
0.338796 0.767651 0.013993
0.396719 0.766033 0.015488
0.455848 0.772992 0.016846
0.516121 0.779507 0.017273
0.595712 0.786679 0.018006
0.667277 0.791302 0.018952
0.726360 0.791928 0.019852
0.786191 0.792340 0.020783
0.842573 0.782956 0.021469
0.867445 0.779141 0.021729
0.878508 0.732433 0.022354
0.889204 0.712627 0.026474
0.899229 0.686793 0.048783
0.905989 0.662089 0.087282
0.211688 0.704555 0.024750
0.230777 0.773556 0.012482
0.260380 0.832624 0.012329
0.346075 0.825849 0.014099
0.405509 0.823514 0.015366
0.462974 0.829252 0.016602
0.527077 0.833829 0.017456
0.599634 0.836164 0.018326
0.673106 0.839353 0.019562
0.734783 0.840116 0.020630
0.789960 0.842741 0.021653
0.840162 0.839323 0.022416
0.867353 0.831540 0.022690
0.873167 0.830030 0.022873
0.883345 0.793835 0.027161
0.892287 0.767208 0.044724
0.900191 0.729809 0.089113
0.194247 0.769238 0.015381
0.210163 0.835416 0.011505
0.229587 0.873854 0.011780
0.342748 0.867002 0.014054
0.403311 0.866651 0.015427
0.458869 0.870481 0.016815
0.526436 0.873930 0.018448
0.592462 0.871595 0.019791
0.663722 0.872602 0.021592
0.733776 0.872694 0.024155
0.798825 0.873091 0.026444
0.842039 0.872526 0.027771
0.870390 0.870146 0.028244
0.873732 0.869932 0.028458
0.874510 0.869612 0.028641
0.886641 0.837827 0.047944
0.893370 0.812284 0.078782
0.172625 0.829831 0.011002
0.182742 0.875151 0.010803
0.229129 0.884840 0.011872
0.323461 0.877897 0.013962
0.391028 0.880491 0.015595
0.450156 0.885786 0.018082
0.520516 0.889342 0.023835
0.579934 0.887190 0.029007
0.643900 0.882658 0.033997
0.709453 0.881758 0.039841
0.769909 0.883436 0.045090
0.830289 0.884550 0.048829
0.867781 0.883528 0.050599
0.880690 0.882994 0.051621
0.881285 0.882872 0.051865
0.881361 0.882963 0.051255
0.891188 0.861295 0.087236
0.147478 0.888289 0.009705
0.186374 0.882246 0.011048
0.231861 0.888716 0.012299
0.299229 0.885054 0.014466
0.374197 0.891249 0.018647
0.445380 0.891691 0.027222
0.512413 0.888380 0.036622
0.569146 0.882261 0.045014
0.618677 0.878004 0.053956
0.673152 0.879255 0.065843
0.723171 0.885115 0.078279
0.782132 0.890074 0.086778
0.844373 0.891737 0.090929
0.875700 0.890929 0.092927
0.889845 0.890394 0.096468
0.890425 0.890425 0.096056
0.890501 0.890501 0.095094
0.024674 0.024674 0.100710
0.036683 0.024720 0.110079
0.053361 0.023926 0.117708
0.079866 0.022934 0.120516
0.122759 0.022171 0.119631
0.172122 0.022354 0.124361
0.221759 0.022156 0.123644
0.275563 0.022797 0.124376
0.331350 0.024262 0.123278
0.399710 0.024552 0.120455
0.463020 0.024598 0.120897
0.527031 0.024994 0.124239
0.600244 0.025422 0.130083
0.660395 0.025422 0.134264
