tools/luts_backup/Kodak Gold Gen.6 200_FC.cube
# (C) 2014 VisionColor & Patchflyer [www.vision-color.com]
# Generator: VC Patchmatch v.2.1.1 [64/53]
# All work and no play makes Jack a dull boy.
# LUT generated from: Kodak Gold Gen.6 200_FC01
LUT_3D_SIZE 9
0.023728 0.023728 0.023728
0.073564 0.023301 0.023301
0.198352 0.026642 0.026596
0.331685 0.027863 0.026368
0.395300 0.025086 0.025025
0.479500 0.024842 0.024842
0.619516 0.026169 0.030014
0.770703 0.027314 0.039994
0.919753 0.029206 0.050462
0.030274 0.052384 0.016983
0.075090 0.053254 0.016770
0.170733 0.058564 0.017395
0.296162 0.066453 0.019287
0.410269 0.075502 0.019760
0.514611 0.080735 0.023896
0.640345 0.082734 0.029191
0.781018 0.083894 0.035431
0.913420 0.085679 0.048157
0.041001 0.100755 0.013046
0.091081 0.104616 0.013275
0.168688 0.111101 0.014115
0.279576 0.124712 0.015640
0.415808 0.147539 0.016724
0.544106 0.170138 0.020523
0.656031 0.176944 0.024949
0.783566 0.174304 0.028748
0.915221 0.180301 0.034882
0.075715 0.193912 0.010590
0.138811 0.201617 0.011444
0.226886 0.212757 0.012207
0.322637 0.227161 0.013657
0.444068 0.261189 0.015259
0.563867 0.298985 0.018799
0.678843 0.301579 0.021714
0.817411 0.298848 0.023346
0.927077 0.294453 0.025986
0.118914 0.338842 0.008942
0.190784 0.355001 0.010651
0.284749 0.359564 0.012467
0.391104 0.371603 0.014115
0.487480 0.391485 0.015167
0.597147 0.429908 0.018357
0.710246 0.450095 0.020722
0.850248 0.439872 0.021714
0.912184 0.416526 0.021561
0.184054 0.498558 0.010132
0.249760 0.512245 0.012634
0.335027 0.517128 0.014725
0.435019 0.522988 0.015732
0.539223 0.532052 0.016556
0.634455 0.548730 0.018021
0.759930 0.576959 0.020233
0.855879 0.556878 0.020966
0.898604 0.529885 0.021408
0.255985 0.635569 0.012070
0.313191 0.635554 0.014786
0.387091 0.644602 0.017395
0.474067 0.651759 0.017258
0.591653 0.659617 0.017273
0.692271 0.674296 0.018845
0.785107 0.685115 0.020310
0.862837 0.643900 0.021134
0.886778 0.633402 0.021454
0.293187 0.773938 0.012985
0.367773 0.768277 0.014481
0.452796 0.773266 0.016495
0.541665 0.783642 0.017212
0.655680 0.798260 0.018723
0.739315 0.799237 0.019974
0.837629 0.785565 0.021363
0.873610 0.781292 0.021759
0.877989 0.758648 0.021759
0.204837 0.887404 0.011414
0.399313 0.880217 0.015244
0.466438 0.884306 0.016403
0.570626 0.880186 0.017762
0.669551 0.876081 0.019135
0.771939 0.873533 0.020661
0.843107 0.872175 0.021714
0.860182 0.871687 0.021912
0.860182 0.871687 0.021912
0.024048 0.024048 0.065492
0.053620 0.023423 0.076616
0.143328 0.022736 0.080659
0.253239 0.022629 0.082673
0.352026 0.024826 0.080461
0.467063 0.024811 0.080629
0.600061 0.025803 0.087800
0.719783 0.026276 0.092790
0.874189 0.029038 0.111040
0.025422 0.054658 0.051926
0.069139 0.057465 0.064179
0.263661 0.038041 0.037629
0.395193 0.026322 0.025803
0.476753 0.024949 0.025101
0.616815 0.026032 0.030137
0.775433 0.027253 0.040253
0.894057 0.034104 0.056489
0.886992 0.080110 0.110872
0.042481 0.124681 0.045014
0.078630 0.170855 0.016297
0.267155 0.194156 0.021149
0.411185 0.146792 0.017395
0.532311 0.133257 0.022034
0.650706 0.125673 0.027787
0.780957 0.115129 0.032944
0.888685 0.119493 0.047745
0.893782 0.187182 0.111391
0.075853 0.233936 0.038407
0.117937 0.332219 0.009293
0.277195 0.354009 0.012924
0.485100 0.386328 0.016251
0.568185 0.339651 0.018708
0.680873 0.296452 0.021729
0.809491 0.268025 0.024537
0.903319 0.263050 0.036347
0.893477 0.309850 0.104891
0.126146 0.373816 0.038758
0.183978 0.498253 0.010346
0.302434 0.516808 0.014267
0.470314 0.521370 0.016007
0.640055 0.551125 0.017990
0.731762 0.511650 0.020462
0.841505 0.464790 0.021439
0.910430 0.419486 0.028656
0.880766 0.432197 0.097108
0.189349 0.517128 0.040192
0.250996 0.635737 0.011917
0.350362 0.642954 0.015808
0.479362 0.649943 0.016968
0.635889 0.659968 0.018006
0.787228 0.682200 0.020325
0.857603 0.614206 0.021134
0.900542 0.567605 0.026871
0.893935 0.546960 0.086061
0.215152 0.636118 0.032090
0.280858 0.770535 0.012650
0.396719 0.766033 0.015488
0.516121 0.779507 0.017273
0.667277 0.791302 0.018952
0.786191 0.792340 0.020783
0.867445 0.779141 0.021729
0.889204 0.712627 0.026474
0.905989 0.662089 0.087282
0.194247 0.769238 0.015381
0.229587 0.873854 0.011780
0.403311 0.866651 0.015427
0.526436 0.873930 0.018448
0.663722 0.872602 0.021592
0.798825 0.873091 0.026444
0.870390 0.870146 0.028244
0.874510 0.869612 0.028641
0.893370 0.812284 0.078782
0.147478 0.888289 0.009705
0.231861 0.888716 0.012299
0.374197 0.891249 0.018647
0.512413 0.888380 0.036622
0.618677 0.878004 0.053956
0.723171 0.885115 0.078279
0.844373 0.891737 0.090929
0.889845 0.890394 0.096468
0.890501 0.890501 0.095094
0.025650 0.025650 0.146181
0.051926 0.024735 0.166735
0.111650 0.022919 0.170016
0.204517 0.022156 0.166873
0.322438 0.023697 0.174884
0.458686 0.024186 0.166583
0.591730 0.025162 0.176593
0.693874 0.025528 0.178241
0.814435 0.027207 0.189395
0.022889 0.056809 0.124620
0.032761 0.034562 0.210971
0.159472 0.031052 0.226123
0.320928 0.024109 0.171374
0.460700 0.024521 0.133944
0.594095 0.025315 0.125856
0.712779 0.026337 0.124880
0.835782 0.033524 0.138293
0.840223 0.080873 0.192752
0.035950 0.129030 0.113481
0.060807 0.201846 0.185687
0.151568 0.143908 0.143069
0.346075 0.089769 0.096086
0.549722 0.050431 0.053574
0.757885 0.029969 0.042695
0.883223 0.037400 0.058625
0.888121 0.080400 0.111055
0.879499 0.191669 0.210132
0.067201 0.250416 0.108827
0.116060 0.382483 0.110491
0.209567 0.352193 0.070420
0.457221 0.392798 0.093187
0.617014 0.308736 0.049500
0.779217 0.211673 0.031281
0.882887 0.188891 0.045686
0.894911 0.235752 0.108125
0.896010 0.354742 0.234638
0.121126 0.396414 0.113741
0.179095 0.515435 0.077394
0.246296 0.569268 0.028626
0.460075 0.591684 0.041947
0.713649 0.620310 0.045579
0.835142 0.518669 0.024048
0.904646 0.424643 0.033906
0.889784 0.411704 0.095903
0.875746 0.464866 0.218097
0.178241 0.518456 0.106920
0.198077 0.642161 0.053834
0.273915 0.758770 0.012558
0.464836 0.765728 0.017655
0.701442 0.778317 0.021439
0.871305 0.771649 0.023804
0.895399 0.632425 0.032166
0.898161 0.570581 0.084230
0.882872 0.565148 0.195575
0.196185 0.646860 0.087556
0.174273 0.778424 0.025864
0.240589 0.864668 0.012024
0.456977 0.862394 0.017075
0.659907 0.871244 0.023941
0.837644 0.870604 0.031510
0.877195 0.865721 0.033631
0.897917 0.747906 0.088823
0.904830 0.692164 0.191760
0.169543 0.781094 0.055589
0.151141 0.889235 0.012375
0.238987 0.893935 0.013550
0.431922 0.886687 0.028412
0.592187 0.879667 0.049851
0.749767 0.884718 0.081254
0.876402 0.889647 0.092775
0.888640 0.889281 0.094835
0.907683 0.833616 0.201038
0.138415 0.911635 0.026825
0.192630 0.910964 0.031952
0.288563 0.894362 0.042985
0.438956 0.881727 0.078737
0.555871 0.874250 0.113725
0.687037 0.879591 0.174273
0.811856 0.896071 0.209873
0.897917 0.906844 0.220859
0.906828 0.906828 0.218967
0.026520 0.026520 0.232319
0.045686 0.025147 0.278233
0.095659 0.023362 0.283955
0.178317 0.022034 0.258808
0.300649 0.022507 0.270466
0.448005 0.023651 0.260700
0.563195 0.025193 0.264363
0.666133 0.025666 0.267994
0.777371 0.027359 0.273304
0.022904 0.059129 0.231830
0.026398 0.026795 0.329946
0.082582 0.026032 0.381796
0.245304 0.024018 0.304112
0.429664 0.023697 0.283650
0.561471 0.025010 0.262852
0.676280 0.025864 0.249470
0.777935 0.033082 0.250462
0.824537 0.082918 0.283665
0.035203 0.130129 0.223896
0.034867 0.132006 0.351308
0.063371 0.078172 0.324544
0.251499 0.076310 0.318883
0.490333 0.043610 0.257771
0.680186 0.028641 0.211521
0.794217 0.036973 0.195102
0.837079 0.083986 0.228519
0.883040 0.216754 0.318914
0.055589 0.240146 0.226581
0.077104 0.364218 0.375006
0.139864 0.348745 0.342092
0.281926 0.285832 0.280049
0.462867 0.203433 0.201755
0.680308 0.123278 0.138186
0.873579 0.084886 0.114748
0.884688 0.195117 0.213657
0.909560 0.396399 0.367956
0.091157 0.384924 0.229892
0.122560 0.514229 0.270604
0.195483 0.579660 0.223224
0.347448 0.517235 0.182513
0.604166 0.554147 0.219364
0.734600 0.461357 0.140307
0.881544 0.357168 0.109834
0.886610 0.412421 0.225788
0.897871 0.510521 0.364355
0.133043 0.524117 0.227985
0.192004 0.647318 0.190188
0.189990 0.770718 0.088487
0.303212 0.707027 0.062943
0.595880 0.728771 0.117128
0.837110 0.744945 0.133516
0.896696 0.623392 0.091142
0.883513 0.565332 0.194400
0.885664 0.591257 0.332113
0.198734 0.651530 0.197635
0.201450 0.779126 0.127901
0.157549 0.892302 0.040986
0.244526 0.885451 0.015976
0.541543 0.879042 0.046799
0.793469 0.883650 0.093690
0.891356 0.886656 0.101656
0.908034 0.759533 0.195972
0.907408 0.713649 0.329976
0.209827 0.778927 0.155612
0.176944 0.901823 0.084627
0.193332 0.913832 0.056977
0.289372 0.897261 0.045548
0.505837 0.876493 0.097124
0.687175 0.879866 0.168704
0.868284 0.901946 0.212787
0.906157 0.906157 0.216068
0.924086 0.846616 0.344259
0.184131 0.916335 0.111177
0.211093 0.911849 0.115236
0.273411 0.896834 0.130678
0.375204 0.880140 0.160266
0.515770 0.876646 0.230320
0.667781 0.886000 0.305730
0.813138 0.905669 0.356634
0.909865 0.925811 0.361303
0.923598 0.923598 0.354513
0.025879 0.025879 0.334279
0.039261 0.026383 0.375845
0.082628 0.026261 0.385641
0.149279 0.024933 0.370062
0.247517 0.023484 0.301442
0.396658 0.023667 0.314839
0.513939 0.024567 0.342214
0.644800 0.025864 0.368505
0.765332 0.027481 0.375158
0.022858 0.062943 0.365530
0.027863 0.027863 0.505165
0.054810 0.027024 0.500755
0.138750 0.024933 0.444007
0.327352 0.023850 0.397604
0.493767 0.024552 0.387625
0.632731 0.025940 0.381216
0.757580 0.032456 0.372992
0.811048 0.081163 0.381659
0.034531 0.134051 0.359640
0.025681 0.110918 0.544182
0.030503 0.047578 0.602304
0.119615 0.044221 0.517601
0.388128 0.045594 0.496376
0.612665 0.028595 0.426505
0.747448 0.035721 0.372229
0.816114 0.084428 0.360281
0.859739 0.204501 0.377005
0.054276 0.231647 0.355673
0.056596 0.282383 0.523507
0.061021 0.250751 0.579797
0.128969 0.168811 0.446357
0.367773 0.183246 0.441871
0.596674 0.111421 0.374334
0.812879 0.091798 0.316747
0.874250 0.207965 0.352361
0.893370 0.364767 0.411521
0.077180 0.367422 0.377600
0.096010 0.508431 0.555718
0.116670 0.558755 0.605631
0.243519 0.502083 0.508186
0.430518 0.451072 0.440238
0.595056 0.371389 0.354726
0.819272 0.288060 0.282780
0.906325 0.385672 0.360510
0.885145 0.503059 0.455024
0.103731 0.506737 0.378058
0.134661 0.626856 0.414832
0.151171 0.756207 0.389044
0.235080 0.713390 0.339864
0.452476 0.640146 0.326574
0.720455 0.681178 0.369345
0.829099 0.577920 0.267384
0.884718 0.560967 0.336996
0.877409 0.600519 0.452720
0.156588 0.637491 0.341970
0.172366 0.776852 0.319249
0.182864 0.892683 0.257160
0.222858 0.903410 0.165164
0.363867 0.821790 0.128222
0.677150 0.841184 0.256260
0.898238 0.873777 0.286503
0.912245 0.756191 0.332784
0.896773 0.731060 0.476432
0.185290 0.776059 0.292210
0.182177 0.899931 0.256794
0.220768 0.912795 0.224247
0.271183 0.901534 0.202884
0.377646 0.881605 0.161089
0.618692 0.882536 0.273213
0.852537 0.912612 0.353796
0.921569 0.921569 0.353719
0.929503 0.855283 0.498817
0.178866 0.914488 0.257084
0.218814 0.910704 0.249165
0.258732 0.904631 0.288304
0.353460 0.893675 0.336080
0.512215 0.895460 0.403967
0.663645 0.902647 0.458579
0.814298 0.914260 0.496757
0.904433 0.935210 0.508080
0.935699 0.935699 0.514992
0.028199 0.028199 0.505623
0.033082 0.027970 0.499809
0.069627 0.026474 0.496880
0.114672 0.025315 0.474434
0.203159 0.024521 0.372793
0.330587 0.023743 0.387320
0.474861 0.024384 0.444160
0.615335 0.025818 0.471778
0.747021 0.027665 0.479942
0.021241 0.066072 0.549004
0.028428 0.028428 0.738964
0.036973 0.028107 0.689250
0.096559 0.025834 0.591760
0.219806 0.024430 0.516930
0.445060 0.025376 0.589761
0.596826 0.026032 0.546426
0.712917 0.031022 0.507149
0.770535 0.071489 0.471962
0.030274 0.141024 0.536095
0.018738 0.107027 0.760815
0.028229 0.032731 0.895781
0.051301 0.030655 0.771359
0.210407 0.028290 0.670787
0.539193 0.030091 0.733166
0.680308 0.033600 0.582147
0.756909 0.071794 0.484062
0.817136 0.180758 0.429404
0.050065 0.246250 0.521340
0.035279 0.257649 0.709102
0.017182 0.200076 0.905379
0.043412 0.107286 0.725658
0.195590 0.105150 0.624567
0.501732 0.117144 0.642374
0.720363 0.075837 0.525048
0.809781 0.177295 0.439536
0.859388 0.326757 0.439643
0.070970 0.370077 0.530068
0.065293 0.455955 0.706706
0.043275 0.496712 0.849439
0.097627 0.398154 0.720714
0.233326 0.313573 0.572396
0.495628 0.339162 0.588464
0.733074 0.245579 0.450813
0.875517 0.339040 0.430976
0.856870 0.476860 0.507820
0.096223 0.507362 0.556649
0.082231 0.620523 0.727077
0.048325 0.720256 0.816861
0.110750 0.679133 0.707515
0.332647 0.624216 0.654841
0.565820 0.589960 0.591913
0.728740 0.517464 0.488258
0.882826 0.504372 0.456046
0.865522 0.607828 0.541955
0.124239 0.631205 0.497993
0.106035 0.761532 0.543313
0.076646 0.868559 0.559686
0.103929 0.891432 0.521981
0.242679 0.837293 0.492638
0.555550 0.772274 0.492012
0.838026 0.811002 0.521416
0.895766 0.729625 0.474037
0.884886 0.731975 0.575692
0.135531 0.768032 0.444968
0.102968 0.886320 0.464210
0.132982 0.902770 0.458946
0.196017 0.904616 0.454353
0.324071 0.901900 0.457816
0.515541 0.891752 0.398947
0.809979 0.914855 0.495232
0.935882 0.934462 0.517113
0.919188 0.860471 0.623301
0.115297 0.904402 0.408392
0.148974 0.905272 0.426505
0.198413 0.905028 0.451789
0.297032 0.900389 0.509636
0.503716 0.909026 0.593500
0.651682 0.921386 0.611154
0.797360 0.929061 0.628534
0.906188 0.941299 0.646891
0.941604 0.941604 0.659190
0.028122 0.028122 0.742092
0.028473 0.028183 0.711147
0.053513 0.027115 0.672694
0.097978 0.025513 0.589410
0.167742 0.024811 0.527779
0.286671 0.024231 0.526284
0.443320 0.025330 0.597955
0.587015 0.026047 0.608316
0.702541 0.027863 0.600977
0.020737 0.073625 0.770336
0.028992 0.029160 0.907423
0.029862 0.029084 0.831769
0.061692 0.027771 0.756069
0.159548 0.025956 0.684718
0.329061 0.025528 0.702815
0.544823 0.027451 0.743587
0.664698 0.031678 0.670985
0.704768 0.063157 0.561929
0.019913 0.150958 0.754543
0.018021 0.111376 0.908568
0.027588 0.040040 0.961822
0.029816 0.036530 0.884932
0.114305 0.035615 0.826719
0.319463 0.033814 0.801755
0.595758 0.036576 0.833646
0.678187 0.067292 0.626215
0.741375 0.156878 0.529992
0.036484 0.258549 0.711803
0.016327 0.260136 0.908522
0.015106 0.186648 0.966445
0.021729 0.085069 0.940169
0.076570 0.085451 0.894804
0.299443 0.084916 0.831067
0.588678 0.082353 0.817746
0.698116 0.152728 0.594720
0.772717 0.305287 0.553017
0.055772 0.392630 0.693690
0.033234 0.464210 0.864881
0.013321 0.473121 0.949981
0.019837 0.341527 0.947585
0.068040 0.219348 0.820432
0.280812 0.240360 0.780804
0.575280 0.239826 0.772671
0.746303 0.294530 0.596048
0.781643 0.463569 0.598383
0.074861 0.516228 0.724071
0.046906 0.589502 0.874647
0.030335 0.641306 0.948760
0.042924 0.599069 0.944823
0.144488 0.528695 0.866636
0.349065 0.468727 0.736721
0.613291 0.482292 0.733989
0.781704 0.460014 0.597559
0.819974 0.594781 0.650095
0.084047 0.617121 0.729747
0.043122 0.731884 0.828046
0.015930 0.803449 0.906828
0.022492 0.830518 0.924880
0.122179 0.804517 0.879744
0.429099 0.765652 0.833204
0.703044 0.729702 0.741787
0.837705 0.641367 0.594018
0.902159 0.734844 0.702068
0.089204 0.764874 0.624430
0.050629 0.865614 0.676585
0.057191 0.890745 0.701076
0.094301 0.894560 0.716808
0.193042 0.901030 0.752621
0.444495 0.919936 0.758434
0.683970 0.897581 0.660761
0.923384 0.913680 0.689433
0.929473 0.862425 0.747585
0.065675 0.900755 0.564355
0.078691 0.897932 0.591150
0.114977 0.898039 0.607919
0.218799 0.902007 0.690120
0.444389 0.924498 0.768521
0.619593 0.934829 0.781689
0.771725 0.936873 0.783123
0.891051 0.941527 0.784421
0.941695 0.941695 0.786999
0.028916 0.028916 0.907073
0.029053 0.029023 0.854887
0.036484 0.028717 0.812207
0.072496 0.027436 0.739727
0.138933 0.026169 0.680278
0.253025 0.025238 0.692164
0.393149 0.025772 0.724804
0.550744 0.027405 0.736385
0.674678 0.028321 0.740734
0.020356 0.082826 0.902739
0.028443 0.035691 0.965499
0.028031 0.033356 0.905989
0.035782 0.034104 0.881987
0.112306 0.032486 0.832898
0.241810 0.030945 0.803845
0.401053 0.031891 0.823285
0.601068 0.033402 0.846067
0.656733 0.068482 0.675914
0.014847 0.168826 0.925780
0.018875 0.114687 0.962371
0.021729 0.080995 0.945281
0.032578 0.073991 0.907561
0.104326 0.082399 0.895903
0.243153 0.078416 0.847486
0.406378 0.075944 0.839750
0.590570 0.075441 0.828901
0.660578 0.154086 0.659922
0.017151 0.292012 0.905791
0.012696 0.272358 0.953216
0.015457 0.214984 0.963729
0.028199 0.161517 0.938216
0.089342 0.166766 0.896468
0.236744 0.176028 0.873381
0.418357 0.178195 0.858122
0.597223 0.172335 0.852186
0.691127 0.297948 0.711574
0.030793 0.441138 0.873976
0.011597 0.488075 0.947768
0.017777 0.420691 0.952987
0.038056 0.343740 0.935912
0.070481 0.274434 0.910140
0.214664 0.291402 0.881468
0.421988 0.302174 0.880659
0.632120 0.311696 0.880781
0.721050 0.446204 0.730327
0.045014 0.538994 0.862837
0.025406 0.600534 0.955032
0.030976 0.567788 0.956359
0.070542 0.527016 0.941985
0.138933 0.491554 0.927489
0.195956 0.424872 0.903807
0.449897 0.445899 0.882200
0.692256 0.454459 0.886046
0.783291 0.583215 0.760433
0.046403 0.620371 0.887327
0.023026 0.705745 0.949142
0.041535 0.686809 0.943328
0.090745 0.675776 0.927520
0.195804 0.690944 0.919738
0.339208 0.680049 0.914122
0.508995 0.619959 0.884825
0.769558 0.629694 0.879377
0.888701 0.732586 0.821546
0.044205 0.736599 0.824155
0.012528 0.808499 0.919280
0.015747 0.836408 0.934188
0.056123 0.862257 0.921508
0.131334 0.885924 0.905150
0.307088 0.910506 0.912154
0.603449 0.899992 0.918471
0.858915 0.859266 0.861891
0.945968 0.860624 0.855299
0.035660 0.876524 0.744930
0.041566 0.880598 0.767056
0.076967 0.885924 0.815381
0.147402 0.896300 0.871351
0.355032 0.917525 0.891340
0.591272 0.936797 0.900206
0.753506 0.941543 0.893462
0.877745 0.948409 0.874708
0.948455 0.948455 0.873487
0.029923 0.029923 0.972229
0.029007 0.029007 0.936812
0.028946 0.028946 0.895796
0.037827 0.028504 0.894270
0.105470 0.026474 0.856718
0.198184 0.025788 0.815396
0.305150 0.026688 0.820371
0.444541 0.027588 0.858167
0.618296 0.029541 0.874968
0.021286 0.082124 0.967453
0.021149 0.080720 0.946502
0.024903 0.070375 0.907759
0.050523 0.076875 0.910887
0.121309 0.082795 0.901534
0.224964 0.078050 0.854536
0.337743 0.073487 0.831525
0.454185 0.072419 0.837995
0.586999 0.074388 0.818082
0.015656 0.175784 0.978424
0.015763 0.169223 0.962600
0.025620 0.159350 0.941894
0.057923 0.163943 0.912657
0.134249 0.176501 0.886809
0.237400 0.183215 0.875853
0.351324 0.180743 0.857649
0.471214 0.182925 0.862119
0.598535 0.174243 0.850172
0.011688 0.332387 0.954757
0.013581 0.298939 0.956558
0.028534 0.272938 0.942916
0.067308 0.274617 0.909056
0.144060 0.290562 0.883970
0.255833 0.298390 0.875395
0.386038 0.303578 0.875074
0.506203 0.311833 0.885084
0.631296 0.318868 0.885756
0.010254 0.501808 0.951202
0.017945 0.449332 0.957122
0.043214 0.405066 0.937484
0.107012 0.411795 0.923735
0.190539 0.425940 0.905989
0.317174 0.434058 0.889372
0.446693 0.442451 0.883482
0.544823 0.437400 0.879713
0.695598 0.451392 0.885466
0.016297 0.588037 0.960433
0.025391 0.554314 0.958907
0.068910 0.521202 0.941268
0.156512 0.533410 0.924605
0.273976 0.546731 0.910079
0.423484 0.576165 0.906172
0.548363 0.589227 0.903685
0.650843 0.580987 0.902754
0.756863 0.584421 0.902998
0.020661 0.662806 0.958984
0.040482 0.630884 0.947906
0.091539 0.627970 0.931640
0.197406 0.653605 0.919036
0.341619 0.688029 0.919982
0.505226 0.708354 0.928801
0.655512 0.734539 0.929290
0.781277 0.742077 0.927977
0.873259 0.738537 0.923262
0.011887 0.744060 0.948592
0.034623 0.733486 0.942382
0.080278 0.731517 0.924514
0.180957 0.773068 0.917052
0.340002 0.806592 0.917128
0.535119 0.836728 0.927428
0.710521 0.858381 0.932418
0.857221 0.867445 0.937652
0.942061 0.867323 0.937575
0.010132 0.808179 0.934157
0.012100 0.826261 0.932769
0.056870 0.860151 0.921431
0.125078 0.884459 0.906111
0.303410 0.918624 0.916320
0.543603 0.934508 0.926818
0.740459 0.941299 0.933410
0.869642 0.947066 0.939040
0.953887 0.953887 0.945693
