tools/luts_backup/Kodak Ektar 100_VS.cube
# (C) 2014 VisionColor & Patchflyer [www.vision-color.com]
# Generator: VC Patchmatch v.2.1.1 [64/53]
# All work and no play makes Jack a dull boy.
# LUT generated from: Kodak Ektar 100_VisionSpace
LUT_3D_SIZE 5
0.031647 0.016327 0.022248
0.154940 0.053346 0.059510
0.312230 0.089479 0.096132
0.460456 0.139895 0.135500
0.524529 0.154726 0.164553
0.099275 0.229191 0.108003
0.174044 0.218173 0.109194
0.319951 0.266880 0.133455
0.506340 0.369574 0.206790
0.617029 0.531823 0.314794
0.167269 0.395636 0.195773
0.205478 0.425696 0.184909
0.330571 0.429999 0.194308
0.496071 0.490913 0.248325
0.645289 0.602350 0.350042
0.249546 0.563836 0.323552
0.254673 0.572076 0.319341
0.271519 0.633692 0.316915
0.445441 0.582666 0.292943
0.667384 0.642512 0.366430
0.303380 0.629419 0.428046
0.306737 0.658381 0.434150
0.525093 0.711788 0.551537
0.661585 0.720760 0.578668
0.717281 0.720974 0.527733
0.053468 0.032441 0.095369
0.118135 0.042084 0.098543
0.267826 0.076722 0.148867
0.424689 0.118502 0.174044
0.521172 0.156191 0.192477
0.090089 0.164645 0.180667
0.205631 0.202609 0.211887
0.427100 0.143954 0.133028
0.533806 0.177584 0.170809
0.548089 0.184970 0.186770
0.153658 0.363684 0.274998
0.228977 0.519188 0.309941
0.436423 0.571984 0.285344
0.611658 0.545953 0.317662
0.596918 0.424445 0.273747
0.254459 0.551995 0.408545
0.306981 0.645716 0.434943
0.476921 0.701473 0.550286
0.704341 0.713619 0.510796
0.647456 0.586023 0.343847
0.328771 0.635004 0.526482
0.497017 0.705409 0.629908
0.493431 0.703120 0.628931
0.698085 0.737179 0.706630
0.742611 0.742611 0.669886
0.074403 0.053498 0.231296
0.169314 0.059327 0.213931
0.265263 0.074983 0.215671
0.425452 0.121706 0.250797
0.512261 0.151980 0.230228
0.093629 0.145113 0.304662
0.091859 0.071473 0.359106
0.400763 0.120821 0.309087
0.510063 0.153445 0.231754
0.536858 0.176883 0.223148
0.135653 0.331670 0.350347
0.221805 0.462623 0.480812
0.478660 0.478874 0.483635
0.572213 0.233234 0.215228
0.676173 0.409232 0.318227
0.257267 0.541985 0.471473
0.389624 0.676997 0.619287
0.452613 0.688350 0.600977
0.730434 0.735836 0.679866
0.710475 0.660914 0.496101
0.346746 0.645594 0.599176
0.624018 0.724575 0.694301
0.648432 0.728328 0.702296
0.728145 0.748562 0.733150
0.761471 0.761349 0.739132
0.083894 0.067079 0.378485
0.205142 0.079561 0.359014
0.332525 0.097383 0.327581
0.433814 0.129183 0.320165
0.511437 0.167605 0.332433
0.096681 0.098940 0.426001
0.089235 0.072511 0.431769
0.337057 0.113527 0.423224
0.499702 0.182040 0.429603
0.534264 0.199435 0.333135
0.139834 0.289845 0.445808
0.126711 0.184894 0.488258
0.158740 0.112078 0.469825
0.606897 0.322225 0.564599
0.675868 0.436912 0.551965
0.224308 0.491554 0.507530
0.343725 0.614313 0.623255
0.394888 0.658900 0.665675
0.684047 0.684047 0.684047
0.739559 0.700618 0.696529
0.365087 0.657984 0.646448
0.463539 0.692744 0.677485
0.657404 0.730861 0.720150
0.731746 0.758114 0.739437
0.775570 0.775570 0.752773
0.083619 0.067567 0.431403
0.162478 0.076631 0.425269
0.333104 0.114076 0.430701
0.449989 0.150454 0.429603
0.501915 0.187442 0.443824
0.096223 0.097261 0.464393
0.117128 0.097963 0.466712
0.307195 0.129366 0.466041
0.477699 0.194247 0.470802
0.572137 0.294652 0.535271
0.128542 0.198611 0.491524
0.136934 0.130312 0.498360
0.324605 0.163851 0.497719
0.618219 0.385046 0.635676
0.674525 0.557183 0.667231
0.209506 0.435828 0.546075
0.248478 0.372778 0.573785
0.508690 0.497368 0.678676
0.673823 0.618784 0.702022
0.736110 0.704463 0.734890
0.347356 0.622614 0.629938
0.396948 0.669429 0.669490
0.574838 0.717220 0.717494
0.730770 0.766354 0.766354
0.796506 0.796506 0.796506
