tools/luts_backup/Kodak Elite Chrome 200_FPE.cube
# (C) 2014 VisionColor & Patchflyer [www.vision-color.com]
# Generator: VC Patchmatch v.2.1.1 [64/53]
# All work and no play makes Jack a dull boy.
# LUT generated from: Kodak Elite Chrome 200_FPE
LUT_3D_SIZE 5
0.033509 0.036683 0.037079
0.103426 0.044617 0.038315
0.181430 0.052354 0.039445
0.300877 0.056947 0.045487
0.379248 0.053529 0.047791
0.032059 0.097002 0.044984
0.172686 0.160769 0.050919
0.360555 0.182239 0.060945
0.460258 0.176059 0.064347
0.521385 0.169970 0.062928
0.035767 0.184451 0.057740
0.106798 0.278462 0.061311
0.528069 0.443809 0.107729
0.743008 0.482261 0.158923
0.790967 0.467536 0.170840
0.042588 0.315022 0.079118
0.109163 0.401297 0.087388
0.545403 0.555367 0.135576
0.855680 0.660624 0.250553
0.919295 0.690471 0.329595
0.049577 0.394751 0.097230
0.186465 0.495842 0.112566
0.631312 0.643015 0.192523
0.897353 0.766201 0.325322
0.937819 0.794491 0.399069
0.030976 0.038163 0.095171
0.109224 0.048981 0.102724
0.217197 0.060838 0.099535
0.339773 0.064683 0.105486
0.403265 0.061616 0.101534
0.032807 0.101396 0.134951
0.181018 0.182956 0.186252
0.305043 0.074083 0.056641
0.383734 0.061372 0.051575
0.464363 0.135927 0.114870
0.035645 0.225788 0.180987
0.045533 0.308873 0.096849
0.791608 0.618570 0.237888
0.773144 0.453834 0.170108
0.707134 0.383658 0.195193
0.043870 0.350240 0.222232
0.052659 0.397635 0.104311
0.623224 0.642908 0.198138
0.930648 0.780163 0.382773
0.906905 0.686519 0.401556
0.057542 0.444923 0.261997
0.167163 0.509636 0.201511
0.635752 0.674571 0.301625
0.893156 0.790784 0.431983
0.942321 0.811948 0.493751
0.030930 0.037888 0.136934
0.093187 0.045960 0.175341
0.242618 0.064408 0.193759
0.357565 0.066987 0.188388
0.407660 0.060578 0.176043
0.038087 0.118181 0.228138
0.040665 0.062150 0.223056
0.409827 0.116655 0.317372
0.411170 0.066773 0.181094
0.481849 0.144289 0.216480
0.042527 0.237858 0.306798
0.071199 0.392081 0.459266
0.541863 0.521187 0.485023
0.503410 0.176593 0.149508
0.676341 0.349355 0.313634
0.069154 0.436728 0.434256
0.115480 0.553689 0.497536
0.193622 0.516213 0.231205
0.927718 0.782498 0.480751
0.910094 0.709453 0.544289
0.119966 0.565606 0.512657
0.147204 0.560357 0.421225
0.461524 0.656703 0.414099
0.871977 0.812009 0.549340
0.936660 0.815045 0.570993
0.033875 0.036454 0.182727
0.090852 0.048096 0.250523
0.234165 0.061158 0.293935
0.390158 0.073350 0.303349
0.418372 0.060090 0.258686
0.044953 0.172564 0.350118
0.037278 0.045121 0.241291
0.231861 0.084276 0.372122
0.459342 0.077684 0.355398
0.561196 0.198947 0.392309
0.046052 0.255009 0.390311
0.057343 0.319371 0.484092
0.143175 0.307698 0.483024
0.661952 0.335546 0.530144
0.756405 0.476310 0.555077
0.070329 0.423713 0.498619
0.207095 0.625574 0.674403
0.387610 0.669322 0.691920
0.796338 0.734096 0.721065
0.880735 0.719188 0.705715
0.222538 0.652766 0.644602
0.357259 0.694347 0.665339
0.596033 0.763409 0.706081
0.781537 0.819776 0.722759
0.928252 0.863005 0.759182
0.035554 0.036423 0.219608
0.085023 0.049226 0.292760
0.213123 0.063828 0.358068
0.386130 0.073869 0.369757
0.439277 0.062516 0.340246
0.048035 0.210758 0.427008
0.090379 0.241794 0.443656
0.334462 0.304906 0.527047
0.579141 0.303853 0.538262
0.614008 0.247272 0.481071
0.054902 0.315404 0.486473
0.132845 0.410819 0.547707
0.456535 0.526177 0.646571
0.705348 0.564019 0.688869
0.791989 0.542840 0.668086
0.075517 0.449699 0.568765
0.174014 0.522148 0.607126
0.558541 0.667948 0.719585
0.766857 0.730236 0.777081
0.886503 0.742550 0.785840
0.229694 0.641382 0.690883
0.393210 0.703120 0.726833
0.633600 0.779370 0.784726
0.802029 0.839780 0.842145
0.922637 0.887495 0.880308
