tools/luts_backup/Kodak Vision3 200T 5213 (NEG)_FC.cube
# (C) 2014 VisionColor & Patchflyer [www.vision-color.com]
# Generator: VC Patchmatch v.2.1.1 [64/53]
# All work and no play makes Jack a dull boy.
# LUT generated from: Kodak Vision3 200T 5213 (NEG)_FC01
LUT_3D_SIZE 9
0.029297 0.029297 0.029297
0.048569 0.013062 0.018448
0.075105 0.003265 0.003281
0.105104 0.001816 0.001816
0.144961 0.000702 0.000702
0.158282 0.000488 0.000488
0.222477 0.000092 0.000092
0.392660 0.000031 0.000031
0.457923 0.000031 0.000031
0.026322 0.106172 0.003067
0.055604 0.100191 0.003326
0.132967 0.045396 0.001236
0.157000 0.010101 0.000534
0.183185 0.001266 0.000214
0.215503 0.000137 0.000092
0.267613 0.000076 0.000061
0.402136 0.000458 0.000031
0.469261 0.000031 0.000031
0.033890 0.180102 0.010956
0.047517 0.191440 0.015015
0.106737 0.183474 0.025711
0.323079 0.147173 0.011276
0.391638 0.095933 0.000076
0.411170 0.044343 0.000015
0.417166 0.017975 0.000015
0.680949 0.050965 0.000000
0.508339 0.002167 0.000015
0.115267 0.322301 0.049210
0.112840 0.331060 0.049042
0.085328 0.362081 0.043503
0.197299 0.348669 0.056840
0.546868 0.290242 0.047150
0.738399 0.184543 0.002152
0.640726 0.088991 0.000000
0.599420 0.032547 0.000000
0.789075 0.074495 0.000000
0.260441 0.528893 0.077317
0.255619 0.531182 0.078248
0.209552 0.553643 0.075731
0.182559 0.556756 0.068757
0.472892 0.546502 0.099977
0.854566 0.426062 0.084810
0.964370 0.233387 0.008652
0.782330 0.087831 0.001022
0.994247 0.234119 0.020829
0.500847 0.754406 0.114931
0.462715 0.760952 0.089525
0.449104 0.765789 0.102907
0.322484 0.742824 0.098619
0.359411 0.712352 0.101778
0.769497 0.646571 0.144183
0.956130 0.603647 0.161898
0.982605 0.481041 0.119417
0.994797 0.467094 0.126482
0.753597 0.898299 0.171633
0.722805 0.891798 0.155138
0.677043 0.880140 0.153841
0.562951 0.869337 0.145510
0.459648 0.849210 0.131594
0.587091 0.830716 0.150942
0.863279 0.795239 0.200000
0.974380 0.745388 0.234043
0.993225 0.685603 0.228214
0.884596 0.948653 0.219654
0.880217 0.947280 0.217182
0.867643 0.944381 0.214099
0.790616 0.938445 0.205356
0.667720 0.929641 0.185824
0.702358 0.918669 0.200809
0.867353 0.909773 0.247669
0.977569 0.882185 0.288060
0.992538 0.852461 0.299031
0.949447 0.974823 0.271534
0.946563 0.973358 0.268910
0.943969 0.972457 0.267216
0.926314 0.970550 0.265949
0.845716 0.964645 0.246555
0.824750 0.959640 0.256580
0.927687 0.956695 0.308202
0.985931 0.947463 0.340352
0.990997 0.926223 0.359747
0.005814 0.006424 0.055024
0.083299 0.003967 0.106950
0.106600 0.000381 0.084199
0.112856 0.000610 0.044862
0.122591 0.000977 0.007660
0.144411 0.000702 0.000885
0.185382 0.000198 0.000198
0.326650 0.000046 0.000046
0.437842 0.000031 0.000031
0.003037 0.131334 0.117739
0.075792 0.079835 0.096483
0.207828 0.031220 0.063844
0.253483 0.005509 0.011048
0.210788 0.001633 0.000183
0.224994 0.000320 0.000076
0.248890 0.000061 0.000061
0.335088 0.000046 0.000046
0.502739 0.001511 0.000015
0.020233 0.231220 0.047883
0.073060 0.184176 0.044236
0.142733 0.196048 0.039857
0.394766 0.141802 0.022919
0.511940 0.099062 0.001160
0.508675 0.066560 0.000015
0.478935 0.028809 0.000015
0.452735 0.006607 0.000015
0.698863 0.051179 0.000000
0.096025 0.371176 0.040406
0.115312 0.339132 0.045121
0.149554 0.365911 0.041794
0.264820 0.376379 0.059358
0.645777 0.289296 0.043214
0.743984 0.169177 0.000916
0.729580 0.125521 0.000000
0.714229 0.083055 0.000000
0.842863 0.107912 0.000000
0.258503 0.589471 0.063996
0.248707 0.560342 0.064393
0.273503 0.575143 0.069169
0.259632 0.582055 0.070176
0.508644 0.578592 0.105898
0.833875 0.462440 0.091005
0.973739 0.324483 0.044099
0.983886 0.224445 0.009827
0.989059 0.208133 0.007797
0.480064 0.788144 0.088289
0.473121 0.790402 0.084611
0.461234 0.773297 0.086671
0.378912 0.764630 0.090394
0.474159 0.745007 0.120989
0.776532 0.728283 0.167636
0.942351 0.627344 0.166918
0.985275 0.473732 0.117479
0.994400 0.386862 0.090166
0.753979 0.918685 0.137026
0.724910 0.918517 0.126024
0.694957 0.916228 0.113909
0.593973 0.894636 0.113283
0.566415 0.870970 0.140261
0.747845 0.862837 0.191165
0.944091 0.854536 0.254292
0.984115 0.748592 0.238254
0.992874 0.663569 0.214969
0.885267 0.952193 0.196399
0.881666 0.950393 0.199344
0.861494 0.947829 0.181140
0.785412 0.940078 0.178866
0.671321 0.929107 0.172992
0.695796 0.918914 0.193179
0.859617 0.918120 0.247623
0.958831 0.893156 0.284901
0.991196 0.857313 0.291371
0.944335 0.973083 0.261143
0.943450 0.972320 0.262196
0.943725 0.972503 0.264408
0.931624 0.969909 0.263325
0.856901 0.962219 0.244678
0.773007 0.954879 0.230060
0.856916 0.948867 0.269841
0.953841 0.943206 0.313878
0.990143 0.930968 0.336782
0.001526 0.001419 0.060960
0.046693 0.000381 0.112184
0.084810 0.000259 0.119905
0.110872 0.000153 0.127413
0.135698 0.000137 0.111086
0.162982 0.000076 0.067704
0.171511 0.000198 0.017395
0.286290 0.000046 0.000855
0.401495 0.000031 0.000031
0.000290 0.049348 0.156115
0.062333 0.010697 0.230457
0.180240 0.006500 0.203082
0.195422 0.000244 0.155795
0.217838 0.000015 0.106889
0.242908 0.000031 0.047105
0.225010 0.000076 0.004120
0.274830 0.000061 0.000061
0.389944 0.000031 0.000031
0.004349 0.259586 0.245441
0.042008 0.216709 0.219059
0.162814 0.139345 0.182040
0.382620 0.102907 0.130709
0.594751 0.065949 0.074784
0.776501 0.028672 0.007736
0.460594 0.010895 0.000031
0.375174 0.000366 0.000031
0.426154 0.000046 0.000031
0.040101 0.452415 0.165545
0.072084 0.379385 0.133974
0.180774 0.317739 0.128420
0.323781 0.349264 0.109010
0.657801 0.261738 0.086198
0.910475 0.163668 0.032456
0.864805 0.122820 0.001266
0.744854 0.098009 0.000000
0.716289 0.060090 0.000000
0.165759 0.622904 0.122103
0.173678 0.583947 0.106310
0.246830 0.551003 0.126757
0.340673 0.576989 0.107973
0.563043 0.578805 0.103227
0.902327 0.455772 0.079194
0.979751 0.304356 0.022736
0.981048 0.248493 0.005203
0.983566 0.197589 0.004608
0.364202 0.800931 0.127932
0.373556 0.797086 0.122271
0.395727 0.777691 0.128222
0.460105 0.767178 0.123186
0.539528 0.762570 0.103410
0.822522 0.737240 0.123995
0.962783 0.658961 0.120073
0.988907 0.533471 0.104372
0.994995 0.413779 0.091081
0.661585 0.927291 0.175494
0.634440 0.915465 0.159533
0.643000 0.910521 0.138048
0.646433 0.902495 0.127611
0.630121 0.903777 0.109071
0.798810 0.890303 0.153613
0.943358 0.873014 0.208560
0.986114 0.789609 0.227375
0.993454 0.637171 0.190036
0.878187 0.969497 0.184726
0.872572 0.967102 0.180606
0.853880 0.960052 0.170733
0.801389 0.952651 0.154391
0.754452 0.954879 0.127703
0.830457 0.946944 0.158145
0.941222 0.940978 0.246723
0.975769 0.910903 0.286809
0.993042 0.818830 0.265003
0.948852 0.985107 0.208270
0.950454 0.984863 0.207645
0.948714 0.984253 0.211139
0.934661 0.982834 0.205173
0.874556 0.973892 0.192706
0.845930 0.969268 0.197650
0.893416 0.961044 0.247196
0.941512 0.944335 0.302739
0.987320 0.926146 0.324041
0.000549 0.000549 0.100694
0.012955 0.000412 0.121965
0.053193 0.000198 0.133684
0.088121 0.000122 0.140261
0.111635 0.000076 0.142367
0.143282 0.000061 0.139086
0.183703 0.000015 0.122774
0.321508 0.000015 0.057603
0.428183 0.000015 0.008453
0.000397 0.004074 0.125277
0.011383 0.000595 0.160723
0.089174 0.000214 0.208850
0.140978 0.000092 0.186969
0.175113 0.000031 0.172854
0.212436 0.000015 0.154864
0.235172 0.000015 0.111376
0.273777 0.000046 0.021881
0.370565 0.000031 0.000031
0.000336 0.182971 0.369802
0.024399 0.155428 0.423667
0.089296 0.111604 0.361761
0.332143 0.050599 0.345190
0.555566 0.017060 0.310262
0.527596 0.002045 0.201068
0.455039 0.000015 0.097642
0.390188 0.000031 0.013657
0.379965 0.000031 0.000214
0.019745 0.526726 0.450645
0.062104 0.445838 0.437278
0.136919 0.361654 0.377554
0.302220 0.275257 0.312276
0.593835 0.217548 0.239918
0.803952 0.134554 0.166873
0.938308 0.062470 0.070710
0.860594 0.024872 0.003708
0.573205 0.013870 0.000015
0.097093 0.714000 0.354421
0.116609 0.635248 0.294072
0.178790 0.571038 0.269154
0.325368 0.510658 0.248615
0.537224 0.538140 0.222492
0.849424 0.446738 0.186984
0.965454 0.287327 0.122179
0.993225 0.210346 0.048463
0.981933 0.187304 0.003891
0.223651 0.796796 0.253742
0.235782 0.788449 0.244160
0.280446 0.759380 0.223239
0.396368 0.738872 0.228321
0.573220 0.756359 0.214206
0.811963 0.753887 0.197772
0.963241 0.654658 0.166567
0.993698 0.486427 0.097185
0.997665 0.349279 0.043610
0.494591 0.905135 0.260075
0.485542 0.899611 0.235111
0.506203 0.898726 0.221347
0.552972 0.889815 0.224537
0.644465 0.885039 0.224628
0.807599 0.896284 0.201663
0.950896 0.895491 0.197543
0.992309 0.818814 0.164813
0.996689 0.695003 0.143023
0.779873 0.961212 0.302373
0.754833 0.954772 0.275700
0.760769 0.952453 0.247379
0.764981 0.951675 0.227924
0.793042 0.951614 0.216114
0.848234 0.956649 0.184222
0.954650 0.954543 0.200031
0.988251 0.930816 0.224277
0.994064 0.873396 0.241291
0.908919 0.984649 0.302083
0.921553 0.985245 0.286992
0.919264 0.984970 0.276127
0.892088 0.983276 0.265751
0.888487 0.982757 0.244877
0.893309 0.984512 0.195941
0.965255 0.983810 0.204318
0.987243 0.959319 0.252522
0.991958 0.921187 0.292576
0.000290 0.000290 0.131136
0.001495 0.000290 0.128222
0.036591 0.000076 0.177279
0.072923 0.000015 0.189548
0.089296 0.000031 0.173144
0.112474 0.000031 0.162280
0.169879 0.000031 0.173571
0.335576 0.000000 0.158114
0.515480 0.000000 0.102358
0.000168 0.001312 0.152911
0.005005 0.000107 0.162402
0.056840 0.000015 0.211185
0.101274 0.000015 0.218265
0.127626 0.000015 0.200626
0.163287 0.000015 0.204517
0.189837 0.000015 0.181369
0.267857 0.000015 0.110079
0.370077 0.000031 0.008118
0.000000 0.122591 0.389624
0.000305 0.093339 0.542107
0.051835 0.052201 0.760845
0.228214 0.024353 0.664439
0.336309 0.002564 0.431693
0.324269 0.000076 0.284459
0.315679 0.000000 0.201480
0.363592 0.000000 0.127749
0.412253 0.000015 0.025437
0.005020 0.454429 0.793256
0.037705 0.373800 0.760723
0.084840 0.309621 0.685405
0.179583 0.240146 0.586175
0.435462 0.184558 0.489616
0.655451 0.119707 0.407401
0.858289 0.039216 0.306844
0.789731 0.002213 0.132143
0.644846 0.000107 0.043488
0.077668 0.792233 0.761273
0.125124 0.710109 0.697841
0.176867 0.640818 0.657526
0.275792 0.570138 0.576822
0.486625 0.474144 0.498619
0.747005 0.398825 0.410101
0.898146 0.263127 0.302022
0.974227 0.148989 0.157000
0.996811 0.117418 0.054704
0.178592 0.876066 0.597482
0.190326 0.852811 0.573739
0.227512 0.803296 0.498329
0.302220 0.752056 0.435828
0.490257 0.698497 0.408087
0.733700 0.721935 0.386267
0.927794 0.650568 0.340169
0.976394 0.477562 0.244800
0.992844 0.345159 0.151186
0.361944 0.899245 0.449454
0.351034 0.894987 0.426703
0.374044 0.891661 0.420386
0.412772 0.873579 0.353140
0.548165 0.866255 0.365560
0.751369 0.875792 0.370779
0.924910 0.875196 0.346563
0.986893 0.802945 0.287114
0.994217 0.651896 0.218418
0.634913 0.948974 0.443732
0.626841 0.942946 0.367132
0.618769 0.940536 0.350591
0.626017 0.940642 0.334646
0.684825 0.938613 0.344640
0.799420 0.941039 0.353063
0.931685 0.943252 0.342977
0.988144 0.925856 0.280980
0.994461 0.872801 0.242817
0.807080 0.977905 0.446372
0.834440 0.981018 0.423423
0.839750 0.978469 0.380957
0.831357 0.975296 0.358175
0.834546 0.975631 0.335653
0.862287 0.976776 0.317006
0.921065 0.980209 0.263844
0.987579 0.972412 0.242161
0.993683 0.950149 0.263355
0.000046 0.000046 0.183566
0.000107 0.000107 0.163531
0.004868 0.000076 0.178927
0.045426 0.000015 0.227710
0.070375 0.000015 0.221347
0.075471 0.000015 0.208392
0.131502 0.000015 0.206180
0.408988 0.000000 0.316136
0.592004 0.000000 0.285023
0.000046 0.000443 0.192355
0.000473 0.000031 0.191012
0.028412 0.000015 0.242191
0.078798 0.000015 0.275669
0.114488 0.000000 0.283345
0.119402 0.000015 0.256748
0.139666 0.000015 0.234257
0.217136 0.000000 0.195743
0.490425 0.000000 0.144320
0.000000 0.102754 0.455589
0.000000 0.047486 0.417182
0.004974 0.011933 0.702724
0.131899 0.002457 0.650416
0.207614 0.000427 0.494865
0.206546 0.000000 0.345632
0.230716 0.000000 0.293202
0.328130 0.000000 0.245289
0.459403 0.000000 0.122454
0.000015 0.344823 0.761212
0.000351 0.306447 0.869810
0.020294 0.273548 0.961288
0.106661 0.204242 0.874937
0.298070 0.153445 0.766720
0.493812 0.085542 0.739528
0.722576 0.030121 0.683970
0.698116 0.001984 0.353780
0.686717 0.000015 0.183337
0.041657 0.745312 0.965118
0.071489 0.644373 0.937896
0.115312 0.592294 0.903197
0.178027 0.524147 0.839612
0.341863 0.435172 0.737301
0.577081 0.366171 0.664286
0.751568 0.271748 0.588540
0.931609 0.155138 0.413794
0.994324 0.090105 0.207965
0.164752 0.903777 0.897292
0.190463 0.883970 0.886641
0.243870 0.844755 0.852216
0.310063 0.802411 0.802167
0.450752 0.742138 0.734646
0.671229 0.670436 0.676616
0.857694 0.603647 0.600671
0.930770 0.464347 0.473640
0.975906 0.336461 0.309102
0.313436 0.933181 0.744137
0.296834 0.929610 0.782574
0.310231 0.916136 0.722148
0.351522 0.894377 0.662165
0.445762 0.867002 0.608148
0.649989 0.838117 0.585565
0.873762 0.852125 0.566461
0.964370 0.793240 0.499550
0.986358 0.682719 0.406622
0.531624 0.946075 0.642191
0.489906 0.937728 0.590249
0.474968 0.933639 0.578103
0.484199 0.927993 0.543084
0.530938 0.919676 0.505989
0.671641 0.922515 0.510307
0.870665 0.927489 0.513252
0.974701 0.915099 0.469184
0.988693 0.888655 0.423239
0.682216 0.965072 0.599313
0.703777 0.967300 0.569070
0.688502 0.962310 0.509697
0.685389 0.961074 0.486915
0.697414 0.963058 0.459876
0.749889 0.969863 0.440131
0.844953 0.965057 0.440558
0.944152 0.961852 0.392325
0.989731 0.955917 0.392340
0.000015 0.000015 0.265232
0.000031 0.000031 0.240986
0.000076 0.000031 0.238422
0.013001 0.000015 0.271870
0.045151 0.000015 0.305104
0.061372 0.000015 0.305867
0.145068 0.000000 0.398093
0.387610 0.000000 0.480552
0.614404 0.000000 0.489219
0.000031 0.000031 0.230503
0.000031 0.000031 0.228031
0.002533 0.000031 0.242466
0.058549 0.000015 0.336904
0.103639 0.000000 0.366583
0.111910 0.000000 0.358755
0.100969 0.000015 0.315908
0.202808 0.000000 0.345815
0.619501 0.000000 0.451591
0.000000 0.061402 0.435416
0.000000 0.046357 0.421851
0.000015 0.010086 0.398688
0.072938 0.000336 0.585763
0.169772 0.000031 0.576608
0.198322 0.000000 0.501701
0.178958 0.000000 0.402411
0.281392 0.000000 0.388190
0.502739 0.000000 0.340368
0.000000 0.284031 0.736797
0.000000 0.245731 0.741283
0.000046 0.217594 0.810437
0.023087 0.170871 0.987045
0.191058 0.118379 0.956497
0.374273 0.067750 0.955047
0.509987 0.013550 0.955962
0.607675 0.002274 0.694743
0.707210 0.000000 0.429541
0.004303 0.717891 0.985885
0.014115 0.667262 0.987671
0.049348 0.583490 0.985458
0.105379 0.491951 0.968826
0.236835 0.416037 0.914992
0.433143 0.340230 0.844694
0.569772 0.264530 0.814710
0.812970 0.181399 0.771130
0.988647 0.086244 0.519310
0.103609 0.893736 0.967880
0.140185 0.863447 0.965148
0.184390 0.810590 0.950240
0.251118 0.764858 0.927642
0.362554 0.708400 0.888975
0.560555 0.642878 0.841978
0.698299 0.588190 0.796582
0.845212 0.497459 0.745312
0.943999 0.359121 0.603738
0.257649 0.953323 0.939605
0.295491 0.937240 0.941939
0.310506 0.928954 0.928847
0.358328 0.908400 0.904265
0.465675 0.886213 0.881071
0.627054 0.860487 0.853071
0.818250 0.814084 0.812696
0.917327 0.760830 0.753140
0.952331 0.673808 0.665904
0.463081 0.963211 0.872114
0.417029 0.956985 0.882719
0.393378 0.951568 0.869001
0.418570 0.944930 0.840574
0.475395 0.935241 0.800656
0.590036 0.920439 0.755199
0.775143 0.904112 0.726436
0.935500 0.905486 0.707027
0.973388 0.887144 0.667338
0.607553 0.969879 0.803128
0.619287 0.966430 0.750957
0.543603 0.955291 0.715236
0.549035 0.957748 0.729091
0.579370 0.955200 0.684901
0.619333 0.951949 0.623713
0.725765 0.955016 0.597757
0.905791 0.955032 0.599634
0.981888 0.953658 0.617578
0.000015 0.000015 0.300694
0.000015 0.000015 0.298634
0.000076 0.000015 0.309316
0.011749 0.000015 0.360143
0.030426 0.000015 0.398810
0.048051 0.000015 0.420096
0.137545 0.000000 0.492500
0.299016 0.000000 0.569223
0.532387 0.000000 0.618555
0.000015 0.000015 0.289723
0.000015 0.000015 0.270222
0.000046 0.000015 0.274098
0.030976 0.000015 0.368917
0.095995 0.000000 0.458976
0.114504 0.000000 0.477363
0.149065 0.000000 0.490944
0.211963 0.000000 0.466453
0.603296 0.000000 0.616876
0.000000 0.027451 0.410880
0.000000 0.027405 0.407721
0.000015 0.012909 0.408743
0.016403 0.000092 0.539864
0.119158 0.000000 0.634836
0.176486 0.000000 0.599115
0.187213 0.000000 0.535180
0.229053 0.000000 0.491997
0.550164 0.000000 0.579934
0.000000 0.245731 0.708659
0.000000 0.232090 0.719890
0.000000 0.194751 0.734051
0.000229 0.129747 0.886107
0.092500 0.102052 0.988617
0.248951 0.069200 0.986938
0.420157 0.022339 0.988098
0.506081 0.003754 0.896666
0.722332 0.000259 0.759533
0.000702 0.613504 0.966491
0.001450 0.624155 0.979126
0.004196 0.564492 0.987533
0.028931 0.450370 0.988876
0.155154 0.377142 0.979599
0.319188 0.340352 0.934432
0.475303 0.281361 0.919005
0.611170 0.211200 0.916259
0.936019 0.105333 0.921202
0.053025 0.899901 0.987915
0.125994 0.859892 0.984161
0.143236 0.810193 0.981720
0.224750 0.752087 0.966278
0.325292 0.685557 0.943832
0.506600 0.635096 0.909529
0.622446 0.583841 0.881880
0.701778 0.528832 0.867857
0.874434 0.417716 0.843824
0.203616 0.953811 0.979614
0.296559 0.924636 0.974319
0.296422 0.916289 0.970626
0.368765 0.894957 0.952468
0.484749 0.865095 0.937484
0.607263 0.836637 0.920867
0.757351 0.799268 0.893538
0.833310 0.770306 0.876967
0.905333 0.715419 0.852155
0.391592 0.976410 0.967010
0.397528 0.968414 0.958846
0.420111 0.955123 0.952926
0.450767 0.949294 0.944686
0.535912 0.937728 0.934569
0.646601 0.927138 0.923888
0.779293 0.909850 0.902617
0.899077 0.887449 0.881315
0.940841 0.872877 0.865766
0.542947 0.981781 0.936629
0.555444 0.980499 0.919219
0.493400 0.972732 0.909560
0.491554 0.971160 0.923125
0.571817 0.968353 0.915053
0.623529 0.960433 0.893324
0.686885 0.952575 0.852491
0.864805 0.942885 0.825788
0.951568 0.943252 0.843809
0.000015 0.000015 0.330602
0.000015 0.000015 0.328222
0.000076 0.000015 0.339223
0.013153 0.000015 0.395880
0.041535 0.000015 0.448707
0.050675 0.000015 0.453056
0.105577 0.000000 0.498161
0.210483 0.000000 0.567178
0.388403 0.000000 0.634562
0.000015 0.000381 0.352544
0.000015 0.000015 0.345251
0.001175 0.000015 0.373465
0.094118 0.000000 0.551080
0.114137 0.000000 0.584115
0.096620 0.000000 0.510140
0.187610 0.000000 0.562615
0.327764 0.000000 0.613245
0.479011 0.000000 0.640772
0.000000 0.094850 0.599451
0.000015 0.003342 0.377127
0.000015 0.003662 0.350118
0.000626 0.000473 0.460929
0.103243 0.000000 0.732341
0.128847 0.000000 0.743877
0.183474 0.000000 0.646860
0.317586 0.000000 0.646326
0.524041 0.000000 0.682216
0.000000 0.295598 0.770077
0.000000 0.162966 0.651118
0.000000 0.147494 0.672068
0.000137 0.135149 0.882643
0.061631 0.092058 0.989517
0.200504 0.082933 0.988937
0.329488 0.054063 0.988876
0.500343 0.027176 0.988815
0.844221 0.019684 0.988220
0.000488 0.587472 0.948043
0.000656 0.560372 0.968734
0.001450 0.525933 0.979583
0.009796 0.450263 0.989273
0.100725 0.364523 0.987640
0.306371 0.346639 0.962127
0.432013 0.306752 0.952682
0.541176 0.264881 0.947417
0.708232 0.209918 0.946792
0.035248 0.931319 0.989227
0.138537 0.867887 0.986877
0.149416 0.796902 0.985626
0.198901 0.730007 0.981674
0.258335 0.655528 0.972656
0.484520 0.627161 0.937942
0.596521 0.596429 0.912886
0.679179 0.574578 0.902525
0.753872 0.524132 0.893355
0.167895 0.949035 0.987106
0.249607 0.924056 0.981857
0.405066 0.899367 0.975525
0.467918 0.878279 0.969909
0.534646 0.853986 0.956970
0.639643 0.822568 0.941894
0.756924 0.801129 0.924544
0.820752 0.792248 0.908141
0.859602 0.776257 0.892882
0.314351 0.973510 0.982391
0.343160 0.972519 0.980484
0.496529 0.950790 0.974319
0.515831 0.937575 0.971450
0.622370 0.926726 0.958648
0.692348 0.908110 0.948516
0.801801 0.894865 0.936202
0.889967 0.885573 0.922805
0.917479 0.889250 0.909361
0.473564 0.983703 0.977142
0.493492 0.984009 0.975250
0.549584 0.981735 0.973495
0.606867 0.968902 0.965240
0.602243 0.964416 0.962051
0.629755 0.955734 0.952667
0.732372 0.947829 0.943145
0.887068 0.940124 0.932113
0.939605 0.933181 0.926497
