tools/luts_backup/Kodak Vision3 50D 5203 (DP)_FC.cube
# (C) 2014 VisionColor & Patchflyer [www.vision-color.com]
# Generator: VC Patchmatch v.2.1.1 [64/53]
# All work and no play makes Jack a dull boy.
# LUT generated from: Kodak Vision3 50D 5203 (DP)_FC01
LUT_3D_SIZE 5
0.029297 0.029297 0.029297
0.069368 0.016632 0.014160
0.157687 0.014130 0.008591
0.252064 0.013718 0.005921
0.498924 0.015351 0.004349
0.034363 0.166323 0.017502
0.110307 0.160418 0.033570
0.427100 0.091432 0.002258
0.450462 0.030686 0.003113
0.552636 0.017105 0.004334
0.315526 0.430457 0.063951
0.246952 0.437354 0.066667
0.547021 0.450614 0.078553
0.965255 0.192050 0.010040
0.991272 0.205966 0.016693
0.847425 0.790158 0.123766
0.780850 0.758846 0.113359
0.570321 0.693553 0.100175
0.906355 0.645869 0.154009
0.994247 0.557015 0.184863
0.971038 0.895033 0.196292
0.966415 0.893080 0.193454
0.899504 0.893629 0.184833
0.949691 0.876997 0.232441
0.992493 0.800748 0.297887
0.006592 0.015167 0.070863
0.109514 0.015640 0.145403
0.214008 0.014023 0.118257
0.222766 0.010147 0.021347
0.441382 0.015045 0.004196
0.001465 0.249256 0.234424
0.155947 0.145113 0.185916
0.526055 0.074357 0.065888
0.492973 0.024628 0.003662
0.465400 0.015183 0.004257
0.159014 0.502495 0.098421
0.274144 0.456046 0.110246
0.641001 0.460914 0.079896
0.979187 0.240970 0.015991
0.978256 0.173068 0.008164
0.765118 0.815152 0.130495
0.756924 0.787121 0.098955
0.753643 0.769390 0.075319
0.965499 0.710170 0.156939
0.995575 0.513207 0.148821
0.975006 0.915496 0.143359
0.974853 0.910430 0.145708
0.928985 0.899382 0.136019
0.936049 0.885191 0.181003
0.989868 0.795010 0.262272
0.003418 0.020493 0.130404
0.032380 0.019303 0.218067
0.112749 0.017273 0.211627
0.283238 0.017548 0.173236
0.797803 0.010941 0.078752
0.000153 0.129931 0.292348
0.025849 0.091157 0.420264
0.397803 0.032975 0.278447
0.563851 0.016724 0.168063
0.559365 0.009003 0.021073
0.017792 0.685954 0.674327
0.078874 0.596613 0.623880
0.455573 0.453025 0.474815
0.843412 0.272404 0.277531
0.974670 0.133364 0.052140
0.278508 0.776516 0.388312
0.307774 0.762432 0.358770
0.575814 0.747677 0.317143
0.939925 0.752117 0.283421
0.994751 0.535256 0.176806
0.853101 0.915007 0.366445
0.883131 0.917922 0.304097
0.885084 0.912093 0.263310
0.950668 0.915175 0.193423
0.997024 0.821363 0.201663
0.001358 0.026993 0.234409
0.001465 0.025879 0.208316
0.033906 0.022980 0.369970
0.181704 0.024063 0.421515
0.956649 0.026566 0.281773
0.000183 0.085328 0.316442
0.000885 0.041321 0.308110
0.205951 0.028199 0.544167
0.253193 0.025269 0.396551
0.855970 0.022187 0.228748
0.001190 0.541741 0.820722
0.010147 0.520958 0.853208
0.151461 0.417350 0.755276
0.557366 0.291188 0.570291
0.985245 0.120027 0.277836
0.106996 0.888441 0.901839
0.160952 0.849729 0.885527
0.320638 0.811444 0.846677
0.785412 0.756313 0.750408
0.927260 0.650568 0.628580
0.482490 0.917006 0.749737
0.426566 0.887755 0.657755
0.487236 0.879454 0.613123
0.728252 0.878782 0.525368
0.980987 0.888502 0.528115
0.001114 0.029480 0.274586
0.001114 0.029816 0.278874
0.024125 0.027085 0.539071
0.100999 0.025574 0.548272
0.614923 0.032807 0.441627
0.000153 0.115023 0.396979
0.001068 0.033585 0.283085
0.087434 0.030472 0.728725
0.225025 0.028260 0.610208
0.839658 0.031434 0.403677
0.000137 0.466499 0.740887
0.000702 0.422782 0.794614
0.040711 0.384360 0.881239
0.351156 0.322942 0.758602
0.702892 0.253315 0.616770
0.045640 0.880400 0.971450
0.259586 0.800702 0.935347
0.411124 0.755337 0.902815
0.696986 0.737957 0.857969
0.830991 0.729717 0.816815
0.298909 0.925048 0.949462
0.380423 0.923171 0.940932
0.449454 0.904738 0.931105
0.621286 0.892409 0.909316
0.917754 0.885649 0.874937
