tools/luts_backup/Kodak Vision3 50D 5203 (DP)_VS.cube
# (C) 2014 VisionColor & Patchflyer [www.vision-color.com]
# Generator: VC Patchmatch v.2.1.1 [64/53]
# All work and no play makes Jack a dull boy.
# LUT generated from: Kodak Vision3 50D 5203 (DP)_VisionSpace
LUT_3D_SIZE 5
0.035767 0.035767 0.035767
0.062898 0.023560 0.021759
0.128054 0.028321 0.023316
0.192111 0.032258 0.024750
0.323827 0.046937 0.036713
0.089815 0.187289 0.073610
0.162966 0.197543 0.094087
0.346197 0.145235 0.063508
0.312718 0.065217 0.040528
0.351080 0.051637 0.040101
0.373709 0.430076 0.201053
0.332937 0.429496 0.198367
0.509285 0.462409 0.238193
0.629541 0.277180 0.122942
0.661524 0.296162 0.142336
0.694667 0.679194 0.378729
0.668330 0.662379 0.359869
0.573754 0.619135 0.315404
0.698177 0.614984 0.367315
0.753536 0.568566 0.367102
0.776303 0.740688 0.423926
0.772793 0.739162 0.422919
0.737911 0.735592 0.413672
0.764797 0.731380 0.418891
0.803616 0.699367 0.437079
0.010193 0.018158 0.056611
0.098543 0.031434 0.119051
0.165866 0.035554 0.113649
0.160708 0.027832 0.036194
0.295171 0.043793 0.033661
0.078035 0.262577 0.254704
0.203861 0.192844 0.229068
0.377172 0.126131 0.118502
0.328573 0.058259 0.040192
0.307225 0.045136 0.034974
0.267460 0.473304 0.214725
0.350637 0.452232 0.230137
0.556130 0.477424 0.250706
0.652583 0.325063 0.149340
0.647700 0.262531 0.119753
0.673487 0.686854 0.378424
0.664179 0.671931 0.354040
0.658381 0.662379 0.332830
0.738888 0.651911 0.389319
0.735592 0.539849 0.347082
0.775051 0.748653 0.428931
0.774227 0.746090 0.427802
0.746303 0.736233 0.416571
0.751400 0.732357 0.416846
0.794583 0.695918 0.421149
0.011688 0.025269 0.108248
0.038117 0.028992 0.141115
0.104372 0.035035 0.156069
0.209995 0.044465 0.156832
0.443366 0.052949 0.113771
0.051270 0.163790 0.262730
0.068330 0.121309 0.268925
0.282933 0.073640 0.232853
0.342535 0.054902 0.171786
0.323293 0.039063 0.048951
0.218692 0.554376 0.550439
0.258183 0.527825 0.537316
0.473930 0.472313 0.484825
0.692897 0.325551 0.329763
0.600977 0.222095 0.153368
0.357397 0.674006 0.440711
0.377035 0.669734 0.417075
0.578515 0.666102 0.403128
0.751980 0.674159 0.414984
0.747860 0.555200 0.362066
0.724575 0.754116 0.474434
0.739010 0.755184 0.442145
0.738430 0.750484 0.424536
0.766934 0.750607 0.424628
0.798123 0.707362 0.419318
0.014893 0.035096 0.179110
0.014282 0.033417 0.166659
0.044404 0.036011 0.202243
0.162173 0.051789 0.259495
0.539605 0.093050 0.267735
0.037385 0.112764 0.255894
0.021363 0.056245 0.229129
0.182742 0.061036 0.311559
0.205936 0.057618 0.263096
0.485634 0.077638 0.228000
0.160052 0.478538 0.576257
0.175738 0.455650 0.566766
0.272633 0.426749 0.574868
0.535943 0.343435 0.543267
0.621332 0.215290 0.317159
0.359991 0.679408 0.686366
0.380163 0.675074 0.688563
0.423255 0.687953 0.702846
0.685328 0.678370 0.677028
0.724880 0.629633 0.620752
0.542229 0.747524 0.680476
0.497047 0.729091 0.632837
0.544167 0.724422 0.615228
0.674739 0.730800 0.578302
0.795346 0.745113 0.585565
0.016327 0.039338 0.204074
0.016541 0.039918 0.206973
0.039185 0.041596 0.250889
0.106722 0.049134 0.284977
0.390600 0.087800 0.321080
0.049104 0.150668 0.313573
0.017945 0.045289 0.211673
0.101442 0.056794 0.343206
0.195407 0.063416 0.338445
0.487800 0.097566 0.319127
0.137881 0.447929 0.568414
0.127977 0.403311 0.554513
0.179767 0.380209 0.557427
0.387640 0.366262 0.647181
0.593805 0.322377 0.552071
0.314580 0.658198 0.697597
0.397131 0.676661 0.733364
0.478462 0.667140 0.730648
0.653254 0.668330 0.703883
0.697932 0.669978 0.695399
0.433509 0.743069 0.761410
0.476081 0.749294 0.764096
0.517174 0.741604 0.758724
0.631495 0.738003 0.747890
0.755062 0.745846 0.744167
