tools/luts_backup/Kodak Vision3 500T 5219 (C41)_FC.cube
# (C) 2014 VisionColor & Patchflyer [www.vision-color.com]
# Generator: VC Patchmatch v.2.1.1 [64/53]
# All work and no play makes Jack a dull boy.
# LUT generated from: BMD Film to Kodak Vision3 500T 5219 (C41)_FC01
LUT_3D_SIZE 17
0.043137 0.031373 0.039216
0.070588 0.035294 0.035294
0.109804 0.035294 0.035294
0.152941 0.035294 0.039216
0.188235 0.043137 0.047059
0.243137 0.054902 0.054902
0.290196 0.062745 0.062745
0.360800 0.074510 0.086275
0.478431 0.101961 0.117647
0.517647 0.109804 0.141176
0.533333 0.113725 0.164706
0.533333 0.117647 0.168627
0.533333 0.117647 0.152941
0.533333 0.109804 0.113725
0.529412 0.105882 0.105882
0.541176 0.109804 0.109804
0.541176 0.109804 0.109804
0.031373 0.054902 0.027451
0.050980 0.050980 0.031373
0.105882 0.054902 0.039216
0.133333 0.050980 0.039216
0.176471 0.050980 0.043137
0.231373 0.058824 0.054902
0.278447 0.070588 0.062745
0.368643 0.078431 0.086275
0.458839 0.094118 0.105882
0.541161 0.113725 0.145098
0.521569 0.113725 0.156863
0.529412 0.117647 0.168627
0.533333 0.109804 0.149020
0.537255 0.113725 0.121569
0.541176 0.109804 0.109804
0.541176 0.109804 0.109804
0.541176 0.109804 0.109804
0.039216 0.098039 0.035294
0.050980 0.090196 0.039216
0.090196 0.094118 0.043137
0.129412 0.094118 0.047059
0.172549 0.090196 0.054902
0.223529 0.090196 0.062745
0.270588 0.086275 0.066667
0.352956 0.090196 0.082353
0.478447 0.101961 0.105882
0.525490 0.109804 0.129412
0.537255 0.113725 0.152941
0.533333 0.117647 0.168627
0.529412 0.109804 0.141176
0.588235 0.121569 0.125490
0.545098 0.121569 0.113725
0.541176 0.117647 0.113725
0.549020 0.121569 0.117647
0.050980 0.137255 0.047059
0.054902 0.133333 0.043137
0.086275 0.133333 0.054902
0.137255 0.149020 0.066667
0.176471 0.137255 0.070588
0.235294 0.133333 0.074510
0.282353 0.125490 0.082353
0.337270 0.121569 0.086275
0.435294 0.121569 0.101961
0.596048 0.125490 0.129412
0.560784 0.121569 0.149020
0.525490 0.109804 0.156863
0.541176 0.109804 0.141176
0.584314 0.137255 0.125490
0.549020 0.141176 0.121569
0.556863 0.145098 0.125490
0.556863 0.137255 0.121569
0.074510 0.200000 0.066667
0.066667 0.196078 0.062745
0.094118 0.200000 0.070588
0.121569 0.180392 0.066667
0.172549 0.196078 0.082353
0.239216 0.184314 0.094118
0.286275 0.180392 0.098039
0.329412 0.160784 0.098039
0.400015 0.156863 0.105882
0.494102 0.156863 0.117647
0.658808 0.145098 0.145098
0.611780 0.129412 0.152941
0.627451 0.133333 0.149020
0.576471 0.160784 0.133333
0.568627 0.172549 0.133333
0.568627 0.172549 0.133333
0.572549 0.168627 0.137255
0.090196 0.262745 0.082353
0.086275 0.262745 0.082353
0.094118 0.247059 0.082353
0.125490 0.239216 0.086275
0.176471 0.239216 0.094118
0.223529 0.243137 0.101961
0.286275 0.239216 0.113725
0.341176 0.223529 0.117647
0.396094 0.215686 0.121569
0.478416 0.219608 0.137255
0.568612 0.215686 0.149020
0.627451 0.188251 0.149020
0.631373 0.188235 0.152941
0.592157 0.200000 0.149020
0.600000 0.219608 0.152941
0.588235 0.207843 0.149020
0.603922 0.219608 0.156863
0.109804 0.329412 0.105882
0.113725 0.345098 0.109804
0.113725 0.317647 0.105882
0.145098 0.313726 0.109804
0.172549 0.282353 0.101961
0.235294 0.298039 0.121569
0.294133 0.301976 0.129412
0.349020 0.286275 0.137255
0.392172 0.278431 0.141176
0.447059 0.258839 0.141176
0.521569 0.258824 0.156863
0.615671 0.274510 0.172549
0.627451 0.266682 0.172549
0.623529 0.266667 0.172549
0.623529 0.266667 0.172549
0.623529 0.266667 0.172549
0.627451 0.266667 0.176471
0.133333 0.403937 0.129412
0.133333 0.403937 0.129412
0.129412 0.388235 0.125490
0.152941 0.368643 0.121569
0.184314 0.352941 0.125490
0.235294 0.352941 0.133333
0.298039 0.360784 0.145098
0.352956 0.356878 0.156863
0.400000 0.341176 0.156863
0.454902 0.329427 0.164706
0.509804 0.329427 0.172549
0.588220 0.337255 0.188235
0.647059 0.352941 0.203922
0.643137 0.333349 0.196078
0.639216 0.325490 0.196078
0.639216 0.321569 0.192157
0.639216 0.313726 0.188235
0.156863 0.486290 0.152941
0.160784 0.482368 0.152941
0.160784 0.466682 0.149020
0.172549 0.462745 0.149020
0.196078 0.435294 0.149020
0.243137 0.411765 0.149020
0.301961 0.419608 0.164706
0.356878 0.419623 0.172549
0.419608 0.439216 0.184314
0.450980 0.403937 0.184314
0.498039 0.380407 0.184314
0.564706 0.392157 0.200000
0.631357 0.388251 0.211765
0.662745 0.396078 0.223529
0.654902 0.384314 0.215686
0.654902 0.368627 0.211765
0.658824 0.368627 0.211765
0.188235 0.576455 0.184314
0.188235 0.576455 0.184314
0.188235 0.568612 0.180392
0.188235 0.556848 0.180392
0.219608 0.529397 0.180392
0.258824 0.486259 0.172549
0.301961 0.474510 0.176471
0.368627 0.474510 0.188235
0.419623 0.490196 0.203922
0.486259 0.501945 0.219608
0.521569 0.470573 0.219608
0.568627 0.466651 0.227451
0.607843 0.443137 0.227451
0.670588 0.466651 0.250980
0.686275 0.450965 0.247059
0.674510 0.435279 0.239216
0.674510 0.411765 0.231373
0.211765 0.670588 0.211765
0.219608 0.662745 0.215686
0.207843 0.647059 0.207843
0.219608 0.643122 0.207843
0.239216 0.619593 0.203922
0.278431 0.584298 0.203922
0.325490 0.556848 0.207843
0.368643 0.541176 0.207843
0.423545 0.537255 0.219608
0.486275 0.552941 0.239216
0.541176 0.568627 0.258824
0.572549 0.549004 0.254902
0.596078 0.501961 0.247059
0.658824 0.513726 0.266667
0.698039 0.498039 0.266667
0.694118 0.494118 0.270588
0.694118 0.478431 0.262745
0.247059 0.741176 0.243137
0.250980 0.749004 0.247059
0.239216 0.729412 0.235294
0.243137 0.709804 0.231373
0.270588 0.701946 0.235294
0.286275 0.670573 0.231373
0.337255 0.627451 0.227451
0.380392 0.603922 0.227451
0.443137 0.596078 0.239216
0.482353 0.596078 0.250980
0.537255 0.607843 0.270588
0.584314 0.619608 0.286275
0.627451 0.607843 0.298039
0.658824 0.568627 0.290196
0.698039 0.564706 0.298039
0.721569 0.556863 0.301961
0.713726 0.545098 0.294118
0.282353 0.823529 0.278431
0.282353 0.823529 0.278431
0.274510 0.803922 0.270588
0.274510 0.803906 0.270588
0.274510 0.756863 0.254902
0.313726 0.752926 0.262745
0.352941 0.698039 0.254902
0.400015 0.678431 0.258824
0.458824 0.666667 0.270588
0.505867 0.654902 0.278431
0.549020 0.666667 0.294118
0.584314 0.658824 0.305882
0.647059 0.666667 0.333333
0.674510 0.643137 0.329412
0.698039 0.615686 0.325490
0.749020 0.631373 0.352941
0.745098 0.627451 0.349020
0.294118 0.858824 0.294118
0.294118 0.854902 0.294118
0.294118 0.854902 0.294118
0.298039 0.854902 0.294118
0.305882 0.831373 0.290196
0.337255 0.811765 0.290196
0.380392 0.784314 0.294118
0.431373 0.752941 0.294118
0.482353 0.729412 0.301961
0.513726 0.717647 0.305882
0.560784 0.709804 0.321569
0.607843 0.717647 0.341176
0.643137 0.717647 0.356863
0.690196 0.713726 0.372549
0.741176 0.713726 0.396078
0.764706 0.701961 0.400000
0.780392 0.694118 0.403922
0.298039 0.862745 0.301961
0.294118 0.854902 0.301961
0.294118 0.854902 0.301961
0.298039 0.862745 0.298039
0.294118 0.858824 0.294118
0.329412 0.850980 0.301961
0.396078 0.843137 0.321569
0.462745 0.819608 0.333333
0.501961 0.792157 0.337255
0.552941 0.780392 0.352941
0.584314 0.768627 0.360784
0.639216 0.780392 0.388235
0.678431 0.784314 0.403922
0.709804 0.776471 0.419608
0.752941 0.784314 0.450980
0.784314 0.772549 0.466667
0.800000 0.741176 0.450980
0.294118 0.854902 0.301961
0.298039 0.862745 0.305882
0.298039 0.854902 0.305882
0.301961 0.862745 0.305882
0.298039 0.862745 0.298039
0.321569 0.850980 0.298039
0.384314 0.843137 0.317647
0.450980 0.839216 0.337255
0.509804 0.819608 0.352941
0.568627 0.803922 0.368627
0.603922 0.803922 0.388235
0.650980 0.811765 0.415686
0.698039 0.819608 0.443137
0.725490 0.819608 0.458824
0.760784 0.819608 0.482353
0.792157 0.819608 0.505882
0.843137 0.835294 0.552941
0.294118 0.854902 0.301961
0.298039 0.858824 0.305882
0.301961 0.866667 0.305882
0.294118 0.850980 0.298039
0.298039 0.862745 0.301961
0.309804 0.858824 0.301961
0.364706 0.854902 0.313726
0.419623 0.843137 0.329412
0.501961 0.827451 0.352941
0.549020 0.815686 0.368627
0.611765 0.815686 0.396078
0.643137 0.811765 0.411765
0.674510 0.819608 0.431373
0.709804 0.819608 0.450980
0.756863 0.827451 0.486275
0.788235 0.835294 0.517647
0.839216 0.847059 0.564706
0.043137 0.035294 0.066667
0.054902 0.027451 0.054902
0.105882 0.035294 0.062745
0.145098 0.043137 0.062745
0.196078 0.047059 0.062745
0.235294 0.054902 0.070588
0.290211 0.062745 0.078431
0.364721 0.078431 0.101961
0.470603 0.101961 0.137255
0.533333 0.113725 0.160784
0.521569 0.113725 0.172549
0.533333 0.117647 0.176471
0.529412 0.113725 0.156863
0.537255 0.109804 0.121569
0.533333 0.105882 0.105882
0.529412 0.105882 0.105882
0.533333 0.109804 0.109804
0.027451 0.047059 0.047059
0.058824 0.050980 0.050980
0.125490 0.043137 0.047059
0.168627 0.043137 0.047059
0.223529 0.058824 0.058824
0.258824 0.058824 0.066667
0.313726 0.070588 0.078431
0.376486 0.082353 0.101961
0.474525 0.101961 0.129412
0.525490 0.109804 0.156863
0.521569 0.109804 0.164706
0.521569 0.109804 0.172549
0.529412 0.113725 0.152941
0.537255 0.113725 0.121569
0.537255 0.109804 0.109804
0.533333 0.105882 0.105882
0.545098 0.109804 0.109804
0.039216 0.094118 0.039216
0.043137 0.090196 0.035294
0.090196 0.094118 0.047059
0.133333 0.086275 0.050980
0.176471 0.086275 0.054902
0.227451 0.082353 0.062745
0.286290 0.082353 0.070588
0.431373 0.094118 0.094118
0.486275 0.105882 0.121569
0.533333 0.113725 0.152941
0.521569 0.109804 0.156863
0.525490 0.113725 0.168627
0.537255 0.117647 0.156863
0.584314 0.121569 0.121569
0.545098 0.117647 0.117647
0.545098 0.121569 0.113725
0.545098 0.125490 0.117647
0.043137 0.141176 0.043137
0.054902 0.145098 0.050980
0.086275 0.137255 0.054902
0.125490 0.133333 0.058824
0.176471 0.137255 0.066667
0.235294 0.129412 0.074510
0.278431 0.121569 0.078431
0.341192 0.117647 0.090196
0.478462 0.121569 0.105882
0.584314 0.121569 0.141176
0.552941 0.121569 0.164706
0.533333 0.117647 0.172549
0.552941 0.117647 0.156863
0.588235 0.133333 0.125490
0.552941 0.137255 0.121569
0.556863 0.141176 0.125490
0.549020 0.141176 0.121569
0.074510 0.196078 0.066667
0.070588 0.196078 0.066667
0.078431 0.184314 0.062745
0.121569 0.176471 0.066667
0.176471 0.196078 0.082353
0.219608 0.172549 0.082353
0.282353 0.160784 0.090196
0.341176 0.168627 0.101961
0.411780 0.164706 0.109804
0.548989 0.164706 0.129412
0.670588 0.145098 0.152941
0.607858 0.133333 0.168627
0.627451 0.133333 0.152941
0.588235 0.156863 0.133333
0.572549 0.176471 0.137255
0.564706 0.168627 0.133333
0.568627 0.176471 0.137255
0.086275 0.262745 0.082353
0.082353 0.250980 0.078431
0.094118 0.247059 0.082353
0.125490 0.227451 0.082353
0.180392 0.243137 0.098039
0.243137 0.254902 0.109804
0.298039 0.239216 0.113725
0.337270 0.215686 0.113725
0.396094 0.211765 0.121569
0.478416 0.207843 0.133333
0.592142 0.215686 0.152941
0.662730 0.200015 0.160784
0.670588 0.176486 0.156863
0.596078 0.200000 0.149020
0.603922 0.215686 0.152941
0.600000 0.215686 0.152941
0.584314 0.203922 0.145098
0.113725 0.345098 0.109804
0.105882 0.325490 0.105882
0.109804 0.309819 0.098039
0.137255 0.309804 0.105882
0.176471 0.286275 0.105882
0.231373 0.294118 0.117647
0.298039 0.321569 0.137255
0.345098 0.290196 0.137255
0.396078 0.278431 0.141176
0.450980 0.262760 0.145098
0.529412 0.266667 0.156863
0.615671 0.270604 0.172549
0.623529 0.262760 0.172549
0.619608 0.270588 0.172549
0.627451 0.274510 0.176471
0.627451 0.270588 0.172549
0.615686 0.254902 0.168627
0.141176 0.423529 0.137255
0.129412 0.388251 0.125490
0.125490 0.368643 0.117647
0.145098 0.360784 0.117647
0.180392 0.345113 0.125490
0.235294 0.352941 0.133333
0.298039 0.356863 0.145098
0.352956 0.364706 0.156863
0.403922 0.341176 0.156863
0.454902 0.321584 0.160784
0.505882 0.325505 0.172549
0.580392 0.329412 0.184314
0.654902 0.333333 0.200000
0.639216 0.329427 0.196078
0.643137 0.333333 0.196078
0.643137 0.317647 0.192157
0.647059 0.317647 0.192157
0.156863 0.490211 0.156863
0.160784 0.490211 0.156863
0.156863 0.466682 0.149020
0.164706 0.458839 0.149020
0.184314 0.423545 0.141176
0.227451 0.396094 0.141176
0.305882 0.411765 0.160784
0.349035 0.423545 0.172549
0.427451 0.439216 0.192157
0.450980 0.396094 0.180392
0.501961 0.392172 0.188235
0.560784 0.376486 0.196078
0.623529 0.396078 0.215686
0.670588 0.400015 0.227451
0.654902 0.384329 0.215686
0.654902 0.372549 0.211765
0.658824 0.364706 0.211765
0.192157 0.580392 0.184314
0.188235 0.580377 0.184314
0.184314 0.564691 0.180392
0.192157 0.556848 0.180392
0.215686 0.521553 0.172549
0.247059 0.478416 0.168627
0.305882 0.478416 0.176471
0.368627 0.490181 0.196078
0.419623 0.490196 0.203922
0.490196 0.498039 0.219608
0.525490 0.482338 0.223529
0.556863 0.447059 0.215686
0.619608 0.450965 0.235294
0.674510 0.466651 0.250980
0.682353 0.447059 0.243137
0.678431 0.435294 0.243137
0.674510 0.427436 0.239216
0.215686 0.666667 0.215686
0.219608 0.670573 0.215686
0.215686 0.658808 0.211765
0.211765 0.623529 0.200000
0.235294 0.619593 0.203922
0.270588 0.580377 0.200000
0.329412 0.556848 0.203922
0.376471 0.545098 0.211765
0.435294 0.545098 0.223529
0.474510 0.545098 0.231373
0.549020 0.568627 0.254902
0.572549 0.537255 0.250980
0.615686 0.517632 0.254902
0.666667 0.501961 0.262745
0.698039 0.501961 0.270588
0.694118 0.494118 0.266667
0.694118 0.490196 0.266667
0.247059 0.749020 0.247059
0.247059 0.745098 0.243137
0.243137 0.737255 0.243137
0.247059 0.717632 0.239216
0.258824 0.694118 0.227451
0.290196 0.670573 0.231373
0.337255 0.627451 0.227451
0.388235 0.607843 0.231373
0.443137 0.603922 0.243137
0.482353 0.592157 0.250980
0.533333 0.596078 0.266667
0.584314 0.607843 0.282353
0.627451 0.600000 0.294118
0.658824 0.572549 0.290196
0.709804 0.576471 0.305882
0.725490 0.564706 0.305882
0.717647 0.545098 0.298039
0.282353 0.823529 0.278431
0.278431 0.815686 0.274510
0.270588 0.803922 0.270588
0.274510 0.792157 0.266667
0.286275 0.780377 0.262745
0.301961 0.745098 0.254902
0.349020 0.698039 0.250980
0.403922 0.670588 0.258824
0.462745 0.658824 0.270588
0.505882 0.666667 0.282353
0.552941 0.670588 0.301961
0.580392 0.654902 0.301961
0.643137 0.666667 0.329412
0.674510 0.658824 0.337255
0.705882 0.619608 0.325490
0.745098 0.619608 0.345098
0.745098 0.623529 0.349020
0.294118 0.854902 0.298039
0.294118 0.854902 0.298039
0.294118 0.847059 0.290196
0.301961 0.854902 0.294118
0.305882 0.843137 0.290196
0.333333 0.811765 0.286275
0.380392 0.784314 0.294118
0.431373 0.745098 0.294118
0.486275 0.729412 0.305882
0.517647 0.713726 0.309804
0.580377 0.717647 0.333333
0.615686 0.721569 0.345098
0.658824 0.729412 0.368627
0.690196 0.717647 0.376471
0.741176 0.725490 0.400000
0.764706 0.686275 0.396078
0.768627 0.682353 0.392157
0.298039 0.862745 0.298039
0.294118 0.858824 0.298039
0.294118 0.854902 0.298039
0.298039 0.858824 0.301961
0.305882 0.862745 0.298039
0.337255 0.850980 0.305882
0.392172 0.839216 0.317647
0.466667 0.811765 0.333333
0.525490 0.807843 0.352941
0.560784 0.780392 0.352941
0.600000 0.780392 0.372549
0.635294 0.776471 0.388235
0.682353 0.780392 0.407843
0.721569 0.780392 0.431373
0.749020 0.784314 0.450980
0.800000 0.780392 0.478431
0.803922 0.756863 0.466667
0.294118 0.850980 0.301961
0.294118 0.854902 0.301961
0.298039 0.862745 0.301961
0.298039 0.862745 0.301961
0.298039 0.862745 0.298039
0.325490 0.854902 0.301961
0.372549 0.839216 0.309804
0.443153 0.839216 0.337255
0.505898 0.815686 0.349020
0.568627 0.815686 0.376471
0.619608 0.815686 0.400000
0.658824 0.815686 0.419608
0.694118 0.815686 0.439216
0.725490 0.819608 0.462745
0.764706 0.823529 0.486275
0.803922 0.831373 0.521569
0.847059 0.835294 0.556863
0.294118 0.850980 0.298039
0.298039 0.858824 0.305882
0.298039 0.858824 0.309804
0.298039 0.862745 0.301961
0.301961 0.862745 0.301961
0.317647 0.862745 0.301961
0.368627 0.847059 0.313726
0.435294 0.847059 0.337255
0.505882 0.827451 0.356863
0.552941 0.815686 0.368627
0.600000 0.807843 0.384314
0.650980 0.815686 0.415686
0.674510 0.811765 0.427451
0.721569 0.831373 0.466667
0.760784 0.831373 0.490196
0.788235 0.831373 0.513726
0.831373 0.843137 0.556863
0.043137 0.035294 0.125490
0.054902 0.031373 0.113725
0.094118 0.035294 0.094118
0.133333 0.043137 0.098039
0.188235 0.050980 0.101961
0.250980 0.066667 0.109804
0.309804 0.070588 0.121569
0.364721 0.082353 0.133333
0.466682 0.101961 0.160784
0.533333 0.117647 0.180392
0.521569 0.113725 0.192157
0.513726 0.113725 0.188235
0.521569 0.109804 0.168627
0.537255 0.113725 0.137255
0.537255 0.113725 0.125490
0.537255 0.109804 0.121569
0.537255 0.113725 0.117647
0.039216 0.050980 0.109804
0.066667 0.050980 0.121569
0.098039 0.043137 0.105882
0.145098 0.047059 0.094118
0.211765 0.058824 0.101961
0.250980 0.062745 0.105882
0.305882 0.070588 0.113725
0.368643 0.082353 0.125490
0.466667 0.101961 0.156863
0.525490 0.113725 0.180392
0.521569 0.113725 0.192157
0.525490 0.117647 0.188235
0.529412 0.117647 0.172549
0.529412 0.109804 0.133333
0.537255 0.109804 0.117647
0.537255 0.109804 0.117647
0.533333 0.109804 0.113725
0.039216 0.086275 0.086275
0.043137 0.086275 0.086275
0.094118 0.078431 0.086275
0.184314 0.078431 0.086275
0.266667 0.074510 0.074510
0.333333 0.082353 0.090196
0.368627 0.086275 0.105882
0.419608 0.098039 0.125490
0.466682 0.101961 0.149020
0.533333 0.117647 0.176471
0.525490 0.113725 0.180392
0.521569 0.113725 0.184314
0.537255 0.117647 0.172549
0.576471 0.125490 0.141176
0.576471 0.117647 0.117647
0.576471 0.121569 0.117647
0.564706 0.121569 0.117647
0.047059 0.133333 0.070588
0.047059 0.129412 0.066667
0.074510 0.141176 0.062745
0.129412 0.137255 0.062745
0.196078 0.125490 0.070588
0.262745 0.117647 0.078431
0.321584 0.113725 0.086275
0.458839 0.121569 0.105882
0.564706 0.125490 0.149020
0.560784 0.121569 0.172549
0.533333 0.113725 0.168627
0.529412 0.117647 0.184314
0.545098 0.117647 0.172549
0.627451 0.133333 0.141176
0.556863 0.145098 0.125490
0.560784 0.145098 0.125490
0.556863 0.141176 0.121569
0.062745 0.196078 0.066667
0.062745 0.196078 0.066667
0.074510 0.184314 0.062745
0.125490 0.180392 0.066667
0.180392 0.196078 0.082353
0.231373 0.180392 0.086275
0.286275 0.160784 0.090196
0.356863 0.164706 0.101961
0.462760 0.160784 0.117647
0.658793 0.156863 0.149020
0.639231 0.141176 0.176471
0.592172 0.133333 0.188235
0.619608 0.137255 0.172549
0.647059 0.156863 0.145098
0.572549 0.176471 0.137255
0.572549 0.172549 0.137255
0.572549 0.176471 0.137255
0.082353 0.254902 0.082353
0.086275 0.258824 0.082353
0.090196 0.250980 0.082353
0.125490 0.227451 0.082353
0.176471 0.239216 0.098039
0.227451 0.247059 0.105882
0.286275 0.227451 0.109804
0.345098 0.215686 0.113725
0.403937 0.211765 0.121569
0.501945 0.219608 0.137255
0.662715 0.211780 0.160784
0.713726 0.192172 0.168627
0.698039 0.168643 0.160784
0.603922 0.203922 0.149020
0.596078 0.215686 0.152941
0.596078 0.215686 0.149020
0.603922 0.219608 0.156863
0.105882 0.321584 0.101961
0.113725 0.341176 0.109804
0.113725 0.329412 0.105882
0.137255 0.309804 0.105882
0.176471 0.290196 0.109804
0.235294 0.294118 0.117647
0.294118 0.305882 0.129412
0.345098 0.286275 0.137255
0.403922 0.274510 0.141176
0.470573 0.274510 0.152941
0.537255 0.270588 0.160784
0.647044 0.282353 0.180392
0.658824 0.262760 0.176471
0.627451 0.270588 0.176471
0.623529 0.266667 0.172549
0.627451 0.266667 0.172549
0.623529 0.262745 0.172549
0.133333 0.400015 0.125490
0.121569 0.384329 0.121569
0.125490 0.376486 0.121569
0.137255 0.360800 0.117647
0.180392 0.352941 0.125490
0.227451 0.345113 0.129412
0.298039 0.360784 0.145098
0.356863 0.360784 0.156863
0.403922 0.337255 0.156863
0.454902 0.325505 0.160784
0.517647 0.333333 0.172549
0.584314 0.333349 0.188235
0.647059 0.333349 0.200000
0.643137 0.329427 0.196078
0.647059 0.333333 0.200000
0.635294 0.317647 0.188235
0.635294 0.313726 0.188235
0.164706 0.486290 0.156863
0.160784 0.486290 0.156863
0.156863 0.474525 0.152941
0.164706 0.454917 0.145098
0.188235 0.411780 0.137255
0.235294 0.403937 0.145098
0.301961 0.419608 0.164706
0.352956 0.419623 0.168627
0.431373 0.439216 0.188235
0.450980 0.388251 0.180392
0.509804 0.392172 0.192157
0.560784 0.384314 0.200000
0.631373 0.400000 0.215686
0.670588 0.396094 0.223529
0.662745 0.384314 0.219608
0.658824 0.368643 0.211765
0.654902 0.368627 0.211765
0.192157 0.588220 0.188235
0.188235 0.584298 0.184314
0.184314 0.564691 0.180392
0.192157 0.560769 0.180392
0.215686 0.525475 0.176471
0.250980 0.486259 0.172549
0.305882 0.482353 0.180392
0.356878 0.478431 0.184314
0.419623 0.490196 0.203922
0.474510 0.490196 0.211765
0.509804 0.466651 0.215686
0.552941 0.447059 0.215686
0.619608 0.450980 0.231373
0.682353 0.470573 0.254902
0.686275 0.450980 0.247059
0.670588 0.423529 0.231373
0.678431 0.423514 0.235294
0.223529 0.682338 0.219608
0.219608 0.670588 0.215686
0.211765 0.658824 0.211765
0.211765 0.631373 0.203922
0.235294 0.627436 0.207843
0.278431 0.572534 0.200000
0.321569 0.556848 0.203922
0.372549 0.545098 0.207843
0.435294 0.537255 0.219608
0.478431 0.556848 0.239216
0.537255 0.568627 0.254902
0.580392 0.545083 0.258824
0.607843 0.505882 0.250980
0.666667 0.509804 0.266667
0.698039 0.509804 0.274510
0.709804 0.501961 0.274510
0.698039 0.482338 0.266667
0.254902 0.756848 0.250980
0.243137 0.745098 0.243137
0.243137 0.737240 0.239216
0.247059 0.729397 0.239216
0.258824 0.698024 0.231373
0.286275 0.666667 0.227451
0.337255 0.623514 0.227451
0.388235 0.603922 0.231373
0.443137 0.596078 0.239216
0.494118 0.607843 0.258824
0.537255 0.611765 0.274510
0.584314 0.607843 0.282353
0.627451 0.603922 0.294118
0.658824 0.568627 0.290196
0.729412 0.580392 0.317647
0.725490 0.568627 0.309804
0.725490 0.556863 0.301961
0.286275 0.839216 0.286275
0.270588 0.811765 0.274510
0.270588 0.811765 0.270588
0.270588 0.807828 0.270588
0.286275 0.780392 0.262745
0.313726 0.749020 0.258824
0.364706 0.713710 0.262745
0.403922 0.682353 0.262745
0.462745 0.666667 0.274510
0.501961 0.670588 0.286275
0.560769 0.658824 0.294118
0.596078 0.666667 0.309804
0.639216 0.658824 0.325490
0.686275 0.662745 0.345098
0.717647 0.643137 0.345098
0.749020 0.635294 0.356863
0.745098 0.611765 0.341176
0.298039 0.854902 0.305882
0.294118 0.854902 0.301961
0.294118 0.850980 0.298039
0.294118 0.858824 0.298039
0.301961 0.839216 0.290196
0.337255 0.823529 0.294118
0.380392 0.788235 0.294118
0.435294 0.752941 0.294118
0.490196 0.733333 0.305882
0.533333 0.729412 0.317647
0.568627 0.717647 0.329412
0.623529 0.729412 0.352941
0.666667 0.729412 0.372549
0.701961 0.717647 0.380392
0.741176 0.725490 0.403922
0.780392 0.705882 0.411765
0.784314 0.698039 0.411765
0.294118 0.850980 0.298039
0.298039 0.858824 0.305882
0.298039 0.854902 0.309804
0.298039 0.862745 0.298039
0.301961 0.858824 0.298039
0.333333 0.847059 0.301961
0.403922 0.839216 0.321569
0.470603 0.827451 0.341176
0.521584 0.803922 0.349020
0.576471 0.788235 0.364706
0.600000 0.780392 0.372549
0.654902 0.792157 0.400000
0.698039 0.796078 0.423529
0.721569 0.784314 0.435294
0.764706 0.788235 0.458824
0.803922 0.780392 0.478431
0.811765 0.756863 0.470588
0.301961 0.858824 0.309804
0.298039 0.858824 0.305882
0.301961 0.862745 0.305882
0.298039 0.862745 0.305882
0.301961 0.866667 0.305882
0.329412 0.858824 0.305882
0.388235 0.847059 0.321569
0.458824 0.843137 0.345098
0.525490 0.823529 0.360784
0.576471 0.803922 0.376471
0.635294 0.819608 0.407843
0.666667 0.819608 0.427451
0.694118 0.815686 0.439216
0.752941 0.831373 0.482353
0.776471 0.823529 0.494118
0.815686 0.839216 0.533333
0.839216 0.827451 0.549020
0.301961 0.862745 0.309804
0.301961 0.858824 0.309804
0.301961 0.862745 0.309804
0.301961 0.862745 0.309804
0.298039 0.862745 0.301961
0.313726 0.854902 0.298039
0.376471 0.847059 0.317647
0.427466 0.843137 0.333333
0.501961 0.823529 0.349020
0.556863 0.815686 0.372549
0.603922 0.800000 0.384314
0.658824 0.815686 0.423529
0.701961 0.827451 0.447059
0.733333 0.827451 0.466667
0.768627 0.835294 0.498039
0.803922 0.847059 0.537255
0.839216 0.847059 0.560784
0.050980 0.043137 0.188235
0.058824 0.043137 0.176471
0.086275 0.043137 0.152941
0.121569 0.039216 0.129412
0.184314 0.054902 0.137255
0.235294 0.066667 0.145098
0.309804 0.078431 0.152941
0.364721 0.090196 0.164706
0.466682 0.105882 0.188235
0.533333 0.121569 0.207843
0.525490 0.121569 0.211765
0.517647 0.117647 0.203922
0.529412 0.117647 0.188235
