tools/luts_backup/Kodak Vision3 50D 5203 (DP)_CIN.cube
# (C) 2014 VisionColor & Patchflyer [www.vision-color.com]
# Generator: VC Patchmatch v.2.1.1 [64/53]
# All work and no play makes Jack a dull boy.
# LUT generated from: Kodak Vision3 50D 5203 (DP)_Cineon
LUT_3D_SIZE 5
0.101381 0.101381 0.101381
0.158541 0.071748 0.066651
0.263096 0.069154 0.050904
0.337438 0.068299 0.040253
0.460029 0.072236 0.033326
0.152590 0.299626 0.119020
0.261265 0.304234 0.154086
0.464027 0.228672 0.025269
0.450202 0.112917 0.032349
0.479042 0.077211 0.034363
0.426886 0.471534 0.222873
0.392615 0.472450 0.229587
0.515007 0.484138 0.239170
0.640711 0.343465 0.068009
0.675807 0.355962 0.089982
0.609674 0.594751 0.287327
0.591241 0.585504 0.277531
0.530083 0.564660 0.268315
0.629664 0.553552 0.316869
0.699489 0.524804 0.339635
0.669337 0.629847 0.346593
0.666285 0.629053 0.344640
0.631525 0.629206 0.340826
0.655390 0.622522 0.373999
0.697993 0.598352 0.413123
0.030274 0.063813 0.161715
0.215335 0.077089 0.246799
0.303929 0.075929 0.231968
0.303227 0.061128 0.086534
0.437995 0.071138 0.032319
0.066651 0.368627 0.360143
0.305211 0.296422 0.327428
0.467750 0.209628 0.197574
0.461372 0.097871 0.035798
0.447852 0.071626 0.032776
0.335149 0.493690 0.276249
0.408270 0.482429 0.285588
0.543877 0.489479 0.238712
0.659358 0.381430 0.088884
0.666316 0.327153 0.055329
0.588373 0.601251 0.296422
0.585138 0.592706 0.261509
0.583337 0.587274 0.228489
0.663050 0.572717 0.316625
0.700801 0.509697 0.307500
0.671901 0.638086 0.299413
0.671717 0.636042 0.301854
0.642969 0.631434 0.295537
0.646479 0.625849 0.336614
0.692103 0.596765 0.392828
0.022156 0.077241 0.245975
0.104982 0.080446 0.281376
0.221744 0.082673 0.294957
0.349828 0.087251 0.285924
0.526299 0.068727 0.200977
0.011627 0.276158 0.399878
0.125643 0.222293 0.399573
0.413367 0.129824 0.363714
0.463081 0.087037 0.293126
0.452461 0.061158 0.090410
0.147158 0.544305 0.541405
0.248508 0.526146 0.532952
0.487984 0.487068 0.494636
0.597162 0.401785 0.404807
0.625391 0.290517 0.178302
0.414694 0.587213 0.466850
0.429526 0.584100 0.454429
0.532616 0.582940 0.431128
0.648371 0.584894 0.407660
0.700862 0.517632 0.333135
0.612970 0.637964 0.449226
0.625147 0.639063 0.418463
0.625910 0.636713 0.395148
0.656428 0.638025 0.345068
0.707912 0.604059 0.349767
0.013550 0.095247 0.338933
0.014588 0.092073 0.325078
0.113039 0.092409 0.351446
0.292271 0.104494 0.400031
0.602441 0.109499 0.385046
0.011322 0.215228 0.405921
0.011627 0.132265 0.390967
0.313848 0.116091 0.443671
0.341192 0.108980 0.400641
0.557092 0.099580 0.346960
0.063279 0.505150 0.578546
0.123552 0.492683 0.575250
0.322072 0.468452 0.566278
0.519585 0.412436 0.523308
0.646052 0.273335 0.399420
0.272862 0.617456 0.625452
0.326268 0.608454 0.622309
0.428382 0.601251 0.612055
0.594232 0.586053 0.584649
0.643305 0.554955 0.547936
0.496132 0.638727 0.584466
0.477028 0.626001 0.557366
0.500542 0.623041 0.543420
0.578027 0.623224 0.513085
0.676387 0.627192 0.510948
0.011963 0.102022 0.367071
0.011994 0.102876 0.370245
0.096590 0.102327 0.399207
0.216892 0.106020 0.425483
0.495430 0.128176 0.443183
0.009491 0.259617 0.451087
0.011810 0.112795 0.374578
0.204715 0.118471 0.469917
0.327825 0.116823 0.464118
0.562615 0.123201 0.437537
0.007782 0.490181 0.578851
0.044358 0.464485 0.575006
0.184100 0.447028 0.579736
0.442023 0.428611 0.573816
0.563195 0.389914 0.538415
0.187106 0.608087 0.655360
0.393622 0.597925 0.646967
0.468696 0.586114 0.635645
0.568505 0.580987 0.618921
0.607935 0.578546 0.604944
0.411444 0.641932 0.660487
0.451698 0.642176 0.656580
0.480507 0.634730 0.650141
0.541772 0.629145 0.638911
0.639185 0.626032 0.623835
