tools/luts_backup/Kodak Ektar 100_FPE.cube
# (C) 2014 VisionColor & Patchflyer [www.vision-color.com]
# Generator: VC Patchmatch v.2.1.1 [64/53]
# All work and no play makes Jack a dull boy.
# LUT generated from: Kodak Ektar 100_FPE
LUT_3D_SIZE 9
0.033692 0.031968 0.032746
0.060304 0.039231 0.036942
0.121386 0.051118 0.044053
0.216068 0.062470 0.049851
0.309255 0.062562 0.052094
0.385489 0.063767 0.054215
0.467826 0.077180 0.062409
0.529030 0.095567 0.069184
0.527443 0.077043 0.073335
0.041550 0.065232 0.051331
0.068742 0.076875 0.050111
0.141146 0.102678 0.054414
0.247562 0.130846 0.056016
0.372564 0.157626 0.055451
0.459525 0.167575 0.056168
0.561227 0.209323 0.066224
0.650126 0.280308 0.079591
0.671504 0.284703 0.089418
0.045518 0.148226 0.089998
0.062547 0.148882 0.075837
0.128145 0.167575 0.067506
0.224369 0.190341 0.057969
0.379553 0.241688 0.055253
0.523339 0.293919 0.062089
0.635996 0.351247 0.078157
0.728191 0.432258 0.106386
0.792493 0.526146 0.155810
0.040223 0.215671 0.100847
0.063798 0.233478 0.085649
0.102083 0.250309 0.077562
0.210300 0.278004 0.064332
0.342046 0.308476 0.059693
0.533852 0.389181 0.072282
0.672404 0.457038 0.097490
0.775494 0.531029 0.141390
0.844404 0.643778 0.237049
0.041779 0.275975 0.124544
0.049546 0.300908 0.119738
0.073136 0.321920 0.105699
0.165209 0.359609 0.092241
0.335576 0.398322 0.071458
0.507164 0.450294 0.079774
0.642084 0.494255 0.103944
0.750607 0.538430 0.134417
0.826627 0.606867 0.209842
0.045747 0.340276 0.175296
0.047776 0.355215 0.171817
0.052140 0.368719 0.168688
0.078630 0.406821 0.164263
0.227588 0.460868 0.150500
0.399069 0.477974 0.097459
0.551141 0.504860 0.096986
0.672419 0.513054 0.113313
0.819333 0.587396 0.185763
0.053468 0.408209 0.241276
0.053910 0.408560 0.232212
0.056001 0.414496 0.232944
0.066239 0.438437 0.260517
0.137346 0.501595 0.290715
0.301488 0.535058 0.239963
0.488121 0.547585 0.157427
0.677012 0.580667 0.160678
0.848508 0.656916 0.260594
0.069963 0.470741 0.321736
0.070436 0.469596 0.312154
0.074372 0.476020 0.312642
0.115724 0.525536 0.375921
0.238865 0.601892 0.467750
0.414969 0.635462 0.426123
0.598489 0.656413 0.361608
0.758984 0.687037 0.369238
0.855909 0.713344 0.374838
0.074006 0.490181 0.371847
0.074968 0.491478 0.371359
0.109483 0.529564 0.396872
0.255314 0.611170 0.455924
0.501167 0.695506 0.531594
0.658488 0.736889 0.569635
0.752285 0.758709 0.582620
0.810040 0.761532 0.567437
0.865888 0.769146 0.542870
0.033967 0.032502 0.038514
0.054932 0.037736 0.040894
0.101854 0.046845 0.051026
0.179156 0.057984 0.062394
0.286580 0.062333 0.067643
0.366629 0.062318 0.064530
0.443931 0.064393 0.066148
0.498955 0.070649 0.071061
0.528817 0.078019 0.077852
0.035782 0.054047 0.062974
0.061250 0.062272 0.064958
0.184009 0.066316 0.052277
0.303014 0.063554 0.052262
0.382361 0.063294 0.054124
0.464057 0.076921 0.061860
0.521614 0.091341 0.068574
0.543023 0.095079 0.077668
0.561898 0.116060 0.081117
0.037980 0.131579 0.119127
0.044099 0.192248 0.109621
0.184848 0.235645 0.073945
0.372442 0.236133 0.056168
0.502632 0.248127 0.059312
0.600839 0.282429 0.070481
0.679713 0.340063 0.087709
0.706355 0.354330 0.100206
0.662730 0.268757 0.092271
0.036088 0.205875 0.151965
0.042008 0.276005 0.128084
0.075746 0.320241 0.109041
0.320867 0.390600 0.074189
0.523186 0.407309 0.076234
0.665248 0.450965 0.096452
0.763790 0.515465 0.135470
0.800626 0.548379 0.168032
0.739696 0.409903 0.118746
0.039643 0.273716 0.184009
0.046296 0.344320 0.177264
0.051240 0.364218 0.170199
0.119387 0.428809 0.164569
0.394842 0.475181 0.098711
0.596109 0.494789 0.098299
0.733989 0.530159 0.130358
0.798306 0.557122 0.167254
0.756802 0.458091 0.126421
0.044572 0.346639 0.240284
0.054047 0.409339 0.242741
0.055634 0.412253 0.231983
0.072816 0.447547 0.264759
0.232364 0.530053 0.273426
0.515099 0.556619 0.167773
0.675486 0.555795 0.138277
0.783536 0.559075 0.163546
0.712764 0.430762 0.103792
0.051347 0.411414 0.307042
0.068269 0.466087 0.317510
0.069230 0.465858 0.308797
0.103807 0.509636 0.351202
0.289937 0.612329 0.454520
0.529091 0.648325 0.385565
0.736263 0.678477 0.354940
0.835767 0.680583 0.312856
0.788205 0.573861 0.195941
0.065400 0.472602 0.385412
0.084642 0.502663 0.380957
0.088121 0.506905 0.383551
0.165347 0.569604 0.425238
0.457389 0.683284 0.536385
0.663111 0.739940 0.579980
0.778958 0.753887 0.558740
0.853483 0.760189 0.529168
0.847959 0.726314 0.454597
0.073625 0.498909 0.429023
0.281178 0.633021 0.524742
0.171542 0.587640 0.486381
0.160449 0.580407 0.478111
0.378958 0.668681 0.559640
0.638239 0.751293 0.652873
0.752483 0.779507 0.666957
0.824628 0.786862 0.650553
0.870085 0.786587 0.610910
0.036423 0.036988 0.067201
0.055909 0.040696 0.066880
0.090654 0.045686 0.072557
0.160281 0.055070 0.088472
0.268437 0.060044 0.102754
0.362097 0.062562 0.108827
0.439261 0.064561 0.099916
0.493736 0.068101 0.094255
0.530022 0.077913 0.099138
0.037339 0.055863 0.103838
0.046677 0.043412 0.109316
0.135531 0.053529 0.111849
0.265522 0.062242 0.102083
0.363607 0.062989 0.090028
0.438178 0.064485 0.077440
0.492943 0.069230 0.076295
0.525063 0.077058 0.080034
0.534569 0.082994 0.085649
0.035584 0.110323 0.145586
0.038346 0.164889 0.219226
0.160754 0.167910 0.172854
0.337270 0.124697 0.092348
0.440497 0.086717 0.062959
0.516823 0.091386 0.068132
0.543008 0.096941 0.075822
0.560037 0.111650 0.082261
0.553384 0.104433 0.088930
0.035538 0.190295 0.195010
0.037247 0.262440 0.232853
0.058824 0.294881 0.191699
0.357061 0.386419 0.161318
0.590448 0.388266 0.084108
0.722240 0.439475 0.108827
0.750607 0.447349 0.124453
0.699962 0.335012 0.102419
0.661326 0.259983 0.104433
0.037186 0.264530 0.233463
0.043351 0.344854 0.279606
0.048966 0.379599 0.238651
0.099580 0.449104 0.253956
0.483909 0.540429 0.200473
0.699138 0.522866 0.122789
0.787167 0.543069 0.157336
0.761532 0.465568 0.132815
0.739895 0.408957 0.133593
0.042802 0.344289 0.299321
0.050889 0.413520 0.336629
0.067033 0.462394 0.317998
0.079942 0.481727 0.324834
0.344198 0.615869 0.428382
0.712001 0.666163 0.338918
0.793713 0.606531 0.205173
0.743938 0.477882 0.127901
0.773327 0.492409 0.155673
0.051331 0.418891 0.364340
0.065827 0.474617 0.401679
0.093812 0.513130 0.390097
0.110414 0.529961 0.397971
0.425437 0.672145 0.530480
0.709667 0.741024 0.557748
0.848295 0.756664 0.523888
0.836057 0.680385 0.355459
0.811063 0.590753 0.239811
0.070909 0.489097 0.433448
0.110979 0.543450 0.470085
0.252628 0.624704 0.518502
0.150240 0.572610 0.471092
0.355398 0.659312 0.546014
0.671107 0.759777 0.655344
0.796674 0.783688 0.656916
0.868650 0.787320 0.613108
0.843702 0.734951 0.516258
0.078202 0.511666 0.477836
0.433310 0.690959 0.609445
0.435386 0.693919 0.612818
0.270069 0.635904 0.554955
0.430152 0.690700 0.611292
0.645182 0.756863 0.684459
0.757778 0.791897 0.724498
0.820294 0.803708 0.723903
0.878523 0.812253 0.699947
0.039796 0.040162 0.116442
0.066499 0.043656 0.111009
0.099138 0.046510 0.112001
0.144396 0.051347 0.117266
0.266423 0.059297 0.141329
0.366262 0.062364 0.146197
0.443976 0.063523 0.151446
0.498436 0.068193 0.147585
0.530343 0.075273 0.134981
0.035950 0.050721 0.151461
0.042374 0.040360 0.177127
0.133349 0.048249 0.174090
0.262806 0.054505 0.172351
0.368368 0.061418 0.159380
0.442420 0.063722 0.149676
0.494240 0.067811 0.133577
0.525154 0.075334 0.116518
0.534157 0.081788 0.097322
0.037156 0.106874 0.201892
0.038437 0.089586 0.246937
0.087816 0.070558 0.221775
0.313924 0.091646 0.225177
0.418387 0.066911 0.158465
0.489509 0.068498 0.111574
0.522530 0.075929 0.095460
0.534356 0.082582 0.089494
0.545098 0.093141 0.097444
0.037369 0.180972 0.247608
0.041016 0.245823 0.334035
0.053742 0.293889 0.351308
0.333516 0.331090 0.325078
0.502907 0.240757 0.197559
0.535805 0.128511 0.081498
0.554742 0.108049 0.081224
0.564660 0.115404 0.090929
0.623392 0.190494 0.119448
0.038224 0.255772 0.286931
0.042802 0.335134 0.357977
0.051652 0.400565 0.385733
0.138659 0.428275 0.321080
0.547143 0.533394 0.357046
0.697795 0.459861 0.136400
0.741878 0.422873 0.122820
0.712093 0.351553 0.121706
0.739422 0.402182 0.180484
0.042603 0.339879 0.347601
0.052583 0.424247 0.411902
0.076646 0.495079 0.445304
0.086397 0.488807 0.387366
0.337957 0.611673 0.474784
0.713237 0.696178 0.496727
0.772931 0.543679 0.173816
0.771237 0.493004 0.157763
0.801663 0.533700 0.239185
0.052155 0.424689 0.413153
0.083955 0.507149 0.469657
0.161959 0.585428 0.516716
0.241230 0.619242 0.513481
0.241398 0.618189 0.511193
0.702876 0.765728 0.656718
0.860426 0.784009 0.613428
0.829480 0.667689 0.374441
0.839734 0.656550 0.371221
0.095964 0.523796 0.483970
0.169711 0.593652 0.541497
0.485985 0.707729 0.631937
0.430076 0.692012 0.609598
0.339681 0.660136 0.574777
0.642573 0.755535 0.682292
0.795209 0.800092 0.724712
0.878492 0.812558 0.701091
0.866331 0.770062 0.608362
0.084276 0.524163 0.517205
0.626581 0.753628 0.690059
0.580545 0.736812 0.672999
0.535012 0.724727 0.663539
0.599237 0.744549 0.682338
0.703655 0.777432 0.718746
0.790173 0.805051 0.752834
0.847303 0.823926 0.773983
0.878874 0.828031 0.767391
0.041978 0.040284 0.176287
0.088121 0.044785 0.177386
0.138750 0.048157 0.176669
0.200381 0.050889 0.176104
0.270481 0.053483 0.175509
0.375082 0.059464 0.187793
0.453452 0.062409 0.191913
0.508507 0.068681 0.184543
0.529870 0.073610 0.145876
0.039033 0.047623 0.213703
0.043442 0.040650 0.233066
0.123766 0.045289 0.237140
0.259709 0.050141 0.229145
0.382742 0.057893 0.218647
0.456672 0.062516 0.209079
0.505455 0.068696 0.191150
0.528954 0.075456 0.145357
0.536385 0.082383 0.110735
0.038437 0.089631 0.251194
0.039887 0.055024 0.271183
0.045823 0.043366 0.266072
0.247257 0.051560 0.279805
0.439094 0.061036 0.267811
0.506416 0.068818 0.209873
0.528572 0.075303 0.148455
0.537011 0.082567 0.115251
0.552529 0.094926 0.130968
0.039750 0.171542 0.300847
0.041688 0.173724 0.345083
0.042588 0.128832 0.348104
0.153872 0.139666 0.336645
0.479286 0.188907 0.358022
0.514199 0.089509 0.206744
0.535927 0.082567 0.111482
0.554314 0.098299 0.115007
0.617914 0.177005 0.173205
0.041245 0.248005 0.338140
0.046082 0.310521 0.413275
0.050248 0.365469 0.462806
0.159426 0.448966 0.469947
0.516640 0.493568 0.472892
0.638102 0.385153 0.338598
0.594232 0.161990 0.113420
0.625711 0.194278 0.123033
0.747082 0.407614 0.268559
0.044129 0.325612 0.382818
0.051087 0.410071 0.452399
0.076783 0.499367 0.511086
0.182406 0.568338 0.523476
0.384268 0.586313 0.487648
0.708598 0.671031 0.552544
0.783139 0.537530 0.246372
0.781567 0.492180 0.221653
0.823102 0.580697 0.393423
0.051362 0.419028 0.442710
0.089265 0.517403 0.512001
0.218204 0.620020 0.584787
0.535515 0.723674 0.660975
0.368368 0.659800 0.576440
0.661784 0.749996 0.669718
0.850294 0.800244 0.705470
0.847028 0.690990 0.447440
0.853025 0.691814 0.499275
0.101961 0.534142 0.514138
0.192859 0.609842 0.581491
0.583200 0.740032 0.683680
0.618433 0.751949 0.694102
0.540078 0.726284 0.662531
0.661891 0.762982 0.701213
0.809689 0.812055 0.760021
0.880110 0.828244 0.764538
0.873289 0.789105 0.674708
0.094179 0.539635 0.555779
0.631830 0.756359 0.701091
0.631266 0.757702 0.705974
0.622370 0.750973 0.702205
0.671336 0.769467 0.719295
0.738643 0.788663 0.736965
0.809750 0.813611 0.768002
0.862760 0.833570 0.793317
0.887495 0.839155 0.788281
0.043427 0.041382 0.235660
0.077226 0.043488 0.237339
0.151690 0.046281 0.237171
0.235187 0.048737 0.232639
0.314076 0.052735 0.225788
0.385367 0.057588 0.218708
0.464363 0.062760 0.230182
0.518624 0.069322 0.233402
0.545953 0.080339 0.208682
0.041382 0.044999 0.255512
0.043030 0.041047 0.272923
0.096284 0.045289 0.285679
0.286488 0.049073 0.298329
0.382116 0.053895 0.283070
0.471290 0.062821 0.277012
0.522545 0.072206 0.264637
0.542412 0.077974 0.224826
0.543877 0.083574 0.144900
0.040192 0.063294 0.281254
0.041764 0.049287 0.295567
0.042954 0.042084 0.291325
0.181765 0.047883 0.328038
0.415045 0.056214 0.336980
0.529000 0.071977 0.339574
0.545190 0.078111 0.269337
0.547784 0.084947 0.178027
0.561273 0.098680 0.193790
0.041672 0.144900 0.330556
0.042054 0.088014 0.336767
0.042771 0.055100 0.323262
0.056138 0.048157 0.311513
0.348577 0.062531 0.352422
0.531411 0.088304 0.357153
0.552483 0.087724 0.227726
0.567132 0.105272 0.196323
0.632822 0.194446 0.271473
0.042954 0.236149 0.374441
0.046311 0.263600 0.430518
0.046296 0.235676 0.445655
0.050980 0.179950 0.417044
0.293248 0.239460 0.441642
0.624216 0.365240 0.493355
0.607172 0.171756 0.283085
0.630930 0.194644 0.243656
0.737011 0.392874 0.392477
0.046021 0.308354 0.411841
0.050614 0.377584 0.489189
0.059113 0.442954 0.545068
0.082109 0.487633 0.555428
0.379126 0.590326 0.582361
0.649653 0.619303 0.593072
0.745037 0.521309 0.466224
0.747204 0.405600 0.278019
0.821775 0.602121 0.533455
0.050752 0.403082 0.464302
0.069551 0.487098 0.534646
0.124086 0.567697 0.594675
0.261692 0.640848 0.628412
0.497078 0.705547 0.664836
0.612451 0.711254 0.634241
0.820401 0.767636 0.685283
0.853361 0.692073 0.509483
0.871427 0.727077 0.638254
0.074418 0.500557 0.520546
0.131945 0.576562 0.590173
0.351949 0.673060 0.643977
0.550072 0.728496 0.691234
0.629374 0.756039 0.716487
0.669749 0.767056 0.714687
0.802258 0.811154 0.763302
0.890272 0.838254 0.785977
0.883543 0.798459 0.720760
0.106462 0.555169 0.584131
0.447776 0.702312 0.661494
0.559472 0.730022 0.692226
0.621714 0.752743 0.719478
0.694697 0.777722 0.738277
0.746731 0.793820 0.745129
0.800778 0.812787 0.759793
0.859052 0.835172 0.786557
0.903151 0.854093 0.799908
0.042878 0.041154 0.273854
0.058167 0.043488 0.283314
0.167254 0.047166 0.298589
0.292088 0.049119 0.299092
0.359274 0.051942 0.289158
0.413642 0.056657 0.283589
0.473289 0.061860 0.276890
0.531701 0.074418 0.289967
0.551171 0.079881 0.275700
0.042420 0.045380 0.290501
0.042679 0.041917 0.292653
0.072557 0.043763 0.305669
0.262821 0.049027 0.337881
0.392828 0.053773 0.341192
0.473426 0.060624 0.340398
0.534173 0.073167 0.343984
0.551156 0.079408 0.317266
0.554940 0.086320 0.253269
0.041871 0.053178 0.303838
0.042618 0.047425 0.309911
0.043000 0.042084 0.303624
0.128603 0.046662 0.332387
0.357946 0.053330 0.365606
0.494408 0.064363 0.376364
0.559258 0.083909 0.386938
0.563287 0.090715 0.322271
0.576379 0.115358 0.272938
0.042206 0.084840 0.336858
0.043168 0.059754 0.331716
0.042512 0.051972 0.327153
0.045274 0.044999 0.314961
0.258213 0.054307 0.368475
0.498573 0.071305 0.398962
0.577066 0.107164 0.414252
0.597406 0.137697 0.343145
0.656001 0.234714 0.394720
0.043931 0.205356 0.403357
0.045182 0.176196 0.414801
0.044572 0.104601 0.383780
0.045365 0.062608 0.345800
0.086717 0.058579 0.351949
0.464942 0.105028 0.425376
0.666133 0.293385 0.508766
0.665843 0.258793 0.425834
0.745846 0.449516 0.514351
0.048325 0.306401 0.450477
0.053788 0.373632 0.514977
0.053956 0.353902 0.522972
0.051301 0.264958 0.483986
0.112551 0.253529 0.483207
0.476768 0.356664 0.542382
0.741039 0.560479 0.631037
0.748760 0.454963 0.515801
0.816342 0.617639 0.625299
0.050523 0.376989 0.488884
0.059632 0.447379 0.550072
0.086366 0.518547 0.593835
0.136675 0.575647 0.619638
0.218158 0.611963 0.634867
0.572106 0.703731 0.689799
0.764706 0.727428 0.704784
0.832425 0.658503 0.612970
0.875914 0.742473 0.716411
0.066621 0.477211 0.540719
0.125780 0.568627 0.607553
0.194415 0.612436 0.628397
0.304006 0.656016 0.651423
0.518685 0.724285 0.702495
0.682033 0.775814 0.743832
0.755917 0.792187 0.739498
0.880217 0.830381 0.777554
0.895247 0.806363 0.761074
0.130694 0.578027 0.610773
0.198871 0.616068 0.623377
0.355612 0.674815 0.659129
0.565316 0.736385 0.711315
0.684291 0.776242 0.745800
0.754391 0.801282 0.760082
0.810468 0.826398 0.776120
0.860639 0.842664 0.788663
0.907195 0.859922 0.810178
0.042969 0.042054 0.293523
0.053819 0.042222 0.298650
0.139193 0.046235 0.323430
0.309102 0.049302 0.344091
0.392233 0.053605 0.347692
0.444953 0.058076 0.343389
0.495354 0.062638 0.342870
0.537575 0.071321 0.343969
0.557671 0.080705 0.341863
0.042451 0.045197 0.304341
0.043000 0.042283 0.305150
0.068070 0.044160 0.317647
0.197024 0.048615 0.346059
0.357763 0.052415 0.366354
0.453330 0.059190 0.374289
0.531807 0.072465 0.385763
0.560098 0.083787 0.389319
0.560967 0.087129 0.349035
0.042039 0.051774 0.319097
0.042481 0.046784 0.315343
0.044816 0.044480 0.314656
0.153765 0.049256 0.348318
0.332479 0.055894 0.378546
0.476951 0.066773 0.397543
0.540948 0.079591 0.403296
0.574350 0.102159 0.413809
0.611795 0.158694 0.397299
0.043244 0.060761 0.334981
0.043183 0.056260 0.336080
0.045182 0.053071 0.333394
0.054475 0.050553 0.332876
0.224369 0.058274 0.380255
0.467338 0.077195 0.416922
0.570047 0.123125 0.442893
0.648234 0.237217 0.492241
0.690349 0.323720 0.501762
0.044480 0.139147 0.394415
0.044465 0.104097 0.384009
0.045762 0.067201 0.352758
0.056336 0.064103 0.352651
0.118578 0.064073 0.370901
0.412177 0.099947 0.432654
0.635416 0.248066 0.516243
0.728069 0.460075 0.607385
0.759655 0.522652 0.612146
0.051957 0.321462 0.495064
0.049424 0.279637 0.486183
0.048188 0.186862 0.439185
0.059922 0.138781 0.415045
0.176272 0.141573 0.435523
0.325002 0.106401 0.431876
0.665797 0.383764 0.585382
0.765209 0.573526 0.664363
0.819059 0.673487 0.704417
0.054383 0.399588 0.526726
0.054612 0.400244 0.544594
0.059724 0.407446 0.554665
0.086824 0.418189 0.564355
0.215320 0.484077 0.604318
0.482078 0.486183 0.627741
0.657267 0.485740 0.635569
0.815717 0.692256 0.735348
0.865019 0.753857 0.760784
0.059113 0.445487 0.551247
0.088319 0.522698 0.596246
0.140444 0.580636 0.622309
0.210330 0.619104 0.640238
0.296132 0.654887 0.664637
0.553033 0.741009 0.730694
0.732204 0.795789 0.783413
0.852827 0.813947 0.798596
0.904799 0.824018 0.810864
0.140383 0.584039 0.620111
0.199680 0.614496 0.633356
0.265202 0.641749 0.645808
0.433677 0.704707 0.690379
0.650752 0.770108 0.747143
0.746899 0.802991 0.774319
0.809140 0.832258 0.796689
0.870375 0.862684 0.823865
0.915648 0.873686 0.839979
0.041855 0.040726 0.301106
0.049332 0.041306 0.308598
0.101396 0.044923 0.326925
0.223285 0.049027 0.350622
0.351385 0.053285 0.370535
0.429862 0.057435 0.375769
0.503487 0.066102 0.386404
0.547814 0.076295 0.395392
0.564248 0.087114 0.400946
0.042161 0.044999 0.312123
0.044266 0.043839 0.312810
0.126986 0.048753 0.343206
0.234699 0.051637 0.361791
0.369314 0.056474 0.381125
0.473610 0.066239 0.399878
0.511116 0.070619 0.396597
0.554421 0.084947 0.406546
0.568887 0.094377 0.407019
0.042023 0.050629 0.324483
0.044938 0.050324 0.328008
0.051865 0.050874 0.333349
0.150103 0.055375 0.364340
0.303761 0.062684 0.393347
0.468193 0.075502 0.415564
0.543160 0.100099 0.431571
0.588739 0.140215 0.449500
0.649195 0.237079 0.492439
0.043687 0.060945 0.343755
0.044251 0.058137 0.340642
0.053208 0.058213 0.345541
0.112581 0.061448 0.368063
0.284199 0.073136 0.403815
0.475608 0.110445 0.445487
0.612222 0.216510 0.504387
0.677729 0.323552 0.547234
0.731929 0.474418 0.613626
0.044633 0.116213 0.392706
0.045487 0.066987 0.352346
0.054246 0.070298 0.358419
0.140642 0.077455 0.386862
0.320790 0.093019 0.423499
0.526711 0.190631 0.495567
0.672862 0.387243 0.586847
0.742245 0.515084 0.643000
0.766705 0.579828 0.666789
0.047028 0.227741 0.459510
0.046784 0.146166 0.415610
0.055482 0.127306 0.406348
0.189319 0.190677 0.465965
0.408743 0.203052 0.497795
0.574426 0.288945 0.547890
0.714443 0.510521 0.650813
0.782101 0.636103 0.710903
0.804807 0.664103 0.717266
0.051591 0.333410 0.514961
0.055207 0.328252 0.516670
0.068788 0.309865 0.513832
0.208560 0.426474 0.581613
0.495628 0.493965 0.633677
0.646677 0.532555 0.664744
0.751019 0.640574 0.719127
0.813962 0.728267 0.769009
0.852766 0.753262 0.783536
0.054505 0.406577 0.548577
0.065675 0.452628 0.573648
0.097185 0.488792 0.594171
0.232853 0.578531 0.640253
0.504662 0.674540 0.708019
0.661814 0.719127 0.753338
0.772122 0.774624 0.795605
0.852949 0.816114 0.831937
0.896986 0.826551 0.842084
0.092912 0.530068 0.599420
0.140246 0.580896 0.622889
0.211765 0.620310 0.640406
0.280339 0.648707 0.659861
0.542229 0.738521 0.727672
0.716838 0.799664 0.790143
0.800519 0.838636 0.829435
0.866789 0.866392 0.858671
0.922637 0.887495 0.880308
