tools/luts_backup/Kodak Gold Gen.6 200_VS.cube
# (C) 2014 VisionColor & Patchflyer [www.vision-color.com]
# Generator: VC Patchmatch v.2.1.1 [64/53]
# All work and no play makes Jack a dull boy.
# LUT generated from: Kodak Gold Gen.6 200_VisionSpace
LUT_3D_SIZE 17
0.028138 0.028138 0.028138
0.045441 0.027771 0.027771
0.078157 0.030365 0.030365
0.117739 0.038849 0.038849
0.163119 0.046204 0.046174
0.203616 0.051240 0.050507
0.234562 0.055299 0.053895
0.250401 0.055177 0.054383
0.261112 0.054108 0.054047
0.277134 0.055238 0.055238
0.298833 0.057008 0.057008
0.327214 0.059846 0.060700
0.364446 0.064179 0.067811
0.403784 0.067964 0.075685
0.439429 0.072450 0.084382
0.481025 0.077089 0.091859
0.514794 0.082856 0.102663
0.031312 0.043885 0.027192
0.051850 0.043824 0.028473
0.079561 0.048829 0.034333
0.116884 0.056153 0.040833
0.162081 0.065583 0.047852
0.203952 0.074189 0.053468
0.240146 0.081392 0.058473
0.267185 0.085573 0.061219
0.287022 0.087221 0.062165
0.306920 0.089174 0.064729
0.330266 0.091859 0.068544
0.359533 0.096010 0.074006
0.392798 0.100069 0.080385
0.430945 0.103151 0.086885
0.464851 0.107301 0.094209
0.500694 0.110597 0.102449
0.534356 0.119600 0.115511
0.043336 0.064942 0.031220
0.062928 0.067048 0.035676
0.088228 0.070954 0.040253
0.122408 0.077089 0.045472
0.163119 0.087892 0.051423
0.202884 0.095705 0.056031
0.244327 0.106630 0.062531
0.279698 0.116884 0.067872
0.307073 0.123598 0.070832
0.332616 0.129000 0.075196
0.359991 0.134981 0.081697
0.388708 0.140078 0.087984
0.421942 0.143618 0.094026
0.455665 0.147311 0.099916
0.487709 0.151827 0.106783
0.520195 0.156252 0.115145
0.548211 0.160800 0.126375
0.057465 0.090608 0.041413
0.078981 0.094331 0.044465
0.104646 0.098848 0.048157
0.132723 0.105653 0.052155
0.166537 0.112459 0.056641
0.206607 0.122316 0.061311
0.247684 0.134340 0.067842
0.290867 0.149905 0.074891
0.329046 0.164889 0.081300
0.361669 0.177218 0.088197
0.391516 0.185489 0.096132
0.421424 0.192874 0.103792
0.451362 0.197024 0.109102
0.481331 0.200168 0.114137
0.509392 0.203220 0.119997
0.537713 0.209415 0.127443
0.564843 0.215641 0.137179
0.076448 0.122805 0.051179
0.101198 0.130922 0.055360
0.125551 0.135744 0.058106
0.157198 0.142824 0.062043
0.188998 0.152010 0.065858
0.225193 0.163119 0.071504
0.265080 0.174716 0.077089
0.306310 0.189273 0.083711
0.347936 0.206729 0.091279
0.386175 0.224613 0.100130
0.420111 0.236759 0.108980
0.451026 0.246006 0.117739
0.476234 0.249790 0.123262
0.503166 0.250767 0.127382
0.529107 0.253941 0.133028
0.554253 0.259403 0.139742
0.580835 0.265934 0.147738
0.105959 0.166842 0.063722
0.129610 0.173922 0.066804
0.158022 0.182162 0.070008
0.189181 0.190555 0.073457
0.224765 0.200900 0.078676
0.258244 0.212558 0.083955
0.293339 0.222812 0.089082
0.330510 0.238346 0.095613
0.371160 0.254704 0.103304
0.411322 0.274571 0.113924
0.446754 0.290990 0.124880
0.476204 0.299901 0.133028
0.500664 0.303105 0.137972
0.526177 0.301579 0.141482
0.551324 0.306645 0.147524
0.571435 0.308965 0.152316
0.597955 0.314580 0.160342
0.140139 0.221164 0.077485
0.167544 0.228611 0.081025
0.197086 0.236881 0.084321
0.227695 0.245243 0.087739
0.264744 0.257115 0.093202
0.295628 0.264988 0.097749
0.327214 0.276768 0.103304
0.364385 0.293736 0.111208
0.402319 0.312413 0.119539
0.441077 0.329473 0.130495
0.474830 0.348638 0.142763
0.500847 0.356634 0.151156
0.525994 0.357275 0.155428
0.551049 0.355718 0.158419
0.576623 0.362280 0.164614
0.596002 0.362249 0.168276
0.612573 0.364294 0.173037
0.176211 0.283391 0.092714
0.205081 0.290745 0.096406
0.238285 0.299413 0.100649
0.268650 0.307134 0.104494
0.302586 0.315801 0.109224
0.334691 0.324559 0.114290
0.364630 0.333379 0.120058
0.394324 0.343114 0.125643
0.435309 0.369146 0.138674
0.471199 0.384619 0.149111
0.499672 0.399878 0.160311
0.525902 0.413947 0.170626
0.551080 0.414862 0.175784
0.576165 0.412848 0.178744
0.598077 0.414588 0.182773
0.616541 0.412787 0.185550
0.625299 0.412360 0.186282
0.213321 0.340917 0.107668
0.241215 0.353918 0.112917
0.273960 0.362127 0.118410
0.305577 0.368505 0.123018
0.337407 0.375525 0.127810
0.370398 0.384131 0.133455
0.401923 0.392630 0.139467
0.432746 0.403876 0.146517
0.458564 0.412848 0.152895
0.497383 0.435340 0.168307
0.523247 0.447089 0.177859
0.548058 0.460243 0.187930
0.573663 0.467720 0.195712
0.598718 0.471199 0.201694
0.619318 0.467811 0.203616
0.628168 0.457527 0.201358
0.635950 0.454017 0.200870
0.254490 0.397192 0.125307
0.282170 0.412055 0.132235
0.310002 0.421149 0.138247
0.341527 0.427893 0.144442
0.370581 0.434333 0.149325
0.401465 0.442329 0.155276
0.434424 0.450507 0.161837
0.466865 0.459571 0.169162
0.493019 0.467262 0.174899
0.515831 0.476967 0.182406
0.549310 0.496315 0.198489
0.574762 0.509453 0.208347
0.597559 0.517021 0.216220
0.617761 0.520714 0.221988
0.637079 0.520531 0.225742
0.640192 0.505364 0.220066
0.645411 0.494362 0.217288
0.298863 0.459388 0.146242
0.324498 0.468391 0.153658
0.348608 0.476814 0.159548
0.376898 0.483070 0.166262
0.402502 0.489357 0.171817
0.431159 0.495613 0.177371
0.460395 0.502098 0.182956
0.491676 0.508812 0.189822
0.520684 0.517143 0.196841
0.543023 0.521599 0.202457
0.567529 0.533867 0.212924
0.596613 0.549065 0.226108
0.621271 0.558953 0.235721
0.635615 0.558099 0.238834
0.647456 0.552331 0.239109
0.651606 0.544671 0.237156
0.655940 0.537285 0.235447
0.339391 0.511681 0.165164
0.359319 0.516594 0.171633
0.383124 0.523095 0.179568
0.408453 0.527611 0.186862
0.428931 0.532341 0.190860
0.453834 0.537011 0.196078
0.483436 0.542626 0.200626
0.514977 0.549218 0.207218
0.542412 0.556207 0.214755
0.568353 0.565118 0.223117
0.591028 0.571344 0.231052
0.613428 0.583703 0.241886
0.634516 0.587488 0.248753
0.651118 0.588739 0.253849
0.656916 0.576532 0.250828
0.661768 0.570245 0.249607
0.665003 0.570550 0.250675
0.377417 0.556329 0.183536
0.391363 0.557671 0.187564
0.414618 0.560967 0.196048
0.437995 0.566003 0.204166
0.460304 0.572595 0.210330
0.481727 0.578576 0.215732
0.510460 0.583978 0.220890
0.541680 0.589685 0.226566
0.570794 0.596246 0.234928
0.593805 0.602625 0.243137
0.615076 0.609552 0.251591
0.634699 0.615900 0.259617
0.649866 0.620569 0.265904
0.663172 0.615625 0.267765
0.666865 0.604974 0.264530
0.672206 0.599725 0.263981
0.673335 0.601251 0.264958
0.407813 0.596826 0.200687
0.423468 0.598779 0.204562
0.444892 0.599512 0.210544
0.469947 0.603174 0.219669
0.491615 0.608454 0.226566
0.513603 0.614374 0.232456
0.540948 0.619593 0.238743
0.569909 0.626551 0.246830
0.597467 0.632685 0.255924
0.620325 0.638758 0.264439
0.636347 0.642359 0.270359
0.653864 0.643336 0.275822
0.668818 0.647303 0.282017
0.675563 0.644617 0.283116
0.679133 0.634668 0.280064
0.679896 0.623713 0.276005
0.682429 0.631464 0.279850
0.425849 0.629725 0.214969
0.447700 0.633143 0.220523
0.470710 0.633692 0.225742
0.496590 0.636622 0.233280
0.520684 0.641352 0.241550
0.544182 0.647150 0.248722
0.570642 0.652064 0.256596
0.599970 0.659449 0.266789
0.623011 0.665217 0.275639
0.638788 0.667018 0.280949
0.654108 0.669886 0.286564
0.667475 0.671595 0.291722
0.682094 0.669001 0.295262
0.689235 0.671504 0.298589
0.692927 0.669184 0.298833
0.689662 0.655879 0.292119
0.691279 0.660548 0.294652
0.423682 0.657801 0.223697
0.462318 0.664240 0.234257
0.492927 0.666102 0.242069
0.517968 0.669032 0.248936
0.543084 0.672602 0.256687
0.564874 0.675288 0.263218
0.585046 0.677424 0.269535
0.611048 0.680171 0.277897
0.633234 0.682887 0.285527
0.647761 0.684382 0.290623
0.663569 0.686030 0.296086
0.679011 0.689204 0.302647
0.690120 0.692012 0.307622
0.698909 0.689693 0.309483
0.700710 0.690730 0.310552
0.700465 0.689448 0.309911
0.700160 0.688502 0.309392
0.383062 0.669245 0.219028
0.461311 0.679194 0.239048
0.507286 0.682826 0.251225
0.525841 0.685908 0.256992
0.547112 0.690150 0.264042
0.577966 0.693416 0.273594
0.600031 0.695399 0.280613
0.620050 0.697200 0.287114
0.640803 0.699245 0.294377
0.659388 0.701167 0.300969
0.676081 0.702937 0.307256
0.689601 0.704494 0.312505
0.697200 0.705348 0.315526
0.702083 0.705867 0.317479
0.702388 0.705928 0.317601
0.702388 0.705928 0.317601
0.702388 0.705928 0.317601
0.028016 0.028016 0.043153
0.039155 0.027955 0.045533
0.064210 0.029419 0.046265
0.099763 0.035737 0.052766
0.144137 0.042481 0.062745
0.182559 0.046754 0.068330
0.215091 0.050965 0.071962
0.237980 0.053529 0.073671
0.254795 0.054170 0.072480
0.275273 0.055665 0.074006
0.299138 0.057588 0.077852
0.326665 0.060365 0.081727
0.361059 0.064515 0.088502
0.396612 0.068086 0.095918
0.431617 0.072297 0.103487
0.468757 0.077058 0.113985
0.503441 0.083040 0.126558
0.031128 0.046143 0.043458
0.053132 0.047822 0.048341
0.108980 0.040375 0.040436
0.157412 0.046540 0.046510
0.199191 0.051240 0.050568
0.231083 0.055116 0.053376
0.248814 0.054902 0.053803
0.261692 0.054566 0.054322
0.277440 0.055268 0.055268
0.299290 0.057221 0.057374
0.327306 0.060121 0.061280
0.363104 0.063966 0.067750
0.402564 0.067903 0.075532
0.440040 0.072389 0.084657
0.478614 0.077821 0.094301
0.506798 0.086336 0.107698
0.526879 0.114931 0.137453
0.039460 0.069398 0.042054
0.058808 0.084688 0.040467
0.118074 0.095552 0.052430
0.160372 0.087892 0.052064
0.202823 0.090364 0.055726
0.241886 0.094942 0.060456
0.271855 0.098756 0.063661
0.293706 0.100252 0.065583
0.312505 0.099855 0.067597
0.335271 0.101228 0.071504
0.365545 0.104829 0.076844
0.397559 0.107637 0.082094
0.434974 0.110658 0.089204
0.471748 0.113863 0.097108
0.503868 0.118441 0.105837
0.531395 0.127230 0.118624
0.552361 0.158022 0.149203
0.053590 0.102266 0.046998
0.078462 0.121798 0.051575
0.124697 0.133944 0.058137
0.186954 0.152132 0.066865
0.210697 0.134066 0.064851
0.247807 0.135195 0.068482
0.287175 0.142245 0.072969
0.320134 0.148501 0.077424
0.347356 0.153201 0.082704
0.374456 0.157626 0.089113
0.402625 0.161440 0.095094
0.432349 0.163790 0.099825
0.462776 0.166262 0.105135
0.496101 0.168368 0.111360
0.523583 0.170169 0.118563
0.546014 0.178470 0.129671
0.563409 0.212497 0.162142
0.079713 0.138582 0.062318
0.105257 0.165591 0.063508
0.147585 0.177737 0.068544
0.197543 0.190494 0.074281
0.256168 0.210483 0.083803
0.275639 0.196292 0.082429
0.309728 0.196628 0.085298
0.348028 0.207065 0.091432
0.382116 0.216190 0.098299
0.411231 0.222293 0.105287
0.438727 0.225010 0.111910
0.465156 0.225620 0.117159
0.491951 0.227237 0.121706
0.520531 0.230228 0.127199
0.545647 0.231540 0.133364
0.565240 0.236301 0.143130
0.578790 0.265324 0.175723
0.112001 0.186313 0.078157
0.137301 0.218570 0.076326
0.181064 0.233707 0.082612
0.225742 0.243778 0.087221
0.278080 0.259464 0.094942
0.324926 0.274632 0.102693
0.348028 0.268559 0.104005
0.381598 0.273533 0.108827
0.415839 0.283818 0.116426
0.445747 0.290837 0.124910
0.471077 0.291905 0.130007
0.495918 0.289097 0.134371
0.520470 0.286534 0.138125
0.543359 0.287388 0.142184
0.566552 0.291264 0.148074
0.585290 0.294316 0.158053
0.595605 0.316320 0.189883
0.147189 0.238285 0.093202
0.175143 0.281773 0.092012
0.215702 0.291752 0.097047
0.260502 0.304204 0.103029
0.305577 0.315251 0.109224
0.353491 0.331029 0.118257
0.395727 0.344640 0.126528
0.420783 0.344610 0.129885
0.449897 0.351019 0.136446
0.478401 0.356939 0.144991
0.501122 0.358373 0.151797
0.525414 0.354681 0.154543
0.549615 0.350988 0.157290
0.570764 0.348821 0.160464
0.590143 0.350927 0.165194
0.604608 0.353796 0.173800
0.610864 0.367620 0.203952
0.183597 0.293736 0.109377
0.213321 0.341741 0.107820
0.250950 0.354833 0.114595
0.294072 0.365881 0.122011
0.335027 0.373877 0.127443
0.378515 0.385321 0.135317
0.422675 0.399786 0.144747
0.461311 0.413153 0.154238
0.488869 0.419898 0.162051
0.509178 0.421088 0.167819
0.533288 0.425971 0.175570
0.555474 0.424689 0.179995
0.577996 0.417914 0.180667
0.596429 0.412329 0.181582
0.611231 0.408209 0.183413
0.621881 0.408240 0.189639
0.623499 0.417975 0.218204
0.224674 0.353613 0.127993
0.254856 0.399817 0.126253
0.287785 0.413916 0.133852
0.327855 0.426215 0.142306
0.366278 0.434546 0.148898
0.404486 0.442847 0.155673
0.446754 0.453407 0.163973
0.483436 0.461204 0.171298
0.519585 0.478264 0.184512
0.543664 0.482307 0.192233
0.563806 0.485573 0.198978
0.585168 0.491310 0.205814
0.605249 0.486549 0.207675
0.619959 0.476356 0.206210
0.627741 0.463630 0.203464
0.634455 0.455879 0.206088
0.633722 0.461585 0.231998
0.265690 0.407904 0.144839
0.297398 0.456641 0.145510
0.327672 0.468238 0.153689
0.362737 0.479408 0.162936
0.396887 0.488411 0.171145
0.430732 0.494392 0.176638
0.467720 0.502953 0.183688
0.507683 0.511131 0.192569
0.536980 0.518669 0.199496
0.570092 0.536767 0.214450
0.591058 0.536950 0.219944
0.611872 0.542931 0.227939
0.626398 0.539452 0.229770
0.639612 0.532189 0.229831
0.644282 0.517205 0.225986
0.647425 0.504601 0.225834
0.646967 0.502739 0.247745
0.304021 0.460609 0.162112
0.338933 0.510857 0.164920
0.364660 0.517479 0.172213
0.393652 0.523857 0.181643
0.422583 0.532219 0.190158
0.453864 0.536950 0.195895
0.489082 0.543603 0.201938
0.526543 0.550744 0.210147
0.558343 0.561151 0.220096
0.587610 0.571557 0.230167
0.613581 0.583825 0.241917
0.632441 0.582727 0.246464
0.645075 0.578027 0.248356
0.652308 0.567010 0.246098
0.656947 0.556176 0.243503
0.659998 0.550042 0.245548
0.663447 0.547234 0.266667
0.339147 0.512474 0.179507
0.376959 0.557122 0.183627
0.397406 0.560143 0.189303
0.422736 0.562951 0.198184
0.450416 0.570550 0.208042
0.476967 0.576165 0.213077
0.513054 0.583429 0.220401
0.549279 0.591546 0.229587
0.579553 0.598596 0.238468
0.606561 0.607660 0.248600
0.630549 0.613703 0.257603
0.649927 0.619593 0.265538
0.659968 0.611444 0.265202
0.664881 0.599756 0.261906
0.667231 0.587182 0.258213
0.670314 0.586389 0.262394
0.675196 0.581872 0.282658
0.367651 0.553399 0.192599
0.404700 0.595728 0.199680
0.426612 0.598474 0.205692
0.451575 0.600610 0.212741
0.482216 0.606622 0.224369
0.508934 0.612726 0.231540
0.540002 0.618555 0.238346
0.574639 0.626917 0.248295
0.602655 0.633539 0.257481
0.624720 0.639094 0.265751
0.648310 0.642878 0.273899
0.662318 0.644587 0.278935
0.675288 0.645655 0.283421
0.676966 0.631281 0.278080
0.678279 0.620356 0.274540
0.680568 0.620569 0.279240
0.683711 0.611139 0.297887
0.386938 0.589776 0.202792
0.421607 0.628351 0.213626
0.449775 0.632074 0.220615
0.477668 0.635431 0.228733
0.506310 0.638849 0.237552
0.537041 0.644068 0.246952
0.566186 0.650050 0.255375
0.598383 0.657221 0.265660
0.624323 0.663203 0.275303
0.643244 0.667109 0.282292
0.660060 0.669734 0.288457
0.676509 0.668757 0.293431
0.685237 0.669276 0.296391
0.691402 0.668330 0.297978
0.688533 0.653162 0.291112
0.689937 0.651514 0.293523
0.694881 0.648066 0.314977
0.393286 0.622705 0.208042
0.418128 0.654383 0.221469
0.465614 0.658869 0.233127
0.496193 0.664240 0.242252
0.523980 0.667781 0.250278
0.554986 0.671138 0.259556
0.581903 0.675166 0.268101
0.610040 0.679377 0.277562
0.634119 0.683162 0.286290
0.653712 0.685420 0.293309
0.670130 0.687892 0.299565
0.682643 0.689601 0.304570
0.694148 0.688624 0.308019
0.699092 0.689693 0.310063
0.700160 0.689052 0.310124
0.699947 0.682704 0.310826
0.705043 0.680079 0.326177
0.387549 0.650538 0.214145
0.395087 0.667536 0.220920
0.464607 0.675776 0.238712
0.502525 0.679316 0.248936
0.528557 0.683436 0.257145
0.562158 0.688746 0.268437
0.589899 0.692042 0.277989
0.614740 0.694423 0.286473
0.639033 0.697444 0.295720
0.660517 0.700771 0.304509
0.678737 0.703273 0.312047
0.693019 0.704952 0.317815
0.701686 0.706111 0.321386
0.704921 0.705745 0.322454
0.705348 0.705898 0.322667
0.705348 0.705776 0.322423
0.712428 0.701808 0.342412
0.364355 0.667384 0.214694
0.398688 0.670069 0.222507
0.457801 0.674922 0.236912
0.490333 0.680842 0.246677
0.521385 0.684993 0.257420
0.563256 0.694911 0.276158
0.597772 0.700801 0.291569
0.620783 0.702449 0.301701
0.641108 0.704219 0.311681
0.662318 0.708522 0.323857
0.680507 0.713100 0.334661
0.695796 0.715389 0.341985
0.708492 0.716945 0.347692
0.716060 0.717952 0.351141
0.717891 0.718227 0.352483
0.717983 0.718257 0.352819
0.717952 0.718227 0.352453
0.028534 0.028534 0.069917
0.040101 0.030243 0.072847
0.057038 0.031983 0.074830
0.085328 0.034852 0.076204
0.126406 0.039948 0.086580
0.161990 0.044099 0.092775
0.192966 0.046815 0.096376
0.220066 0.051209 0.100343
0.246067 0.054261 0.101930
0.272251 0.056275 0.103273
0.298405 0.058686 0.107576
0.328710 0.061830 0.113008
0.361639 0.065705 0.120363
0.391913 0.068513 0.125978
0.421363 0.071717 0.130556
0.456306 0.077211 0.141695
0.495094 0.083680 0.155154
0.031556 0.045380 0.066560
0.036469 0.036103 0.088136
0.076631 0.039551 0.095766
0.122713 0.040375 0.085512
0.165682 0.044404 0.083925
0.202121 0.048707 0.083986
0.228916 0.052186 0.083101
0.251865 0.054261 0.082551
0.275059 0.055909 0.082643
0.299535 0.057954 0.082856
0.327855 0.060914 0.087312
0.360784 0.064607 0.094545
0.394842 0.067933 0.100557
0.430488 0.071962 0.108858
0.468635 0.078096 0.120241
0.499245 0.086763 0.133333
0.513603 0.113252 0.165133
0.039979 0.068757 0.066072
0.053315 0.095247 0.090669
0.092256 0.077607 0.086305
0.169619 0.068269 0.069734
0.213535 0.065309 0.064912
0.244327 0.058228 0.057649
0.262425 0.055848 0.055360
0.277714 0.055573 0.055543
0.297734 0.057069 0.057221
0.326177 0.060029 0.061280
0.363073 0.063874 0.067781
0.401953 0.067842 0.075441
0.441474 0.072572 0.084779
0.478920 0.078767 0.094972
0.505974 0.089204 0.110079
0.522728 0.113558 0.138216
0.545769 0.152865 0.179660
0.052735 0.110140 0.071229
0.065248 0.155734 0.069612
0.103151 0.140719 0.068605
0.180270 0.153628 0.086183
0.223911 0.133394 0.076692
0.274296 0.127443 0.072908
0.306127 0.123598 0.072053
0.327123 0.120485 0.073426
0.350561 0.120455 0.077516
0.377020 0.121065 0.082460
0.408942 0.121645 0.087495
0.442542 0.122621 0.092653
0.475776 0.125551 0.100008
0.508019 0.129702 0.109773
0.532769 0.137819 0.124239
0.552453 0.164401 0.151278
0.579156 0.209689 0.196597
0.066621 0.159731 0.069245
0.111177 0.198001 0.088014
0.137301 0.200473 0.080018
0.202518 0.216892 0.090578
0.283085 0.243748 0.104921
0.309667 0.214603 0.092775
0.344732 0.205783 0.091829
0.373083 0.200839 0.094179
0.397070 0.197452 0.098634
0.424781 0.196994 0.104524
0.452674 0.195865 0.109194
0.478004 0.193362 0.112947
0.503960 0.190402 0.116823
0.529412 0.191379 0.124056
0.551293 0.200961 0.138277
0.568353 0.228763 0.167452
0.595056 0.271214 0.214603
0.105531 0.207797 0.090242
0.147921 0.246006 0.102266
0.174411 0.271763 0.092866
0.237705 0.288884 0.101381
0.308019 0.306584 0.111452
0.380804 0.332982 0.127382
0.396124 0.305730 0.118685
0.419654 0.294987 0.119783
0.443793 0.287053 0.123049
0.466072 0.279423 0.126650
0.486946 0.271611 0.129213
0.510491 0.266789 0.132235
0.533379 0.263584 0.136141
0.554742 0.261967 0.141817
0.572625 0.269749 0.155215
0.585962 0.290562 0.183749
0.606867 0.325200 0.229526
0.148684 0.257572 0.111818
0.186618 0.299687 0.118257
0.211307 0.336187 0.107057
0.270695 0.356725 0.117983
0.331640 0.370672 0.127565
0.395361 0.387121 0.138796
0.455665 0.408911 0.153872
0.467842 0.387854 0.149874
0.488533 0.379705 0.153353
0.506035 0.367239 0.154055
0.525505 0.353353 0.154177
0.544152 0.342504 0.154421
0.565545 0.337774 0.157290
0.582849 0.334722 0.161898
0.597223 0.339239 0.173983
0.605829 0.353460 0.202029
0.618219 0.378180 0.245335
0.188540 0.311772 0.130251
0.226505 0.356054 0.135714
0.254459 0.398871 0.126162
0.302983 0.417517 0.137423
0.356023 0.429969 0.146731
0.411841 0.442634 0.156680
0.465431 0.454520 0.167269
0.518853 0.477104 0.184207
0.529015 0.461357 0.182254
0.545953 0.452445 0.185458
0.562402 0.438010 0.184756
0.580560 0.423148 0.182986
0.596338 0.412222 0.181979
0.609308 0.404364 0.183810
0.618250 0.401617 0.192386
0.622034 0.411048 0.218387
0.628016 0.427039 0.260014
0.229770 0.367956 0.151095
0.264958 0.408576 0.150790
0.298894 0.459007 0.146700
0.338293 0.474586 0.157382
0.382940 0.485695 0.168063
0.428717 0.492500 0.175692
0.479713 0.503960 0.186160
0.526116 0.516869 0.197391
0.570703 0.535698 0.214054
0.583642 0.526619 0.215549
0.596368 0.514351 0.215427
0.611475 0.502297 0.214359
0.622187 0.485740 0.210391
0.629206 0.467308 0.206363
0.633417 0.456306 0.210513
0.634424 0.458167 0.232883
0.636530 0.467414 0.272251
0.273808 0.424140 0.172335
0.301701 0.460426 0.165621
0.340887 0.513451 0.166445
0.372961 0.521263 0.176028
0.411353 0.529625 0.187167
0.448493 0.536095 0.194614
0.493935 0.545159 0.203372
0.539910 0.554864 0.213779
0.576623 0.566766 0.225864
0.613977 0.583520 0.241978
0.627771 0.572900 0.242069
0.635493 0.560204 0.239872
0.643244 0.546380 0.236088
0.646601 0.527367 0.230930
0.648951 0.512779 0.232456
0.649287 0.507500 0.251011
0.647852 0.508934 0.285008
0.311131 0.473976 0.189792
0.335821 0.511131 0.181674
0.374060 0.555840 0.182681
0.403235 0.562066 0.191745
0.438697 0.568689 0.203464
0.471443 0.574487 0.211826
0.512901 0.583612 0.220310
0.556573 0.592248 0.231205
0.591608 0.599359 0.241550
0.622522 0.609644 0.253819
0.650019 0.619287 0.265476
0.655268 0.603113 0.260502
0.659754 0.588190 0.256260
0.662287 0.573419 0.252415
0.663539 0.561120 0.253910
0.665827 0.555505 0.271153
0.664485 0.551446 0.299504
0.336217 0.514672 0.201480
0.362341 0.552850 0.194247
0.400671 0.593500 0.198215
0.430426 0.598688 0.206699
0.465003 0.603357 0.218296
0.497108 0.609674 0.227634
0.535637 0.618036 0.237644
0.578302 0.628168 0.249882
0.609583 0.633814 0.259525
0.634058 0.639063 0.268345
0.658778 0.643091 0.277256
0.674800 0.646082 0.283452
0.672663 0.623011 0.273625
0.675654 0.612726 0.271550
0.675227 0.600427 0.272801
0.678584 0.594385 0.289921
0.680476 0.587701 0.314977
0.354162 0.550561 0.208316
0.378515 0.589075 0.201907
0.417548 0.626856 0.212253
0.453498 0.631067 0.221195
0.487282 0.634424 0.231022
0.522515 0.641321 0.242710
0.557733 0.648554 0.252628
0.595666 0.656825 0.264866
0.626123 0.662898 0.275822
0.648005 0.666163 0.283391
0.667353 0.668910 0.290745
0.683223 0.668208 0.295384
0.690303 0.667903 0.297551
0.687160 0.649134 0.289677
0.687617 0.640314 0.291356
0.689357 0.630274 0.307713
0.692073 0.620539 0.332708
0.363500 0.585779 0.211765
0.385138 0.621637 0.207523
0.413886 0.651423 0.219638
0.467597 0.656153 0.232670
0.501793 0.659480 0.242069
0.535821 0.665614 0.253452
0.572198 0.671901 0.264805
0.605951 0.677699 0.276188
0.636042 0.683101 0.287388
0.658991 0.686549 0.295964
0.676326 0.689876 0.303319
0.690700 0.690486 0.308415
0.697902 0.688685 0.309972
0.700069 0.688563 0.310765
0.698604 0.675166 0.309545
0.700710 0.667323 0.322057
0.701961 0.654261 0.349615
0.359106 0.613977 0.207584
0.379126 0.647486 0.211887
0.399298 0.665675 0.221256
0.472206 0.673030 0.239536
0.507622 0.677394 0.249760
0.540429 0.682582 0.261021
0.578668 0.688350 0.274540
0.608759 0.691646 0.285191
0.638117 0.696193 0.296971
0.664179 0.700465 0.307958
0.684321 0.703853 0.317082
0.697169 0.705470 0.322667
0.705501 0.705409 0.325414
0.706844 0.705592 0.326055
0.707149 0.705531 0.326238
0.710323 0.696101 0.339422
0.711788 0.688411 0.358892
0.349859 0.639643 0.205997
0.364080 0.661280 0.212955
0.400793 0.670192 0.223270
0.461830 0.675929 0.238743
0.502861 0.682002 0.251225
0.539055 0.688075 0.265995
0.580224 0.696345 0.284611
0.608118 0.700069 0.297826
0.635035 0.702174 0.310369
0.659907 0.706416 0.323552
0.680903 0.711238 0.335485
0.699825 0.715450 0.345403
0.711849 0.717037 0.350744
0.716884 0.717647 0.353063
0.717128 0.717647 0.353338
0.717067 0.717617 0.352789
0.720027 0.709926 0.374914
0.337194 0.662013 0.208682
0.368231 0.664546 0.215244
0.403784 0.671748 0.225620
0.448951 0.675959 0.239048
0.496284 0.684718 0.256809
0.539025 0.692012 0.277775
0.577630 0.696559 0.297276
0.603601 0.698054 0.311650
0.626459 0.700221 0.324987
0.647761 0.705013 0.340612
0.668452 0.712276 0.357153
0.689052 0.718990 0.370550
0.708980 0.723903 0.380224
0.720455 0.725521 0.384894
0.726253 0.726436 0.388952
0.726436 0.726436 0.388739
0.726406 0.726406 0.388037
0.031006 0.031006 0.091188
0.042512 0.033021 0.096223
0.057649 0.034546 0.101137
0.080293 0.036439 0.106233
0.112612 0.039185 0.110689
0.147036 0.043214 0.119295
0.177768 0.046052 0.123812
0.207523 0.049500 0.128634
0.237400 0.053956 0.133028
0.270115 0.057038 0.135286
0.299626 0.059693 0.139284
0.329961 0.063111 0.145846
0.364691 0.067140 0.153780
