tools/luts_backup/Kodak Vision3 500T 5219 (C41)_FPE.cube
# (C) 2014 VisionColor & Patchflyer [www.vision-color.com]
# Generator: VC Patchmatch v.2.1.1 [64/53]
# All work and no play makes Jack a dull boy.
# LUT generated from: Kodak Vision3 500T 5219 (C41)_FPE
LUT_3D_SIZE 17
0.037507 0.041794 0.042802
0.051637 0.042054 0.040436
0.076616 0.044648 0.040055
0.111742 0.049989 0.041520
0.152438 0.054841 0.042069
0.186145 0.055772 0.041505
0.247883 0.059678 0.045014
0.311177 0.059373 0.048798
0.393500 0.060227 0.059586
0.421775 0.060746 0.073762
0.426551 0.062623 0.098405
0.426551 0.062623 0.098405
0.416037 0.061524 0.076570
0.417121 0.058793 0.051926
0.409339 0.057664 0.051072
0.409339 0.057664 0.051072
0.409339 0.057664 0.051072
0.034897 0.048264 0.042176
0.049638 0.054429 0.043076
0.081407 0.057572 0.041978
0.113619 0.060075 0.042649
0.152987 0.060822 0.043336
0.193530 0.059937 0.043717
0.237797 0.060121 0.045090
0.310338 0.059052 0.047120
0.392782 0.059846 0.056153
0.421469 0.060639 0.071489
0.424125 0.060945 0.088518
0.426123 0.062608 0.095186
0.416037 0.061524 0.076570
0.409689 0.057832 0.051804
0.409339 0.057664 0.051072
0.409339 0.057664 0.051072
0.409339 0.057664 0.051072
0.034882 0.074434 0.047044
0.044541 0.077699 0.048417
0.083406 0.090425 0.051637
0.135897 0.098024 0.051423
0.185962 0.099458 0.053758
0.221408 0.089082 0.049805
0.260243 0.079835 0.048524
0.308171 0.068772 0.048356
0.370855 0.057374 0.050507
0.420493 0.060212 0.065537
0.423301 0.060945 0.083436
0.424552 0.060960 0.091722
0.421469 0.060639 0.071489
0.409339 0.057664 0.051072
0.409339 0.057664 0.051072
0.409339 0.057664 0.051072
0.409339 0.057664 0.051072
0.037064 0.108919 0.057221
0.039994 0.105364 0.056916
0.072786 0.115740 0.057572
0.143938 0.145922 0.062303
0.218540 0.151614 0.062928
0.269871 0.147616 0.059663
0.307271 0.123384 0.057404
0.358785 0.112810 0.055512
0.392721 0.087312 0.054932
0.431952 0.060166 0.054994
0.421469 0.060639 0.071489
0.423713 0.060945 0.085908
0.421469 0.060639 0.071489
0.430121 0.062821 0.052461
0.454704 0.074220 0.055085
0.454704 0.074220 0.055085
0.446021 0.072465 0.055009
0.037934 0.151873 0.065644
0.036820 0.147585 0.065843
0.069200 0.161761 0.066728
0.128832 0.178607 0.070466
0.226429 0.215137 0.072938
0.302602 0.214679 0.069139
0.357382 0.196811 0.067994
0.399344 0.181918 0.064698
0.452506 0.165438 0.064408
0.489433 0.122362 0.062791
0.487800 0.073121 0.059159
0.442161 0.062028 0.073289
0.448051 0.062394 0.063737
0.471611 0.086320 0.057450
0.501701 0.110567 0.062028
0.503685 0.114778 0.063554
0.501701 0.110567 0.062028
0.039200 0.186191 0.071336
0.039200 0.186191 0.071336
0.056489 0.193057 0.072908
0.122606 0.218051 0.076326
0.204379 0.242496 0.078431
0.309575 0.277028 0.081422
0.386114 0.273747 0.078920
0.450370 0.264057 0.080018
0.478721 0.237766 0.071473
0.527108 0.218250 0.071244
0.568002 0.195071 0.074067
0.539452 0.141756 0.066072
0.527764 0.123903 0.065705
0.536065 0.148074 0.068009
0.558480 0.177386 0.071809
0.553399 0.167407 0.069718
0.555535 0.172366 0.071809
0.043809 0.230503 0.080430
0.043809 0.230503 0.080430
0.051820 0.230259 0.077623
0.107530 0.260258 0.081559
0.191638 0.283589 0.087144
0.312520 0.325048 0.086976
0.407935 0.354345 0.090394
0.462013 0.327230 0.087129
0.525750 0.328588 0.088991
0.554360 0.301076 0.084932
0.609873 0.292119 0.086519
0.634913 0.274983 0.086381
0.615076 0.248447 0.082033
0.615076 0.248447 0.082033
0.618906 0.255329 0.082033
0.615915 0.248554 0.079988
0.612100 0.241703 0.079973
0.047669 0.281071 0.086366
0.045396 0.278187 0.086702
0.047593 0.266682 0.085298
0.097566 0.301122 0.087922
0.163241 0.313054 0.090440
0.268864 0.344305 0.092622
0.384436 0.379370 0.098558
0.475670 0.402213 0.108278
0.531914 0.384787 0.104250
0.589151 0.384680 0.104662
0.622797 0.369757 0.104723
0.666255 0.369238 0.113237
0.680034 0.346014 0.107637
0.676951 0.337987 0.103380
0.664240 0.324331 0.099367
0.664240 0.324331 0.099367
0.651499 0.310765 0.095369
0.046311 0.316274 0.095262
0.047669 0.312734 0.092302
0.049805 0.308186 0.093126
0.070985 0.333059 0.097642
0.155673 0.365835 0.101915
0.266056 0.383200 0.102159
0.381323 0.415305 0.107530
0.464927 0.436408 0.110201
0.561822 0.460487 0.125032
0.590753 0.446921 0.125948
0.636881 0.438346 0.125811
0.668437 0.422004 0.130739
0.709758 0.414191 0.136904
0.708309 0.405646 0.126986
0.703120 0.390402 0.121172
0.698390 0.375723 0.116777
0.696498 0.368277 0.112871
0.052781 0.364218 0.106264
0.046082 0.347173 0.104540
0.051530 0.353765 0.103990
0.072541 0.370520 0.103120
0.123369 0.400717 0.109285
0.271366 0.430579 0.113191
0.380041 0.456550 0.120089
0.479271 0.484657 0.133516
0.568429 0.507805 0.145556
0.614923 0.510399 0.153765
0.653132 0.497658 0.161349
0.702129 0.496574 0.162524
0.725292 0.478172 0.163577
0.746456 0.478676 0.173068
0.740215 0.453239 0.149874
0.726741 0.437583 0.143771
0.723278 0.429877 0.142947
0.058808 0.405402 0.127138
0.058488 0.395209 0.119860
0.057237 0.398566 0.123598
0.079973 0.410147 0.123796
0.134081 0.436118 0.123278
0.261479 0.468894 0.132372
0.377157 0.497536 0.140368
0.471183 0.514778 0.153140
0.551186 0.537484 0.165469
0.622568 0.550881 0.173648
0.665797 0.560784 0.194034
0.711284 0.559197 0.206500
0.739391 0.540688 0.194995
0.773999 0.531228 0.203723
0.782147 0.530816 0.203250
0.767178 0.513497 0.195361
0.747799 0.478248 0.167163
0.074434 0.447715 0.152590
0.071656 0.440543 0.148058
0.068742 0.436606 0.142947
0.083635 0.445106 0.142947
0.142504 0.474067 0.148821
0.241474 0.503029 0.153567
0.353277 0.521721 0.161440
0.460533 0.548012 0.172213
0.567025 0.573754 0.195132
0.614237 0.583001 0.203540
0.669520 0.595468 0.226062
0.724025 0.614099 0.250904
0.759915 0.603906 0.257725
0.781781 0.584939 0.237720
0.805280 0.576867 0.257298
0.798016 0.567498 0.241184
0.793881 0.549203 0.223819
0.102113 0.495232 0.188525
0.084428 0.478798 0.176608
0.086976 0.475792 0.171160
0.108659 0.488975 0.177401
0.152438 0.507927 0.178790
0.256107 0.542504 0.194110
0.363760 0.554421 0.192508
0.485466 0.590723 0.212161
0.558633 0.602533 0.220600
0.620279 0.610605 0.229877
0.674693 0.623697 0.255680
0.729152 0.642802 0.282506
0.760159 0.649760 0.300786
0.795956 0.639735 0.308080
0.816632 0.631983 0.313130
0.817319 0.614649 0.309224
0.821775 0.612726 0.285023
0.089250 0.486198 0.182269
0.089296 0.487205 0.188602
0.089250 0.486198 0.182269
0.089250 0.486198 0.182269
0.132586 0.512764 0.195117
0.257038 0.561944 0.212085
0.386236 0.595361 0.233371
0.499306 0.626154 0.256748
0.570947 0.639506 0.274037
0.610071 0.636347 0.267659
0.663844 0.651652 0.302159
0.720562 0.669841 0.322408
0.763775 0.679622 0.342855
0.792889 0.687587 0.370779
0.827680 0.687129 0.388861
0.846113 0.679637 0.394446
0.845075 0.660639 0.365255
0.089357 0.488197 0.194888
0.089357 0.488197 0.194888
0.089357 0.488197 0.194888
0.083955 0.482536 0.182422
0.102113 0.495232 0.188525
0.187976 0.535775 0.197253
0.356420 0.597070 0.233753
0.495628 0.637766 0.272435
0.578149 0.659953 0.298085
0.625925 0.666484 0.308034
0.670314 0.680217 0.336110
0.726711 0.698528 0.356481
0.766293 0.709941 0.395056
0.808698 0.727260 0.425925
0.822751 0.725902 0.444984
0.853849 0.734066 0.473823
0.862348 0.715908 0.443809
0.094728 0.492912 0.200946
0.089387 0.489219 0.201099
0.094682 0.491890 0.194736
0.089357 0.488197 0.194888
0.089296 0.487205 0.188602
0.163897 0.529488 0.195865
0.293156 0.578439 0.219867
0.458122 0.630228 0.256428
0.565713 0.657176 0.297765
0.602899 0.660227 0.298894
0.657954 0.682795 0.335286
0.714763 0.696315 0.355703
0.755138 0.713848 0.394064
0.775189 0.719860 0.413962
0.822370 0.739254 0.454292
0.853788 0.757626 0.502708
0.881910 0.774304 0.549615
0.094759 0.493935 0.207080
0.094759 0.493935 0.207080
0.094759 0.493935 0.207080
0.089387 0.489219 0.201099
0.089387 0.489219 0.201099
0.133501 0.515267 0.188540
0.268910 0.569711 0.212497
0.395865 0.608042 0.241077
0.531502 0.647028 0.280812
0.602899 0.660227 0.298894
0.647425 0.673945 0.326207
0.692760 0.691432 0.345922
0.724681 0.698970 0.364736
0.763348 0.717601 0.412924
0.806897 0.727993 0.434836
0.829099 0.742931 0.472969
0.860624 0.761379 0.521447
0.036591 0.041581 0.053956
0.050935 0.043320 0.055589
0.074525 0.045518 0.051240
0.102022 0.048371 0.050126
0.141985 0.054231 0.051865
0.194980 0.059098 0.053742
0.252262 0.060456 0.054612
0.316213 0.060761 0.060883
0.404089 0.062928 0.077684
0.425284 0.062577 0.088777
0.426169 0.060945 0.104585
0.428901 0.064256 0.108400
0.423713 0.060945 0.085908
0.411490 0.059510 0.053391
0.409339 0.057664 0.051072
0.409339 0.057664 0.051072
0.409339 0.057664 0.051072
0.032761 0.047257 0.051881
0.049012 0.053956 0.055512
0.100175 0.056245 0.049805
0.142168 0.057862 0.048356
0.180102 0.059922 0.047440
0.198703 0.060121 0.048066
0.240436 0.060548 0.050614
0.314534 0.060212 0.055848
0.403616 0.062654 0.075090
0.425284 0.062577 0.088777
0.427344 0.062623 0.104891
0.426169 0.060945 0.104585
0.417304 0.061646 0.084001
0.409689 0.057832 0.051804
0.409339 0.057664 0.051072
0.409339 0.057664 0.051072
0.409339 0.057664 0.051072
0.032410 0.068513 0.049302
0.038727 0.074968 0.049607
0.087480 0.089006 0.051377
0.138064 0.093355 0.052506
0.175540 0.094026 0.052476
0.217212 0.081819 0.049424
0.269749 0.077577 0.048356
0.333959 0.063844 0.049149
0.375158 0.060136 0.059937
0.422889 0.060945 0.080995
0.426551 0.062623 0.098405
0.426169 0.060945 0.104585
0.424872 0.062577 0.086183
0.409689 0.057832 0.051804
0.417121 0.058793 0.051926
0.417121 0.058793 0.051926
0.409339 0.057664 0.051072
0.035660 0.105516 0.057160
0.038605 0.109850 0.058686
0.072267 0.118456 0.057725
0.140002 0.138796 0.060426
0.218326 0.148180 0.061006
0.279774 0.144457 0.060609
0.320775 0.126482 0.058412
0.350271 0.109895 0.055619
0.400900 0.080186 0.053605
0.433997 0.060822 0.066880
0.425284 0.062577 0.088777
0.426123 0.062608 0.095186
0.416892 0.061646 0.081544
0.432471 0.064317 0.052613
0.457130 0.076387 0.055177
0.454704 0.074220 0.055085
0.457130 0.076387 0.055177
0.035416 0.149020 0.065858
0.037629 0.144900 0.064012
0.061875 0.159060 0.066926
0.129625 0.178775 0.068452
0.226429 0.215137 0.072938
0.301137 0.209689 0.069215
0.347417 0.187213 0.065934
0.394903 0.173083 0.064881
0.452506 0.165438 0.064408
0.483742 0.114153 0.062654
0.503151 0.072541 0.071138
0.445060 0.063767 0.085039
0.449119 0.062745 0.070893
0.471611 0.086320 0.057450
0.509407 0.113634 0.063233
0.506539 0.118898 0.063630
0.503685 0.114778 0.063554
0.041444 0.191440 0.070985
0.041596 0.188205 0.071214
0.054719 0.188067 0.071290
0.117586 0.212329 0.076844
0.210788 0.248524 0.080781
0.318700 0.278737 0.081010
0.384497 0.267994 0.079042
0.438941 0.251606 0.077455
0.475395 0.232166 0.073976
0.529107 0.223743 0.073579
0.567041 0.182071 0.073716
0.567773 0.141039 0.071595
0.540597 0.108171 0.065888
0.541802 0.146883 0.067674
0.559319 0.177478 0.069718
0.556374 0.172457 0.069718
0.550454 0.162387 0.069718
0.044678 0.230838 0.077577
0.044419 0.234714 0.077226
0.050446 0.224659 0.075334
0.102724 0.253986 0.082216
0.192462 0.283528 0.084047
0.304601 0.317571 0.084291
0.406790 0.348577 0.094438
0.462013 0.327230 0.087129
0.513756 0.315206 0.086137
0.566796 0.314412 0.087587
0.612787 0.299474 0.089448
0.634913 0.274983 0.086381
0.612116 0.241718 0.079973
0.605753 0.242435 0.080003
0.615915 0.248554 0.079988
0.612100 0.241703 0.079973
0.612100 0.241703 0.079973
0.045823 0.274250 0.087266
0.045396 0.278187 0.086702
0.052399 0.276234 0.084199
0.082612 0.288808 0.089113
0.176776 0.322225 0.092851
0.280446 0.341619 0.092912
0.374441 0.371923 0.099367
0.475670 0.402213 0.108278
0.531929 0.384787 0.104250
0.578500 0.377676 0.104738
0.613275 0.362600 0.100954
0.667170 0.368948 0.109895
0.680034 0.346014 0.107637
0.667857 0.331380 0.099901
0.664240 0.324331 0.099367
0.651499 0.310765 0.095369
0.660578 0.317266 0.098833
0.048524 0.315465 0.095598
0.047669 0.312734 0.092302
0.047898 0.305135 0.093477
0.070985 0.333059 0.097642
0.149752 0.358465 0.099260
0.275380 0.390753 0.100954
0.381308 0.415305 0.107530
0.474067 0.438468 0.114549
0.561837 0.460487 0.125032
0.601114 0.454795 0.130037
0.636881 0.438346 0.125811
0.669779 0.421744 0.125887
0.726741 0.437583 0.143771
0.718334 0.413596 0.132250
0.703120 0.390402 0.121172
0.696498 0.368292 0.112871
0.696498 0.368277 0.112871
0.053422 0.360662 0.106813
0.054994 0.367559 0.110369
0.049516 0.346746 0.101289
0.068650 0.367208 0.103395
0.127275 0.396201 0.105501
0.250401 0.425025 0.109453
0.368872 0.454063 0.120104
0.468360 0.482750 0.133669
0.556390 0.499504 0.145785
0.625742 0.519142 0.159289
0.658625 0.505974 0.157412
0.695293 0.496590 0.158053
0.729397 0.486656 0.164599
0.743572 0.469856 0.166140
0.732280 0.453315 0.150210
0.726741 0.437583 0.143771
0.720790 0.421698 0.137606
0.058900 0.401968 0.127733
0.058808 0.405402 0.127138
0.057237 0.398566 0.123598
0.074815 0.406241 0.123949
0.131502 0.439902 0.127108
0.253056 0.461036 0.128634
0.379065 0.497047 0.134524
0.460533 0.517159 0.146929
0.562829 0.539544 0.165682
0.631388 0.559808 0.185611
0.676295 0.569528 0.201007
0.719707 0.558984 0.205814
0.737697 0.540963 0.201343
0.776562 0.540383 0.211063
0.782147 0.530816 0.203250
0.760113 0.496315 0.187137
0.758556 0.486946 0.173648
0.071473 0.443748 0.147539
0.074434 0.447715 0.152590
0.067124 0.436591 0.148257
0.087175 0.448997 0.148089
0.133913 0.470253 0.148836
0.251713 0.506508 0.158846
0.352056 0.526421 0.161349
0.473014 0.550759 0.172564
0.554620 0.571283 0.194720
0.614237 0.583001 0.203540
0.671717 0.595056 0.219486
0.736233 0.616358 0.251575
0.759915 0.603906 0.257725
0.786740 0.585748 0.252750
0.807279 0.586084 0.266392
0.796262 0.568032 0.249027
0.793881 0.549203 0.223819
0.094636 0.490898 0.188449
0.084428 0.478798 0.176608
0.086442 0.478569 0.170703
0.102525 0.484459 0.171359
0.152438 0.507927 0.178790
0.269505 0.546258 0.194553
0.374105 0.562951 0.199069
0.485466 0.590723 0.212161
0.558618 0.602533 0.220600
0.607935 0.608408 0.229465
0.673060 0.630365 0.263310
0.718700 0.633906 0.274128
0.757794 0.649943 0.308812
0.806363 0.648875 0.317250
0.816632 0.631983 0.313130
0.820478 0.623270 0.310948
0.818112 0.604120 0.283757
0.094636 0.490898 0.188449
0.089296 0.487205 0.188602
0.089296 0.487205 0.188602
0.089250 0.486198 0.182269
0.142428 0.517296 0.195438
0.257038 0.561944 0.212085
0.399496 0.598444 0.233188
0.511742 0.628931 0.256855
0.570947 0.639506 0.274037
0.633570 0.647715 0.276295
0.676402 0.659754 0.302785
0.718517 0.670283 0.330678
0.763775 0.679622 0.342855
0.792889 0.687587 0.370779
0.833783 0.687953 0.397162
0.846113 0.679637 0.394446
0.845075 0.660639 0.365255
0.089357 0.488197 0.194888
0.094682 0.491890 0.194736
0.094682 0.491890 0.194736
0.084001 0.483543 0.188754
0.112337 0.499229 0.182544
0.187976 0.535775 0.197253
0.371511 0.596307 0.233555
0.495628 0.637766 0.272435
0.578149 0.659953 0.298085
0.624506 0.667597 0.316518
0.692760 0.691432 0.345922
0.734478 0.701701 0.374136
0.778729 0.718349 0.396124
0.809827 0.720333 0.416999
0.829526 0.735576 0.463722
0.862638 0.743191 0.483925
0.859159 0.717388 0.461311
0.089906 0.486503 0.201404
0.094759 0.493935 0.207080
0.094759 0.493935 0.207080
0.094682 0.491890 0.194736
0.084001 0.483543 0.188754
0.175189 0.534157 0.196353
0.293156 0.578439 0.219867
0.458122 0.630228 0.256428
0.565713 0.657176 0.297765
0.613657 0.663890 0.307668
0.670314 0.680217 0.336110
0.711879 0.703593 0.372244
0.755138 0.713848 0.394064
0.795178 0.725795 0.433814
0.821088 0.740139 0.463111
0.852598 0.758587 0.511650
0.881910 0.774304 0.549615
0.089387 0.489219 0.201099
0.094759 0.493935 0.207080
0.094759 0.493935 0.207080
0.094759 0.493935 0.207080
0.084001 0.483543 0.188754
0.126558 0.508156 0.188922
0.268910 0.569711 0.212497
0.420874 0.615351 0.248692
0.531502 0.647028 0.280812
0.613504 0.668986 0.307515
0.647272 0.679042 0.326055
0.692760 0.691432 0.345922
0.733318 0.708598 0.383047
0.778729 0.718349 0.396124
0.806897 0.727993 0.434836
0.837049 0.745708 0.482765
0.869337 0.770367 0.531746
0.034211 0.042237 0.078920
0.043381 0.043259 0.076600
0.074403 0.048219 0.081117
0.105852 0.051377 0.078843
0.147646 0.056901 0.080842
0.192767 0.060334 0.082933
0.256916 0.063447 0.088579
0.328237 0.064851 0.096941
0.402304 0.063584 0.107027
0.430030 0.064164 0.118776
0.429587 0.062470 0.126314
0.431128 0.064149 0.130510
0.420157 0.061616 0.105211
0.413596 0.060395 0.062394
0.409689 0.057832 0.051804
0.417121 0.058793 0.051926
0.417121 0.058793 0.051926
0.033555 0.050935 0.086259
0.045594 0.054505 0.095567
0.082109 0.054093 0.084764
0.124681 0.057572 0.079347
0.160952 0.060533 0.079362
0.202609 0.061799 0.080751
0.256870 0.063416 0.085924
0.315465 0.064042 0.089754
0.401923 0.063630 0.103792
0.428092 0.062516 0.111345
0.430777 0.064164 0.126619
0.431128 0.064149 0.130510
0.428901 0.064256 0.108400
0.419776 0.059861 0.062135
0.409689 0.057832 0.051804
0.417121 0.058793 0.051926
0.409339 0.057664 0.051072
0.029465 0.066438 0.077089
0.031739 0.068223 0.079057
0.078447 0.083024 0.085374
0.164965 0.088365 0.080354
0.243732 0.081971 0.066117
0.288182 0.074968 0.067842
0.309743 0.068696 0.070710
0.333471 0.066041 0.078202
0.395438 0.064149 0.097841
0.429282 0.064210 0.111635
0.430030 0.064164 0.118776
0.430396 0.064164 0.122683
0.428122 0.064271 0.101884
0.419409 0.059678 0.060441
0.409339 0.057664 0.051072
0.417121 0.058793 0.051926
0.409339 0.057664 0.051072
0.032990 0.099977 0.074250
0.034318 0.103105 0.074220
0.053452 0.115389 0.068315
0.136873 0.138537 0.067811
0.224063 0.134951 0.062196
0.264958 0.122835 0.057282
0.312200 0.111025 0.056519
0.400961 0.092363 0.058503
0.449088 0.071382 0.078492
0.425391 0.060990 0.098131
0.427726 0.062562 0.108095
0.429648 0.064164 0.114855
0.426551 0.062623 0.098405
0.439582 0.061219 0.056321
0.454704 0.074220 0.055085
0.459541 0.078553 0.055253
0.457130 0.076387 0.055177
0.034394 0.148531 0.070008
0.034394 0.148531 0.070008
0.049699 0.150698 0.065461
0.123842 0.177523 0.068711
0.228687 0.207477 0.070314
0.299672 0.204746 0.069276
0.343450 0.178424 0.065965
0.390249 0.164248 0.065187
0.455726 0.146822 0.064698
0.539040 0.096544 0.072602
0.486793 0.070649 0.094972
0.441642 0.064546 0.104219
0.444633 0.063676 0.082567
0.485130 0.081102 0.058274
0.503685 0.114778 0.063554
0.512276 0.117723 0.063294
0.501701 0.110567 0.062028
0.039200 0.186191 0.071336
0.036835 0.176761 0.070085
0.051209 0.193088 0.070924
0.110369 0.214679 0.076844
0.212268 0.244022 0.077958
0.318700 0.278737 0.081010
0.376318 0.261830 0.077012
0.442267 0.257633 0.074815
0.478721 0.237766 0.071473
0.533379 0.217838 0.073503
0.589883 0.170886 0.078035
0.581094 0.123079 0.077012
0.551553 0.097536 0.071656
0.539284 0.153307 0.068147
0.567041 0.182055 0.073716
0.556374 0.172457 0.069718
0.555535 0.172366 0.071809
0.044663 0.227329 0.077852
0.043732 0.221897 0.075532
0.046418 0.229603 0.077592
0.085679 0.246601 0.082490
0.186114 0.276936 0.081834
0.312520 0.325048 0.086976
0.406790 0.348577 0.094438
0.462013 0.327230 0.087129
0.516396 0.321874 0.086458
0.564797 0.307500 0.084520
0.609873 0.292119 0.086519
0.625711 0.268971 0.084138
0.615915 0.248569 0.079988
0.615915 0.248554 0.079988
0.615076 0.248432 0.082033
0.605753 0.242420 0.080003
0.605753 0.242420 0.080003
0.045823 0.274250 0.087266
0.044999 0.263874 0.085634
0.045777 0.264286 0.082704
0.071748 0.288014 0.085893
0.164508 0.312871 0.086656
0.270115 0.339315 0.093324
0.394369 0.381186 0.098375
0.486473 0.404059 0.108141
0.531929 0.384787 0.104250
0.578500 0.377676 0.104738
0.625544 0.376898 0.105287
0.670985 0.361761 0.112596
0.680964 0.345724 0.104265
0.667857 0.331380 0.099901
0.664240 0.324346 0.099367
0.651499 0.310765 0.095369
0.651499 0.310765 0.095369
0.046311 0.316274 0.095262
0.048524 0.315465 0.095598
0.047898 0.305135 0.093477
0.070985 0.333059 0.097642
0.146548 0.363333 0.102373
0.243168 0.383368 0.102296
0.379171 0.420996 0.111376
0.483207 0.440513 0.118837
0.570474 0.463004 0.133532
0.599252 0.446784 0.125261
0.636881 0.438346 0.125811
0.679774 0.429633 0.131029
0.723278 0.429877 0.142947
0.704921 0.397986 0.126253
0.711406 0.398108 0.130709
0.699321 0.375448 0.113405
0.686091 0.361303 0.112428
0.056153 0.367697 0.106004
0.052781 0.364218 0.106264
0.051530 0.353765 0.103990
0.064973 0.367620 0.102983
0.123369 0.400717 0.109285
0.250401 0.425025 0.109453
0.380026 0.456550 0.120089
0.457130 0.474556 0.134264
0.558343 0.499245 0.140352
0.626734 0.512383 0.154849
0.658625 0.505974 0.157412
0.702129 0.496574 0.162524
0.729397 0.486656 0.164599
0.744915 0.469612 0.161288
0.741024 0.461524 0.160357
0.726741 0.437583 0.143771
0.723278 0.429862 0.142947
0.057145 0.401999 0.123003
0.056092 0.398428 0.127916
0.057237 0.398566 0.123598
0.063554 0.395315 0.115846
0.132876 0.440040 0.122728
0.257771 0.474067 0.137789
0.367468 0.494392 0.134783
0.470710 0.520195 0.152621
0.550744 0.531411 0.165774
0.620615 0.551156 0.179095
0.678004 0.563043 0.194720
0.712993 0.558907 0.200137
0.749905 0.549432 0.201968
0.776562 0.540383 0.211063
0.782147 0.530816 0.203250
0.760113 0.496315 0.187137
0.744915 0.469612 0.161288
0.076036 0.447730 0.147326
0.066941 0.439796 0.147738
0.076219 0.444511 0.147845
0.078508 0.441230 0.143099
0.128115 0.462638 0.143969
0.251713 0.506508 0.158846
0.365942 0.524666 0.161028
0.472786 0.555764 0.172320
0.554620 0.571283 0.194720
0.624506 0.585672 0.210636
0.669520 0.595468 0.226062
0.713680 0.605234 0.242542
0.759915 0.603906 0.257725
0.786740 0.585748 0.252750
0.809033 0.585550 0.258534
0.794278 0.558816 0.239933
0.792294 0.549691 0.230915
0.089357 0.488197 0.194888
0.083955 0.482536 0.182422
0.079744 0.475273 0.176852
0.102525 0.484459 0.171359
0.142580 0.503395 0.178470
0.246616 0.534112 0.187716
0.374105 0.562951 0.199069
0.487083 0.589868 0.205249
0.569528 0.605768 0.227741
0.620279 0.610605 0.229877
0.675181 0.629618 0.255512
0.716945 0.640543 0.281819
0.760159 0.649760 0.300786
0.801984 0.649668 0.333974
0.831174 0.641611 0.330297
0.818433 0.613855 0.300862
0.820035 0.613245 0.292805
0.094759 0.493935 0.207080
0.094759 0.493935 0.207080
0.089357 0.488197 0.194888
0.084001 0.483543 0.188754
0.132570 0.512764 0.195117
0.257038 0.561944 0.212085
0.398489 0.602686 0.233158
0.511742 0.628931 0.256855
0.572412 0.638590 0.266087
0.641855 0.657023 0.292393
0.676402 0.659754 0.302785
0.730465 0.672496 0.331441
0.773449 0.682261 0.352132
0.802655 0.690272 0.380163
0.843549 0.696117 0.398276
0.855344 0.688975 0.404395
0.843091 0.661067 0.373465
0.094759 0.493935 0.207080
0.100099 0.498634 0.213107
0.089387 0.489219 0.201099
0.089387 0.489219 0.201099
0.101579 0.497993 0.188067
0.207614 0.547829 0.203616
0.370092 0.600366 0.233539
0.506691 0.641505 0.280537
0.590433 0.662684 0.298390
0.636637 0.670192 0.317021
0.692760 0.691432 0.345922
0.745068 0.710842 0.384070
0.776974 0.719097 0.405005
0.806897 0.727993 0.434836
0.829526 0.735576 0.463722
0.870176 0.753338 0.502968
0.860441 0.716487 0.452476
0.094759 0.493935 0.207080
0.094759 0.493935 0.207080
0.094759 0.493935 0.207080
0.089387 0.489219 0.201099
0.083421 0.485313 0.181964
0.152514 0.524773 0.195392
0.317525 0.586084 0.226734
0.456489 0.631327 0.264439
0.578149 0.659953 0.298085
0.624353 0.672694 0.316350
0.670314 0.680217 0.336110
0.723232 0.705592 0.373144
0.753368 0.714611 0.402945
0.796979 0.725063 0.424903
0.829099 0.742931 0.472969
0.861387 0.767590 0.521889
0.881910 0.774304 0.549615
0.094759 0.493935 0.207080
0.094759 0.493935 0.207080
0.094759 0.493935 0.207080
0.094759 0.493935 0.207080
0.084001 0.483543 0.188754
0.133501 0.515267 0.188540
0.279896 0.574304 0.219257
0.418250 0.620676 0.256611
0.531502 0.647028 0.280812
0.613504 0.668986 0.307515
0.659525 0.676600 0.326970
0.704738 0.693645 0.346654
0.733318 0.708598 0.383047
0.775189 0.719860 0.413962
0.815152 0.736843 0.444694
0.845838 0.754864 0.492927
0.876310 0.773175 0.541665
0.036851 0.042985 0.114519
0.040879 0.043488 0.108171
0.065309 0.048356 0.108736
0.102861 0.051514 0.106905
0.148226 0.057252 0.107012
0.194064 0.062165 0.109514
0.252842 0.065446 0.117662
0.324544 0.064820 0.130831
0.405509 0.063142 0.139757
0.432624 0.063920 0.145815
0.432197 0.063996 0.142046
0.438209 0.063355 0.141482
0.431128 0.064149 0.130510
