tools/luts_backup/Kodak Vision3 500T 5219 (NEG)_CIN.cube
# (C) 2014 VisionColor & Patchflyer [www.vision-color.com]
# Generator: VC Patchmatch v.2.1.1 [64/53]
# All work and no play makes Jack a dull boy.
# LUT generated from: BMD Film to Kodak Vision3 500T 5219 (NEG)_Cineon
LUT_3D_SIZE 17
0.098039 0.098039 0.098039
0.156863 0.090196 0.082353
0.243137 0.066667 0.047059
0.321569 0.062745 0.007843
0.403922 0.094118 0.003922
0.458824 0.141176 0.003922
0.501961 0.180392 0.003922
0.541176 0.203922 0.003922
0.588235 0.188235 0.003922
0.623529 0.152941 0.003922
0.654902 0.149020 0.003922
0.662745 0.113725 0.000000
0.670588 0.082353 0.000000
0.674510 0.074510 0.000000
0.674510 0.066667 0.000000
0.670588 0.050980 0.000000
0.670588 0.043137 0.000000
0.121569 0.117647 0.082353
0.156863 0.113725 0.082353
0.247059 0.086275 0.043137
0.321569 0.074510 0.007843
0.403922 0.105882 0.000000
0.454902 0.145098 0.000000
0.501961 0.188235 0.000000
0.545098 0.211765 0.000000
0.592157 0.192157 0.000000
0.631373 0.168627 0.003922
0.654902 0.168627 0.000000
0.666667 0.145098 0.000000
0.670588 0.121569 0.000000
0.674510 0.125490 0.000000
0.670588 0.129412 0.000000
0.670588 0.133333 0.000000
0.670588 0.137255 0.000000
0.168627 0.184314 0.035294
0.192157 0.184314 0.031373
0.243137 0.164706 0.043137
0.317647 0.149020 0.007843
0.403922 0.160784 0.003922
0.454902 0.180392 0.000000
0.501961 0.203922 0.003922
0.549020 0.227451 0.000000
0.592157 0.211765 0.000000
0.631373 0.180392 0.000000
0.654902 0.180392 0.000000
0.670588 0.156863 0.000000
0.670588 0.133333 0.000000
0.670588 0.137255 0.000000
0.670588 0.152941 0.000000
0.674510 0.164706 0.000000
0.670588 0.180392 0.000000
0.149020 0.258824 0.007843
0.180392 0.262745 0.003922
0.247059 0.262745 0.003922
0.305882 0.243137 0.003922
0.400000 0.239216 0.003922
0.458824 0.247059 0.003922
0.501961 0.250980 0.000000
0.545098 0.262745 0.000000
0.600000 0.266667 0.000000
0.631373 0.247059 0.000000
0.658824 0.235294 0.000000
0.666667 0.207843 0.000000
0.674510 0.184314 0.000000
0.674510 0.176471 0.000000
0.674510 0.180392 0.000000
0.670588 0.180392 0.000000
0.674510 0.188235 0.000000
0.078431 0.321569 0.000000
0.137255 0.321569 0.003922
0.223529 0.321569 0.000000
0.325490 0.329412 0.000000
0.388235 0.301961 0.000000
0.450980 0.298039 0.000000
0.501961 0.305882 0.000000
0.552941 0.321569 0.003922
0.596078 0.325490 0.000000
0.639216 0.333333 0.000000
0.658824 0.309819 0.000000
0.670588 0.278447 0.000000
0.674510 0.262745 0.000000
0.674510 0.250980 0.000000
0.674510 0.239216 0.000000
0.670588 0.231373 0.000000
0.674510 0.231373 0.000000
0.019608 0.368627 0.000000
0.066667 0.372549 0.000000
0.200000 0.380392 0.003922
0.309804 0.384314 0.003922
0.423529 0.400000 0.000000
0.450980 0.364706 0.000000
0.501961 0.364706 0.000000
0.552941 0.372549 0.000000
0.603922 0.384314 0.000000
0.643137 0.396078 0.000000
0.662745 0.392157 0.000000
0.670588 0.360800 0.000000
0.674510 0.341176 0.000000
0.670588 0.325490 0.000000
0.674510 0.313726 0.000000
0.674510 0.298039 0.000000
0.670588 0.290196 0.000000
0.011765 0.427451 0.011765
0.058839 0.427451 0.007843
0.180407 0.423529 0.003922
0.309804 0.435294 0.003922
0.415686 0.443137 0.000000
0.490196 0.458824 0.000000
0.505882 0.423529 0.000000
0.552941 0.419608 0.000000
0.607843 0.431373 0.000000
0.647059 0.439216 0.000000
0.666667 0.439216 0.000000
0.674510 0.423529 0.000000
0.674510 0.415686 0.000000
0.670588 0.403922 0.000000
0.674510 0.392157 0.000000
0.674510 0.380392 0.000000
0.670588 0.368627 0.000000
0.082368 0.490196 0.066667
0.137270 0.486275 0.050980
0.231388 0.490196 0.023529
0.333349 0.490196 0.003922
0.415686 0.490196 0.000000
0.482353 0.494118 0.000000
0.541176 0.494118 0.000000
0.568627 0.470588 0.000000
0.611765 0.470588 0.000000
0.647059 0.474510 0.000000
0.670588 0.478431 0.000000
0.674510 0.478431 0.000000
0.674510 0.470588 0.000000
0.670588 0.458839 0.000000
0.670588 0.454902 0.000000
0.674510 0.450980 0.000000
0.674510 0.439216 0.000000
0.164721 0.545098 0.117647
0.211765 0.552941 0.098039
0.274510 0.549020 0.039216
0.376471 0.560784 0.007843
0.439216 0.552956 0.000000
0.494118 0.549035 0.000000
0.517662 0.517662 0.000000
0.600000 0.552956 0.000000
0.631373 0.517662 0.000000
0.654902 0.525490 0.000000
0.670588 0.525490 0.000000
0.670588 0.525490 0.000000
0.670588 0.521584 0.000000
0.670588 0.513741 0.000000
0.674510 0.513726 0.000000
0.674510 0.505882 0.000000
0.674510 0.498039 0.000000
0.223529 0.592157 0.172549
0.250980 0.596078 0.152941
0.305882 0.600000 0.098024
0.400000 0.607843 0.019608
0.470588 0.615686 0.000000
0.517647 0.615686 0.000000
0.572549 0.615671 0.000000
0.588251 0.588235 0.000000
0.662745 0.639200 0.000000
0.666667 0.584314 0.000000
0.670588 0.580392 0.000000
0.674510 0.584314 0.000000
0.674510 0.580392 0.000000
0.674510 0.580392 0.000000
0.674510 0.572549 0.000000
0.674510 0.560784 0.000000
0.674510 0.556863 0.000000
0.250980 0.627451 0.211765
0.274510 0.627451 0.207843
0.333333 0.635294 0.180377
0.419608 0.639216 0.078416
0.486275 0.647059 0.003922
0.541176 0.654902 0.000000
0.592157 0.654902 0.000000
0.639216 0.658824 0.000000
0.658824 0.654902 0.000000
0.674510 0.662745 0.000000
0.670588 0.639216 0.000000
0.674510 0.631373 0.000000
0.670588 0.627451 0.000000
0.674510 0.627451 0.000000
0.674510 0.619608 0.000000
0.674510 0.619608 0.000000
0.674510 0.611765 0.000000
0.262745 0.650980 0.211765
0.286275 0.650980 0.211765
0.345098 0.650980 0.192157
0.435294 0.658824 0.129397
0.501961 0.666667 0.027451
0.552941 0.666667 0.003922
0.600000 0.666667 0.000000
0.643137 0.670588 0.000000
0.666667 0.670588 0.000000
0.674510 0.670588 0.000000
0.670588 0.670588 0.000000
0.674510 0.666667 0.000000
0.674510 0.658824 0.000000
0.674510 0.658824 0.000000
0.670588 0.654902 0.000000
0.674510 0.650980 0.000000
0.674510 0.650980 0.000000
0.262745 0.666667 0.192157
0.286275 0.662745 0.188235
0.352941 0.662745 0.172549
0.447059 0.670588 0.133333
0.509804 0.670588 0.058824
0.568627 0.674510 0.015686
0.615686 0.670588 0.000000
0.650980 0.674510 0.000000
0.670588 0.674510 0.000000
0.670588 0.670588 0.000000
0.674510 0.674510 0.000000
0.674510 0.674510 0.000000
0.670588 0.670588 0.000000
0.674510 0.670588 0.000000
0.670588 0.670588 0.000000
0.674510 0.670588 0.000000
0.674510 0.666667 0.000000
0.262745 0.674510 0.172549
0.286275 0.670588 0.164706
0.360784 0.670588 0.149020
0.454902 0.674510 0.121569
0.521569 0.674510 0.070588
0.576471 0.670588 0.023529
0.623529 0.674510 0.003922
0.658824 0.674510 0.000000
0.670588 0.674510 0.000000
0.670588 0.670588 0.000000
0.670588 0.670588 0.000000
0.674510 0.674510 0.000000
0.674510 0.674510 0.000000
0.670588 0.670588 0.000000
0.674510 0.674510 0.000000
0.674510 0.674510 0.000000
0.670588 0.670588 0.000000
0.258824 0.670588 0.141176
0.286275 0.670588 0.133333
0.364706 0.674510 0.125490
0.454902 0.670588 0.098039
0.525490 0.674510 0.058824
0.580392 0.674510 0.023529
0.631373 0.674510 0.003922
0.662745 0.674510 0.000000
0.674510 0.674510 0.000000
0.674510 0.674510 0.000000
0.670588 0.670588 0.000000
0.674510 0.674510 0.000000
0.674510 0.674510 0.000000
0.674510 0.674510 0.000000
0.674510 0.674510 0.000000
0.670588 0.670588 0.000000
0.674510 0.674510 0.000000
0.262745 0.674510 0.113725
0.286275 0.670588 0.109804
0.368627 0.674510 0.105882
0.462745 0.674510 0.082353
0.529412 0.674510 0.043137
0.588235 0.670588 0.007843
0.635294 0.674510 0.000000
0.662745 0.674510 0.000000
0.670588 0.674510 0.000000
0.674510 0.674510 0.000000
0.674510 0.674510 0.000000
0.674510 0.674510 0.000000
0.674510 0.674510 0.000000
0.674510 0.674510 0.000000
0.674510 0.674510 0.000000
0.674510 0.674510 0.000000
0.674510 0.674510 0.000000
0.270588 0.674510 0.078431
0.294118 0.674510 0.078431
0.372549 0.674510 0.082353
0.462745 0.670588 0.062745
0.533333 0.674510 0.027451
0.592157 0.674510 0.007843
0.639216 0.670588 0.000000
0.662745 0.674510 0.000000
0.670588 0.670588 0.000000
0.670588 0.670588 0.000000
0.670588 0.670588 0.000000
0.674510 0.674510 0.000000
0.674510 0.674510 0.000000
0.674510 0.674510 0.000000
0.674510 0.674510 0.000000
0.674510 0.674510 0.000000
0.674510 0.674510 0.000000
0.105882 0.090196 0.121569
0.137255 0.086275 0.117647
0.239216 0.054902 0.109804
0.309804 0.043137 0.094118
0.392157 0.062745 0.058824
0.447059 0.090196 0.058824
0.490196 0.133333 0.082353
0.533333 0.172549 0.105882
0.580392 0.168627 0.117647
0.611765 0.125490 0.078447
0.639216 0.098039 0.047059
0.654902 0.062745 0.039216
0.666667 0.019608 0.035294
0.674510 0.011765 0.031373
0.670588 0.003922 0.019608
0.674510 0.011765 0.027451
0.674510 0.003922 0.050980
0.117647 0.113725 0.113725
0.137255 0.125490 0.117647
0.235294 0.101961 0.090196
0.313726 0.090196 0.054902
0.400000 0.113725 0.027451
0.447059 0.141176 0.023529
0.494118 0.180392 0.047059
0.537255 0.203922 0.066667
0.584314 0.200000 0.078431
0.615686 0.172549 0.054902
0.643137 0.164706 0.031373
0.658824 0.117647 0.023529
0.666667 0.062745 0.023529
0.670588 0.035294 0.011765
0.674510 0.023529 0.015686
0.674510 0.015686 0.015686
0.674510 0.011765 0.023529
0.160784 0.180392 0.074510
0.180392 0.184314 0.066667
0.231373 0.176471 0.070588
0.313726 0.160784 0.023529
0.396078 0.168627 0.003922
0.458824 0.188235 0.003922
0.498039 0.207843 0.000000
0.545098 0.227451 0.000000
0.592157 0.215686 0.003922
0.627451 0.192157 0.003922
0.654902 0.192157 0.003922
0.666667 0.172549 0.000000
0.670588 0.133333 0.000000
0.670588 0.121569 0.000000
0.674510 0.121569 0.000000
0.674510 0.109804 0.000000
0.670588 0.098039 0.000000
0.133333 0.258824 0.011765
0.172549 0.258824 0.007843
0.239216 0.262745 0.011765
0.301961 0.243137 0.015686
0.392157 0.247059 0.003922
0.454902 0.250980 0.003922
0.501961 0.262745 0.003922
0.549020 0.270588 0.000000
0.596078 0.270588 0.000000
0.631373 0.254902 0.000000
0.654902 0.239216 0.000000
0.670588 0.211765 0.000000
0.674510 0.184314 0.000000
0.670588 0.172549 0.000000
0.674510 0.172549 0.000000
0.670588 0.172549 0.000000
0.674510 0.180392 0.000000
0.074510 0.321569 0.007843
0.121569 0.317647 0.003922
0.215686 0.321569 0.003922
0.305882 0.325490 0.003922
0.388235 0.309804 0.003922
0.447059 0.305882 0.003922
0.498039 0.313726 0.000000
0.552941 0.325490 0.003922
0.596078 0.333333 0.000000
0.639216 0.337255 0.000000
0.662745 0.321569 0.000000
0.670588 0.290196 0.000000
0.674510 0.266667 0.000000
0.670588 0.254902 0.000000
0.670588 0.243137 0.000000
0.674510 0.235294 0.000000
0.674510 0.231373 0.000000
0.011765 0.372549 0.003922
0.058824 0.372549 0.007843
0.180392 0.372549 0.003922
0.298039 0.384314 0.007843
0.407843 0.396078 0.000000
0.450980 0.372549 0.000000
0.501961 0.376471 0.000000
0.552941 0.380392 0.000000
0.600000 0.388235 0.000000
0.643137 0.400000 0.000000
0.662745 0.392157 0.000000
0.670588 0.372549 0.000000
0.674510 0.345113 0.000000
0.670588 0.329412 0.000000
0.674510 0.321569 0.000000
0.674510 0.305882 0.000000
0.674510 0.298039 0.000000
0.007843 0.423529 0.015686
0.047059 0.427451 0.023529
0.176471 0.423529 0.011765
0.298039 0.431373 0.007843
0.407843 0.443137 0.000000
0.478431 0.454902 0.000000
0.509804 0.431373 0.000000
0.552941 0.431373 0.000000
0.603922 0.431373 0.000000
0.643137 0.443137 0.000000
0.666667 0.443137 0.000000
0.674510 0.431373 0.000000
0.674510 0.415702 0.000000
0.670588 0.403937 0.000000
0.674510 0.400000 0.000000
0.670588 0.384314 0.000000
0.670588 0.376471 0.000000
0.070603 0.486275 0.078447
0.121584 0.490196 0.082353
0.219623 0.486275 0.043137
0.329412 0.490196 0.007843
0.415686 0.490196 0.000000
0.478431 0.494118 0.000000
0.537255 0.494118 0.000000
0.568627 0.474510 0.000000
0.615686 0.478431 0.000000
0.650980 0.486275 0.000000
0.670588 0.486275 0.000000
0.674510 0.482353 0.000000
0.674510 0.474510 0.000000
0.674510 0.466667 0.000000
0.674510 0.462745 0.000000
0.670588 0.450980 0.000000
0.674510 0.450980 0.000000
0.164706 0.549020 0.141176
0.196078 0.545098 0.125490
0.266667 0.549020 0.058824
0.364706 0.556863 0.007843
0.443137 0.556863 0.000000
0.486290 0.549035 0.000000
0.521584 0.529427 0.000000
0.588235 0.545113 0.000000
0.631373 0.525505 0.000000
0.658824 0.529412 0.000000
0.670588 0.533333 0.000000
0.670588 0.529427 0.000000
0.674510 0.533333 0.000000
0.674510 0.525505 0.000000
0.670588 0.517662 0.000000
0.674510 0.509804 0.000000
0.670588 0.501976 0.000000
0.219608 0.596078 0.184314
0.243137 0.596078 0.180392
0.298039 0.596078 0.113725
0.396078 0.607843 0.031373
0.466667 0.615686 0.000000
0.509804 0.611765 0.000000
0.564706 0.615671 0.000000
0.592157 0.596078 0.000000
0.654902 0.635279 0.000000
0.662745 0.588235 0.000000
0.674510 0.592157 0.000000
0.674510 0.588235 0.000000
0.674510 0.588235 0.000000
0.670588 0.584314 0.000000
0.674510 0.576471 0.000000
0.670588 0.572549 0.000000
0.674510 0.564706 0.000000
0.247059 0.627451 0.219608
0.270588 0.631373 0.227451
0.329412 0.635294 0.203906
0.415686 0.643137 0.105867
0.478431 0.647059 0.003922
0.533333 0.654902 0.000000
0.588235 0.658824 0.000000
0.631373 0.654902 0.000000
0.658824 0.654902 0.000000
0.670588 0.662745 0.000000
0.670588 0.639216 0.000000
0.674510 0.635294 0.000000
0.670588 0.631373 0.000000
0.670588 0.627451 0.000000
0.674510 0.627451 0.000000
0.674510 0.623529 0.000000
0.674510 0.619608 0.000000
0.258824 0.647059 0.223529
0.282353 0.650980 0.235294
0.341176 0.650980 0.215686
0.435294 0.662745 0.164691
0.490196 0.662745 0.050980
0.545098 0.666667 0.007843
0.600000 0.670588 0.003922
0.643137 0.670588 0.000000
0.666667 0.670588 0.000000
0.670588 0.670588 0.000000
0.674510 0.674510 0.000000
0.670588 0.666667 0.000000
0.674510 0.662745 0.000000
0.674510 0.662745 0.000000
0.674510 0.658824 0.000000
0.670588 0.654902 0.000000
0.674510 0.650980 0.000000
0.258824 0.662745 0.200000
0.282353 0.662745 0.211765
0.349020 0.662745 0.200000
0.443137 0.670588 0.172549
0.505882 0.670588 0.098039
0.564706 0.670588 0.039216
0.611765 0.674510 0.007843
0.647059 0.674510 0.000000
0.666667 0.670588 0.000000
0.670588 0.670588 0.000000
0.670588 0.670588 0.000000
0.674510 0.674510 0.000000
0.674510 0.674510 0.000000
0.674510 0.674510 0.000000
0.670588 0.670588 0.000000
0.670588 0.670588 0.000000
0.674510 0.670588 0.000000
0.254902 0.670588 0.176471
0.282353 0.670588 0.192157
0.356863 0.670588 0.184314
0.450980 0.674510 0.160784
0.513726 0.670588 0.105882
0.568627 0.670588 0.050980
0.619608 0.670588 0.007843
0.654902 0.670588 0.000000
0.670588 0.674510 0.000000
0.674510 0.674510 0.000000
0.674510 0.674510 0.000000
0.670588 0.670588 0.000000
0.674510 0.674510 0.000000
0.674510 0.674510 0.000000
0.674510 0.674510 0.000000
0.674510 0.674510 0.000000
0.674510 0.674510 0.000000
0.258824 0.674510 0.156863
0.286275 0.674510 0.176471
0.356863 0.670588 0.164706
0.447059 0.674510 0.145098
0.521569 0.674510 0.094118
0.580392 0.674510 0.043137
0.627451 0.670588 0.003922
0.658824 0.674510 0.000000
0.674510 0.674510 0.000000
0.674510 0.674510 0.000000
0.670588 0.670588 0.000000
0.670588 0.670588 0.000000
0.670588 0.670588 0.000000
0.674510 0.674510 0.000000
0.670588 0.670588 0.000000
0.670588 0.670588 0.000000
0.670588 0.670588 0.000000
0.258824 0.670588 0.121569
0.286275 0.674510 0.156863
0.364706 0.674510 0.145098
0.454902 0.674510 0.121569
0.525490 0.670588 0.074510
0.584314 0.674510 0.027451
0.627451 0.670588 0.003922
0.658824 0.674510 0.000000
0.670588 0.674510 0.000000
0.670588 0.674510 0.000000
0.674510 0.674510 0.000000
0.674510 0.674510 0.000000
0.674510 0.674510 0.000000
0.670588 0.670588 0.000000
0.674510 0.674510 0.000000
0.674510 0.674510 0.000000
0.674510 0.674510 0.000000
0.266667 0.674510 0.082353
0.294118 0.674510 0.121569
0.364706 0.670588 0.117647
0.462745 0.674510 0.101961
0.529412 0.674510 0.058824
0.584314 0.670588 0.011765
0.635294 0.670588 0.000000
0.662745 0.670588 0.000000
0.670588 0.670588 0.000000
0.674510 0.674510 0.000000
0.674510 0.674510 0.000000
0.674510 0.674510 0.000000
0.674510 0.674510 0.000000
0.670588 0.670588 0.000000
0.674510 0.674510 0.000000
0.674510 0.674510 0.000000
0.674510 0.674510 0.000000
0.105882 0.035294 0.196078
0.129412 0.039216 0.200000
0.196078 0.039216 0.192157
0.282353 0.011765 0.223529
0.368627 0.015686 0.219608
0.435294 0.023529 0.215686
0.478431 0.043137 0.223529
0.525490 0.078431 0.239216
0.564706 0.117647 0.250980
0.603922 0.109804 0.250980
0.627451 0.047074 0.223529
0.643137 0.011765 0.219608
0.654902 0.003922 0.219608
0.662745 0.000000 0.196078
0.670588 0.000000 0.180392
0.670588 0.000000 0.188235
0.670588 0.000000 0.200000
0.109804 0.066667 0.196078
0.137255 0.082353 0.192157
0.203922 0.082353 0.188235
0.290196 0.043137 0.203922
0.380392 0.054902 0.196078
0.435294 0.074510 0.192157
0.482353 0.101961 0.200000
0.521569 0.137255 0.207843
0.572549 0.164706 0.231373
0.607843 0.145098 0.223529
0.631373 0.086275 0.192172
0.647059 0.039216 0.203922
0.658824 0.011765 0.203922
0.666667 0.003922 0.184314
0.670588 0.000000 0.160784
0.670588 0.000000 0.152941
0.674510 0.000000 0.172549
0.121569 0.164706 0.180392
0.149020 0.172549 0.180392
0.203922 0.192157 0.176471
0.290196 0.180392 0.176471
0.380392 0.184314 0.156863
0.439216 0.200000 0.156863
0.482353 0.215686 0.164706
0.529412 0.235294 0.176471
0.576471 0.243137 0.188235
0.611765 0.231373 0.188235
0.639216 0.215686 0.184314
0.658824 0.176471 0.200000
0.666667 0.090196 0.196078
0.670588 0.031373 0.164706
0.670588 0.015686 0.137255
0.674510 0.015686 0.133333
0.674510 0.011765 0.149020
0.074510 0.250980 0.176471
0.117647 0.247059 0.164706
0.207843 0.254902 0.141176
0.282353 0.247059 0.133333
0.380392 0.250980 0.094118
0.447059 0.254902 0.062745
0.490196 0.254902 0.054902
0.541176 0.266667 0.043137
0.588235 0.266667 0.035294
0.623529 0.250980 0.031373
0.650980 0.250980 0.035294
0.662745 0.235294 0.023529
0.670588 0.196078 0.015686
0.674510 0.164706 0.011765
0.674510 0.141176 0.007843
0.674510 0.113725 0.011765
0.674510 0.078431 0.015686
0.035294 0.309804 0.149020
0.078431 0.313726 0.113725
0.188235 0.313726 0.105882
0.282353 0.321569 0.086275
0.376471 0.313726 0.078431
0.443137 0.313726 0.054902
0.494118 0.317647 0.039216
0.545098 0.325490 0.027451
0.592157 0.329412 0.015686
0.635294 0.333333 0.011765
0.654902 0.313741 0.007843
0.670588 0.286290 0.003922
0.670588 0.258824 0.000000
0.674510 0.235294 0.000000
0.674510 0.227451 0.000000
0.674510 0.215686 0.000000
0.674510 0.211765 0.000000
0.007843 0.368627 0.129412
0.031373 0.368627 0.090196
0.152941 0.376471 0.105882
0.274510 0.380392 0.086275
0.392157 0.396078 0.058824
0.443137 0.376471 0.035294
0.490196 0.376471 0.019608
0.549020 0.384314 0.007843
0.596078 0.392157 0.003922
0.639216 0.396078 0.000000
0.662745 0.396078 0.000000
0.670588 0.372549 0.000000
0.674510 0.341192 0.000000
0.674510 0.329412 0.000000
0.670588 0.313726 0.000000
0.674510 0.298039 0.000000
0.674510 0.286275 0.000000
0.003922 0.415686 0.125490
0.015686 0.415686 0.105882
0.145098 0.427451 0.121569
0.286275 0.435294 0.101961
0.392157 0.443137 0.062745
0.466667 0.450980 0.019608
0.501961 0.435294 0.007843
0.549020 0.431373 0.003922
0.600000 0.435294 0.000000
0.639216 0.439216 0.000000
0.662745 0.439216 0.000000
0.674510 0.431373 0.000000
0.670588 0.419608 0.000000
0.674510 0.407843 0.000000
0.674510 0.396078 0.000000
0.670588 0.384314 0.000000
0.674510 0.372549 0.000000
0.035309 0.474510 0.168627
0.074525 0.478431 0.160784
0.188251 0.478431 0.156863
0.301961 0.482353 0.098039
0.407843 0.494118 0.043137
0.470588 0.501961 0.007843
0.529412 0.501961 0.000000
0.560784 0.478431 0.000000
0.607843 0.478431 0.000000
0.643137 0.478431 0.000000
0.662745 0.482353 0.000000
0.670588 0.478431 0.000000
0.674510 0.474510 0.000000
0.674510 0.466667 0.000000
0.670588 0.462745 0.000000
0.674510 0.450980 0.000000
0.674510 0.447059 0.000000
0.121569 0.541176 0.207843
0.160784 0.545098 0.203922
0.239216 0.541176 0.172549
0.341176 0.549020 0.062745
0.427451 0.549020 0.007843
0.478431 0.552941 0.000000
0.529412 0.552941 0.000000
0.584314 0.545113 0.000000
0.627451 0.529412 0.000000
0.654902 0.529412 0.000000
0.670588 0.533333 0.000000
0.674510 0.529412 0.000000
0.670588 0.525505 0.000000
0.670588 0.521584 0.000000
0.670588 0.521569 0.000000
0.670588 0.509819 0.000000
0.674510 0.501961 0.000000
0.192142 0.592157 0.235294
0.215686 0.596078 0.231373
0.278431 0.596078 0.207843
0.372549 0.600000 0.070588
0.450980 0.607843 0.000000
0.494118 0.607843 0.000000
0.552941 0.615671 0.000000
0.584329 0.596078 0.000000
0.647059 0.623514 0.000000
0.662745 0.592157 0.000000
0.670588 0.588235 0.000000
0.670588 0.588235 0.000000
0.670588 0.588235 0.000000
0.674510 0.584314 0.000000
0.674510 0.580392 0.000000
0.674510 0.572549 0.000000
0.674510 0.568612 0.000000
0.235294 0.627451 0.262745
0.250980 0.631373 0.262745
0.305882 0.631373 0.254902
0.396078 0.639216 0.184298
0.462745 0.643137 0.031373
0.517647 0.647059 0.000000
0.568627 0.654902 0.000000
0.619608 0.658824 0.000000
0.654902 0.654902 0.000000
0.670588 0.662745 0.000000
0.674510 0.639216 0.000000
0.674510 0.635294 0.000000
0.674510 0.631373 0.000000
0.674510 0.631373 0.000000
0.670588 0.627451 0.000000
0.674510 0.623529 0.000000
0.674510 0.619608 0.000000
0.250980 0.650980 0.266667
0.262745 0.650980 0.266667
0.329412 0.654902 0.274510
0.419608 0.658824 0.247044
0.482353 0.662745 0.133318
0.537255 0.666667 0.047059
0.584314 0.670588 0.011765
0.631373 0.670588 0.000000
0.658824 0.666667 0.000000
0.670588 0.670588 0.000000
0.674510 0.674510 0.000000
0.674510 0.666667 0.000000
0.674510 0.662745 0.000000
0.674510 0.662745 0.000000
0.674510 0.658824 0.000000
0.674510 0.658824 0.000000
0.670588 0.654902 0.000000
0.250980 0.662745 0.250980
0.262745 0.662745 0.254902
0.337255 0.662745 0.266667
0.431373 0.666667 0.250980
0.494118 0.670588 0.203922
0.552941 0.670588 0.137240
0.600000 0.674510 0.066651
0.643137 0.674510 0.007843
0.666667 0.674510 0.000000
0.674510 0.674510 0.000000
0.674510 0.674510 0.000000
0.670588 0.670588 0.000000
0.674510 0.674510 0.000000
0.674510 0.670588 0.000000
0.674510 0.670588 0.000000
0.674510 0.670588 0.000000
0.674510 0.670588 0.000000
0.250980 0.670588 0.239216
0.266667 0.674510 0.243137
0.341176 0.670588 0.258824
0.439216 0.670588 0.247059
0.505882 0.674510 0.215686
0.564706 0.674510 0.164706
0.611765 0.674510 0.086275
0.650980 0.674510 0.011765
0.666667 0.670588 0.000000
0.674510 0.674510 0.000000
0.674510 0.674510 0.000000
0.674510 0.674510 0.000000
0.674510 0.674510 0.000000
0.674510 0.674510 0.000000
0.674510 0.674510 0.000000
0.674510 0.674510 0.000000
0.674510 0.674510 0.000000
0.250980 0.674510 0.223529
0.266667 0.674510 0.227451
0.349020 0.674510 0.250980
0.447059 0.674510 0.235294
0.513726 0.674510 0.207843
0.568627 0.674510 0.160784
0.619608 0.670588 0.070588
0.654902 0.670588 0.007843
0.670588 0.674510 0.000000
0.674510 0.674510 0.000000
0.670588 0.670588 0.000000
0.674510 0.674510 0.000000
0.670588 0.670588 0.000000
0.674510 0.674510 0.000000
0.674510 0.674510 0.000000
0.674510 0.674510 0.000000
0.670588 0.670588 0.000000
0.250980 0.674510 0.196078
0.266667 0.674510 0.207843
0.356863 0.674510 0.243137
0.450980 0.674510 0.227451
0.517647 0.674510 0.192157
0.580392 0.674510 0.141176
0.623529 0.674510 0.054902
0.658824 0.674510 0.007843
0.670588 0.670588 0.000000
0.670588 0.670588 0.000000
0.674510 0.674510 0.000000
0.670588 0.670588 0.000000
0.670588 0.670588 0.000000
0.674510 0.674510 0.000000
0.674510 0.674510 0.000000
0.674510 0.674510 0.000000
0.674510 0.674510 0.000000
0.254902 0.674510 0.160784
0.270588 0.674510 0.172549
0.360784 0.674510 0.223529
0.454902 0.670588 0.211765
0.521569 0.670588 0.180392
0.584314 0.674510 0.117647
0.627451 0.670588 0.031373
0.658824 0.674510 0.000000
0.670588 0.670588 0.000000
0.674510 0.674510 0.000000
0.670588 0.670588 0.000000
0.674510 0.674510 0.000000
0.674510 0.674510 0.000000
0.670588 0.670588 0.000000
0.670588 0.670588 0.000000
0.674510 0.674510 0.000000
0.674510 0.674510 0.000000
0.035294 0.011765 0.278431
0.035294 0.007843 0.282353
0.094118 0.007843 0.278431
0.219608 0.003922 0.282353
0.341176 0.000000 0.301961
0.407843 0.003922 0.298039
0.458824 0.011765 0.298039
0.501961 0.015686 0.317647
0.549020 0.054917 0.345098
0.607843 0.160769 0.376471
0.627451 0.121569 0.356863
0.627451 0.015686 0.317647
0.635294 0.000000 0.298039
