tools/luts_backup/Kodak Elite Chrome 200_VS.cube
# (C) 2014 VisionColor & Patchflyer [www.vision-color.com]
# Generator: VC Patchmatch v.2.1.1 [64/53]
# All work and no play makes Jack a dull boy.
# LUT generated from: Kodak Elite Chrome 200_VisionSpace
LUT_3D_SIZE 9
0.029999 0.029999 0.029999
0.091768 0.031922 0.033661
0.131624 0.037995 0.042695
0.165011 0.044648 0.047913
0.203494 0.053223 0.053223
0.247532 0.063416 0.064210
0.305303 0.079927 0.079927
0.348943 0.088472 0.088472
0.376867 0.091188 0.091188
0.050782 0.098573 0.041260
0.114656 0.114809 0.056214
0.169528 0.120912 0.068818
0.217990 0.121065 0.078981
0.260227 0.126650 0.088075
0.298802 0.131685 0.094911
0.340520 0.137606 0.102815
0.375006 0.143374 0.108003
0.415259 0.161776 0.120974
0.075685 0.164004 0.064759
0.128969 0.181796 0.078370
0.190951 0.199405 0.094697
0.265782 0.218112 0.118044
0.318456 0.216739 0.129519
0.364569 0.216251 0.137697
0.399847 0.220462 0.146029
0.425971 0.217838 0.144259
0.456336 0.225589 0.152499
0.094850 0.220645 0.086213
0.139773 0.243992 0.100160
0.182864 0.261082 0.111757
0.283818 0.300908 0.147036
0.386740 0.327398 0.182559
0.456916 0.341466 0.205173
0.499184 0.340734 0.216709
0.529839 0.341436 0.224094
0.532708 0.315373 0.211582
0.117891 0.289586 0.111360
0.163638 0.325444 0.130098
0.206455 0.351415 0.145205
0.277134 0.373724 0.167025
0.427726 0.443626 0.231846
0.533501 0.469520 0.273472
0.592981 0.487282 0.299138
0.624140 0.490166 0.310674
0.634760 0.478126 0.309575
0.151522 0.381231 0.147829
0.197879 0.417884 0.168490
0.242832 0.438880 0.183413
0.306950 0.459724 0.203800
0.445426 0.517235 0.260197
0.579309 0.567010 0.324468
0.644160 0.589960 0.344915
0.689204 0.607721 0.362188
0.686152 0.581231 0.352361
0.190280 0.477150 0.187289
0.229618 0.498573 0.202579
0.268742 0.515709 0.216129
0.332433 0.535393 0.237583
0.471519 0.580621 0.293370
0.609461 0.630915 0.349218
0.669886 0.646601 0.367559
0.713497 0.666346 0.387976
0.739223 0.674037 0.406378
0.220340 0.544549 0.217197
0.253697 0.561090 0.229496
0.301427 0.574456 0.244694
0.371588 0.595941 0.271824
0.501289 0.631128 0.322515
0.640436 0.678218 0.368505
0.694667 0.698146 0.391058
0.725673 0.706172 0.406134
0.753475 0.716915 0.429999
0.245151 0.594446 0.239658
0.273686 0.597284 0.246006
0.340307 0.617945 0.271092
0.429786 0.640864 0.304234
0.543969 0.667750 0.345800
0.656489 0.715236 0.384588
0.715694 0.737514 0.412940
0.739559 0.744808 0.433356
0.760281 0.751186 0.450965
0.035035 0.031922 0.094240
0.088350 0.036286 0.083925
0.137758 0.045930 0.087434
0.179110 0.055055 0.092378
0.217655 0.061677 0.096895
0.261692 0.071565 0.105623
0.315190 0.086976 0.121584
0.361028 0.096956 0.129397
0.388464 0.100679 0.132692
0.050385 0.099275 0.095735
0.124819 0.115419 0.115267
0.185061 0.065309 0.067079
0.204135 0.055421 0.055390
0.246525 0.063355 0.063386
0.302953 0.080140 0.080171
0.347112 0.090303 0.088685
0.378485 0.099367 0.098695
0.429084 0.146700 0.145144
0.074647 0.168917 0.118715
0.101106 0.214176 0.091524
0.255253 0.266758 0.137423
0.318547 0.216129 0.129854
0.340246 0.186770 0.122408
0.366949 0.178470 0.121920
0.391302 0.171359 0.120790
0.427192 0.184787 0.135256
0.449287 0.199161 0.165011
0.093477 0.229282 0.135592
0.117494 0.289158 0.112184
0.207431 0.346258 0.144442
0.422873 0.439063 0.230442
0.481437 0.379614 0.226108
0.494972 0.335592 0.213626
0.501610 0.308064 0.202670
0.497353 0.276524 0.187564
0.491646 0.267399 0.196109
0.118532 0.300877 0.156405
0.153536 0.383581 0.148989
0.226841 0.433356 0.178714
0.346029 0.475242 0.218509
0.578958 0.567315 0.324468
0.620996 0.544198 0.326665
0.638758 0.514229 0.321447
0.631281 0.473167 0.307225
0.620539 0.437400 0.293126
0.154025 0.389013 0.189487
0.187167 0.472694 0.185702
0.249180 0.508659 0.209628
0.335164 0.536492 0.239048
0.549233 0.607385 0.328191
0.670192 0.646967 0.367681
0.702632 0.645472 0.378302
0.705653 0.615442 0.370245
0.703304 0.581964 0.361913
0.190585 0.478035 0.223026
0.220554 0.545403 0.217319
0.271885 0.564080 0.234653
0.353429 0.589166 0.263828
0.537667 0.640620 0.338140
0.675380 0.691066 0.383154
0.723323 0.704585 0.404456
0.745663 0.701534 0.422492
0.742184 0.672938 0.426062
0.221592 0.545678 0.250340
0.246494 0.592309 0.241947
0.297704 0.603204 0.257237
0.393103 0.628290 0.292058
0.543740 0.669398 0.345769
0.676417 0.720699 0.393286
0.727077 0.737026 0.423194
0.754360 0.744076 0.442176
0.756924 0.722469 0.456336
0.244846 0.595819 0.266270
0.270207 0.618280 0.261326
0.331701 0.630579 0.279698
0.423255 0.649989 0.309117
0.547707 0.683284 0.345861
0.666804 0.725277 0.399542
0.715755 0.741787 0.432868
0.744808 0.749783 0.455787
0.764950 0.752163 0.470863
0.040742 0.038392 0.135164
0.087160 0.042481 0.134768
0.136873 0.049348 0.133303
0.187442 0.062318 0.138460
0.228672 0.070771 0.140383
0.277195 0.081971 0.149905
0.327642 0.095583 0.162081
0.371405 0.104738 0.168795
0.386877 0.104921 0.168856
0.059571 0.099733 0.152712
0.063905 0.062867 0.182986
0.189151 0.080415 0.183993
0.228214 0.070863 0.140505
0.273503 0.079835 0.136629
0.321630 0.091829 0.140688
0.364874 0.100069 0.144625
0.390204 0.108705 0.149935
0.422827 0.144991 0.181827
0.076905 0.156344 0.166506
0.112398 0.210636 0.225986
0.222232 0.215061 0.224338
0.337774 0.141604 0.137881
0.312505 0.104372 0.103456
0.345708 0.091249 0.091249
0.380255 0.104219 0.102998
0.424720 0.143374 0.143008
0.481086 0.180514 0.184146
0.112459 0.241215 0.203922
0.137850 0.316106 0.225895
0.135561 0.338903 0.138064
0.415427 0.417731 0.235019
0.475959 0.327733 0.215946
0.456168 0.252399 0.169543
0.450446 0.221195 0.154360
0.458381 0.217868 0.170260
0.522210 0.254551 0.212284
0.137240 0.318700 0.227054
0.162814 0.399084 0.232059
0.185489 0.447364 0.184604
0.321370 0.499718 0.231266
0.627222 0.608423 0.344579
0.662287 0.564370 0.341283
0.625559 0.463920 0.303014
0.596017 0.400229 0.275700
0.616999 0.393271 0.278630
0.171328 0.409064 0.262699
0.195865 0.481453 0.254246
0.219944 0.542077 0.217411
0.319127 0.577478 0.251835
0.591348 0.658412 0.353063
0.720272 0.700496 0.402716
0.730861 0.667933 0.400610
0.708949 0.601129 0.371466
0.705135 0.568826 0.371069
0.206455 0.492500 0.293919
0.226444 0.551080 0.274144
0.247196 0.588403 0.241276
0.342046 0.613825 0.274144
0.539742 0.668818 0.344030
0.702602 0.727932 0.406226
0.751553 0.740719 0.439857
0.754665 0.705348 0.448676
0.738155 0.665034 0.433661
0.238163 0.560632 0.320134
0.255131 0.599145 0.292332
0.270420 0.620172 0.261387
0.368292 0.637354 0.291569
0.521737 0.678431 0.336889
0.680842 0.729671 0.408118
0.733730 0.747158 0.446998
0.764096 0.751369 0.471290
0.763790 0.726284 0.480446
0.275700 0.616785 0.352819
0.274113 0.631617 0.316503
0.297704 0.650080 0.270817
0.418250 0.665980 0.306889
0.553567 0.693721 0.358068
0.679744 0.733944 0.430426
0.725948 0.749996 0.460243
0.752255 0.756222 0.482033
0.771420 0.758724 0.503258
0.043397 0.041596 0.162112
0.087098 0.045655 0.169955
0.134768 0.054047 0.176669
0.190677 0.067414 0.182315
0.238102 0.078401 0.184756
0.281895 0.087037 0.186374
0.331487 0.100801 0.199100
0.368078 0.106569 0.200259
0.381567 0.102968 0.196078
0.069032 0.109255 0.196323
0.048005 0.047669 0.190066
0.134768 0.059083 0.218662
0.246098 0.086610 0.231235
0.286961 0.091157 0.203372
0.329168 0.099397 0.196597
0.368261 0.106630 0.194217
0.385870 0.110445 0.191928
0.411109 0.143435 0.212833
0.087160 0.163760 0.214328
0.099153 0.176272 0.263859
0.142580 0.153109 0.332433
0.327642 0.172061 0.313390
0.340826 0.124788 0.210880
0.366552 0.107179 0.178927
0.391424 0.113649 0.175967
0.415381 0.142061 0.192874
0.450324 0.177798 0.220310
0.111696 0.222721 0.239414
0.155856 0.304326 0.326360
0.190494 0.332830 0.355352
0.344121 0.349371 0.347417
0.481453 0.233433 0.221164
0.428702 0.158816 0.158755
0.422522 0.144472 0.145022
0.485145 0.181827 0.185763
0.585595 0.243748 0.244358
0.162997 0.329625 0.299107
0.213626 0.429175 0.368322
0.234379 0.480018 0.359411
0.197055 0.463355 0.202396
0.577371 0.556542 0.336645
0.607584 0.437934 0.289754
0.543313 0.326314 0.234730
0.566873 0.314992 0.241520
0.657954 0.381949 0.305715
0.208469 0.430884 0.351385
0.244511 0.516899 0.385565
0.252659 0.567437 0.353094
0.231662 0.558984 0.236149
0.496635 0.625757 0.314260
0.707576 0.682429 0.410590
0.725246 0.642039 0.399634
0.704921 0.566812 0.371038
0.718044 0.566537 0.408881
0.246677 0.518059 0.390204
0.271855 0.582086 0.400854
0.275242 0.610071 0.354620
0.268620 0.617945 0.259831
0.456962 0.658137 0.317235
0.701045 0.734371 0.421607
0.761349 0.748440 0.470069
0.753445 0.695979 0.460029
0.751400 0.667597 0.476997
0.283268 0.591363 0.425116
0.299199 0.628656 0.421912
0.285649 0.636561 0.352087
0.295567 0.651118 0.270024
0.485008 0.676600 0.331060
0.677012 0.732296 0.426825
0.740566 0.754299 0.472236
0.770565 0.757626 0.504326
0.765164 0.722652 0.513848
0.317723 0.642817 0.466194
0.303929 0.649836 0.416419
0.276738 0.658473 0.318181
0.375647 0.681727 0.320378
0.553857 0.701534 0.392798
0.677699 0.740658 0.468299
0.736721 0.765225 0.497658
0.755398 0.758541 0.506554
0.771511 0.756649 0.534936
0.047791 0.046174 0.187716
0.086915 0.049134 0.204929
0.132662 0.057252 0.217472
0.184390 0.068818 0.225040
0.245853 0.085573 0.230686
0.295659 0.097932 0.234745
0.336004 0.107179 0.236606
0.368322 0.110353 0.235599
0.381231 0.107637 0.231418
0.078614 0.123262 0.242344
0.050355 0.045747 0.212863
0.121584 0.062287 0.259190
0.206821 0.082094 0.280217
0.300969 0.104158 0.281407
0.341985 0.112245 0.259770
0.366827 0.110903 0.242039
0.383307 0.114290 0.236179
0.407202 0.146090 0.250401
0.099153 0.177584 0.265232
0.110689 0.186801 0.320378
0.094759 0.103151 0.297978
0.219577 0.128939 0.354925
0.373144 0.163119 0.351232
0.372442 0.119295 0.266011
0.384375 0.117098 0.236789
0.409033 0.145968 0.241215
0.457038 0.191714 0.273411
0.117769 0.228336 0.282719
0.139223 0.263706 0.343816
0.169863 0.280949 0.392737
0.231693 0.265507 0.470161
0.490761 0.290806 0.464027
0.439719 0.189014 0.288136
0.411749 0.147005 0.226520
0.455573 0.184695 0.246036
0.561212 0.238193 0.299367
0.156710 0.306432 0.328344
0.210086 0.397421 0.421317
0.259159 0.460197 0.486656
0.284733 0.475731 0.501534
0.501778 0.507729 0.495048
0.605676 0.341650 0.324956
0.538735 0.212634 0.213306
0.586389 0.244327 0.247410
0.661189 0.357870 0.357870
0.220706 0.426764 0.400397
0.283818 0.529351 0.490272
0.323857 0.613245 0.551507
0.301671 0.601648 0.475670
0.312230 0.580194 0.291569
0.673777 0.647776 0.452140
0.699641 0.563210 0.382788
0.695888 0.500298 0.369833
0.716274 0.559640 0.472023
0.275364 0.529747 0.464088
0.319158 0.612726 0.526848
0.336034 0.659175 0.540536
0.307164 0.654871 0.434348
0.291752 0.643610 0.269108
0.665263 0.717968 0.431403
0.756313 0.736446 0.489479
0.755886 0.686091 0.489479
0.755581 0.675319 0.545068
0.316991 0.611780 0.514794
0.340002 0.663874 0.548852
0.329717 0.670466 0.497948
0.294133 0.664302 0.378866
0.370764 0.682582 0.317510
0.634562 0.727382 0.443000
0.743679 0.764675 0.500008
0.771695 0.757717 0.532891
0.764828 0.723751 0.567254
0.344274 0.669764 0.557275
0.342351 0.678553 0.525200
0.321019 0.674281 0.449119
0.336080 0.689784 0.393454
0.462882 0.703731 0.422934
0.637156 0.730892 0.518883
0.725093 0.759426 0.539178
0.759426 0.767910 0.531456
0.771206 0.754299 0.557488
0.049989 0.045624 0.212833
0.091737 0.056825 0.246311
0.139254 0.066285 0.266300
0.187747 0.077089 0.277317
0.242893 0.089601 0.284489
0.304173 0.106172 0.282841
0.352178 0.119661 0.287663
0.374823 0.119539 0.282261
0.380255 0.109499 0.263828
0.093080 0.145052 0.294926
0.053468 0.046113 0.242893
0.116640 0.065705 0.295262
0.189914 0.085298 0.330938
0.278752 0.110994 0.342870
0.355322 0.127352 0.337377
0.377508 0.123354 0.307988
0.388281 0.120394 0.284276
0.422370 0.161318 0.302800
0.117647 0.204715 0.330144
0.129244 0.207309 0.375616
0.063111 0.056947 0.283146
0.163256 0.091951 0.363073
0.294606 0.130587 0.397498
0.387518 0.140871 0.370611
0.397345 0.133272 0.317418
0.427527 0.165042 0.316228
0.493568 0.224002 0.355261
0.131991 0.247837 0.338567
0.158145 0.281621 0.406317
0.172427 0.283452 0.452674
0.181613 0.220539 0.458488
0.351492 0.245075 0.546288
0.495598 0.256031 0.473106
0.440711 0.179843 0.346990
0.492744 0.222965 0.354528
0.599878 0.285649 0.414710
0.154665 0.299565 0.358557
0.188968 0.358297 0.432288
0.221180 0.394400 0.492744
0.253269 0.402670 0.521248
0.358465 0.409415 0.592676
0.604150 0.434501 0.588129
0.568032 0.266926 0.405402
0.592737 0.270756 0.375631
0.667567 0.396033 0.475196
0.210971 0.397650 0.422004
0.282414 0.504570 0.529442
0.341924 0.601678 0.628199
0.345953 0.594507 0.623621
0.449516 0.603510 0.625452
0.628107 0.620905 0.623041
0.662501 0.477897 0.462119
0.662531 0.358801 0.360174
0.701778 0.569070 0.564736
0.290379 0.529198 0.515099
0.344579 0.626429 0.606348
0.400244 0.687861 0.659968
0.428290 0.701747 0.661631
0.425284 0.683833 0.604425
0.500191 0.659754 0.458824
0.731899 0.708278 0.556848
0.752499 0.672847 0.542840
0.751583 0.681483 0.628382
0.337560 0.625116 0.583947
0.389136 0.688869 0.636347
0.416663 0.705348 0.641718
0.424689 0.708278 0.617838
0.419852 0.703944 0.549157
0.478157 0.707729 0.436179
0.722377 0.757229 0.542687
0.771176 0.754696 0.561364
0.767391 0.734859 0.641535
0.382971 0.690730 0.626459
0.409552 0.704982 0.629267
0.422919 0.707851 0.617060
0.464332 0.715297 0.617014
0.515007 0.716793 0.580560
0.632502 0.730831 0.610208
0.705501 0.754879 0.622705
0.756832 0.771878 0.616236
0.775387 0.767330 0.627375
0.053010 0.045380 0.242527
0.092805 0.058137 0.278080
0.140810 0.072297 0.311650
0.190249 0.084840 0.332280
0.250095 0.102663 0.342626
0.307561 0.119509 0.345464
0.357946 0.130037 0.341161
0.378820 0.125368 0.325750
0.381537 0.114565 0.299351
0.112367 0.171359 0.351141
0.054444 0.046174 0.272648
0.113344 0.066987 0.322179
0.178561 0.088808 0.368902
0.260746 0.115694 0.391943
0.341558 0.134249 0.386481
0.382544 0.134371 0.366491
0.398871 0.133608 0.342351
0.436530 0.176669 0.358526
0.145663 0.242679 0.396918
0.140658 0.218540 0.419532
0.076661 0.075227 0.330571
0.157656 0.105104 0.395087
0.262745 0.142733 0.449531
0.371130 0.162417 0.433265
0.413489 0.150881 0.394324
0.450324 0.190951 0.391760
0.509575 0.248356 0.431922
0.159030 0.283757 0.406775
0.180575 0.307195 0.465339
0.185428 0.290684 0.488533
0.161532 0.190524 0.451820
0.269551 0.215549 0.545571
0.430426 0.243656 0.514748
0.471351 0.217533 0.450507
0.521813 0.259922 0.463630
0.619226 0.329290 0.522148
0.175448 0.328771 0.418860
0.205051 0.368963 0.481636
0.230198 0.391424 0.525658
0.249851 0.384710 0.548577
0.267964 0.343343 0.602686
0.516762 0.389670 0.652888
0.609613 0.345296 0.585611
0.622675 0.340948 0.547204
0.676905 0.460304 0.589044
0.212467 0.396918 0.456123
0.263279 0.467964 0.535576
0.303441 0.514763 0.587121
0.310002 0.518242 0.607660
0.360265 0.536522 0.650843
0.531350 0.555184 0.652369
0.679225 0.562341 0.666010
0.676997 0.460014 0.585992
0.714137 0.598718 0.644373
0.280827 0.502617 0.528466
0.346471 0.608759 0.635950
0.408881 0.675776 0.704250
0.453468 0.695430 0.719448
0.482521 0.678431 0.706447
0.614649 0.688350 0.703609
0.701564 0.690089 0.696071
0.711299 0.620905 0.619318
0.739925 0.684993 0.690486
0.348669 0.626551 0.621057
0.416876 0.695521 0.687739
0.454932 0.711391 0.699245
0.489082 0.714839 0.701747
0.550622 0.725643 0.704036
0.603387 0.732570 0.690669
0.660883 0.730831 0.646693
0.768307 0.758480 0.657832
0.766812 0.739651 0.712032
0.415503 0.705135 0.675196
0.444556 0.709285 0.679316
0.473732 0.713832 0.683284
0.537041 0.724117 0.689570
0.606378 0.734646 0.695827
0.665980 0.744839 0.700740
0.712764 0.757626 0.706416
0.755154 0.774289 0.709682
0.781216 0.777981 0.712642
0.053773 0.045258 0.271122
0.093507 0.058656 0.304936
0.142214 0.077913 0.346197
0.189944 0.092775 0.377203
0.247410 0.110140 0.390326
0.315312 0.131868 0.396399
0.358984 0.134829 0.379370
0.383093 0.135561 0.367590
0.391089 0.125002 0.348699
0.121492 0.183200 0.394049
0.068299 0.063813 0.319280
0.124514 0.086244 0.364508
0.181582 0.109102 0.416052
0.257298 0.134585 0.444984
0.344152 0.158541 0.446326
0.379339 0.147921 0.407050
0.408484 0.145785 0.390417
0.459754 0.201114 0.411261
0.164614 0.267491 0.451118
0.154604 0.232883 0.457740
0.154879 0.180789 0.444129
0.206577 0.191623 0.516991
0.298802 0.219303 0.543481
0.403540 0.238804 0.525597
0.445045 0.220401 0.470497
0.466957 0.211093 0.445350
0.536278 0.270848 0.487953
0.185672 0.317845 0.469490
0.203769 0.332280 0.508080
0.221012 0.321599 0.522759
0.230106 0.291875 0.557702
0.321004 0.309819 0.649531
0.477974 0.332219 0.647181
0.552453 0.309514 0.576165
0.552453 0.289647 0.528710
0.635554 0.366857 0.589319
0.201358 0.360632 0.480629
0.229129 0.392340 0.526726
0.259922 0.410254 0.558556
0.284428 0.421210 0.611902
0.322301 0.402686 0.651637
0.495079 0.444465 0.680568
0.618524 0.425208 0.654658
0.644831 0.391943 0.621637
0.689479 0.503685 0.650690
0.232364 0.418128 0.505150
0.272496 0.469368 0.562127
0.293400 0.483406 0.584894
0.323735 0.516136 0.636500
0.405768 0.548272 0.681239
0.486229 0.531121 0.685237
0.644953 0.554406 0.693843
0.694636 0.518257 0.673304
0.719936 0.617548 0.686641
0.287510 0.504112 0.559258
0.332250 0.573571 0.630671
0.350469 0.594446 0.657038
0.386725 0.612177 0.680293
0.468971 0.638025 0.705043
0.575998 0.654902 0.715999
0.652064 0.649409 0.706142
0.727810 0.648981 0.714046
0.746853 0.691249 0.719265
0.346593 0.609766 0.634730
0.413794 0.681422 0.709255
0.459297 0.702174 0.724819
0.498482 0.708736 0.730068
0.558068 0.716365 0.736934
0.639857 0.737758 0.752529
0.702083 0.747127 0.754330
0.752285 0.746914 0.747768
0.770474 0.749538 0.751125
0.431983 0.704921 0.707576
0.460487 0.710323 0.711696
0.494118 0.713954 0.716060
0.563531 0.726864 0.725063
0.638361 0.742580 0.736629
0.691463 0.754269 0.741207
0.723781 0.764950 0.745602
0.765499 0.781399 0.762387
0.787930 0.785672 0.765133
0.051698 0.043427 0.298222
0.095766 0.062440 0.332494
0.142580 0.081727 0.374701
0.186374 0.099092 0.419440
0.247196 0.120241 0.434852
0.313909 0.141421 0.441505
0.358038 0.141939 0.420844
0.374762 0.129549 0.390143
0.397406 0.131441 0.380194
0.129519 0.193149 0.428931
0.159426 0.188266 0.449683
0.191135 0.190249 0.520775
0.236484 0.201205 0.526482
0.314702 0.223972 0.545037
0.389746 0.237980 0.534569
0.434089 0.232914 0.495552
0.448493 0.214206 0.458198
0.468330 0.213535 0.446204
0.178622 0.285801 0.490547
0.206394 0.291020 0.506889
0.228641 0.292912 0.553155
0.273167 0.301823 0.623743
0.376104 0.324498 0.663508
0.480690 0.336217 0.649958
0.545586 0.321660 0.605127
0.557183 0.303258 0.558740
0.553002 0.289525 0.528801
0.207218 0.346227 0.517693
0.238163 0.362341 0.539696
0.269139 0.388159 0.595270
0.322454 0.404639 0.652216
0.427634 0.433753 0.669520
0.536095 0.453101 0.681392
0.606622 0.437842 0.663539
0.637049 0.407202 0.636530
0.644923 0.394659 0.624598
0.224399 0.391211 0.527398
0.263462 0.419989 0.559380
0.298863 0.455421 0.619226
0.378256 0.504448 0.677180
0.489250 0.531975 0.687526
0.586053 0.554864 0.690944
0.644160 0.550134 0.694179
0.678096 0.537194 0.688685
0.695583 0.524529 0.676356
0.256474 0.448463 0.552300
0.286381 0.468330 0.575830
0.320928 0.513237 0.633112
0.418311 0.566522 0.685969
0.542473 0.604944 0.702754
0.628199 0.631922 0.704494
0.672023 0.636255 0.713954
0.707424 0.635493 0.716304
0.726253 0.625391 0.708919
0.312139 0.531090 0.602869
0.320348 0.540215 0.622278
0.354437 0.572961 0.658778
0.454688 0.620264 0.700374
0.576837 0.655390 0.716731
0.652247 0.682216 0.728634
0.698543 0.691981 0.733639
0.728145 0.696559 0.740383
0.754421 0.698238 0.739223
0.352270 0.609186 0.658473
0.373297 0.625025 0.677272
0.425574 0.652644 0.702693
0.502617 0.672572 0.719142
0.602655 0.695583 0.733120
0.675532 0.720088 0.745663
0.721798 0.740780 0.759945
0.754055 0.748440 0.767605
0.774350 0.751919 0.770291
0.423499 0.685725 0.715908
0.458564 0.702083 0.724910
0.499947 0.708919 0.731075
0.559197 0.718746 0.737057
0.637781 0.738705 0.750820
0.697841 0.753353 0.765377
0.734157 0.768368 0.775265
0.767178 0.784054 0.786007
0.796506 0.796506 0.796506
