tools/luts_backup/Kodak Vision3 50D 5203 (NEG)_FPE.cube
# (C) 2014 VisionColor & Patchflyer [www.vision-color.com]
# Generator: VC Patchmatch v.2.1.1 [64/53]
# All work and no play makes Jack a dull boy.
# LUT generated from: Kodak Vision3 50D 5203 (NEG)_FPE
LUT_3D_SIZE 17
0.032364 0.034257 0.034455
0.043107 0.035767 0.033631
0.061631 0.038346 0.033509
0.092393 0.042710 0.035996
0.128313 0.047440 0.038148
0.170962 0.049928 0.038315
0.218357 0.049989 0.038788
0.264454 0.048707 0.040009
0.304952 0.046876 0.041459
0.341253 0.046204 0.042832
0.376867 0.046342 0.044297
0.413321 0.047730 0.046052
0.446708 0.049302 0.047745
0.475807 0.051118 0.049348
0.496529 0.051881 0.050202
0.507424 0.051545 0.050797
0.509255 0.051545 0.051347
0.035706 0.042176 0.037903
0.052064 0.044968 0.033219
0.083604 0.052796 0.034028
0.119417 0.058747 0.036103
0.158694 0.063645 0.037308
0.202518 0.067979 0.038544
0.251270 0.070314 0.039826
0.300160 0.070451 0.041306
0.344335 0.068208 0.043229
0.381125 0.065721 0.044923
0.417884 0.064103 0.046754
0.457404 0.065293 0.048905
0.493889 0.068956 0.050599
0.525765 0.073274 0.051896
0.550454 0.076249 0.052552
0.560830 0.071061 0.052842
0.552392 0.059358 0.052598
0.031724 0.058122 0.041855
0.048676 0.066575 0.041657
0.095079 0.081559 0.038804
0.147356 0.091417 0.037263
0.191104 0.098314 0.038056
0.237598 0.103807 0.039704
0.288319 0.108492 0.041474
0.338613 0.111345 0.042847
0.384833 0.111192 0.044160
0.423758 0.107790 0.045823
0.461128 0.104967 0.047944
0.501686 0.106111 0.050538
0.540932 0.114672 0.052735
0.577935 0.127123 0.054673
0.612284 0.142443 0.056504
0.635996 0.149294 0.057908
0.641459 0.136507 0.058106
0.030762 0.088426 0.052338
0.044099 0.098512 0.048371
0.075990 0.114412 0.046082
0.149142 0.135851 0.042527
0.213825 0.147555 0.040574
0.266453 0.152575 0.040803
0.317678 0.156344 0.042603
0.374701 0.163500 0.044938
0.430060 0.168826 0.047059
0.474739 0.168734 0.048707
0.513741 0.167987 0.050217
0.554284 0.172869 0.052583
0.595636 0.185214 0.055299
0.637934 0.205539 0.058381
0.679240 0.230579 0.061921
0.714443 0.254978 0.065690
0.738521 0.267155 0.068299
0.031327 0.124895 0.060426
0.039811 0.137102 0.054582
0.063874 0.152926 0.050141
0.114916 0.172641 0.045869
0.204898 0.196918 0.042588
0.284123 0.212222 0.042878
0.338003 0.210666 0.042878
0.394110 0.214817 0.044755
0.462379 0.227832 0.048493
0.524056 0.238605 0.052644
0.572274 0.245075 0.055756
0.616907 0.255406 0.058976
0.659190 0.270771 0.062379
0.701625 0.292805 0.067063
0.742672 0.320394 0.072862
0.780957 0.351949 0.079973
0.812680 0.380087 0.087221
0.032486 0.160220 0.063508
0.038392 0.175921 0.055589
0.061082 0.197894 0.050660
0.103014 0.217227 0.046372
0.174456 0.239399 0.043870
0.271138 0.263264 0.043183
0.362722 0.281697 0.046616
0.417258 0.278141 0.047181
0.487343 0.288777 0.050202
0.562493 0.308782 0.056931
0.624231 0.324773 0.063249
0.674586 0.339284 0.068910
0.719081 0.356359 0.074876
0.758938 0.375509 0.080674
0.795193 0.399802 0.087434
0.830777 0.431617 0.096910
0.860594 0.464103 0.106661
0.034791 0.195514 0.064958
0.038300 0.212207 0.055711
0.057023 0.239612 0.050095
0.098054 0.262287 0.046235
0.160449 0.284611 0.044556
0.247227 0.308873 0.044434
0.350973 0.334279 0.047333
0.443153 0.352682 0.053300
0.516167 0.361212 0.057527
0.594110 0.377844 0.064393
0.664057 0.396643 0.072328
0.717845 0.412757 0.079896
0.762905 0.428183 0.087404
0.800717 0.443839 0.094163
0.833021 0.463249 0.101518
0.863706 0.489677 0.111040
0.892622 0.521523 0.122484
0.037034 0.230060 0.067567
0.038849 0.244541 0.058961
0.050156 0.273304 0.051606
0.081743 0.300145 0.048508
0.140749 0.324376 0.046693
0.227481 0.351492 0.046983
0.332982 0.378958 0.049454
0.440223 0.404837 0.056260
0.535500 0.426505 0.065553
0.620645 0.444434 0.075074
0.689219 0.457282 0.082795
0.745083 0.469978 0.090944
0.789715 0.480781 0.098543
0.826703 0.492897 0.105547
0.857298 0.507576 0.112627
0.882780 0.525719 0.119936
0.901930 0.549401 0.129213
0.038911 0.262272 0.071962
0.039292 0.271015 0.064454
0.044648 0.293324 0.059052
0.060853 0.323232 0.053864
0.103807 0.351141 0.051194
0.183093 0.380545 0.049989
0.298085 0.412314 0.052461
0.417212 0.440925 0.058793
0.526040 0.466178 0.068620
0.623652 0.489876 0.081743
0.705425 0.508019 0.094041
0.757137 0.514183 0.100465
0.801068 0.519081 0.106844
0.838651 0.524987 0.112871
0.865782 0.532784 0.118273
0.887633 0.543572 0.124041
0.904158 0.558511 0.130571
0.040085 0.293080 0.081071
0.040391 0.299245 0.074113
0.041062 0.309239 0.067124
0.047471 0.333516 0.063798
0.070268 0.366171 0.059159
0.129198 0.399100 0.055802
0.230884 0.432837 0.055558
0.367315 0.466209 0.060472
0.488334 0.492454 0.069871
0.597818 0.516396 0.082414
0.691279 0.537530 0.097185
0.761456 0.551781 0.108553
0.801663 0.550637 0.112795
0.838514 0.549035 0.117311
0.864622 0.550942 0.121782
0.889982 0.557656 0.126940
0.907637 0.569879 0.132799
0.040864 0.319615 0.091173
0.041093 0.324178 0.084657
0.041550 0.330938 0.078676
0.042664 0.342916 0.073991
0.051713 0.371481 0.072587
0.091402 0.410834 0.070359
0.176959 0.448615 0.066682
0.304265 0.482490 0.065888
0.440543 0.512367 0.071138
0.557549 0.535927 0.082338
0.656367 0.555718 0.095506
0.740017 0.573251 0.109270
0.801419 0.583185 0.119387
0.836469 0.577371 0.122591
0.867567 0.574899 0.126696
0.894194 0.581659 0.132753
0.915160 0.596643 0.139986
0.041581 0.341375 0.104005
0.041733 0.345876 0.097780
0.042222 0.352270 0.092164
0.042908 0.361105 0.088396
0.046693 0.380102 0.087938
0.071290 0.418555 0.089723
0.145525 0.463539 0.087938
0.263462 0.499214 0.080735
0.395560 0.529549 0.079072
0.523903 0.554955 0.086229
0.629343 0.575189 0.097261
0.716350 0.591562 0.110140
0.787289 0.604578 0.121889
0.842451 0.611139 0.130556
0.875959 0.607675 0.134600
0.904494 0.613474 0.140963
0.921813 0.630472 0.149905
0.042222 0.359594 0.116762
0.042298 0.364660 0.110460
0.043000 0.372396 0.106264
0.044282 0.383825 0.106706
0.047333 0.401175 0.111315
0.068788 0.434943 0.117723
0.138705 0.484276 0.119036
0.260838 0.523461 0.108446
0.391974 0.553094 0.095933
0.517632 0.579126 0.097765
0.627894 0.599649 0.106020
0.719921 0.618814 0.118807
0.791852 0.632349 0.130205
0.851225 0.642191 0.139803
0.891569 0.645899 0.145846
0.917601 0.649470 0.151522
0.929808 0.661997 0.159594
0.042786 0.377722 0.133211
0.043397 0.384283 0.127321
0.044205 0.392920 0.124331
0.046921 0.409506 0.129839
0.055695 0.435203 0.144030
0.083543 0.471489 0.159304
0.179660 0.522683 0.165209
0.321843 0.564614 0.148638
0.456809 0.592920 0.127260
0.569146 0.616449 0.121981
0.667399 0.635538 0.128161
0.753658 0.654978 0.139773
0.822019 0.669154 0.149813
0.875685 0.679057 0.157824
0.905104 0.684443 0.162615
0.924697 0.686290 0.166064
0.934798 0.691112 0.170626
0.044083 0.394690 0.153903
0.044770 0.401816 0.148684
0.046494 0.414435 0.147112
0.051835 0.435248 0.154559
0.071412 0.471901 0.174975
0.144198 0.525734 0.205661
0.288045 0.583185 0.221653
0.443976 0.622614 0.204730
0.567452 0.650019 0.181369
0.658228 0.668666 0.172778
0.735195 0.684733 0.175387
0.805081 0.699794 0.182315
0.862989 0.711177 0.187930
0.895735 0.718151 0.190890
0.921599 0.723140 0.192844
0.932082 0.720516 0.188586
0.939513 0.718654 0.186526
0.045014 0.407218 0.172763
0.046113 0.416938 0.170153
0.049027 0.435035 0.172595
0.059663 0.463004 0.179004
0.099107 0.507652 0.197803
0.235737 0.577035 0.230991
0.420432 0.637217 0.251453
0.567193 0.677745 0.253513
0.665736 0.702419 0.250217
0.734340 0.717800 0.242878
0.796368 0.731365 0.242618
0.850202 0.742290 0.246311
0.882414 0.749615 0.247288
0.910369 0.753994 0.242481
0.925994 0.756100 0.236301
0.936156 0.755184 0.227787
0.941436 0.746487 0.211719
0.045609 0.416220 0.186923
0.047364 0.429160 0.186069
0.052811 0.453330 0.192096
0.070756 0.488289 0.198337
0.139025 0.541024 0.214160
0.302388 0.609216 0.237736
0.483330 0.662470 0.246845
0.612177 0.699001 0.252140
0.698405 0.723491 0.264759
0.763226 0.742260 0.280186
0.818631 0.757351 0.291447
0.858457 0.767040 0.297230
0.887373 0.773022 0.296788
0.911055 0.776181 0.289799
0.926040 0.777600 0.276905
0.936355 0.779171 0.267613
0.944396 0.779171 0.262592
0.033021 0.032349 0.034333
0.040253 0.034958 0.035920
0.059190 0.037430 0.036790
0.087526 0.041169 0.038651
0.121065 0.045502 0.040345
0.160983 0.048981 0.040848
0.207843 0.049943 0.041382
0.254917 0.049210 0.042054
0.296834 0.047318 0.042542
0.336004 0.045930 0.043519
0.372381 0.045930 0.044923
0.407309 0.046815 0.046571
0.438773 0.048081 0.048203
0.465171 0.049500 0.049485
0.486198 0.050080 0.050355
0.501900 0.050935 0.051179
0.512947 0.051575 0.051728
0.033829 0.040604 0.042771
0.037858 0.043977 0.044526
0.077607 0.045869 0.037491
0.118166 0.049439 0.039063
0.156497 0.052781 0.040146
0.199634 0.053742 0.040177
0.245426 0.052720 0.040574
0.287007 0.050736 0.041428
0.326329 0.049027 0.042741
0.364858 0.049104 0.044450
0.403143 0.050034 0.046281
0.439460 0.051804 0.048356
0.469291 0.053285 0.049699
0.492760 0.054093 0.050706
0.507332 0.053635 0.051118
0.517952 0.053361 0.051652
0.540154 0.055604 0.052613
0.030320 0.055940 0.052003
0.037140 0.071321 0.051942
0.105989 0.094484 0.044266
0.164248 0.093446 0.039963
0.205631 0.091890 0.040467
0.250370 0.091798 0.041550
0.296895 0.091463 0.042451
0.339239 0.088441 0.043595
0.377874 0.084276 0.045380
0.417319 0.081697 0.047471
0.457282 0.081788 0.049348
0.495216 0.085435 0.051408
0.528237 0.090303 0.052827
0.552728 0.091478 0.053605
0.567605 0.086839 0.053956
0.573938 0.079530 0.053941
0.593347 0.084932 0.054643
0.030060 0.085634 0.065827
0.033173 0.112535 0.065126
0.064530 0.131685 0.056336
0.164111 0.162081 0.046647
0.244999 0.159457 0.042008
0.292851 0.154025 0.042710
0.344808 0.153323 0.044648
0.392416 0.151003 0.046189
0.432242 0.146487 0.047333
0.471000 0.144289 0.048997
0.512108 0.145998 0.051270
0.552163 0.154223 0.053620
0.590860 0.166979 0.055909
0.626001 0.181567 0.058412
0.651087 0.188602 0.060304
0.661341 0.180774 0.060899
0.662577 0.166186 0.060365
0.031052 0.123064 0.079347
0.032807 0.149905 0.070008
0.050736 0.170245 0.060258
0.114565 0.200153 0.052369
0.230457 0.231693 0.046342
0.321065 0.232166 0.045167
0.378698 0.226139 0.045197
0.438666 0.227909 0.047883
0.492836 0.229343 0.051362
0.538613 0.230777 0.053956
0.581628 0.236103 0.056596
0.623056 0.247562 0.059464
0.664729 0.266056 0.063172
0.705058 0.289189 0.067842
0.736217 0.307668 0.071977
0.750576 0.306981 0.073228
0.734630 0.266270 0.068162
0.032410 0.161105 0.088975
0.034333 0.183368 0.069734
0.049149 0.208148 0.059983
0.098482 0.240162 0.052552
0.186404 0.271321 0.048402
0.309133 0.304234 0.047684
0.408347 0.312779 0.051621
0.473381 0.308629 0.052049
0.540093 0.314885 0.056184
0.598718 0.323033 0.061341
0.648249 0.332479 0.066392
0.692882 0.345571 0.072038
0.733745 0.363745 0.077745
0.771084 0.385748 0.084154
0.801755 0.407248 0.091035
0.817258 0.409857 0.093339
0.795300 0.357900 0.083055
0.035019 0.200046 0.090120
0.036332 0.215579 0.069108
0.047181 0.241093 0.059983
0.087221 0.274891 0.052766
0.160540 0.304738 0.049119
0.265248 0.339498 0.048371
0.392615 0.373175 0.052476
0.496376 0.389013 0.060639
0.571084 0.393805 0.064942
0.639933 0.403479 0.071397
0.696498 0.414618 0.078355
0.742550 0.426978 0.085389
0.783215 0.442512 0.093080
0.816297 0.460029 0.100237
0.844327 0.478401 0.107958
0.858732 0.482475 0.111284
0.838026 0.429664 0.098146
0.037430 0.236683 0.087953
0.038163 0.246006 0.070375
0.045258 0.268666 0.061936
0.070405 0.302037 0.054871
0.134264 0.332555 0.050690
0.228550 0.366171 0.050919
0.346761 0.401907 0.053285
0.472541 0.434470 0.062333
0.580865 0.457206 0.074449
0.660517 0.468315 0.082902
0.719387 0.474983 0.089662
0.770062 0.484382 0.097276
0.810071 0.494469 0.104845
0.842069 0.507652 0.111925
0.868299 0.520974 0.118868
0.881483 0.523781 0.122087
0.863142 0.476905 0.109117
0.039078 0.268574 0.089799
0.039384 0.275105 0.077302
0.042344 0.289631 0.068376
0.056779 0.321294 0.060182
0.101991 0.355123 0.055879
0.187671 0.387671 0.053819
0.301488 0.423407 0.055726
0.425391 0.457786 0.062318
0.547829 0.488472 0.074784
0.653956 0.512367 0.089845
0.727337 0.522683 0.100252
0.776104 0.523766 0.105455
0.818692 0.527352 0.111757
0.849928 0.532815 0.117281
0.872557 0.538964 0.121965
0.885206 0.537820 0.123934
0.871580 0.495140 0.112810
0.040131 0.297093 0.096590
0.040452 0.303487 0.087602
0.040894 0.312306 0.079973
0.046021 0.333150 0.073243
0.069123 0.370031 0.067552
0.137102 0.406683 0.062913
0.245167 0.440177 0.060197
0.374563 0.474006 0.063905
0.497139 0.504112 0.073686
0.612070 0.531212 0.087282
0.709499 0.551766 0.103441
0.775296 0.560296 0.113283
0.816968 0.555749 0.116640
0.851469 0.555230 0.121645
0.874327 0.556390 0.125536
0.888304 0.550546 0.126253
0.873106 0.503334 0.113863
0.041123 0.322911 0.108156
0.041230 0.328786 0.101518
0.041703 0.335882 0.094835
0.042374 0.346395 0.087770
0.051865 0.374792 0.084306
0.098497 0.419852 0.081056
0.194430 0.457954 0.074403
0.320897 0.489326 0.071015
0.451057 0.519387 0.076249
0.571130 0.546654 0.087922
0.677378 0.570611 0.103227
0.762127 0.587915 0.117632
0.819669 0.591760 0.125353
0.858457 0.586892 0.128557
0.882918 0.587716 0.133303
0.899779 0.584741 0.135683
0.889677 0.539620 0.123323
0.041993 0.344198 0.121477
0.041947 0.350301 0.115343
0.042405 0.357351 0.110079
0.043137 0.366857 0.106752
0.045838 0.384161 0.103777
0.075914 0.425666 0.105501
0.161822 0.473838 0.100725
0.283421 0.506752 0.088609
0.411078 0.536049 0.085939
0.538018 0.561532 0.091310
0.656443 0.589014 0.106813
0.751995 0.612131 0.123827
0.824491 0.627100 0.136492
0.870054 0.627070 0.141207
0.894972 0.625513 0.143877
0.911101 0.626642 0.148028
0.911101 0.599985 0.140826
0.042603 0.363088 0.136645
0.042725 0.368750 0.130877
0.043473 0.377310 0.127886
0.045014 0.389670 0.130129
0.048814 0.407980 0.134447
0.068101 0.439261 0.138888
0.147433 0.491936 0.138811
0.278706 0.532219 0.122927
0.405814 0.559594 0.107530
0.528084 0.584344 0.104112
0.641840 0.607569 0.114122
0.749889 0.636484 0.135393
0.833036 0.658183 0.152697
0.885008 0.669841 0.162341
0.908751 0.665965 0.161425
0.922118 0.666697 0.163867
0.925978 0.652552 0.158419
0.043229 0.381781 0.154406
0.043839 0.388144 0.148211
0.044724 0.397467 0.146609
0.047623 0.414435 0.154482
0.056809 0.440635 0.170809
0.080110 0.473320 0.185412
0.170687 0.523186 0.190707
0.320272 0.568978 0.171054
0.458686 0.597971 0.144305
0.571939 0.621393 0.133684
0.670954 0.641733 0.139986
0.762432 0.664881 0.156268
0.844495 0.688579 0.176883
0.893660 0.703548 0.188632
0.920333 0.706767 0.191043
0.929381 0.702602 0.185931
0.933913 0.694743 0.181064
0.044541 0.399237 0.177340
0.045212 0.406210 0.172442
0.047150 0.419089 0.172473
0.052842 0.440574 0.181277
0.072374 0.477501 0.204791
0.131380 0.525429 0.234241
0.268391 0.581765 0.251804
0.432364 0.625422 0.234318
0.560525 0.653437 0.205081
0.654704 0.673075 0.193774
0.733166 0.690425 0.195941
0.803967 0.706722 0.205127
0.863844 0.721202 0.216510
0.900999 0.733166 0.226993
0.924376 0.740993 0.232944
0.935409 0.736828 0.224659
0.940566 0.731044 0.214755
0.045548 0.412497 0.198474
0.046738 0.422385 0.196368
0.049714 0.440314 0.200122
0.060960 0.469444 0.209506
0.099016 0.512154 0.227420
0.217182 0.576272 0.260884
0.402792 0.638590 0.285512
0.551278 0.678950 0.284443
0.654200 0.704616 0.277485
0.727794 0.721721 0.270588
0.790936 0.736568 0.273503
0.844068 0.747921 0.279408
0.877821 0.756054 0.282658
0.906737 0.762661 0.282490
0.924315 0.767865 0.281361
0.935454 0.768536 0.275990
0.942962 0.762646 0.261875
0.046189 0.421561 0.214054
0.048005 0.434638 0.213596
0.053681 0.459205 0.221042
0.071962 0.495293 0.230762
0.129931 0.543084 0.244068
0.283543 0.609003 0.267704
0.464256 0.663523 0.278920
0.595132 0.700191 0.280781
0.687175 0.726116 0.293004
0.755261 0.745998 0.310292
0.811246 0.761547 0.323384
0.852934 0.771435 0.330602
0.881651 0.777661 0.330266
0.906126 0.781765 0.325353
0.920409 0.785229 0.318593
0.933440 0.788846 0.312886
0.943328 0.789944 0.310964
0.029755 0.031891 0.044968
0.039811 0.033906 0.044526
0.056580 0.037171 0.045518
0.083436 0.040665 0.048203
0.114961 0.044297 0.050431
0.153796 0.047929 0.052201
0.201373 0.050111 0.053269
0.252491 0.050080 0.052674
0.296345 0.048920 0.050935
0.335912 0.047349 0.049180
0.372290 0.046601 0.048737
0.407370 0.047028 0.049363
0.438926 0.047883 0.050278
0.464591 0.049104 0.051270
0.484810 0.049805 0.051881
0.500954 0.050858 0.052705
0.514870 0.051667 0.053315
0.029511 0.038056 0.053254
0.032364 0.035935 0.054963
0.062715 0.042405 0.054917
0.103929 0.046525 0.050919
0.144945 0.050858 0.050614
0.190570 0.053208 0.049668
0.238132 0.052888 0.048310
0.280781 0.051347 0.046738
0.320684 0.049378 0.046006
0.358602 0.048493 0.046586
0.395789 0.048569 0.047669
0.431022 0.050004 0.049042
0.458839 0.050690 0.050324
0.481926 0.051682 0.051469
0.499306 0.052125 0.052186
0.513970 0.052628 0.052934
0.526406 0.052934 0.053269
0.029389 0.051804 0.063584
0.032288 0.061006 0.076875
0.061814 0.064317 0.063920
0.137819 0.065278 0.044282
0.185199 0.063340 0.042863
0.227619 0.061021 0.043519
0.271092 0.057969 0.043626
0.311025 0.055177 0.044099
0.350652 0.053849 0.045518
0.391043 0.054032 0.047364
0.430472 0.056001 0.048997
0.462211 0.056886 0.050538
0.488319 0.057450 0.051804
0.506340 0.057160 0.052384
0.521462 0.056931 0.052964
0.537942 0.058824 0.053437
0.550896 0.059556 0.053681
0.029755 0.084123 0.086931
0.031968 0.106416 0.097093
0.043214 0.111818 0.079103
0.161257 0.149691 0.061143
0.250217 0.141817 0.046677
0.298192 0.131151 0.046952
0.341176 0.122683 0.047166
0.381109 0.115434 0.047349
0.419913 0.109743 0.048692
0.459998 0.108736 0.050599
0.500191 0.111666 0.052308
0.534646 0.116793 0.054276
0.562753 0.120363 0.055756
0.581292 0.117617 0.056397
0.591592 0.109941 0.056550
0.599283 0.103105 0.056397
0.604639 0.096513 0.056168
0.030854 0.121294 0.104417
0.032273 0.147814 0.106538
0.036545 0.164187 0.080323
0.108522 0.205966 0.066087
0.245274 0.242359 0.055589
0.348470 0.234424 0.048920
0.405722 0.223453 0.048615
0.455512 0.214115 0.050355
0.496910 0.206470 0.052277
0.536629 0.205676 0.054246
0.577432 0.213062 0.056687
0.616190 0.224689 0.059342
0.650141 0.237690 0.062181
0.675090 0.243656 0.064195
0.684016 0.233066 0.064637
0.677256 0.204822 0.063188
0.664668 0.170153 0.061494
0.032212 0.159457 0.117937
0.033845 0.189136 0.105562
0.037568 0.207401 0.075761
0.086809 0.252216 0.064195
0.198184 0.293172 0.056260
0.337316 0.329778 0.053773
0.447486 0.332067 0.056397
0.515282 0.324468 0.056779
0.571496 0.320974 0.060304
0.618540 0.321675 0.064439
0.661112 0.328984 0.068681
0.700267 0.342351 0.073472
0.735698 0.358724 0.079225
0.761135 0.368719 0.083116
0.770977 0.360418 0.082994
0.756008 0.318822 0.076051
0.726955 0.259281 0.068513
0.034516 0.201495 0.124666
0.036667 0.228092 0.100587
0.038880 0.241672 0.076844
0.068711 0.283864 0.063767
0.165545 0.325261 0.055802
0.285451 0.365667 0.054841
0.422675 0.402045 0.058762
0.539330 0.416663 0.069184
0.612863 0.415641 0.072435
0.673808 0.419593 0.078279
0.719738 0.426108 0.084535
0.760693 0.438132 0.091402
0.795209 0.452461 0.098344
0.818738 0.461753 0.103960
0.829053 0.455070 0.104417
0.816236 0.413199 0.094835
0.784405 0.345953 0.081453
0.037247 0.242206 0.125948
0.038544 0.261173 0.100725
0.039780 0.270558 0.082963
0.055695 0.303853 0.070741
0.128573 0.348547 0.060883
0.239536 0.386786 0.057252
0.366995 0.426032 0.059556
0.499550 0.459968 0.069139
0.614923 0.480369 0.083452
0.690822 0.484825 0.091417
0.745647 0.488472 0.097704
0.789990 0.496422 0.104891
0.825132 0.507118 0.112154
0.849363 0.515236 0.117845
0.860807 0.509682 0.118700
0.851148 0.474907 0.109743
0.825757 0.414145 0.095018
0.039338 0.278294 0.125856
0.039826 0.289219 0.107378
0.040421 0.296849 0.091661
0.047028 0.318959 0.080430
0.087724 0.364019 0.071168
0.192432 0.404700 0.063478
0.315602 0.442847 0.064485
0.442527 0.478462 0.070451
0.568215 0.508492 0.082887
0.677058 0.528237 0.098772
0.745998 0.531212 0.106569
0.794095 0.531106 0.111376
0.833219 0.535149 0.117342
0.856031 0.537316 0.121584
0.869581 0.530465 0.122408
0.864775 0.501274 0.115267
0.848219 0.456367 0.103639
0.040803 0.309926 0.130205
0.040818 0.315251 0.116182
0.041138 0.321675 0.102937
0.042588 0.334951 0.092882
0.064347 0.372198 0.085725
0.139284 0.418738 0.077317
0.264225 0.455344 0.071351
0.392157 0.491157 0.074220
0.519570 0.523400 0.083711
0.638590 0.550759 0.098787
0.732418 0.567178 0.113771
0.792477 0.567071 0.119631
0.835431 0.563272 0.123186
0.859342 0.559884 0.125948
0.872312 0.546746 0.124712
0.869764 0.514946 0.116869
0.858976 0.481224 0.108827
0.041825 0.334234 0.139528
0.041627 0.336690 0.126497
0.041917 0.342641 0.115251
0.042756 0.353796 0.108309
0.050675 0.378012 0.101549
0.101061 0.427497 0.097230
0.213275 0.469322 0.087770
0.346929 0.503807 0.083955
0.479713 0.537408 0.089143
0.607004 0.568185 0.102708
0.716609 0.594446 0.121828
0.794812 0.608423 0.133562
0.843091 0.603784 0.135485
0.871611 0.597879 0.136706
0.885969 0.586679 0.136004
0.884840 0.553292 0.127138
0.874067 0.512657 0.116060
0.042573 0.352773 0.150011
0.042344 0.355413 0.138109
0.042847 0.362402 0.131701
0.043839 0.373037 0.129213
0.046784 0.391012 0.126284
0.076356 0.430014 0.125322
0.170901 0.482353 0.118776
0.310765 0.518746 0.102998
0.454139 0.553979 0.102129
0.586740 0.585580 0.111192
0.705592 0.617456 0.135500
0.798383 0.642939 0.156283
0.862333 0.653727 0.162860
0.886702 0.644205 0.156786
0.904753 0.636057 0.154772
0.904005 0.612665 0.145510
0.897292 0.569390 0.131807
0.043046 0.369253 0.162402
0.043137 0.373037 0.152285
0.043900 0.381643 0.149569
0.045716 0.395102 0.154345
0.050294 0.414405 0.161364
0.067536 0.443442 0.165255
0.143526 0.493889 0.163470
0.290501 0.540719 0.144884
0.444526 0.576471 0.128084
0.588907 0.611887 0.134142
0.707424 0.643931 0.157336
0.802548 0.671885 0.184665
0.871031 0.690684 0.199039
0.901503 0.692500 0.196231
0.916655 0.683116 0.185168
0.921477 0.668467 0.172351
0.915816 0.633265 0.152926
0.043687 0.386831 0.178912
0.044297 0.393027 0.172747
0.045228 0.402213 0.171054
0.048417 0.419867 0.180911
0.057939 0.447364 0.200336
0.082048 0.480110 0.215930
0.159579 0.523354 0.219364
0.316991 0.574243 0.200504
0.475914 0.609003 0.168994
0.614084 0.644282 0.173053
0.726467 0.676738 0.198550
0.813077 0.701762 0.224903
0.872709 0.719676 0.242481
0.909102 0.730907 0.250172
0.923781 0.725841 0.238224
0.931197 0.714748 0.218051
0.930449 0.690822 0.186892
0.045106 0.404959 0.204456
0.045777 0.411841 0.199390
0.047791 0.424628 0.199603
0.053727 0.447013 0.211154
0.073960 0.485176 0.236561
0.131685 0.531533 0.267460
0.250492 0.581613 0.284092
0.419394 0.628534 0.270283
0.555245 0.658442 0.234607
0.665537 0.685023 0.231418
0.756573 0.711788 0.255665
0.828504 0.732189 0.281743
0.874113 0.746365 0.297734
0.907362 0.755795 0.303685
0.922911 0.758984 0.301198
0.934676 0.753124 0.284306
0.939529 0.740459 0.252888
0.046220 0.418769 0.226703
0.047440 0.428504 0.224964
0.050736 0.446662 0.229343
0.062348 0.477058 0.242100
0.100587 0.520043 0.261585
0.198703 0.575982 0.292409
0.380148 0.637415 0.317693
0.536400 0.680919 0.317662
0.642741 0.707210 0.307744
0.723186 0.726986 0.304723
0.788846 0.745388 0.321202
0.841077 0.759503 0.339834
0.876829 0.769650 0.351476
0.904463 0.776730 0.352956
0.921279 0.781521 0.350103
0.932830 0.781903 0.343313
0.941039 0.776501 0.329152
0.047059 0.428702 0.243854
0.048814 0.441291 0.244251
0.054704 0.465919 0.253269
0.072343 0.503151 0.265675
0.128664 0.548486 0.276783
0.261097 0.607263 0.298390
0.446372 0.665034 0.313985
0.578531 0.701549 0.313100
0.672038 0.727962 0.323720
0.746502 0.749996 0.343389
0.804273 0.767178 0.362722
0.845106 0.778210 0.377432
0.876081 0.785779 0.384848
0.900984 0.791501 0.387533
0.916777 0.796353 0.385977
0.931304 0.800244 0.380804
0.942077 0.800870 0.376410
0.029450 0.032258 0.060578
0.034440 0.032929 0.058427
0.053300 0.037400 0.062715
0.077790 0.040970 0.064698
0.108522 0.043900 0.067079
0.145769 0.047120 0.069429
0.193774 0.049226 0.072038
0.247440 0.049470 0.071748
0.296193 0.048600 0.068879
0.337713 0.047807 0.065370
0.374151 0.047471 0.061097
0.409003 0.047791 0.058122
0.440940 0.048325 0.056931
