tools/luts_backup/Kodak Vision3 500T 5219 (C41)_VS.cube
# (C) 2014 VisionColor & Patchflyer [www.vision-color.com]
# Generator: VC Patchmatch v.2.1.1 [64/53]
# All work and no play makes Jack a dull boy.
# LUT generated from: BMD Film to Kodak Vision3 500T 5219 (C41)_VisionSpace
LUT_3D_SIZE 17
0.050980 0.043137 0.043137
0.078431 0.043137 0.047059
0.117647 0.047059 0.050980
0.149020 0.050980 0.054902
0.176471 0.058824 0.058824
0.219608 0.070588 0.070588
0.254902 0.074510 0.078431
0.290196 0.086275 0.094118
0.352956 0.101961 0.125490
0.396078 0.117647 0.156863
0.400000 0.121569 0.176471
0.403922 0.121569 0.180392
0.396078 0.117647 0.156863
0.400000 0.113725 0.125490
0.396078 0.109804 0.109804
0.396078 0.109804 0.109804
0.400000 0.109804 0.109804
0.050980 0.066667 0.039216
0.066667 0.066667 0.043137
0.121569 0.070588 0.054902
0.149020 0.070588 0.058824
0.172549 0.070588 0.058824
0.211765 0.074510 0.066667
0.239216 0.074510 0.070588
0.286275 0.082353 0.090196
0.352956 0.101961 0.113725
0.400000 0.117647 0.152941
0.400000 0.117647 0.168627
0.396078 0.117647 0.176471
0.396078 0.117647 0.160784
0.400000 0.113725 0.121569
0.396078 0.109804 0.109804
0.403922 0.113725 0.113725
0.403922 0.109804 0.109804
0.058824 0.125490 0.054902
0.070588 0.121569 0.054902
0.117647 0.125490 0.070588
0.164706 0.129412 0.082353
0.203922 0.129412 0.086275
0.227451 0.117647 0.086275
0.250980 0.105882 0.086275
0.294118 0.105882 0.090196
0.372549 0.109804 0.113725
0.396078 0.113725 0.145098
0.400000 0.117647 0.164706
0.403922 0.121569 0.176471
0.400000 0.117647 0.156863
0.435294 0.125490 0.125490
0.411765 0.121569 0.113725
0.415686 0.125490 0.121569
0.411765 0.125490 0.117647
0.082353 0.172549 0.074510
0.078431 0.164706 0.074510
0.121569 0.156863 0.082353
0.172549 0.184314 0.098039
0.215686 0.184314 0.105882
0.258824 0.180392 0.117647
0.274510 0.156863 0.105882
0.317647 0.152941 0.109804
0.364706 0.145098 0.117647
0.450965 0.133333 0.133333
0.415686 0.121569 0.160784
0.396078 0.117647 0.164706
0.419608 0.125490 0.156863
0.458824 0.145098 0.137255
0.443137 0.160784 0.137255
0.450980 0.164706 0.141176
0.439216 0.160784 0.137255
0.109804 0.235294 0.101961
0.098039 0.227451 0.098039
0.125490 0.215686 0.098039
0.168627 0.223529 0.113725
0.223529 0.239216 0.125490
0.262745 0.231373 0.129412
0.305882 0.227451 0.137255
0.325490 0.203922 0.129412
0.384314 0.203922 0.145098
0.431373 0.192157 0.149020
0.494118 0.156878 0.149020
0.470603 0.145098 0.176471
0.474510 0.145098 0.164706
0.458824 0.176471 0.145098
0.470588 0.207843 0.160784
0.470588 0.203922 0.160784
0.470588 0.200000 0.156863
0.125490 0.282353 0.117647
0.125490 0.282353 0.121569
0.145098 0.286275 0.125490
0.180392 0.270588 0.125490
0.235294 0.282353 0.141176
0.282353 0.294118 0.156863
0.325490 0.294118 0.160784
0.345098 0.266667 0.160784
0.388235 0.266667 0.164706
0.431373 0.254902 0.168627
0.482353 0.258824 0.180392
0.517647 0.231388 0.184314
0.509804 0.215702 0.172549
0.490196 0.235294 0.172549
0.509804 0.258824 0.188235
0.498039 0.254902 0.184314
0.505882 0.258824 0.188235
0.149020 0.341176 0.141176
0.149020 0.345098 0.141176
0.152941 0.329412 0.137255
0.192157 0.321569 0.141176
0.239216 0.325490 0.156863
0.286275 0.329412 0.164706
0.337255 0.345098 0.180392
0.364706 0.329412 0.180392
0.400000 0.313726 0.180392
0.443137 0.313726 0.196078
0.490196 0.313726 0.203922
0.525490 0.305882 0.207843
0.529412 0.305898 0.211765
0.541176 0.313726 0.215686
0.537255 0.317647 0.219608
0.529412 0.301961 0.207843
0.529412 0.305882 0.211765
0.168627 0.400000 0.160784
0.160784 0.380392 0.156863
0.168627 0.376471 0.156863
0.200000 0.368627 0.160784
0.247059 0.376471 0.172549
0.282353 0.376471 0.180392
0.341176 0.388235 0.200000
0.384329 0.384329 0.207843
0.411765 0.376471 0.207843
0.454902 0.372549 0.219608
0.482353 0.364706 0.223529
0.529412 0.368627 0.235294
0.556863 0.376471 0.247059
0.556863 0.376471 0.243137
0.552941 0.356863 0.235294
0.552941 0.356863 0.231373
0.552941 0.356863 0.231373
0.184314 0.447074 0.180392
0.188235 0.443153 0.180392
0.184314 0.435294 0.176471
0.211765 0.435309 0.180392
0.243137 0.411765 0.184314
0.294118 0.415686 0.192157
0.341176 0.423529 0.207843
0.384329 0.427466 0.223529
0.439216 0.447059 0.243137
0.454902 0.423545 0.239216
0.490196 0.423529 0.247059
0.525490 0.419608 0.254902
0.556863 0.411780 0.262745
0.580392 0.419623 0.274510
0.576471 0.415686 0.270588
0.568627 0.396078 0.258824
0.568627 0.396078 0.258824
0.215686 0.517647 0.207843
0.215686 0.509804 0.207843
0.219608 0.505867 0.207843
0.231373 0.509789 0.207843
0.266667 0.494102 0.211765
0.313726 0.474510 0.223529
0.356863 0.478416 0.235294
0.400000 0.482353 0.250980
0.443153 0.490196 0.262745
0.494102 0.505867 0.282353
0.505882 0.482338 0.278431
0.533333 0.470588 0.278431
0.560784 0.466667 0.286275
0.596078 0.478431 0.305882
0.588235 0.458824 0.290196
0.592157 0.450980 0.286275
0.588235 0.443137 0.286275
0.239216 0.572549 0.235294
0.239216 0.556863 0.231373
0.239216 0.564706 0.231373
0.254902 0.564706 0.239216
0.278431 0.541176 0.231373
0.337255 0.545083 0.250980
0.372549 0.529397 0.254902
0.411765 0.533333 0.270588
0.450980 0.525490 0.278431
0.494118 0.537255 0.298039
0.537255 0.552941 0.317647
0.552941 0.533333 0.317647
0.568627 0.513726 0.313726
0.600000 0.513726 0.321569
0.611765 0.513726 0.329412
0.607843 0.501961 0.321569
0.607843 0.486275 0.313726
0.270588 0.627451 0.266667
0.258824 0.611765 0.258824
0.258824 0.611765 0.258824
0.270588 0.607843 0.262745
0.294118 0.600000 0.262745
0.337255 0.596078 0.274510
0.388235 0.572549 0.282353
0.435294 0.572549 0.294118
0.478431 0.576471 0.313726
0.501961 0.572549 0.317647
0.537255 0.576471 0.333333
0.568627 0.584314 0.349020
0.584314 0.568627 0.349020
0.600000 0.549020 0.345098
0.623529 0.552941 0.356863
0.631373 0.549020 0.356863
0.623529 0.533333 0.345098
0.290196 0.666667 0.290196
0.286275 0.654902 0.282353
0.278431 0.650980 0.278431
0.290196 0.647059 0.278431
0.313726 0.639216 0.282353
0.349020 0.631373 0.294118
0.403922 0.623529 0.309804
0.447059 0.611765 0.313726
0.478431 0.607843 0.329412
0.513726 0.611765 0.341176
0.541176 0.603922 0.349020
0.560784 0.603922 0.356863
0.607843 0.619608 0.384314
0.627451 0.615686 0.392157
0.631373 0.592157 0.384314
0.647059 0.596078 0.388235
0.650980 0.596078 0.392157
0.301961 0.682353 0.301961
0.301961 0.678431 0.301961
0.305882 0.686275 0.305882
0.309804 0.682353 0.305882
0.321569 0.670588 0.301961
0.368627 0.666667 0.313726
0.411765 0.666667 0.329412
0.466667 0.643137 0.337255
0.498039 0.635294 0.349020
0.525490 0.639216 0.360784
0.560784 0.639216 0.380392
0.596078 0.647059 0.396078
0.615686 0.647059 0.400000
0.643137 0.650980 0.411765
0.662745 0.650980 0.423529
0.674510 0.643137 0.423529
0.678431 0.639216 0.423529
0.305882 0.686275 0.309804
0.301961 0.678431 0.305882
0.298039 0.678431 0.305882
0.301961 0.682353 0.305882
0.313726 0.690196 0.309804
0.352941 0.690196 0.321569
0.423529 0.694118 0.345098
0.478431 0.686275 0.360784
0.509804 0.678431 0.372549
0.545098 0.674510 0.384314
0.572549 0.670588 0.392157
0.603922 0.682353 0.411765
0.623529 0.678431 0.419608
0.650980 0.682353 0.435294
0.662745 0.678431 0.439216
0.682353 0.674510 0.447059
0.698039 0.674510 0.458824
0.305882 0.686275 0.313726
0.305882 0.686275 0.317647
0.309804 0.686275 0.317647
0.309804 0.690196 0.313726
0.301961 0.686275 0.301961
0.341176 0.690196 0.313726
0.400000 0.690196 0.337255
0.454917 0.690196 0.356863
0.505882 0.690196 0.372549
0.549020 0.686275 0.388235
0.580392 0.690196 0.403922
0.615686 0.698039 0.423529
0.639216 0.701961 0.435294
0.662745 0.709804 0.458824
0.682353 0.705882 0.470588
0.686275 0.709804 0.478431
0.709804 0.709804 0.498039
0.305882 0.686275 0.313726
0.305882 0.682353 0.317647
0.305882 0.682353 0.313726
0.305882 0.682353 0.313726
0.305882 0.686275 0.309804
0.329412 0.698039 0.317647
0.396078 0.698039 0.341176
0.443137 0.694118 0.356863
0.505882 0.694118 0.372549
0.549020 0.694118 0.392157
0.576471 0.686275 0.400000
0.607843 0.701961 0.423529
0.627451 0.698039 0.431373
0.643137 0.705882 0.447059
0.670588 0.709804 0.466667
0.690196 0.713726 0.486275
0.705882 0.717647 0.501961
0.054902 0.043137 0.078431
0.074510 0.043137 0.074510
0.117647 0.050980 0.074510
0.141176 0.054902 0.070588
0.176471 0.062745 0.078431
0.215686 0.070588 0.090196
0.254902 0.082353 0.098039
0.298054 0.090196 0.117647
0.356863 0.101961 0.141176
0.396078 0.117647 0.164706
0.396078 0.121569 0.184314
0.396078 0.121569 0.184314
0.403922 0.121569 0.172549
0.396078 0.113725 0.125490
0.403922 0.109804 0.109804
0.403922 0.113725 0.113725
0.400000 0.109804 0.109804
0.047059 0.062745 0.062745
0.074510 0.062745 0.066667
0.152941 0.062745 0.066667
0.164706 0.058824 0.062745
0.215686 0.070588 0.074510
0.231373 0.074510 0.078431
0.266667 0.082353 0.090196
0.298039 0.090196 0.109804
0.364706 0.109804 0.145098
0.400000 0.117647 0.168627
0.400000 0.121569 0.180392
0.396078 0.121569 0.184314
0.400000 0.117647 0.164706
0.400000 0.113725 0.129412
0.403922 0.113725 0.113725
0.396078 0.109804 0.109804
0.396078 0.105882 0.105882
0.050980 0.121569 0.050980
0.070588 0.121569 0.058824
0.113725 0.121569 0.066667
0.160784 0.121569 0.078431
0.203922 0.121569 0.086275
0.223529 0.105882 0.082353
0.266667 0.113725 0.090196
0.341176 0.101961 0.101961
0.364706 0.105882 0.129412
0.403922 0.117647 0.160784
0.392157 0.117647 0.172549
0.400000 0.121569 0.180392
0.400000 0.117647 0.172549
0.427451 0.121569 0.129412
0.411765 0.129412 0.121569
0.415686 0.125490 0.121569
0.411765 0.125490 0.117647
0.074510 0.168627 0.070588
0.082353 0.172549 0.074510
0.125490 0.176471 0.086275
0.168627 0.176471 0.094118
0.215686 0.180392 0.105882
0.254902 0.176471 0.109804
0.278431 0.152941 0.105882
0.317647 0.152941 0.113725
0.400015 0.141176 0.125490
0.439216 0.125490 0.156863
0.419608 0.129412 0.180392
0.392157 0.117647 0.176471
0.415686 0.121569 0.168627
0.450980 0.145098 0.133333
0.439216 0.160784 0.137255
0.443137 0.164706 0.137255
0.447059 0.164706 0.141176
0.101961 0.235294 0.098039
0.098039 0.223529 0.094118
0.129412 0.223529 0.101961
0.172549 0.219608 0.105882
0.223529 0.239216 0.129412
0.262745 0.223529 0.129412
0.305882 0.219608 0.133333
0.337255 0.207843 0.137255
0.384314 0.207843 0.145098
0.466651 0.200000 0.160784
0.513726 0.160800 0.168627
0.466682 0.145098 0.184314
0.482353 0.149020 0.168627
0.470588 0.180392 0.152941
0.470588 0.203922 0.156863
0.474510 0.207843 0.160784
0.470588 0.203922 0.156863
0.129412 0.282353 0.121569
0.121569 0.286275 0.117647
0.137255 0.270588 0.117647
0.176471 0.266667 0.125490
0.235294 0.286275 0.145098
0.282353 0.294118 0.156863
0.325490 0.294118 0.160784
0.345098 0.262745 0.156863
0.396078 0.262745 0.164706
0.431373 0.254902 0.168627
0.494118 0.250980 0.184314
0.533333 0.231388 0.184314
0.529412 0.207858 0.180392
0.494118 0.239216 0.176471
0.505882 0.258824 0.188235
0.505882 0.258824 0.188235
0.501961 0.250980 0.180392
0.149020 0.345098 0.141176
0.152941 0.345098 0.141176
0.152941 0.325490 0.137255
0.184314 0.321569 0.145098
0.235294 0.317647 0.156863
0.282353 0.333333 0.168627
0.337255 0.345098 0.180392
0.380392 0.337255 0.188235
0.400015 0.321569 0.188235
0.443137 0.317662 0.196078
0.482353 0.309804 0.200000
0.529412 0.313741 0.211765
0.529412 0.301976 0.207843
0.537255 0.309804 0.211765
0.529412 0.305882 0.211765
0.525490 0.301961 0.207843
0.529412 0.301961 0.207843
0.172549 0.396078 0.160784
0.160784 0.380407 0.156863
0.164706 0.368643 0.152941
0.192157 0.364706 0.156863
0.239216 0.364706 0.164706
0.286275 0.376471 0.180392
0.341176 0.388235 0.196078
0.392157 0.396078 0.215686
0.415686 0.376471 0.207843
0.454902 0.372549 0.219608
0.490196 0.372549 0.223529
0.517647 0.356878 0.227451
0.556863 0.368627 0.243137
0.560784 0.368627 0.243137
0.556863 0.360784 0.243137
0.556863 0.364706 0.243137
0.545098 0.349020 0.231373
0.192157 0.454917 0.184314
0.188235 0.447074 0.180392
0.184314 0.427466 0.172549
0.215686 0.439216 0.184314
0.243137 0.431373 0.192157
0.305882 0.423529 0.203922
0.352941 0.423529 0.215686
0.400000 0.443137 0.231373
0.443137 0.443137 0.239216
0.470588 0.431388 0.247059
0.486275 0.407858 0.243137
0.525490 0.403937 0.247059
0.556863 0.415686 0.262745
0.572549 0.415702 0.266667
0.572549 0.407843 0.266667
0.576471 0.407843 0.262745
0.568627 0.392157 0.254902
0.219608 0.525475 0.211765
0.223529 0.521553 0.215686
0.215686 0.501945 0.207843
0.235294 0.513710 0.211765
0.266667 0.490181 0.211765
0.309804 0.470588 0.219608
0.356863 0.474510 0.231373
0.411765 0.490181 0.250980
0.439231 0.490196 0.262745
0.494118 0.505882 0.278431
0.513726 0.478431 0.278431
0.533333 0.462745 0.274510
0.568627 0.466667 0.286275
0.596078 0.478431 0.305882
0.600000 0.462745 0.301961
0.592157 0.450980 0.290196
0.584314 0.439216 0.282353
0.239216 0.572549 0.239216
0.243137 0.576471 0.239216
0.243137 0.576471 0.239216
0.250980 0.556863 0.231373
0.282353 0.556863 0.239216
0.329412 0.541176 0.250980
0.376471 0.529397 0.258824
0.411765 0.525490 0.266667
0.458824 0.537240 0.286275
0.501961 0.545098 0.305882
0.537255 0.552941 0.317647
0.552941 0.533333 0.313726
0.572549 0.509804 0.309804
0.600000 0.513726 0.321569
0.611765 0.501961 0.325490
0.611765 0.501961 0.325490
0.603922 0.494118 0.313726
0.258824 0.615686 0.258824
0.270588 0.623529 0.266667
0.254902 0.611765 0.254902
0.266667 0.603922 0.254902
0.298039 0.600000 0.266667
0.337255 0.588235 0.266667
0.388235 0.576471 0.282353
0.431373 0.576471 0.298039
0.474510 0.572549 0.309804
0.501961 0.572549 0.313726
0.541176 0.576471 0.333333
0.584314 0.592157 0.356863
0.588235 0.576471 0.349020
0.607843 0.568627 0.356863
0.627451 0.564706 0.364706
0.631373 0.556863 0.360784
0.619608 0.533333 0.349020
0.290196 0.658824 0.286275
0.286275 0.662745 0.286275
0.278431 0.647059 0.278431
0.294118 0.650980 0.282353
0.313726 0.647059 0.290196
0.352941 0.635294 0.294118
0.403922 0.619608 0.305882
0.443137 0.611765 0.317647
0.482353 0.607843 0.329412
0.517647 0.600000 0.337255
0.552941 0.603922 0.352941
0.584314 0.615686 0.376471
0.607843 0.619608 0.388235
0.631373 0.619608 0.396078
0.635294 0.603922 0.388235
0.658824 0.603922 0.400000
0.647059 0.592157 0.388235
0.301961 0.678431 0.305882
0.301961 0.682353 0.301961
0.301961 0.682353 0.301961
0.301961 0.678431 0.298039
0.321569 0.678431 0.309804
0.356863 0.666667 0.309804
0.415686 0.662745 0.333333
0.462745 0.647059 0.341176
0.501961 0.643137 0.356863
0.533333 0.643137 0.368627
0.564706 0.643137 0.376471
0.588235 0.643137 0.388235
0.619608 0.650980 0.403922
0.643137 0.654902 0.415686
0.662745 0.650980 0.423529
0.674510 0.635294 0.419608
0.674510 0.635294 0.419608
0.301961 0.686275 0.305882
0.305882 0.686275 0.305882
0.305882 0.686275 0.305882
0.298039 0.682353 0.298039
0.317647 0.690196 0.309804
0.352941 0.690196 0.321569
0.419608 0.694118 0.349020
0.478431 0.690196 0.360784
0.525490 0.686275 0.380392
0.549020 0.674510 0.384314
0.584314 0.678431 0.403922
0.596078 0.670588 0.403922
0.635294 0.682353 0.423529
0.647059 0.682353 0.435294
0.670588 0.686275 0.447059
0.694118 0.686275 0.462745
0.694118 0.670588 0.454902
0.309804 0.690196 0.313726
0.309804 0.690196 0.317647
0.305882 0.686275 0.313726
0.305882 0.682353 0.313726
0.305882 0.690196 0.305882
0.341176 0.690196 0.317647
0.396078 0.694118 0.337255
0.458824 0.694118 0.360784
0.505898 0.690196 0.372549
0.556863 0.690196 0.392157
0.592157 0.694118 0.411765
0.611765 0.701961 0.423529
0.639216 0.701961 0.439216
0.662745 0.705882 0.454902
0.682353 0.717647 0.470588
0.698039 0.717647 0.490196
0.713726 0.705882 0.494118
0.305882 0.686275 0.313726
0.305882 0.686275 0.309804
0.301961 0.682353 0.313726
0.301961 0.682353 0.309804
0.309804 0.686275 0.313726
0.325490 0.686275 0.309804
0.392157 0.698039 0.341176
0.447059 0.698039 0.360784
0.505882 0.690196 0.376471
0.537255 0.690196 0.384314
0.580392 0.690196 0.403922
0.611765 0.698039 0.423529
0.635294 0.701961 0.439216
0.650980 0.698039 0.443137
0.670588 0.709804 0.466667
0.690196 0.713726 0.482353
0.713726 0.721569 0.513726
0.058824 0.047059 0.125490
0.066667 0.047059 0.109804
0.098039 0.050980 0.101961
0.133333 0.058824 0.105882
0.180392 0.066667 0.117647
0.219608 0.078431 0.129412
0.247059 0.082353 0.133333
0.301961 0.098039 0.152941
0.356878 0.109804 0.172549
0.407843 0.125490 0.200000
0.396078 0.125490 0.200000
0.400000 0.125490 0.200000
0.403922 0.125490 0.188235
0.396078 0.113725 0.145098
0.403922 0.117647 0.129412
0.400000 0.113725 0.125490
0.403922 0.113725 0.117647
0.054902 0.066667 0.125490
0.086275 0.070588 0.152941
0.121569 0.066667 0.125490
0.152941 0.062745 0.113725
0.203922 0.078431 0.129412
0.219608 0.078431 0.121569
0.254902 0.086275 0.133333
0.294133 0.098039 0.141176
0.364706 0.113725 0.168627
0.396078 0.121569 0.188235
0.392157 0.121569 0.196078
0.403922 0.125490 0.200000
0.400000 0.121569 0.184314
0.400000 0.117647 0.145098
0.396078 0.109804 0.121569
0.403922 0.113725 0.125490
0.392157 0.109804 0.113725
0.058824 0.105882 0.105882
0.062745 0.105882 0.105882
0.129412 0.113725 0.121569
0.219608 0.105882 0.113725
0.262745 0.101961 0.105882
0.298039 0.105882 0.121569
0.313726 0.105882 0.125490
0.337255 0.109804 0.149020
0.376471 0.113725 0.172549
0.400000 0.121569 0.188235
0.400000 0.121569 0.188235
0.403922 0.125490 0.203922
0.407843 0.125490 0.184314
0.427451 0.125490 0.145098
0.443137 0.133333 0.129412
0.431373 0.129412 0.121569
0.431373 0.125490 0.121569
0.074510 0.164706 0.098039
0.082353 0.164706 0.105882
0.109804 0.184314 0.090196
0.172549 0.180392 0.098039
0.231373 0.164706 0.109804
0.262745 0.152941 0.105882
0.305882 0.152941 0.109804
0.388251 0.149020 0.133333
0.435294 0.141176 0.164706
0.435294 0.133333 0.192157
0.411765 0.125490 0.192157
0.400000 0.121569 0.192157
0.411765 0.125490 0.184314
0.482353 0.145098 0.152941
0.443137 0.164706 0.137255
0.439216 0.156863 0.137255
0.439216 0.160784 0.137255
0.094118 0.219608 0.101961
0.098039 0.231373 0.101961
0.113725 0.215686 0.094118
0.168627 0.219608 0.109804
0.231373 0.231373 0.125490
0.278431 0.235294 0.137255
0.305882 0.211765 0.129412
0.333333 0.207843 0.137255
0.411780 0.196078 0.149020
0.517632 0.180407 0.172549
0.486290 0.160800 0.200000
0.454917 0.149020 0.207843
0.470588 0.149020 0.188235
0.498039 0.180392 0.160784
0.478431 0.207843 0.160784
0.474510 0.207843 0.160784
0.474510 0.207843 0.160784
0.113725 0.286275 0.113725
0.117647 0.274510 0.113725
0.133333 0.278431 0.117647
0.172549 0.270588 0.121569
0.223529 0.274510 0.137255
0.282353 0.294118 0.156863
0.317647 0.278431 0.152941
0.352941 0.262745 0.156863
0.392157 0.258824 0.160784
0.454887 0.266667 0.180392
0.533318 0.247074 0.196078
0.564706 0.227466 0.203922
0.552941 0.200015 0.192157
0.505882 0.243137 0.180392
0.505882 0.262745 0.188235
0.505882 0.262745 0.188235
0.494118 0.250980 0.184314
0.145098 0.333333 0.137255
0.149020 0.345098 0.145098
0.152941 0.333333 0.141176
0.184314 0.325490 0.145098
0.235294 0.321569 0.156863
0.286275 0.329412 0.164706
0.337255 0.345098 0.184314
0.364706 0.325490 0.180392
0.400000 0.317647 0.188235
0.450980 0.317647 0.196078
0.501945 0.317647 0.211765
0.545098 0.329412 0.223529
0.552941 0.305898 0.219608
0.537255 0.313726 0.215686
0.533333 0.309804 0.211765
0.533333 0.309804 0.211765
0.529412 0.309804 0.211765
0.164706 0.388235 0.156863
0.156863 0.372564 0.152941
0.164706 0.372564 0.156863
0.192157 0.372549 0.160784
0.231373 0.360784 0.164706
0.282353 0.372549 0.180392
0.341176 0.388235 0.196078
0.388235 0.392157 0.211765
0.419608 0.372549 0.207843
0.447059 0.364721 0.211765
0.494118 0.372549 0.227451
0.537255 0.372549 0.239216
0.564706 0.372549 0.247059
0.556863 0.360800 0.239216
0.556863 0.368627 0.243137
0.556863 0.364706 0.239216
0.556863 0.360784 0.239216
0.184314 0.447074 0.180392
0.188235 0.450996 0.180392
0.180392 0.431388 0.176471
0.207843 0.431388 0.180392
0.243137 0.415702 0.188235
0.301961 0.419608 0.200000
0.356863 0.435294 0.215686
0.396078 0.435294 0.231373
0.443137 0.450980 0.243137
0.454902 0.415702 0.231388
0.494118 0.419608 0.247059
0.529412 0.419608 0.258824
0.572549 0.419623 0.270588
0.576471 0.411780 0.262745
0.576471 0.411765 0.266667
0.572549 0.403922 0.262745
0.576471 0.407843 0.266667
0.219608 0.521569 0.211765
0.219608 0.517647 0.211765
0.215686 0.525475 0.211765
0.227451 0.509789 0.207843
0.266667 0.501945 0.215686
0.305882 0.470573 0.215686
0.356863 0.466667 0.227451
0.400000 0.482353 0.247059
0.454902 0.494118 0.266667
0.494102 0.501961 0.278431
0.501961 0.474510 0.270588
0.541176 0.470588 0.286275
0.568627 0.470588 0.290196
0.592157 0.466667 0.298039
0.600000 0.466667 0.301961
0.592157 0.454902 0.294118
0.588235 0.439216 0.282353
0.243137 0.580392 0.239216
0.243137 0.576471 0.239216
0.239216 0.568627 0.235294
0.243137 0.556863 0.235294
0.274510 0.552941 0.239216
0.333333 0.549004 0.254902
0.372549 0.533318 0.258824
0.415686 0.533318 0.270588
0.450980 0.525490 0.274510
0.486275 0.533333 0.294118
0.537255 0.552941 0.321569
0.556863 0.533333 0.317647
0.576471 0.521569 0.317647
0.603922 0.517647 0.329412
0.611765 0.509804 0.325490
0.611765 0.505882 0.325490
0.607843 0.494118 0.321569
0.262745 0.615686 0.258824
0.258824 0.619608 0.258824
0.254902 0.603922 0.250980
0.270588 0.611765 0.258824
0.298039 0.600000 0.262745
0.345098 0.596078 0.274510
0.388235 0.580392 0.282353
0.431373 0.568627 0.294118
0.466667 0.568627 0.305882
0.513726 0.580392 0.325490
0.533333 0.576471 0.333333
0.564706 0.576471 0.345098
0.592157 0.572549 0.352941
0.607843 0.568627 0.356863
0.635294 0.564706 0.368627
0.639216 0.564706 0.372549
0.635294 0.549020 0.360784
0.294118 0.670588 0.298039
0.286275 0.662745 0.286275
0.286275 0.658824 0.286275
0.282353 0.647059 0.278431
0.309804 0.639216 0.282353
0.356863 0.631373 0.294118
0.400000 0.619608 0.305882
0.447059 0.611765 0.317647
0.490196 0.611765 0.329412
0.517647 0.611765 0.345098
0.545098 0.607843 0.349020
0.592157 0.627451 0.380392
0.611765 0.627451 0.392157
0.631373 0.615686 0.392157
0.647059 0.607843 0.396078
0.658824 0.603922 0.400000
0.654902 0.596078 0.396078
0.301961 0.682353 0.313726
0.305882 0.682353 0.317647
0.305882 0.682353 0.313726
0.301961 0.682353 0.305882
0.329412 0.682353 0.309804
0.364706 0.674510 0.317647
0.415686 0.658824 0.329412
0.466667 0.654902 0.345098
0.513726 0.650980 0.364706
0.537255 0.639216 0.364706
0.564706 0.643137 0.380392
0.607843 0.658824 0.403922
0.619608 0.658824 0.407843
0.643137 0.654902 0.415686
0.674510 0.662745 0.435294
0.682353 0.639216 0.427451
0.678431 0.639216 0.423529
0.301961 0.682353 0.313726
0.305882 0.682353 0.317647
0.305882 0.678431 0.313726
0.305882 0.686275 0.309804
0.313726 0.694118 0.309804
0.356863 0.690196 0.317647
0.427451 0.694118 0.349020
0.482353 0.686275 0.368627
0.529412 0.682353 0.376471
0.568627 0.682353 0.396078
0.584314 0.674510 0.400000
0.619608 0.686275 0.419608
0.635294 0.682353 0.427451
0.654902 0.682353 0.439216
0.678431 0.686275 0.447059
0.698039 0.686275 0.466667
0.705882 0.682353 0.466667
0.309804 0.690196 0.321569
0.301961 0.678431 0.313726
0.305882 0.682353 0.321569
0.309804 0.690196 0.321569
0.305882 0.686275 0.305882
0.360784 0.698039 0.329412
0.411765 0.698039 0.345098
0.466682 0.694118 0.364706
0.521569 0.698039 0.384314
0.564706 0.690196 0.392157
0.603922 0.698039 0.419608
0.627451 0.701961 0.431373
0.639216 0.698039 0.439216
0.670588 0.709804 0.466667
0.682353 0.709804 0.474510
0.705882 0.709804 0.494118
0.717647 0.709804 0.505882
0.305882 0.686275 0.317647
0.309804 0.690196 0.321569
0.309804 0.686275 0.313726
0.309804 0.686275 0.325490
0.305882 0.686275 0.305882
0.329412 0.686275 0.313726
0.403922 0.698039 0.341176
0.447059 0.694118 0.356863
0.505882 0.694118 0.380392
0.545098 0.694118 0.392157
0.588235 0.698039 0.407843
0.623529 0.698039 0.427451
0.639216 0.705882 0.443137
0.654902 0.709804 0.450980
0.674510 0.713726 0.470588
0.694118 0.713726 0.486275
0.713726 0.725490 0.517647
0.062745 0.050980 0.156863
0.066667 0.047059 0.149020
0.094118 0.054902 0.145098
0.137255 0.062745 0.137255
0.184314 0.074510 0.149020
0.215686 0.082353 0.156863
0.262745 0.090196 0.164706
0.298054 0.098039 0.176471
0.360784 0.117647 0.200000
0.403922 0.129412 0.211765
0.400000 0.129412 0.215686
0.396078 0.125490 0.211765
0.392157 0.121569 0.200000
