tools/luts_backup/Kodak Vision3 50D 5203 (NEG)_VS.cube
# (C) 2014 VisionColor & Patchflyer [www.vision-color.com]
# Generator: VC Patchmatch v.2.1.1 [64/53]
# All work and no play makes Jack a dull boy.
# LUT generated from: Kodak Vision3 50D 5203 (NEG)_Cineon
LUT_3D_SIZE 9
0.023758 0.023758 0.023758
0.089448 0.029358 0.029511
0.154528 0.040726 0.041657
0.232822 0.052888 0.053315
0.306310 0.062379 0.062257
0.376516 0.072786 0.070573
0.454658 0.091341 0.084840
0.510369 0.109682 0.098787
0.540108 0.103929 0.104005
0.046983 0.100649 0.044511
0.121309 0.111696 0.052049
0.194278 0.127184 0.060822
0.263096 0.141054 0.073716
0.335592 0.154543 0.084428
0.406195 0.163561 0.093736
0.484993 0.190738 0.113649
0.543175 0.228229 0.136736
0.575479 0.233906 0.148043
0.084535 0.208225 0.092515
0.132876 0.217655 0.089906
0.212726 0.233127 0.094209
0.284260 0.237095 0.095521
0.367224 0.256794 0.110536
0.458000 0.281025 0.130739
0.531273 0.312535 0.156329
0.588571 0.360876 0.190021
0.631983 0.416190 0.228779
0.112596 0.311879 0.125505
0.165286 0.329549 0.122057
0.225452 0.340368 0.126009
0.306020 0.352224 0.133074
0.389990 0.361517 0.145144
0.498924 0.398840 0.176822
0.575525 0.437598 0.211765
0.629038 0.479896 0.248157
0.674266 0.544106 0.299138
0.144350 0.416922 0.163485
0.179309 0.434440 0.160922
0.238361 0.448783 0.165545
0.317693 0.460563 0.173404
0.415320 0.477668 0.188113
0.520790 0.503136 0.222019
0.591302 0.520745 0.246616
0.642878 0.543801 0.273579
0.682246 0.577585 0.311330
0.177951 0.518791 0.211185
0.195697 0.530480 0.207019
0.235233 0.546670 0.211566
0.312963 0.558526 0.224506
0.408392 0.564828 0.231342
0.507851 0.574792 0.246876
0.591730 0.584848 0.273976
0.640650 0.581765 0.285176
0.691234 0.611917 0.324376
0.207630 0.590829 0.254475
0.223377 0.598077 0.250721
0.247318 0.611337 0.253773
0.323095 0.625895 0.272786
0.419959 0.632609 0.282338
0.520333 0.638834 0.292958
0.607065 0.646922 0.316381
0.663722 0.650004 0.333639
0.713939 0.670115 0.368994
0.237507 0.640070 0.297139
0.255360 0.647654 0.293614
0.281956 0.671504 0.292500
0.367208 0.696651 0.300786
0.520119 0.694850 0.349920
0.607660 0.702281 0.372015
0.670390 0.708370 0.390417
0.708324 0.710826 0.399847
0.733425 0.713588 0.406180
0.255116 0.669566 0.328481
0.285039 0.682948 0.331579
0.301656 0.723766 0.290913
0.472267 0.731884 0.340627
0.601267 0.742077 0.378836
0.666880 0.748867 0.399313
0.708705 0.751095 0.410788
0.735378 0.749996 0.415778
0.755550 0.751110 0.420493
0.026459 0.018280 0.054963
0.077516 0.027558 0.057069
0.139101 0.037201 0.069490
0.212787 0.048371 0.081300
0.293858 0.059358 0.090715
0.368277 0.069947 0.095140
0.446326 0.082872 0.103853
0.503517 0.095125 0.114504
0.540246 0.104997 0.124224
0.044999 0.075669 0.088914
0.100038 0.085298 0.084611
0.206638 0.074662 0.065370
0.277974 0.075761 0.073457
0.346456 0.085542 0.081743
0.423529 0.104662 0.096254
0.486885 0.122545 0.110872
0.529366 0.131594 0.122271
0.557290 0.145678 0.131197
0.080705 0.192447 0.140383
0.107378 0.255879 0.115175
0.247395 0.275471 0.125444
0.333349 0.252003 0.119799
0.405890 0.246387 0.127398
0.480400 0.263203 0.145800
0.540352 0.292973 0.168948
0.573709 0.298695 0.179736
0.583871 0.260319 0.169284
0.110796 0.305653 0.178012
0.147021 0.365347 0.148531
0.246967 0.387076 0.158160
0.359228 0.416602 0.177340
0.465812 0.415183 0.193362
0.549401 0.433234 0.219028
0.606210 0.466087 0.250248
0.634897 0.474968 0.264500
0.620951 0.388373 0.221347
0.148455 0.427726 0.207782
0.174777 0.453925 0.190555
0.242283 0.476081 0.191897
0.341161 0.497505 0.208240
0.454795 0.524773 0.232547
0.559762 0.531456 0.259571
0.622705 0.542367 0.281086
0.654795 0.545953 0.295552
0.646647 0.479912 0.261204
0.186069 0.530571 0.248768
0.201114 0.535866 0.235279
0.233845 0.556542 0.228290
0.331975 0.569177 0.244038
0.435660 0.583597 0.261769
0.561624 0.607691 0.302098
0.631449 0.607111 0.316396
0.667475 0.597726 0.320317
0.655268 0.530282 0.277455
0.213687 0.593606 0.285771
0.228061 0.599115 0.279545
0.255390 0.612879 0.287144
0.308766 0.637446 0.274739
0.445624 0.640650 0.305303
0.578286 0.660304 0.345357
0.668528 0.678340 0.382254
0.703410 0.677592 0.387198
0.700099 0.643183 0.357305
0.243870 0.641337 0.329839
0.261830 0.648432 0.327276
0.293065 0.670451 0.336767
0.333532 0.706691 0.310796
0.506355 0.704295 0.340810
0.624949 0.715343 0.376349
0.695262 0.724895 0.399756
0.732601 0.728450 0.410391
0.744076 0.720958 0.408591
0.263828 0.671534 0.365621
0.294163 0.683970 0.371756
0.299474 0.723842 0.331960
0.443793 0.737881 0.350347
0.588327 0.744686 0.388739
0.665904 0.751232 0.419760
0.711223 0.754498 0.436576
0.741375 0.756176 0.442527
0.763302 0.757839 0.444678
0.029374 0.022705 0.112917
0.067247 0.026307 0.111009
0.125460 0.034440 0.116258
0.200671 0.045624 0.130510
0.285817 0.057984 0.141085
0.364279 0.070115 0.147509
0.442222 0.082902 0.149416
0.499794 0.093889 0.152529
0.538323 0.105470 0.160311
0.041077 0.066041 0.149187
0.052369 0.043580 0.160830
0.166629 0.057725 0.156619
0.258762 0.069261 0.140200
0.335378 0.080430 0.132296
0.413077 0.093568 0.130419
0.477852 0.105791 0.135851
0.521218 0.117418 0.143496
0.548302 0.124544 0.149813
0.069886 0.163333 0.187335
0.099077 0.207782 0.235080
0.209766 0.203052 0.215976
0.338079 0.151110 0.132189
0.388754 0.132296 0.116106
0.462394 0.143648 0.126986
0.512139 0.153384 0.138781
0.546593 0.162325 0.148180
0.569390 0.161013 0.152682
0.104738 0.291859 0.234577
0.147829 0.369055 0.235218
0.244862 0.413687 0.191821
0.381491 0.410925 0.221805
0.486412 0.389960 0.210269
0.556832 0.402365 0.227466
0.590448 0.400381 0.236133
0.588434 0.334936 0.208850
0.599588 0.292988 0.199268
0.149416 0.425605 0.279973
0.190097 0.489235 0.263539
0.214984 0.519966 0.218769
0.385901 0.527855 0.244419
0.504189 0.554910 0.289891
0.593210 0.543221 0.292714
0.634577 0.539071 0.302739
0.636728 0.485954 0.278279
0.639521 0.438392 0.261494
0.200214 0.543420 0.324498
0.221546 0.563775 0.302449
0.253254 0.577951 0.306294
0.333639 0.606104 0.269230
0.507561 0.617029 0.320043
0.627710 0.643427 0.356268
0.660304 0.619913 0.353597
0.658106 0.565850 0.314778
0.675196 0.558694 0.320043
0.240681 0.613428 0.363867
0.253071 0.617472 0.348562
0.285573 0.635462 0.357992
0.322835 0.676158 0.327459
0.518608 0.678355 0.338537
0.646632 0.695262 0.389334
0.706828 0.702571 0.410574
0.715846 0.681956 0.389990
0.710307 0.650172 0.380621
0.272908 0.654124 0.406226
0.286931 0.658183 0.400916
0.306950 0.682246 0.391196
0.399451 0.711849 0.399344
0.571801 0.722301 0.415625
0.664393 0.730541 0.446540
0.714473 0.735042 0.464668
0.743069 0.736828 0.464683
0.752544 0.725704 0.433906
0.325048 0.693950 0.466560
0.321126 0.691356 0.448539
0.324331 0.708034 0.432441
0.397391 0.733959 0.431434
0.575845 0.743038 0.463615
0.667826 0.753994 0.491066
0.714824 0.758602 0.507668
0.746105 0.761059 0.513359
0.769406 0.763958 0.520378
0.032319 0.028153 0.178607
0.068238 0.029603 0.175235
0.121065 0.034836 0.176501
0.192416 0.043946 0.182605
0.289235 0.060090 0.199115
0.367758 0.072847 0.201221
0.442145 0.084779 0.207660
0.497581 0.096040 0.210300
0.534798 0.106340 0.208560
0.039460 0.059266 0.212146
0.048402 0.045090 0.230671
0.133883 0.051362 0.229633
0.263096 0.069795 0.229419
0.340108 0.083650 0.212787
0.411307 0.095003 0.205447
0.473762 0.106600 0.200473
0.516960 0.117067 0.193271
0.545525 0.124834 0.184573
0.060197 0.135943 0.246998
0.067063 0.120089 0.278431
0.102220 0.092210 0.285084
0.303975 0.122057 0.276112
0.372152 0.109850 0.213153
0.448157 0.119173 0.184649
0.499855 0.130571 0.176440
0.534249 0.139849 0.174884
0.562814 0.151141 0.183474
0.095338 0.261555 0.292226
0.128634 0.323522 0.347906
0.190799 0.350942 0.362356
0.351308 0.352819 0.361364
0.528923 0.259113 0.238956
0.499519 0.203937 0.176730
0.534234 0.190021 0.171389
0.566857 0.197177 0.181064
0.606836 0.244175 0.212161
0.143755 0.407813 0.342214
0.208957 0.498238 0.385504
0.242527 0.519448 0.329839
0.334478 0.559579 0.288777
0.530724 0.546304 0.333532
0.590616 0.493477 0.300786
0.607340 0.445838 0.274418
0.615290 0.398505 0.259785
0.651911 0.426810 0.293645
0.218540 0.549508 0.413108
0.254826 0.587274 0.402945
0.280812 0.598383 0.390478
0.350774 0.642176 0.371817
0.582467 0.653178 0.365438
0.646738 0.655222 0.405844
0.660868 0.600595 0.354452
0.666224 0.564126 0.340032
0.702998 0.580514 0.356954
0.272221 0.626398 0.460822
0.294408 0.637064 0.444266
0.311620 0.645579 0.437140
0.404028 0.683223 0.463066
0.588403 0.698329 0.458305
0.680140 0.708339 0.486671
0.717525 0.709712 0.487160
0.722698 0.680919 0.407340
0.739864 0.674479 0.403845
0.318441 0.669963 0.504265
0.336583 0.683375 0.501442
0.329335 0.684077 0.479866
0.399451 0.709773 0.492149
0.590311 0.719921 0.547753
0.678340 0.734340 0.547936
0.722103 0.739452 0.556710
0.748333 0.741772 0.554513
0.761212 0.733440 0.514061
0.355459 0.713848 0.551659
0.354742 0.720958 0.538750
0.348837 0.719036 0.515648
0.417166 0.731945 0.528237
0.580880 0.735027 0.577798
0.675151 0.752117 0.597116
0.721263 0.761212 0.601495
0.751858 0.765316 0.609339
0.772839 0.768505 0.615656
0.035370 0.033921 0.252293
0.074083 0.035416 0.252308
0.134905 0.040894 0.255314
0.215381 0.049500 0.258045
0.297551 0.061433 0.260212
0.380346 0.077028 0.264408
0.448890 0.089097 0.265675
0.498009 0.100282 0.263264
0.532372 0.108324 0.246662
0.041566 0.059968 0.284504
0.050553 0.050584 0.301045
0.115053 0.053712 0.301778
0.251072 0.070253 0.306523
0.358648 0.089876 0.295521
0.425193 0.101869 0.282338
0.476326 0.111711 0.268269
0.515145 0.120470 0.245457
0.543343 0.127611 0.226490
0.057160 0.121004 0.309834
0.061860 0.092897 0.333425
0.073304 0.072313 0.338811
0.225193 0.087358 0.344732
0.396689 0.119692 0.334539
0.452415 0.126070 0.285054
0.496452 0.133486 0.248112
0.530098 0.141695 0.228199
0.559014 0.155352 0.240436
0.088121 0.230686 0.349493
0.097887 0.225818 0.377432
0.107103 0.183642 0.386496
0.185183 0.172564 0.449287
0.454246 0.230365 0.419699
0.474388 0.165820 0.290379
0.516442 0.159365 0.225177
0.557229 0.178271 0.230869
0.619410 0.232837 0.280598
0.127062 0.365103 0.392203
0.178912 0.436255 0.455085
0.241856 0.485344 0.493889
0.294911 0.501534 0.508095
0.506950 0.506676 0.509133
0.622278 0.398032 0.385382
0.608301 0.268315 0.238590
0.626825 0.287480 0.248417
0.719265 0.404486 0.330449
0.215839 0.531823 0.468818
0.295216 0.596933 0.528847
0.317006 0.613733 0.511147
0.369360 0.638178 0.500877
0.561517 0.642756 0.543435
0.647242 0.645304 0.536202
0.681102 0.587350 0.370977
0.695918 0.553216 0.351308
0.736385 0.593072 0.427207
0.300938 0.633127 0.542306
0.343221 0.659434 0.563333
0.341222 0.670649 0.540520
0.387518 0.681056 0.545754
0.611215 0.695994 0.604990
0.690410 0.711772 0.577203
0.718914 0.712947 0.592859
0.730571 0.686137 0.474403
0.750942 0.684306 0.502464
0.358862 0.682322 0.586511
0.377981 0.709392 0.597025
0.383520 0.708507 0.581674
0.423789 0.711055 0.580484
0.595041 0.718669 0.628260
0.685008 0.734813 0.646052
0.727489 0.743358 0.644831
0.751659 0.746456 0.645762
0.764187 0.738613 0.607767
0.392584 0.734569 0.622171
0.402701 0.734035 0.614679
0.426062 0.734600 0.610178
0.497841 0.737774 0.618708
0.609506 0.740841 0.642161
0.688624 0.752056 0.663767
0.730892 0.763973 0.670115
0.756649 0.768551 0.673091
0.775021 0.771450 0.673274
0.038605 0.039490 0.329702
0.069047 0.040009 0.326406
0.133379 0.044984 0.331777
0.223239 0.054887 0.334066
0.323430 0.069978 0.334066
0.392859 0.082750 0.324437
0.457404 0.097078 0.327886
0.501244 0.108598 0.328405
0.530419 0.117464 0.313054
0.044221 0.061051 0.351598
0.053071 0.054765 0.366476
0.101274 0.057450 0.367391
0.240452 0.074250 0.383337
0.366415 0.097597 0.383200
0.439597 0.114870 0.369665
0.484276 0.125246 0.355612
0.514443 0.129717 0.326513
0.540673 0.133288 0.283452
0.055802 0.104509 0.370016
0.062028 0.085756 0.390036
0.070603 0.072877 0.393408
0.173220 0.080751 0.405142
0.374350 0.119936 0.422538
0.470802 0.149554 0.413886
0.499413 0.148867 0.361685
0.527337 0.150286 0.308370
0.554864 0.165484 0.317143
0.080400 0.198810 0.399603
0.081987 0.157565 0.413489
0.084459 0.119890 0.418921
0.106905 0.102510 0.422293
0.319112 0.137392 0.439872
0.486793 0.190738 0.440513
0.512779 0.173571 0.346517
0.550469 0.189639 0.327306
0.601602 0.249027 0.387167
0.118395 0.330892 0.442435
0.143328 0.344991 0.477089
0.150057 0.306737 0.483757
0.164706 0.254612 0.480842
0.306661 0.276997 0.589471
0.600824 0.385580 0.576516
0.584482 0.265415 0.410483
0.635294 0.274006 0.379767
0.714702 0.390600 0.484382
0.183764 0.478111 0.498192
0.254353 0.546624 0.559625
0.313252 0.585428 0.593271
0.339727 0.605005 0.609552
0.480491 0.613993 0.616587
0.622782 0.623377 0.622217
0.666636 0.557870 0.545708
0.706584 0.482292 0.416602
0.724712 0.595026 0.573083
0.293278 0.620661 0.578058
0.355871 0.652964 0.616373
0.406928 0.686580 0.645350
0.467536 0.688899 0.638178
0.599771 0.696300 0.653605
0.688594 0.710826 0.666239
0.714229 0.709026 0.656382
0.731823 0.685405 0.575982
0.751537 0.693416 0.636545
0.363226 0.680262 0.625513
0.406424 0.714717 0.654047
0.475547 0.720516 0.660594
0.503182 0.719005 0.653422
0.611078 0.724178 0.671794
0.695750 0.734539 0.695262
0.733074 0.745968 0.693721
0.753582 0.749660 0.695537
0.765698 0.742382 0.675151
0.403937 0.735576 0.661128
0.442390 0.740429 0.665553
0.481559 0.741054 0.666362
0.552819 0.743847 0.672724
0.634638 0.746822 0.684688
0.698375 0.753063 0.701839
0.736477 0.765209 0.709819
0.759930 0.770672 0.710643
0.777676 0.774701 0.710460
0.041321 0.042908 0.399847
0.066102 0.045609 0.401663
0.136843 0.050095 0.408850
0.244358 0.064515 0.416297
0.336965 0.079728 0.414832
0.414069 0.095720 0.409537
0.463844 0.107393 0.399145
0.503548 0.122683 0.402701
0.527077 0.128969 0.392645
0.047181 0.064668 0.416709
0.055512 0.058106 0.420600
0.094087 0.060533 0.422507
0.216587 0.074784 0.439414
0.346975 0.100038 0.447181
0.444572 0.126513 0.448264
0.488930 0.142977 0.442893
0.514458 0.147509 0.425818
0.533989 0.145724 0.382177
0.056214 0.094942 0.428946
0.063294 0.085191 0.436057
0.073014 0.075364 0.436835
0.146044 0.079667 0.442267
0.320333 0.111666 0.464775
0.455390 0.151766 0.472358
0.505638 0.176013 0.472343
0.525887 0.174731 0.436179
0.551659 0.184833 0.407279
0.072541 0.155444 0.445991
0.076371 0.129305 0.451438
0.083497 0.112352 0.454520
0.098909 0.099031 0.458061
0.251087 0.116548 0.471382
0.456825 0.178119 0.489616
0.525979 0.222095 0.498238
0.551781 0.228824 0.463111
0.596536 0.280598 0.495262
0.112871 0.289738 0.486458
0.119234 0.258671 0.493080
0.113313 0.202625 0.483406
0.113176 0.152987 0.476295
0.161074 0.141558 0.490532
0.436255 0.225238 0.520363
0.619287 0.339513 0.595834
0.635859 0.324269 0.550347
0.701732 0.424521 0.601236
0.169986 0.441581 0.532448
0.222827 0.482322 0.569009
0.223667 0.452644 0.568704
0.205554 0.368780 0.547982
0.254215 0.350484 0.588205
0.473762 0.410712 0.647456
0.669535 0.578912 0.660121
0.693889 0.507057 0.615930
0.724330 0.603204 0.656046
0.257206 0.577585 0.588937
0.319585 0.618631 0.627924
0.361303 0.646738 0.653819
0.385504 0.667079 0.673167
0.480064 0.678508 0.682765
0.633738 0.688319 0.688319
0.696254 0.696406 0.695247
0.719005 0.671595 0.667384
0.745068 0.696025 0.696620
0.347890 0.667262 0.644068
0.376867 0.688289 0.665995
0.419150 0.711635 0.685191
0.523613 0.721538 0.697398
0.616785 0.727810 0.703120
0.695003 0.737087 0.716228
0.736416 0.747295 0.723079
0.753170 0.749844 0.722652
0.766140 0.744610 0.719570
0.385458 0.709010 0.670359
0.416190 0.733791 0.688762
0.488655 0.742321 0.699947
0.574716 0.747860 0.707317
0.645594 0.751537 0.712215
0.700008 0.756970 0.721721
0.738048 0.765454 0.731060
0.761929 0.773022 0.734112
0.778943 0.777188 0.737453
0.043610 0.045991 0.448218
0.065949 0.047517 0.448280
0.123583 0.051347 0.455436
0.242435 0.068910 0.468482
0.336996 0.086946 0.470787
0.418524 0.106050 0.468864
0.471733 0.123217 0.466880
0.502647 0.134585 0.463340
0.523445 0.143008 0.460197
0.048753 0.066392 0.459297
0.058564 0.061082 0.461433
0.094728 0.063722 0.462562
0.183246 0.072236 0.471519
0.314687 0.097627 0.483101
0.420279 0.124361 0.485191
0.487465 0.152407 0.488701
0.513619 0.164675 0.486534
0.529961 0.164874 0.469261
0.057221 0.094652 0.470085
0.064988 0.086091 0.470787
0.079194 0.080873 0.474250
0.152529 0.085695 0.478035
0.294041 0.112062 0.493385
0.430793 0.150118 0.500114
0.498085 0.180438 0.504662
0.528038 0.201251 0.507515
0.555215 0.222629 0.500832
0.068345 0.133227 0.480949
0.076509 0.123293 0.483268
0.087648 0.113817 0.485679
0.110170 0.106981 0.494057
0.231098 0.119753 0.500587
0.424826 0.176638 0.517052
0.518563 0.233066 0.531807
0.575006 0.292287 0.560281
0.625727 0.323934 0.582467
0.099550 0.232502 0.508705
0.102174 0.202197 0.505547
0.103105 0.162585 0.498604
0.120241 0.146899 0.506157
0.174731 0.143465 0.518273
0.386923 0.203540 0.538323
0.582589 0.321050 0.606729
0.674739 0.433555 0.664347
0.703380 0.474159 0.665736
0.181460 0.421332 0.568063
0.174670 0.382727 0.561395
0.157961 0.303365 0.541711
0.170382 0.262043 0.543221
0.221714 0.243259 0.598459
0.336690 0.232380 0.569482
0.632685 0.447517 0.672908
0.700267 0.587701 0.694774
0.729198 0.632959 0.703120
0.255924 0.558404 0.612879
0.273152 0.564324 0.622568
0.293034 0.554604 0.627268
0.319356 0.540917 0.632074
0.361151 0.564187 0.680095
0.506569 0.565621 0.687617
0.640986 0.592523 0.691218
0.723507 0.686030 0.720653
0.749126 0.703334 0.728023
0.318425 0.640208 0.649500
0.369162 0.667247 0.672999
0.386069 0.690562 0.695079
0.425467 0.704616 0.708736
0.515160 0.715618 0.719295
0.646693 0.729580 0.731319
0.712459 0.739620 0.739162
0.747036 0.746731 0.746044
0.766690 0.747280 0.749355
0.379904 0.695964 0.682948
0.392004 0.713466 0.697337
0.434836 0.733272 0.715404
0.552163 0.746792 0.729274
0.644083 0.754070 0.736599
0.700603 0.761028 0.742992
0.738552 0.768002 0.748562
0.764797 0.774334 0.754391
0.781445 0.780758 0.762463
0.043717 0.046052 0.481193
0.064698 0.048463 0.482689
0.108721 0.051209 0.484810
0.194598 0.062791 0.494270
0.301961 0.083955 0.501305
0.393271 0.104768 0.500313
0.466133 0.130205 0.501060
0.502510 0.148333 0.502007
0.521721 0.158419 0.502037
0.049744 0.067674 0.489738
0.062776 0.065171 0.491188
0.116945 0.069825 0.494530
0.198215 0.079057 0.501808
0.313680 0.103731 0.508888
0.418204 0.132418 0.510735
0.472938 0.150988 0.509026
0.509957 0.171160 0.511513
0.529717 0.181399 0.511025
0.057710 0.094575 0.498711
0.070329 0.091539 0.500954
0.088518 0.089815 0.507469
0.155825 0.094499 0.509651
0.276188 0.116915 0.518822
0.418051 0.157290 0.523659
0.488853 0.190173 0.527718
0.529946 0.221088 0.536645
0.566735 0.263798 0.554925
0.070024 0.133364 0.510033
0.079927 0.123812 0.509957
0.095979 0.118853 0.515068
0.140841 0.119982 0.526665
0.258412 0.136522 0.530922
0.424079 0.198978 0.546838
0.526864 0.271626 0.569314
0.600076 0.323980 0.611856
0.673533 0.388708 0.666636
0.095903 0.214420 0.530968
0.092866 0.165301 0.519402
0.109972 0.158038 0.524514
0.153185 0.153933 0.549737
0.273014 0.174151 0.552209
0.461128 0.268360 0.588144
0.617868 0.383551 0.674586
0.678462 0.470878 0.695323
0.708659 0.521141 0.703548
0.142550 0.341588 0.564645
0.132769 0.271717 0.548074
0.147341 0.250935 0.550301
0.219150 0.280278 0.591470
0.324178 0.277485 0.674235
0.521294 0.358251 0.681224
0.649989 0.530159 0.705486
0.703120 0.616327 0.720806
0.728649 0.632807 0.724788
0.213397 0.500038 0.610056
0.226322 0.472038 0.608682
0.238651 0.443091 0.608408
0.322332 0.515999 0.661631
0.445182 0.560189 0.712016
0.580118 0.587228 0.700511
0.677592 0.654185 0.723339
0.724437 0.695399 0.741955
0.749920 0.705486 0.748104
0.283391 0.606531 0.648859
0.324712 0.621607 0.663539
0.360357 0.628489 0.675502
0.397452 0.665965 0.716045
0.526207 0.693034 0.735653
0.640970 0.709407 0.743145
0.709041 0.730770 0.752728
0.746288 0.745113 0.761242
0.769055 0.751873 0.768185
0.369314 0.685893 0.690303
0.391638 0.702190 0.705974
0.404761 0.719371 0.722591
0.463279 0.732998 0.736996
0.600717 0.749035 0.751888
0.685481 0.760220 0.762036
0.731670 0.769436 0.769787
0.763210 0.777630 0.777554
0.785046 0.783856 0.784375
