tools/luts_backup/Kodak Gold Gen.6 200_FPE.cube
# (C) 2014 VisionColor & Patchflyer [www.vision-color.com]
# Generator: VC Patchmatch v.2.1.1 [64/53]
# All work and no play makes Jack a dull boy.
# LUT generated from: Kodak Gold Gen.6 200_FPE
LUT_3D_SIZE 5
0.033173 0.035966 0.036301
0.135607 0.049744 0.039200
0.253727 0.047929 0.039292
0.364050 0.044877 0.043427
0.484016 0.049348 0.050126
0.041444 0.077119 0.040604
0.184894 0.119844 0.039063
0.425116 0.170123 0.046632
0.573098 0.198260 0.053635
0.674647 0.181827 0.060365
0.144152 0.282582 0.040711
0.422019 0.369253 0.051514
0.629480 0.423072 0.072648
0.779034 0.467094 0.093843
0.842634 0.435767 0.097337
0.401450 0.491981 0.063401
0.576516 0.535637 0.082292
0.775738 0.583185 0.115053
0.886900 0.606592 0.135149
0.906188 0.581186 0.132753
0.298848 0.529702 0.065019
0.682216 0.628534 0.108766
0.850889 0.665751 0.140063
0.927245 0.683833 0.158480
0.932586 0.685450 0.159930
0.029770 0.036912 0.078706
0.075608 0.043137 0.107729
0.231739 0.047822 0.125185
0.380758 0.045777 0.126513
0.470848 0.047791 0.132601
0.033448 0.103365 0.114870
0.153399 0.155764 0.153460
0.365408 0.057908 0.050111
0.483070 0.049638 0.051652
0.656580 0.202808 0.192279
0.094316 0.313191 0.147402
0.372259 0.464714 0.059373
0.837537 0.579873 0.123079
0.841718 0.442954 0.098238
0.815427 0.484382 0.240421
0.230915 0.472404 0.104204
0.369741 0.544137 0.069337
0.845563 0.665995 0.138521
0.938018 0.689815 0.162341
0.905577 0.640101 0.220691
0.149920 0.492363 0.058717
0.435737 0.580728 0.081743
0.723445 0.671641 0.145418
0.892164 0.754894 0.261509
0.936446 0.776333 0.275120
0.030915 0.035218 0.141558
0.053651 0.039490 0.179278
0.181018 0.043580 0.185946
0.359640 0.044312 0.226703
0.471626 0.049256 0.248783
0.038239 0.109499 0.238300
0.035416 0.042771 0.225010
0.303273 0.051957 0.292851
0.476570 0.050690 0.252522
0.675822 0.231647 0.340200
0.047486 0.299947 0.359045
0.061830 0.425727 0.506462
0.488807 0.481544 0.452766
0.692302 0.320867 0.282048
0.804654 0.521462 0.457679
0.096712 0.471534 0.377997
0.124361 0.549218 0.316182
0.490669 0.609354 0.150607
0.923461 0.765423 0.363943
0.878508 0.698985 0.534035
0.115923 0.552712 0.315892
0.232837 0.608896 0.349233
0.582254 0.722988 0.470039
0.843961 0.805783 0.573068
0.934752 0.840085 0.597955
0.034607 0.036378 0.225559
0.040482 0.037690 0.229587
0.111925 0.040421 0.242466
0.316091 0.041611 0.312535
0.460578 0.048081 0.337346
0.041962 0.112551 0.347539
0.038834 0.040299 0.292699
0.069612 0.042451 0.300008
0.417792 0.046098 0.403052
0.603616 0.174273 0.410224
0.049378 0.297383 0.473701
0.050721 0.305531 0.541695
0.046555 0.182864 0.427893
0.546105 0.285344 0.539361
0.734905 0.509636 0.546288
0.055802 0.422309 0.552254
0.056123 0.417044 0.600458
0.067842 0.504372 0.642191
0.713146 0.695705 0.676997
0.857603 0.706294 0.667842
0.054658 0.468421 0.504906
0.063172 0.512139 0.533639
0.412726 0.742412 0.672602
0.773861 0.827253 0.736355
0.921004 0.863615 0.773938
0.039094 0.039490 0.291386
0.036530 0.037629 0.256687
0.059648 0.040360 0.292134
0.215961 0.042954 0.347601
0.421210 0.045975 0.409354
0.046464 0.122591 0.431205
0.044846 0.115236 0.398688
0.076493 0.165499 0.439567
0.335851 0.203830 0.499260
0.531533 0.191867 0.525673
0.051484 0.316304 0.551446
0.050050 0.287419 0.531685
0.100359 0.385824 0.582376
0.438422 0.457176 0.627268
0.661952 0.491569 0.668620
0.056275 0.381842 0.600946
0.058640 0.423087 0.617838
0.263096 0.595422 0.697230
0.643412 0.684962 0.759396
0.816175 0.713420 0.785672
0.056260 0.413260 0.606744
0.060990 0.461921 0.636378
0.186999 0.678965 0.726726
0.733013 0.835630 0.828702
0.916259 0.880354 0.872343
