tools/luts_backup/Kodak Vision3 500T 5219 (C41)_FC.cube
# (C) 2014 VisionColor & Patchflyer [www.vision-color.com]
# Generator: VC Patchmatch v.2.1.1 [64/53]
# All work and no play makes Jack a dull boy.
# LUT generated from: BMD Film to Kodak Vision3 500T 5219 (C41)_FC01
LUT_3D_SIZE 5
0.043137 0.031373 0.039216
0.188235 0.043137 0.047059
0.478431 0.101961 0.117647
0.533333 0.117647 0.152941
0.541176 0.109804 0.109804
0.074510 0.200000 0.066667
0.172549 0.196078 0.082353
0.400015 0.156863 0.105882
0.627451 0.133333 0.149020
0.572549 0.168627 0.137255
0.156863 0.486290 0.152941
0.196078 0.435294 0.149020
0.419608 0.439216 0.184314
0.631357 0.388251 0.211765
0.658824 0.368627 0.211765
0.282353 0.823529 0.278431
0.274510 0.756863 0.254902
0.458824 0.666667 0.270588
0.647059 0.666667 0.333333
0.745098 0.627451 0.349020
0.294118 0.854902 0.301961
0.298039 0.862745 0.301961
0.501961 0.827451 0.352941
0.674510 0.819608 0.431373
0.839216 0.847059 0.564706
0.054902 0.047059 0.250980
0.164706 0.050980 0.160784
0.470588 0.113725 0.215686
0.513726 0.117647 0.203922
0.533333 0.113725 0.164706
0.070588 0.164706 0.164706
0.200000 0.184314 0.188235
0.584329 0.149020 0.211765
0.584314 0.133333 0.219608
0.709804 0.180392 0.168627
0.156863 0.490211 0.156863
0.184314 0.423545 0.145098
0.423529 0.439216 0.188235
0.647059 0.396094 0.219608
0.682353 0.384314 0.223529
0.286275 0.839200 0.294118
0.274510 0.796078 0.270588
0.470588 0.670588 0.274510
0.643137 0.670588 0.329412
0.756863 0.627451 0.352941
0.309804 0.839216 0.384314
0.309804 0.850980 0.360784
0.470603 0.858824 0.360784
0.705882 0.835294 0.454902
0.854902 0.858824 0.584314
0.094118 0.074510 0.533333
0.101961 0.074510 0.537255
0.443153 0.121569 0.392172
0.498039 0.133333 0.364706
0.498039 0.125490 0.325490
0.094118 0.078431 0.560784
0.113725 0.086275 0.568627
0.447059 0.125490 0.396078
0.541176 0.145098 0.384314
0.682353 0.203922 0.392172
0.164706 0.400000 0.407858
0.168627 0.411780 0.411780
0.490211 0.482368 0.470588
0.827451 0.427466 0.427466
0.831373 0.415702 0.403937
0.313726 0.784314 0.470603
0.305882 0.788235 0.439231
0.435294 0.788220 0.333333
0.686275 0.690196 0.364706
0.807843 0.662745 0.447059
0.364706 0.807843 0.572549
0.372549 0.823529 0.572549
0.545113 0.882353 0.600015
0.760784 0.886275 0.674525
0.898039 0.886275 0.713726
0.117647 0.090196 0.592157
0.129412 0.086275 0.560784
0.329427 0.113725 0.494118
0.474510 0.137255 0.474510
0.474510 0.141176 0.474510
0.117647 0.149020 0.639216
0.141176 0.129412 0.686275
0.317662 0.121569 0.541176
0.517647 0.160784 0.517647
0.639216 0.274510 0.635294
0.176471 0.333333 0.639216
0.196078 0.388251 0.658824
0.490211 0.478447 0.800000
0.682353 0.368643 0.682353
0.756863 0.529412 0.698039
0.400000 0.733333 0.741176
0.396078 0.737255 0.737255
0.501976 0.776471 0.756863
0.815686 0.815686 0.815686
0.839216 0.788235 0.780392
0.447059 0.796078 0.745098
0.458824 0.811765 0.741176
0.658839 0.870588 0.811765
0.862745 0.901961 0.878431
0.909804 0.905882 0.854902
0.145098 0.192157 0.682353
0.196078 0.109804 0.592157
0.396094 0.133333 0.513726
0.482353 0.145098 0.482353
0.474510 0.137255 0.474510
0.184314 0.360784 0.643137
0.321569 0.392157 0.807843
0.482353 0.286275 0.737255
0.643137 0.286275 0.643137
0.635294 0.270588 0.635294
0.250980 0.517662 0.666667
0.380392 0.635294 0.772549
0.623529 0.662745 0.792157
0.760784 0.615686 0.760784
0.749020 0.564721 0.745098
0.423529 0.745098 0.772549
0.486275 0.784314 0.803922
0.721569 0.847059 0.854902
0.894118 0.898039 0.905882
0.870588 0.847059 0.870588
0.482353 0.796078 0.792157
0.509804 0.811765 0.807843
0.729412 0.878431 0.874510
0.882353 0.913725 0.909804
0.949020 0.949020 0.949020
