tools/luts_backup/Kodak Vision3 500T 5219 (C41)_CIN.cube
# (C) 2014 VisionColor & Patchflyer [www.vision-color.com]
# Generator: VC Patchmatch v.2.1.1 [64/53]
# All work and no play makes Jack a dull boy.
# LUT generated from: BMD Film to Kodak Vision3 500T 5219 (C41)_Cineon
LUT_3D_SIZE 17
0.125490 0.113725 0.117647
0.168627 0.113725 0.117647
0.219608 0.113725 0.121569
0.266667 0.121569 0.125490
0.309804 0.129412 0.129412
0.341176 0.129412 0.129412
0.388235 0.145098 0.145098
0.431373 0.156863 0.164706
0.482353 0.172549 0.203922
0.498039 0.176471 0.235294
0.498039 0.180392 0.270588
0.498039 0.180392 0.270588
0.494118 0.176471 0.239216
0.498039 0.176471 0.176471
0.494118 0.172549 0.172549
0.494118 0.172549 0.172549
0.494118 0.172549 0.172549
0.121569 0.152941 0.113725
0.160784 0.160784 0.117647
0.219608 0.160784 0.125490
0.262745 0.156863 0.129412
0.305882 0.149020 0.133333
0.345098 0.141176 0.137255
0.380392 0.145098 0.145098
0.431373 0.156863 0.156863
0.482353 0.172549 0.196078
0.498039 0.176471 0.231373
0.498039 0.176471 0.258824
0.498039 0.180392 0.266667
0.494118 0.176471 0.239216
0.494118 0.172549 0.176471
0.494118 0.172549 0.172549
0.494118 0.172549 0.172549
0.494118 0.172549 0.172549
0.141176 0.231373 0.133333
0.164706 0.227451 0.137255
0.219608 0.231373 0.145098
0.274510 0.231373 0.149020
0.321569 0.227451 0.160784
0.352941 0.207843 0.156863
0.384314 0.192157 0.156863
0.423529 0.176471 0.160784
0.470588 0.164706 0.172549
0.498039 0.176471 0.219608
0.498039 0.176471 0.250980
0.498039 0.176471 0.262745
0.498039 0.176471 0.231373
0.494118 0.172549 0.172549
0.494118 0.172549 0.172549
0.494118 0.172549 0.172549
0.494118 0.172549 0.172549
0.164706 0.286275 0.152941
0.168627 0.278431 0.152941
0.215686 0.274510 0.156863
0.278431 0.294118 0.172549
0.333333 0.290196 0.180392
0.368627 0.282353 0.180392
0.400000 0.254902 0.180392
0.435294 0.243137 0.180392
0.466667 0.219608 0.184314
0.505882 0.180407 0.192157
0.498039 0.176471 0.231373
0.498039 0.176471 0.254902
0.498039 0.176471 0.231373
0.501961 0.188235 0.176471
0.509804 0.211765 0.188235
0.509804 0.211765 0.188235
0.505882 0.207843 0.188235
0.184314 0.341176 0.172549
0.180392 0.337255 0.172549
0.227451 0.333333 0.176471
0.274510 0.333333 0.188235
0.333333 0.349020 0.200000
0.376471 0.341176 0.200000
0.411765 0.325490 0.203922
0.439216 0.313726 0.203922
0.474510 0.301961 0.207843
0.509804 0.270604 0.207843
0.533333 0.215702 0.203922
0.509804 0.184314 0.235294
0.513726 0.188235 0.215686
0.513726 0.231373 0.196078
0.521569 0.262745 0.207843
0.521569 0.266667 0.211765
0.521569 0.262745 0.207843
0.196078 0.380392 0.188235
0.196078 0.380392 0.188235
0.223529 0.372549 0.192157
0.278431 0.372549 0.200000
0.325490 0.376471 0.207843
0.376471 0.388235 0.219608
0.415686 0.380392 0.223529
0.450980 0.372549 0.231373
0.470588 0.356863 0.223529
0.501961 0.345098 0.227451
0.533333 0.333333 0.235294
0.533333 0.294133 0.219608
0.533333 0.278447 0.219608
0.529412 0.298039 0.223529
0.533333 0.321569 0.231373
0.533333 0.313726 0.227451
0.533333 0.317647 0.231373
0.215686 0.419608 0.207843
0.215686 0.419608 0.207843
0.227451 0.411765 0.203922
0.278431 0.411765 0.211765
0.325490 0.411765 0.223529
0.380392 0.423529 0.231373
0.419608 0.431373 0.239216
0.447059 0.411765 0.239216
0.478431 0.411765 0.247059
0.498039 0.396078 0.247059
0.529412 0.392157 0.254902
0.549020 0.384314 0.258824
0.545098 0.368627 0.250980
0.545098 0.368627 0.250980
0.545098 0.372549 0.250980
0.545098 0.368627 0.247059
0.545098 0.364706 0.247059
0.235294 0.458824 0.223529
0.231373 0.458824 0.223529
0.231373 0.447059 0.219608
0.282353 0.447059 0.227451
0.317647 0.439216 0.231373
0.364706 0.443137 0.239216
0.411765 0.450980 0.250980
0.447059 0.454902 0.262745
0.474510 0.443137 0.262745
0.501961 0.443137 0.266667
0.521569 0.435294 0.270588
0.545098 0.435294 0.282353
0.556863 0.423529 0.278431
0.556863 0.419608 0.274510
0.552941 0.411765 0.270588
0.552941 0.411765 0.270588
0.549020 0.403922 0.266667
0.243137 0.490196 0.239216
0.243137 0.486275 0.235294
0.247059 0.478431 0.235294
0.274510 0.482353 0.243137
0.325490 0.478431 0.250980
0.368627 0.470588 0.254902
0.411765 0.474510 0.262745
0.443137 0.478431 0.266667
0.478431 0.482353 0.278431
0.494118 0.474510 0.282353
0.517647 0.470588 0.286275
0.537255 0.462745 0.294118
0.560784 0.458824 0.301961
0.560784 0.454902 0.294118
0.560784 0.447059 0.290196
0.560784 0.439216 0.286275
0.560784 0.435294 0.282353
0.266667 0.521569 0.258824
0.254902 0.513726 0.254902
0.262745 0.513726 0.254902
0.286275 0.509804 0.254902
0.321569 0.509804 0.262745
0.376471 0.501961 0.270588
0.415686 0.501961 0.278431
0.450980 0.505882 0.290196
0.482353 0.509804 0.298039
0.498039 0.505882 0.301961
0.517647 0.498039 0.309804
0.541176 0.498039 0.313726
0.556863 0.490196 0.317647
0.568627 0.490196 0.325490
0.568627 0.478431 0.309804
0.564706 0.470588 0.305882
0.564706 0.466667 0.305882
0.286275 0.549020 0.282353
0.282353 0.541176 0.274510
0.282353 0.545098 0.278431
0.301961 0.537255 0.278431
0.333333 0.533333 0.278431
0.380392 0.529412 0.290196
0.419608 0.529412 0.298039
0.450980 0.525490 0.305882
0.478431 0.529412 0.313726
0.501961 0.529412 0.317647
0.517647 0.529412 0.329412
0.537255 0.525490 0.337255
0.552941 0.517647 0.333333
0.572549 0.513726 0.341176
0.576471 0.513726 0.341176
0.572549 0.505882 0.337255
0.568627 0.490196 0.321569
0.309804 0.572549 0.305882
0.305882 0.568627 0.301961
0.301961 0.568627 0.298039
0.313726 0.564706 0.298039
0.345098 0.560784 0.301961
0.380392 0.556863 0.305882
0.415686 0.549020 0.313726
0.450980 0.549020 0.321569
0.486275 0.549020 0.333333
0.501961 0.549020 0.337255
0.521569 0.549020 0.349020
0.541176 0.552941 0.360784
0.556863 0.545098 0.364706
0.568627 0.537255 0.356863
0.584314 0.533333 0.368627
0.580392 0.529412 0.360784
0.580392 0.521569 0.352941
0.337255 0.596078 0.333333
0.325490 0.592157 0.325490
0.325490 0.588235 0.321569
0.337255 0.588235 0.325490
0.356863 0.584314 0.325490
0.392157 0.580392 0.333333
0.423529 0.568627 0.333333
0.462745 0.572549 0.345098
0.486275 0.568627 0.349020
0.505882 0.564706 0.352941
0.525490 0.564706 0.364706
0.545098 0.568627 0.376471
0.556863 0.568627 0.384314
0.572549 0.560784 0.388235
0.584314 0.556863 0.392157
0.588235 0.549020 0.392157
0.588235 0.549020 0.380392
0.329412 0.596078 0.329412
0.329412 0.596078 0.333333
0.329412 0.596078 0.329412
0.329412 0.596078 0.329412
0.352941 0.596078 0.337255
0.396078 0.596078 0.345098
0.435294 0.592157 0.356863
0.470588 0.592157 0.368627
0.494118 0.588235 0.376471
0.505882 0.580392 0.372549
0.525490 0.580392 0.388235
0.545098 0.584314 0.396078
0.560784 0.584314 0.403922
0.572549 0.584314 0.415686
0.588235 0.580392 0.423529
0.600000 0.576471 0.427451
0.600000 0.568627 0.415686
0.329412 0.596078 0.337255
0.329412 0.596078 0.337255
0.329412 0.596078 0.337255
0.325490 0.596078 0.329412
0.337255 0.596078 0.333333
0.372549 0.596078 0.337255
0.427451 0.600000 0.356863
0.470588 0.600000 0.376471
0.498039 0.600000 0.388235
0.513726 0.596078 0.392157
0.529412 0.596078 0.403922
0.549020 0.600000 0.411765
0.564706 0.600000 0.427451
0.580392 0.603922 0.439216
0.588235 0.600000 0.447059
0.603922 0.600000 0.458824
0.607843 0.592157 0.447059
0.333333 0.596078 0.341176
0.329412 0.596078 0.341176
0.333333 0.596078 0.337255
0.329412 0.596078 0.337255
0.329412 0.596078 0.333333
0.364706 0.600000 0.337255
0.407843 0.600000 0.349020
0.458824 0.603922 0.368627
0.494118 0.600000 0.388235
0.505882 0.596078 0.388235
0.525490 0.600000 0.403922
0.545098 0.600000 0.411765
0.560784 0.603922 0.427451
0.568627 0.603922 0.435294
0.588235 0.607843 0.450980
0.603922 0.611765 0.470588
0.619608 0.615686 0.490196
0.333333 0.596078 0.345098
0.333333 0.596078 0.345098
0.333333 0.596078 0.345098
0.329412 0.596078 0.341176
0.329412 0.596078 0.341176
0.352941 0.600000 0.333333
0.400000 0.600000 0.345098
0.439216 0.600000 0.360784
0.482353 0.600000 0.380392
0.505882 0.596078 0.388235
0.521569 0.596078 0.400000
0.537255 0.600000 0.407843
0.549020 0.600000 0.415686
0.564706 0.603922 0.435294
0.580392 0.603922 0.443137
0.592157 0.607843 0.458824
0.607843 0.611765 0.478431
0.133333 0.117647 0.168627
0.168627 0.113725 0.168627
0.215686 0.117647 0.160784
0.254902 0.117647 0.156863
0.298039 0.129412 0.160784
0.345098 0.137255 0.168627
0.388235 0.145098 0.176471
0.431373 0.156863 0.200000
0.486275 0.176471 0.239216
0.498039 0.180392 0.258824
0.498039 0.176471 0.278431
0.498039 0.184314 0.282353
0.498039 0.176471 0.254902
0.494118 0.176471 0.184314
0.494118 0.172549 0.172549
0.494118 0.172549 0.172549
0.494118 0.172549 0.172549
0.113725 0.145098 0.149020
0.164706 0.152941 0.156863
0.250980 0.149020 0.152941
0.298039 0.141176 0.149020
0.333333 0.141176 0.149020
0.349020 0.141176 0.152941
0.380392 0.145098 0.164706
0.431373 0.156863 0.188235
0.486275 0.176471 0.235294
0.498039 0.180392 0.258824
0.498039 0.180392 0.278431
0.498039 0.176471 0.278431
0.494118 0.176471 0.250980
0.494118 0.172549 0.176471
0.494118 0.172549 0.172549
0.494118 0.172549 0.172549
0.494118 0.172549 0.172549
0.133333 0.219608 0.141176
0.152941 0.227451 0.141176
0.223529 0.227451 0.145098
0.278431 0.223529 0.152941
0.313726 0.219608 0.156863
0.352941 0.196078 0.156863
0.392157 0.188235 0.156863
0.443137 0.172549 0.164706
0.470588 0.168627 0.203922
0.498039 0.176471 0.247059
0.498039 0.180392 0.270588
0.498039 0.176471 0.278431
0.498039 0.180392 0.254902
0.494118 0.172549 0.176471
0.498039 0.176471 0.176471
0.498039 0.176471 0.176471
0.494118 0.172549 0.172549
0.160784 0.282353 0.152941
0.168627 0.286275 0.156863
0.215686 0.278431 0.156863
0.274510 0.286275 0.168627
0.333333 0.286275 0.176471
0.376471 0.278431 0.184314
0.407843 0.258824 0.184314
0.431373 0.239216 0.180392
0.474525 0.211765 0.180392
0.505882 0.180392 0.223529
0.498039 0.180392 0.258824
0.498039 0.180392 0.266667
0.494118 0.176471 0.247059
0.501961 0.192157 0.176471
0.509804 0.215686 0.188235
0.509804 0.211765 0.188235
0.509804 0.215686 0.188235
0.176471 0.341176 0.172549
0.180392 0.333333 0.168627
0.219608 0.333333 0.176471
0.274510 0.333333 0.184314
0.333333 0.349020 0.200000
0.376471 0.337255 0.200000
0.407843 0.317647 0.200000
0.439216 0.305882 0.203922
0.474510 0.301961 0.207843
0.509804 0.262760 0.207843
0.545098 0.215702 0.235294
0.509804 0.188235 0.254902
0.513726 0.188235 0.231373
0.513726 0.231373 0.196078
0.525490 0.266667 0.211765
0.521569 0.270588 0.211765
0.521569 0.266667 0.211765
0.200000 0.384314 0.188235
0.200000 0.380392 0.188235
0.219608 0.368627 0.188235
0.274510 0.368627 0.200000
0.329412 0.380392 0.211765
0.380392 0.388235 0.219608
0.415686 0.376471 0.223529
0.447059 0.364706 0.227451
0.470588 0.352941 0.227451
0.501961 0.349020 0.231373
0.537255 0.325505 0.235294
0.552941 0.298054 0.235294
0.549020 0.266682 0.223529
0.533333 0.298039 0.223529
0.533333 0.321569 0.227451
0.533333 0.317647 0.227451
0.533333 0.309804 0.227451
0.215686 0.419608 0.203922
0.215686 0.423529 0.203922
0.223529 0.407843 0.200000
0.274510 0.407843 0.211765
0.325490 0.411765 0.219608
0.376471 0.419608 0.227451
0.419608 0.427451 0.243137
0.447059 0.411765 0.239216
0.474510 0.403922 0.243137
0.501961 0.403922 0.250980
0.529412 0.396078 0.258824
0.549020 0.384314 0.258824
0.545098 0.364721 0.247059
0.541176 0.364706 0.247059
0.545098 0.368627 0.247059
0.545098 0.364706 0.247059
0.545098 0.364706 0.247059
0.231373 0.454902 0.223529
0.231373 0.458824 0.223529
0.239216 0.450980 0.219608
0.270588 0.443137 0.227451
0.325490 0.443137 0.235294
0.368627 0.439216 0.239216
0.407843 0.447059 0.250980
0.447059 0.454902 0.262745
0.474510 0.443137 0.262745
0.498039 0.439216 0.266667
0.517647 0.431388 0.266667
0.545098 0.435294 0.278431
0.556863 0.423529 0.278431
0.552941 0.415686 0.270588
0.552941 0.411765 0.270588
0.549020 0.403922 0.266667
0.552941 0.407843 0.270588
0.247059 0.486275 0.239216
0.243137 0.486275 0.235294
0.243137 0.478431 0.235294
0.274510 0.482353 0.243137
0.321569 0.474510 0.247059
0.372549 0.474510 0.254902
0.411765 0.474510 0.262745
0.447059 0.478431 0.270588
0.478431 0.482353 0.278431
0.498039 0.478431 0.286275
0.517647 0.470588 0.286275
0.537255 0.462745 0.290196
0.564706 0.470588 0.305882
0.564706 0.458824 0.298039
0.560784 0.447059 0.290196
0.560784 0.435294 0.282353
0.560784 0.435294 0.282353
0.266667 0.517647 0.258824
0.270588 0.521569 0.262745
0.258824 0.509804 0.250980
0.282353 0.509804 0.254902
0.321569 0.505882 0.258824
0.368627 0.501961 0.266667
0.411765 0.501961 0.278431
0.447059 0.505882 0.290196
0.478431 0.505882 0.298039
0.501961 0.509804 0.305882
0.517647 0.501961 0.305882
0.537255 0.498039 0.309804
0.556863 0.494118 0.317647
0.568627 0.486275 0.321569
0.564706 0.478431 0.309804
0.564706 0.470588 0.305882
0.564706 0.462745 0.301961
0.286275 0.545098 0.282353
0.286275 0.549020 0.282353
0.282353 0.545098 0.278431
0.298039 0.537255 0.278431
0.333333 0.537255 0.282353
0.376471 0.525490 0.286275
0.419608 0.529412 0.294118
0.447059 0.529412 0.301961
0.482353 0.529412 0.313726
0.505882 0.533333 0.325490
0.521569 0.533333 0.333333
0.541176 0.525490 0.337255
0.552941 0.517647 0.337255
0.572549 0.517647 0.345098
0.576471 0.513726 0.341176
0.572549 0.498039 0.333333
0.572549 0.494118 0.325490
0.305882 0.572549 0.301961
0.309804 0.572549 0.305882
0.301961 0.568627 0.301961
0.317647 0.564706 0.301961
0.341176 0.560784 0.301961
0.384314 0.556863 0.309804
0.415686 0.552941 0.313726
0.454902 0.549020 0.321569
0.482353 0.549020 0.333333
0.501961 0.549020 0.337255
0.521569 0.549020 0.345098
0.545098 0.552941 0.360784
0.556863 0.545098 0.364706
0.572549 0.537255 0.364706
0.584314 0.537255 0.372549
0.580392 0.529412 0.364706
0.580392 0.521569 0.352941
0.333333 0.596078 0.333333
0.325490 0.592157 0.325490
0.325490 0.592157 0.321569
0.333333 0.588235 0.321569
0.356863 0.584314 0.325490
0.396078 0.580392 0.333333
0.427451 0.572549 0.337255
0.462745 0.572549 0.345098
0.486275 0.568627 0.349020
0.501961 0.564706 0.352941
0.525490 0.568627 0.368627
0.541176 0.564706 0.372549
0.556863 0.568627 0.388235
0.576471 0.564706 0.392157
0.584314 0.556863 0.392157
0.588235 0.552941 0.392157
0.588235 0.545098 0.380392
0.333333 0.596078 0.333333
0.329412 0.596078 0.333333
0.329412 0.596078 0.333333
0.329412 0.596078 0.329412
0.356863 0.596078 0.337255
0.396078 0.596078 0.345098
0.439216 0.592157 0.356863
0.474510 0.592157 0.368627
0.494118 0.588235 0.376471
0.513726 0.584314 0.376471
0.529412 0.584314 0.388235
0.545098 0.584314 0.400000
0.560784 0.584314 0.403922
0.572549 0.584314 0.415686
0.592157 0.580392 0.427451
0.600000 0.576471 0.427451
0.600000 0.568627 0.415686
0.329412 0.596078 0.337255
0.333333 0.596078 0.337255
0.333333 0.596078 0.337255
0.325490 0.596078 0.333333
0.341176 0.596078 0.329412
0.372549 0.596078 0.337255
0.431373 0.596078 0.356863
0.470588 0.600000 0.376471
0.498039 0.600000 0.388235
0.513726 0.596078 0.396078
0.537255 0.600000 0.407843
0.552941 0.600000 0.419608
0.568627 0.603922 0.427451
0.580392 0.600000 0.435294
0.592157 0.603922 0.454902
0.607843 0.603922 0.462745
0.607843 0.592157 0.454902
0.329412 0.592157 0.341176
0.333333 0.596078 0.345098
0.333333 0.596078 0.345098
0.333333 0.596078 0.337255
0.325490 0.596078 0.333333
0.368627 0.600000 0.337255
0.407843 0.600000 0.349020
0.458824 0.603922 0.368627
0.494118 0.600000 0.388235
0.509804 0.596078 0.392157
0.529412 0.596078 0.403922
0.545098 0.603922 0.419608
0.560784 0.603922 0.427451
0.576471 0.603922 0.443137
0.588235 0.607843 0.454902
0.603922 0.611765 0.474510
0.619608 0.615686 0.490196
0.329412 0.596078 0.341176
0.333333 0.596078 0.345098
0.333333 0.596078 0.345098
0.333333 0.596078 0.345098
0.325490 0.596078 0.333333
0.349020 0.596078 0.333333
0.400000 0.600000 0.345098
0.447059 0.600000 0.364706
0.482353 0.600000 0.380392
0.509804 0.600000 0.392157
0.521569 0.600000 0.400000
0.537255 0.600000 0.407843
0.552941 0.603922 0.423529
0.568627 0.603922 0.427451
0.580392 0.603922 0.443137
0.596078 0.607843 0.462745
0.611765 0.615686 0.482353
0.133333 0.121569 0.231373
0.160784 0.117647 0.223529
0.215686 0.121569 0.223529
0.258824 0.125490 0.219608
0.301961 0.133333 0.223529
0.341176 0.137255 0.227451
0.388235 0.149020 0.239216
0.435294 0.164706 0.258824
0.482353 0.176471 0.278431
0.498039 0.184314 0.294118
0.498039 0.180392 0.301961
0.498039 0.184314 0.305882
0.494118 0.176471 0.278431
0.494118 0.176471 0.211765
0.494118 0.172549 0.176471
0.498039 0.176471 0.176471
0.498039 0.176471 0.176471
0.133333 0.156863 0.235294
0.172549 0.156863 0.250980
0.227451 0.141176 0.227451
0.278431 0.141176 0.219608
0.313726 0.141176 0.219608
0.349020 0.141176 0.223529
0.388235 0.149020 0.235294
0.427451 0.160784 0.247059
0.482353 0.176471 0.274510
0.498039 0.180392 0.286275
0.498039 0.184314 0.301961
0.498039 0.184314 0.305882
0.498039 0.184314 0.282353
0.498039 0.176471 0.211765
0.494118 0.172549 0.176471
0.498039 0.176471 0.176471
0.494118 0.172549 0.172549
0.129412 0.203922 0.203922
0.141176 0.203922 0.207843
0.223529 0.211765 0.215686
0.313726 0.207843 0.215686
0.376471 0.196078 0.200000
0.407843 0.184314 0.207843
0.423529 0.172549 0.215686
0.439216 0.168627 0.231373
0.478431 0.176471 0.266667
0.498039 0.184314 0.286275
0.498039 0.184314 0.294118
0.498039 0.184314 0.298039
0.498039 0.184314 0.274510
0.498039 0.176471 0.207843
0.494118 0.172549 0.172549
0.498039 0.176471 0.176471
0.494118 0.172549 0.172549
0.149020 0.270588 0.192157
0.156863 0.274510 0.192157
0.200000 0.282353 0.180392
0.274510 0.286275 0.184314
0.341176 0.270588 0.180392
0.372549 0.254902 0.176471
0.407843 0.239216 0.180392
0.470588 0.227451 0.196078
0.509804 0.203922 0.243137
0.498039 0.176471 0.270588
0.498039 0.180392 0.282353
0.498039 0.184314 0.290196
0.498039 0.180392 0.270588
0.509804 0.184314 0.196078
0.509804 0.211765 0.188235
0.509804 0.219608 0.188235
0.509804 0.215686 0.188235
0.172549 0.341176 0.180392
0.172549 0.341176 0.180392
0.203922 0.329412 0.172549
0.270588 0.333333 0.184314
0.333333 0.341176 0.196078
0.376471 0.333333 0.200000
0.407843 0.309804 0.200000
0.439216 0.298039 0.203922
0.482353 0.286275 0.207843
0.556848 0.254917 0.239216
0.533349 0.207858 0.270588
0.505882 0.188235 0.278431
0.509804 0.188235 0.250980
0.525490 0.227451 0.200000
0.521569 0.266667 0.211765
0.525490 0.270588 0.211765
0.521569 0.262745 0.207843
0.196078 0.380392 0.188235
0.188235 0.372549 0.184314
0.215686 0.376471 0.188235
0.270588 0.372549 0.200000
0.329412 0.376471 0.207843
0.380392 0.388235 0.219608
0.411765 0.372549 0.219608
0.447059 0.368627 0.223529
0.470588 0.356863 0.223529
0.505882 0.345098 0.231373
0.556848 0.321584 0.247059
0.572549 0.286290 0.250980
0.564706 0.258839 0.239216
0.529412 0.301961 0.223529
0.537255 0.325490 0.235294
0.533333 0.317647 0.227451
0.533333 0.317647 0.231373
0.215686 0.415686 0.203922
0.211765 0.411765 0.200000
0.219608 0.415686 0.203922
0.262745 0.407843 0.211765
0.321569 0.407843 0.215686
0.380392 0.423529 0.231373
0.419608 0.427451 0.243137
0.447059 0.411765 0.239216
0.474510 0.407843 0.243137
0.501961 0.400000 0.247059
0.529412 0.392157 0.254902
0.545098 0.380392 0.254902
0.545098 0.368627 0.247059
0.545098 0.368627 0.247059
0.545098 0.368627 0.250980
0.541176 0.364706 0.247059
0.541176 0.364706 0.247059
0.231373 0.454902 0.223529
0.227451 0.447059 0.219608
0.227451 0.447059 0.215686
0.262745 0.447059 0.223529
0.317647 0.439216 0.227451
0.364706 0.439216 0.239216
0.415686 0.450980 0.250980
0.450980 0.454902 0.262745
0.474510 0.443137 0.262745
0.498039 0.439216 0.266667
0.521569 0.439216 0.270588
0.549020 0.431373 0.282353
0.556863 0.423529 0.274510
0.552941 0.415686 0.270588
0.552941 0.411765 0.270588
0.549020 0.403922 0.266667
0.549020 0.403922 0.266667
0.243137 0.490196 0.239216
0.247059 0.486275 0.239216
0.243137 0.478431 0.235294
0.274510 0.482353 0.243137
0.321569 0.478431 0.250980
0.360784 0.474510 0.254902
0.411765 0.478431 0.266667
0.450980 0.478431 0.274510
0.482353 0.482353 0.286275
0.498039 0.474510 0.282353
0.517647 0.470588 0.286275
0.541176 0.466667 0.294118
0.564706 0.466667 0.305882
0.560784 0.450980 0.294118
0.564706 0.450980 0.298039
0.560784 0.439216 0.282353
0.556863 0.431373 0.282353
0.270588 0.521569 0.258824
0.266667 0.521569 0.258824
0.262745 0.513726 0.254902
0.278431 0.513726 0.254902
0.321569 0.509804 0.262745
0.368627 0.501961 0.266667
0.415686 0.501961 0.278431
0.443137 0.501961 0.290196
0.478431 0.505882 0.294118
0.501961 0.505882 0.301961
0.517647 0.501961 0.305882
0.541176 0.498039 0.313726
0.556863 0.494118 0.317647
0.568627 0.486275 0.317647
0.568627 0.482353 0.317647
0.564706 0.470588 0.305882
0.564706 0.466667 0.305882
0.282353 0.549020 0.278431
0.282353 0.545098 0.282353
0.282353 0.545098 0.278431
0.286275 0.537255 0.270588
0.333333 0.537255 0.278431
0.380392 0.533333 0.294118
0.415686 0.529412 0.294118
0.450980 0.529412 0.305882
0.478431 0.525490 0.313726
0.501961 0.529412 0.321569
0.521569 0.529412 0.329412
0.537255 0.525490 0.333333
0.556863 0.521569 0.337255
0.572549 0.517647 0.345098
0.576471 0.513726 0.341176
0.572549 0.498039 0.333333
0.568627 0.486275 0.317647
0.309804 0.572549 0.301961
0.301961 0.572549 0.301961
0.309804 0.568627 0.301961
0.309804 0.564706 0.298039
0.337255 0.556863 0.298039
0.384314 0.556863 0.309804
0.419608 0.549020 0.313726
0.454902 0.552941 0.321569
0.482353 0.549020 0.333333
0.505882 0.549020 0.341176
0.521569 0.549020 0.349020
0.537255 0.549020 0.356863
0.556863 0.545098 0.364706
0.572549 0.537255 0.364706
0.584314 0.537255 0.368627
0.580392 0.525490 0.360784
0.580392 0.521569 0.356863
0.329412 0.596078 0.337255
0.325490 0.596078 0.329412
0.321569 0.592157 0.325490
0.333333 0.588235 0.321569
0.352941 0.584314 0.325490
0.388235 0.576471 0.329412
0.427451 0.572549 0.337255
0.462745 0.572549 0.341176
0.490196 0.568627 0.352941
0.505882 0.564706 0.352941
0.525490 0.568627 0.364706
0.541176 0.568627 0.376471
0.556863 0.568627 0.384314
0.576471 0.564706 0.400000
0.592157 0.560784 0.400000
0.588235 0.549020 0.388235
0.588235 0.549020 0.384314
0.333333 0.596078 0.345098
0.333333 0.596078 0.345098
0.329412 0.596078 0.337255
0.325490 0.596078 0.333333
0.352941 0.596078 0.337255
0.396078 0.596078 0.345098
0.439216 0.596078 0.356863
0.474510 0.592157 0.368627
0.494118 0.588235 0.372549
0.517647 0.588235 0.384314
0.529412 0.584314 0.388235
0.549020 0.584314 0.400000
0.564706 0.584314 0.407843
0.576471 0.584314 0.419608
0.596078 0.584314 0.427451
0.603922 0.580392 0.431373
0.600000 0.568627 0.419608
0.333333 0.596078 0.345098
0.337255 0.596078 0.349020
0.329412 0.596078 0.341176
0.329412 0.596078 0.341176
0.337255 0.600000 0.333333
0.380392 0.600000 0.341176
0.431373 0.600000 0.356863
0.474510 0.600000 0.380392
0.501961 0.600000 0.388235
0.517647 0.596078 0.396078
0.537255 0.600000 0.407843
0.556863 0.603922 0.423529
0.568627 0.603922 0.431373
0.580392 0.603922 0.443137
0.592157 0.603922 0.454902
0.611765 0.607843 0.470588
0.607843 0.592157 0.450980
0.333333 0.596078 0.345098
0.333333 0.596078 0.345098
0.333333 0.596078 0.345098
0.329412 0.596078 0.341176
0.325490 0.600000 0.329412
0.360784 0.600000 0.337255
0.415686 0.600000 0.352941
0.458824 0.603922 0.372549
0.498039 0.600000 0.388235
0.513726 0.600000 0.396078
0.529412 0.596078 0.403922
0.549020 0.603922 0.419608
0.560784 0.603922 0.431373
0.576471 0.603922 0.439216
0.592157 0.607843 0.458824
0.607843 0.615686 0.478431
0.619608 0.615686 0.490196
0.333333 0.596078 0.345098
0.333333 0.596078 0.345098
0.333333 0.596078 0.345098
0.333333 0.596078 0.345098
0.325490 0.596078 0.333333
0.352941 0.600000 0.333333
0.403922 0.600000 0.349020
0.447059 0.603922 0.368627
0.482353 0.600000 0.380392
0.509804 0.600000 0.392157
0.525490 0.596078 0.400000
0.541176 0.600000 0.407843
0.552941 0.603922 0.423529
0.568627 0.603922 0.435294
0.584314 0.607843 0.447059
0.600000 0.611765 0.466667
0.615686 0.615686 0.486275
0.145098 0.125490 0.290196
0.156863 0.121569 0.278431
0.207843 0.125490 0.270588
0.254902 0.125490 0.262745
0.301961 0.133333 0.262745
0.341176 0.141176 0.266667
0.384314 0.152941 0.278431
0.431373 0.164706 0.298039
0.482353 0.176471 0.313726
0.498039 0.184314 0.321569
0.498039 0.184314 0.317647
0.501961 0.184314 0.317647
0.498039 0.184314 0.305882
