tools/luts_backup/Kodak Elite Chrome 200_FC.cube
# (C) 2014 VisionColor & Patchflyer [www.vision-color.com]
# Generator: VC Patchmatch v.2.1.1 [64/53]
# All work and no play makes Jack a dull boy.
# LUT generated from: Kodak Elite Chrome 200_FC01
LUT_3D_SIZE 9
0.025147 0.025147 0.025147
0.094057 0.022263 0.024872
0.154162 0.022324 0.028107
0.204868 0.024994 0.028794
0.266590 0.028809 0.028824
0.342733 0.033417 0.034318
0.444358 0.042741 0.042756
0.530312 0.046342 0.046387
0.591379 0.046342 0.046372
0.023911 0.082033 0.013077
0.086549 0.086732 0.019120
0.155596 0.085847 0.026886
0.229633 0.080934 0.034714
0.299687 0.082292 0.040146
0.372045 0.083040 0.043336
0.455177 0.084733 0.046952
0.526024 0.086702 0.048081
0.590753 0.098558 0.053193
0.027604 0.143008 0.016648
0.076387 0.150790 0.021042
0.145480 0.158221 0.030381
0.247318 0.167010 0.045548
0.340230 0.159380 0.054704
0.429404 0.153887 0.060533
0.496498 0.154589 0.065705
0.556298 0.149340 0.061051
0.608911 0.153857 0.065354
0.030579 0.205310 0.021378
0.067506 0.222034 0.026749
0.109117 0.233722 0.031342
0.232578 0.262409 0.051896
0.394965 0.280232 0.076936
0.515038 0.287755 0.091691
0.593851 0.281132 0.101762
0.661875 0.277882 0.106905
0.692531 0.244373 0.098466
0.034485 0.293431 0.028275
0.068742 0.329747 0.034882
0.105684 0.354833 0.040070
0.188128 0.367437 0.052415
0.404059 0.436271 0.093599
0.582162 0.451713 0.125261
0.704784 0.466804 0.145525
0.776318 0.466667 0.162646
0.820172 0.448829 0.161639
0.043320 0.424689 0.039704
0.078279 0.461524 0.048844
0.120836 0.477378 0.055283
0.194308 0.488975 0.066041
0.394629 0.537820 0.100801
0.613748 0.585580 0.150423
0.750027 0.610498 0.180911
0.852399 0.633402 0.210254
0.865980 0.591546 0.199390
0.056687 0.561181 0.053849
0.088914 0.575250 0.061204
0.126558 0.586984 0.067399
0.200641 0.599008 0.079179
0.406302 0.636286 0.118029
0.639307 0.693568 0.172976
0.774655 0.711086 0.201999
0.870924 0.741466 0.238071
0.917311 0.753994 0.269169
0.068132 0.662867 0.065141
0.096086 0.677455 0.070283
0.145556 0.680919 0.078218
0.232090 0.697063 0.097505
0.432425 0.727123 0.137133
0.682918 0.785641 0.196017
0.807675 0.818311 0.226215
0.877607 0.829633 0.254047
0.928634 0.848600 0.291676
0.078126 0.752148 0.072328
0.105608 0.745327 0.074800
0.179034 0.757259 0.092180
0.302922 0.771221 0.116655
0.490211 0.792615 0.159655
0.699733 0.865049 0.208255
0.840970 0.891691 0.254902
0.888914 0.900206 0.289204
0.927947 0.908415 0.315785
0.029129 0.024781 0.105715
0.090990 0.023316 0.084550
0.154116 0.026932 0.076936
0.213123 0.030762 0.074434
0.278813 0.032929 0.073304
0.355871 0.037629 0.075959
0.452369 0.046250 0.084932
0.541146 0.050813 0.086946
0.598077 0.051667 0.087251
0.022858 0.079301 0.074708
0.092699 0.083680 0.083558
0.201587 0.041444 0.043549
0.263493 0.030564 0.030549
0.340703 0.033463 0.033524
0.438102 0.043122 0.043183
0.523735 0.047868 0.046174
0.577279 0.052720 0.052094
0.592874 0.088746 0.087068
0.024399 0.144930 0.073335
0.042908 0.189807 0.033661
0.205280 0.224002 0.055650
0.340444 0.158801 0.055360
0.406043 0.127871 0.053895
0.469520 0.117510 0.053407
0.531212 0.108675 0.052140
0.586633 0.118181 0.060990
0.588983 0.131609 0.091905
0.025025 0.212848 0.069993
0.034760 0.292088 0.029786
0.108705 0.346136 0.040894
0.397421 0.430228 0.094469
0.535500 0.335058 0.102434
0.588540 0.275029 0.100069
0.627161 0.239582 0.094163
0.645624 0.203815 0.086656
0.623301 0.195575 0.102983
0.029740 0.307210 0.068803
0.044694 0.427497 0.040192
0.104540 0.474388 0.053101
0.246845 0.501289 0.074586
0.612802 0.586160 0.150378
0.729793 0.541360 0.164675
0.795331 0.497520 0.170321
0.805463 0.443458 0.164233
0.782925 0.396979 0.169528
0.040589 0.432776 0.077150
0.055222 0.555291 0.053849
0.107118 0.582681 0.064179
0.204181 0.599741 0.080415
0.526604 0.667048 0.144579
0.775525 0.711803 0.201373
0.861082 0.702388 0.228870
0.879728 0.645762 0.226200
0.878340 0.591897 0.239689
0.053208 0.560555 0.086549
0.067979 0.664591 0.064912
0.115206 0.674434 0.073335
0.208530 0.689876 0.091798
0.489555 0.736614 0.148943
0.760479 0.806256 0.215457
0.873426 0.826429 0.252216
0.918547 0.814740 0.287755
0.918059 0.749798 0.311086
0.066117 0.662638 0.096818
0.082506 0.742672 0.077485
0.132677 0.742504 0.086122
0.252811 0.754772 0.111650
0.489982 0.795483 0.161685
0.745281 0.868849 0.228290
0.866957 0.888319 0.275120
0.918868 0.896849 0.304234
0.930755 0.857618 0.338369
0.076036 0.752621 0.099733
0.121874 0.757382 0.111818
0.192142 0.756634 0.127275
0.313710 0.769329 0.150881
0.504631 0.810544 0.194644
0.722164 0.874266 0.256626
0.837369 0.896483 0.300465
0.896208 0.906889 0.330205
0.935149 0.908568 0.350744
0.030945 0.028000 0.181521
0.083696 0.026413 0.161822
0.148379 0.027878 0.142306
0.217182 0.034119 0.131273
0.287114 0.038193 0.124483
0.373114 0.043732 0.126146
0.465095 0.050706 0.131044
0.550561 0.054292 0.131579
0.586694 0.053269 0.130266
0.028916 0.076158 0.158831
0.046143 0.044877 0.221683
0.199634 0.048371 0.190845
0.285969 0.038315 0.124620
0.368307 0.042710 0.110140
0.457465 0.049027 0.105303
0.544121 0.052308 0.103349
0.586404 0.057221 0.104280
0.586572 0.085313 0.128969
0.028336 0.127352 0.144930
0.049271 0.175647 0.203647
0.171359 0.164324 0.174044
0.329656 0.101198 0.097887
0.408331 0.061967 0.061067
0.516030 0.048905 0.048951
0.571115 0.056367 0.055192
0.587991 0.086366 0.085969
0.581003 0.123644 0.127825
0.040330 0.216251 0.153490
0.043473 0.313924 0.149508
0.081971 0.314458 0.084276
0.389090 0.392691 0.133227
0.548928 0.268116 0.110826
0.578866 0.181964 0.077729
0.596338 0.150454 0.070100
0.595560 0.147814 0.090974
0.626535 0.188556 0.138689
0.041489 0.318837 0.149722
0.044114 0.440986 0.122667
0.069032 0.501778 0.068238
0.204364 0.538430 0.089403
0.690517 0.643534 0.192248
0.813077 0.568048 0.189822
0.797818 0.431189 0.161395
0.750896 0.349111 0.155596
0.748394 0.345281 0.185397
0.048722 0.450019 0.158785
0.054948 0.560708 0.119982
0.069291 0.656672 0.066896
0.168139 0.677150 0.085512
0.583963 0.756298 0.173419
0.868605 0.817487 0.252354
0.902495 0.741512 0.263386
0.881071 0.620508 0.248676
0.877867 0.572183 0.267430
0.060029 0.569589 0.167529
0.066545 0.670542 0.120150
0.084840 0.732799 0.078294
0.186084 0.743328 0.099763
0.484947 0.793484 0.163897
0.811490 0.876081 0.252018
0.914519 0.891279 0.301961
0.932036 0.820706 0.332921
0.911284 0.732891 0.327611
0.072251 0.677333 0.175174
0.086885 0.748730 0.129549
0.124102 0.758373 0.113909
0.235889 0.759976 0.134463
0.466316 0.804578 0.185641
0.753491 0.880140 0.266789
0.874846 0.903685 0.318715
0.934081 0.907210 0.352102
0.939345 0.862577 0.377203
0.099413 0.771771 0.201343
0.130785 0.767071 0.183246
0.188205 0.766567 0.157717
0.337560 0.773831 0.192264
0.521080 0.819654 0.238514
0.748959 0.884489 0.311543
0.857801 0.908446 0.343145
0.907912 0.916228 0.371954
0.941787 0.918105 0.402197
0.031891 0.029618 0.237415
0.080949 0.028092 0.232166
0.139742 0.030457 0.218357
0.217258 0.036820 0.202213
0.294957 0.042252 0.188220
0.375326 0.046113 0.178393
0.464195 0.052903 0.182132
0.539651 0.054414 0.176669
0.577798 0.050629 0.171099
0.034195 0.082338 0.231571
0.033509 0.033066 0.295552
0.134051 0.032944 0.310903
0.299397 0.046754 0.267521
0.380240 0.048463 0.202716
0.461341 0.052079 0.179431
0.540215 0.054749 0.167254
0.573999 0.056519 0.160052
0.568063 0.082765 0.171038
0.035691 0.131121 0.220432
0.042695 0.140017 0.311833
0.102052 0.112093 0.341543
0.330739 0.118791 0.304540
0.442832 0.072480 0.183719
0.534249 0.056153 0.145205
0.579995 0.059617 0.135622
0.577585 0.082399 0.144091
0.570153 0.114885 0.166186
0.042939 0.190967 0.223163
0.062684 0.282765 0.329076
0.114519 0.300282 0.339361
0.297566 0.304753 0.301640
0.492058 0.181720 0.169558
0.522423 0.105425 0.105364
0.580270 0.087617 0.088258
0.587961 0.124407 0.128969
0.649485 0.189075 0.189746
0.065568 0.317968 0.258488
0.087861 0.451774 0.325109
0.099718 0.521660 0.280461
0.137636 0.463020 0.142641
0.596521 0.560815 0.253834
0.709743 0.404364 0.188235
0.684596 0.258686 0.129030
0.682734 0.251102 0.156191
0.777813 0.337331 0.238865
0.081834 0.458137 0.292805
0.092393 0.579812 0.305684
0.086152 0.676463 0.222141
0.112856 0.636164 0.117952
0.451942 0.692821 0.187198
0.843381 0.776028 0.287510
0.896849 0.692546 0.280156
0.877562 0.569207 0.268254
0.893660 0.567910 0.328298
0.094499 0.580438 0.313390
0.100908 0.691630 0.293431
0.101946 0.755138 0.207782
0.126040 0.750484 0.116045
0.369833 0.773281 0.166857
0.803052 0.885542 0.285679
0.929885 0.902327 0.351751
0.931289 0.798978 0.356329
0.934646 0.734844 0.392828
0.110552 0.703471 0.332464
0.125292 0.771496 0.309957
0.134707 0.776791 0.220722
0.189990 0.764935 0.161242
0.428473 0.789914 0.212390
0.742809 0.881971 0.306767
0.885405 0.914199 0.358862
0.940749 0.916228 0.404456
0.941909 0.854902 0.431388
0.142519 0.788357 0.382589
0.155703 0.787701 0.314763
0.170626 0.777493 0.217594
0.303822 0.791745 0.236484
0.526253 0.829053 0.296239
0.739788 0.894652 0.371191
0.872969 0.932738 0.398077
0.912581 0.919158 0.410834
0.941802 0.913375 0.454246
0.033951 0.031922 0.292958
0.077363 0.029709 0.314672
0.132570 0.031678 0.311910
0.204242 0.036973 0.292592
0.300267 0.045914 0.267674
0.389776 0.052094 0.253590
0.465110 0.056184 0.243091
0.532815 0.055924 0.234104
0.567086 0.052827 0.226780
0.038315 0.092164 0.321340
0.036103 0.030304 0.369696
0.113176 0.035492 0.422400
0.228656 0.044388 0.402090
0.392584 0.054887 0.346075
0.471504 0.058854 0.281590
0.528801 0.056245 0.245930
0.560098 0.057786 0.229740
0.557122 0.083497 0.228336
0.042130 0.141375 0.314458
0.049058 0.147173 0.435691
0.061418 0.070848 0.458808
0.207721 0.080110 0.506279
0.468345 0.097414 0.419532
0.528878 0.061555 0.283131
0.557794 0.059907 0.228595
0.560830 0.083726 0.213352
0.578332 0.123690 0.235248
0.045197 0.194491 0.304677
0.054459 0.231342 0.409033
0.083436 0.242802 0.483680
0.178759 0.214710 0.490623
0.498054 0.235111 0.461570
0.548516 0.122042 0.260410
0.563989 0.085252 0.189548
0.580606 0.118715 0.197528
0.654368 0.175372 0.250202
0.062821 0.285481 0.331807
0.088533 0.400092 0.454124
0.129854 0.474388 0.526345
0.212192 0.468467 0.504677
0.486778 0.497169 0.476158
0.656062 0.294194 0.274083
0.599786 0.157824 0.158572
0.651682 0.189395 0.192828
0.765194 0.311025 0.310780
0.095048 0.443091 0.387427
0.136828 0.572839 0.492912
0.185657 0.693767 0.557580
0.190448 0.661906 0.439704
0.251713 0.605402 0.228382
0.765667 0.705745 0.375280
0.859312 0.564843 0.292851
0.856947 0.481895 0.294881
0.893797 0.554955 0.419699
0.127291 0.578576 0.445548
0.169955 0.702846 0.511925
0.196017 0.782635 0.517342
0.170428 0.784283 0.350423
0.206210 0.731533 0.181430
0.722332 0.857176 0.322454
0.922652 0.880842 0.390005
0.936934 0.775051 0.406195
0.940139 0.747372 0.489662
0.161303 0.706996 0.490410
0.199527 0.792065 0.529412
0.203235 0.800610 0.450675
0.183963 0.786847 0.289479
0.297505 0.794171 0.233112
0.656046 0.875044 0.344778
0.887114 0.931090 0.400671
0.941787 0.915328 0.450690
0.941527 0.854978 0.508537
0.203540 0.803967 0.542489
0.223178 0.809232 0.491554
0.211170 0.799512 0.385336
0.252811 0.813230 0.324514
0.406119 0.835157 0.349676
0.654917 0.881285 0.449683
0.848737 0.923049 0.465095
0.916594 0.934035 0.447440
0.941833 0.908721 0.487739
0.035721 0.030259 0.370336
0.077348 0.034104 0.413199
0.133989 0.036988 0.425513
0.200626 0.041794 0.412146
0.288685 0.047532 0.389136
0.396902 0.056184 0.346258
0.483070 0.062867 0.332235
0.533852 0.060899 0.316762
0.562203 0.053132 0.287541
0.044984 0.107958 0.428138
0.038483 0.029358 0.466575
0.103639 0.037751 0.530938
0.196262 0.046601 0.547921
0.335744 0.059709 0.494087
0.480171 0.067002 0.437858
0.534249 0.062730 0.369024
0.562600 0.060304 0.318379
0.570977 0.093263 0.313298
0.050126 0.164904 0.439475
0.060380 0.163531 0.546639
0.043870 0.036027 0.569131
0.149020 0.053147 0.641382
0.346426 0.072663 0.596551
0.534218 0.073915 0.493767
0.562890 0.069001 0.375662
0.577295 0.095521 0.336446
0.612100 0.149935 0.350591
0.051347 0.213214 0.414755
0.066773 0.247349 0.535698
0.080140 0.244038 0.630930
0.121416 0.167788 0.597360
0.330358 0.184573 0.655589
0.596750 0.176043 0.552773
0.586664 0.105974 0.384680
0.617517 0.147997 0.351125
0.702846 0.221302 0.399069
0.059815 0.274830 0.406928
0.074540 0.347433 0.518685
0.096376 0.388693 0.609995
0.153307 0.382879 0.605936
0.310262 0.376455 0.643397
0.671489 0.396460 0.637003
0.661494 0.200183 0.394583
0.686625 0.207584 0.346258
0.802792 0.349752 0.460182
0.089693 0.399939 0.455024
0.134768 0.533928 0.593393
0.206210 0.663493 0.733028
0.240894 0.636255 0.701976
0.393973 0.636454 0.684855
0.675868 0.653651 0.660044
0.797330 0.450645 0.427482
0.768231 0.311971 0.313497
0.894362 0.559487 0.551278
0.140841 0.570565 0.538720
0.211261 0.709545 0.661494
0.289616 0.816846 0.741314
0.330724 0.842008 0.735180
0.341375 0.799527 0.621530
0.456870 0.739528 0.396551
0.882399 0.825772 0.500450
0.936049 0.742412 0.487266
0.941833 0.753658 0.620142
0.201831 0.710582 0.615396
0.274678 0.822263 0.690517
0.314855 0.851850 0.692882
0.330007 0.856336 0.640665
0.335683 0.844755 0.522377
0.422873 0.844480 0.363027
0.842588 0.919432 0.470603
0.941588 0.909316 0.493233
0.944411 0.871290 0.625238
0.263783 0.829374 0.668650
0.306310 0.851896 0.667124
0.327611 0.855589 0.639246
0.385458 0.865187 0.632837
0.452552 0.866819 0.558663
0.618708 0.888869 0.574533
0.789776 0.918090 0.588815
0.907027 0.938415 0.572534
0.944060 0.929381 0.591730
0.038270 0.028840 0.468498
0.077302 0.034195 0.517678
0.130968 0.040574 0.548287
0.197177 0.046159 0.552651
0.287510 0.055344 0.518761
0.387091 0.064103 0.479576
0.482200 0.069001 0.442954
0.534997 0.063355 0.408179
0.556420 0.055741 0.358053
0.054704 0.129091 0.535378
0.038804 0.028473 0.577447
0.097841 0.038315 0.619013
0.174365 0.049058 0.658228
0.294575 0.062867 0.622187
0.442466 0.071946 0.553094
0.532204 0.068742 0.493660
0.566690 0.067720 0.433783
0.584253 0.102708 0.414115
0.066239 0.200626 0.553429
0.067491 0.171786 0.641459
0.050645 0.048814 0.657954
0.132067 0.062867 0.708370
0.271946 0.084047 0.716854
0.472251 0.091539 0.615961
0.577188 0.078447 0.535042
0.597116 0.112657 0.472465
0.641032 0.166674 0.482368
0.067063 0.249897 0.534310
0.080339 0.273747 0.638010
0.090501 0.248753 0.705486
0.101534 0.139010 0.692561
0.228565 0.155169 0.745708
0.501091 0.163012 0.689555
0.618845 0.132372 0.570245
0.654765 0.177432 0.531243
0.741665 0.264256 0.549447
0.069902 0.308186 0.516503
0.085908 0.356374 0.613474
0.106203 0.380407 0.693446
0.140826 0.361715 0.717632
0.202976 0.297765 0.716823
0.526696 0.343587 0.789136
0.728130 0.278752 0.674769
0.747021 0.276768 0.591867
0.839170 0.422538 0.632120
0.087373 0.397650 0.531624
0.118105 0.486915 0.647715
0.149889 0.540444 0.734218
0.182239 0.534173 0.743633
0.282094 0.540124 0.763104
0.514183 0.555703 0.784268
0.826459 0.549126 0.786252
0.838941 0.422339 0.626474
0.906233 0.599863 0.708904
0.132952 0.531853 0.593317
0.210834 0.675441 0.747189
0.300221 0.787015 0.857114
0.365515 0.822065 0.873487
0.416480 0.780819 0.849470
0.605234 0.794888 0.836728
0.822934 0.778241 0.797223
0.904555 0.635004 0.631586
0.934279 0.751781 0.768963
0.216953 0.707637 0.693828
0.310323 0.830167 0.806134
0.365667 0.856931 0.822187
0.416907 0.860243 0.823804
0.499916 0.876265 0.819944
0.571359 0.888701 0.773144
0.672053 0.886687 0.635615
0.936355 0.913680 0.647410
0.946944 0.874144 0.781323
0.306432 0.852735 0.770550
0.351797 0.855543 0.774334
0.395483 0.860365 0.779248
0.481895 0.874846 0.784878
0.576104 0.891875 0.785794
0.677470 0.907668 0.775479
0.779095 0.926574 0.755856
0.894621 0.941573 0.752514
0.947829 0.941695 0.756558
0.038468 0.027863 0.575906
0.077180 0.033768 0.605325
0.128267 0.043946 0.641154
0.189212 0.050996 0.666133
0.275242 0.059617 0.633631
0.388464 0.071809 0.585916
0.479759 0.070970 0.531228
0.531792 0.069718 0.494606
0.562997 0.060731 0.461875
0.058640 0.138231 0.637385
0.045960 0.040223 0.669673
0.099748 0.051865 0.693782
0.163622 0.063233 0.741588
0.269703 0.077455 0.725032
0.418708 0.090242 0.658808
0.508614 0.078874 0.574777
0.573159 0.074617 0.533410
0.606943 0.120363 0.503944
0.076478 0.225223 0.650645
0.076707 0.184558 0.708095
0.097429 0.130404 0.695491
0.155962 0.137285 0.717083
0.271946 0.154604 0.762570
0.452720 0.161028 0.725887
0.556741 0.137697 0.616144
0.617105 0.126619 0.567361
0.672892 0.187915 0.566232
0.082338 0.287358 0.635554
0.096178 0.301274 0.710536
0.125261 0.280934 0.720790
0.158602 0.239826 0.718074
0.273213 0.258762 0.772869
0.486381 0.274311 0.802640
0.644129 0.235187 0.698634
0.686915 0.207279 0.632929
0.768383 0.305440 0.665476
0.084504 0.345144 0.620295
0.104051 0.382147 0.697948
0.141711 0.396948 0.729183
0.197467 0.398611 0.757702
0.261662 0.367956 0.783398
0.487694 0.413046 0.852049
0.709270 0.378790 0.793820
0.786648 0.334249 0.728985
0.861875 0.472999 0.758572
0.100084 0.421637 0.621073
0.127260 0.484108 0.714656
0.160571 0.493294 0.732754
0.226917 0.520119 0.765713
0.341909 0.553033 0.829068
0.456138 0.523430 0.856428
0.735927 0.540078 0.866545
0.868788 0.489647 0.812009
0.906783 0.626261 0.812070
0.135485 0.531594 0.669429
0.187411 0.620310 0.773617
0.231006 0.640024 0.794415
0.292638 0.660182 0.819455
0.406958 0.698756 0.858900
0.552804 0.723156 0.882933
0.706310 0.699214 0.879545
0.908812 0.682628 0.867063
0.935882 0.763912 0.853956
0.211795 0.677028 0.742626
0.305608 0.798932 0.864881
0.371954 0.836393 0.881697
0.430472 0.846891 0.887449
0.512657 0.857923 0.897231
0.635172 0.891310 0.919814
0.762768 0.901656 0.914137
0.907012 0.888655 0.885222
0.952483 0.886244 0.885023
0.327794 0.848920 0.850614
0.373617 0.853834 0.851896
0.423789 0.857725 0.857191
0.517998 0.876753 0.867277
0.629999 0.901381 0.881041
0.731136 0.918364 0.878019
0.807355 0.933364 0.872953
0.902602 0.949233 0.887282
0.954498 0.948455 0.887495
0.036179 0.025849 0.686717
0.077058 0.035828 0.684962
0.125536 0.046113 0.720928
0.177661 0.054734 0.772992
0.265202 0.066011 0.731685
0.375845 0.078050 0.684520
0.470283 0.074907 0.621286
0.522850 0.063737 0.560586
0.568612 0.063569 0.529519
0.062638 0.146319 0.711315
0.099870 0.137072 0.694514
0.139254 0.138140 0.705638
0.189075 0.143740 0.731151
0.295384 0.157366 0.768612
0.426169 0.161669 0.748470
0.520867 0.151278 0.662577
0.570169 0.131533 0.592248
0.616770 0.128939 0.565866
0.083452 0.244190 0.727825
0.118349 0.243961 0.715297
0.155901 0.241032 0.717037
0.216678 0.250156 0.746273
0.340795 0.272938 0.808774
0.489174 0.278965 0.807019
0.613062 0.252399 0.740276
0.671809 0.224811 0.675837
0.691508 0.206439 0.635081
0.093965 0.320104 0.727184
0.132555 0.333104 0.722896
0.185245 0.356207 0.745022
0.261433 0.370382 0.785000
0.394858 0.403693 0.822461
0.546792 0.420905 0.857114
0.679927 0.396185 0.811643
0.759411 0.353979 0.756939
0.786007 0.337514 0.734524
0.097322 0.382147 0.708080
0.142107 0.410605 0.725444
0.207248 0.443915 0.757092
0.313893 0.495384 0.828489
0.460121 0.524208 0.862043
0.608988 0.547295 0.876295
0.735592 0.533715 0.867796
0.825742 0.514199 0.848142
0.869474 0.497292 0.818219
0.114183 0.458991 0.714565
0.152712 0.475151 0.728817
0.221546 0.517464 0.763973
0.354269 0.579858 0.835294
0.515602 0.631739 0.875257
0.659876 0.669520 0.886595
0.771542 0.668299 0.889769
0.866316 0.660487 0.883116
0.913664 0.639368 0.864179
0.152911 0.565225 0.764675
0.192920 0.564401 0.759243
0.255634 0.600259 0.787594
0.391211 0.666484 0.854520
0.554070 0.723980 0.884337
0.684245 0.770916 0.902937
0.802411 0.779904 0.912245
0.884871 0.780697 0.911620
0.942992 0.777584 0.897932
0.214588 0.674739 0.808560
0.260365 0.690776 0.821515
0.336660 0.730999 0.855894
0.446387 0.765774 0.876417
0.584833 0.810193 0.899947
0.715572 0.855344 0.916457
0.824964 0.884306 0.931945
0.906249 0.888884 0.940124
0.953368 0.888655 0.934615
0.319387 0.806668 0.875364
0.370794 0.836286 0.882002
0.432578 0.847196 0.889342
0.513832 0.862043 0.896406
0.631479 0.893172 0.915404
0.747814 0.912993 0.933806
0.836164 0.933791 0.940566
0.906096 0.949538 0.946532
0.959945 0.959945 0.951598
