tools/luts_backup/Kodak Ultramax 400_FC.cube
# (C) 2014 VisionColor & Patchflyer [www.vision-color.com]
# Generator: VC Patchmatch v.2.1.1 [64/53]
# All work and no play makes Jack a dull boy.
# LUT generated from: Kodak Ultramax 400_FC01
LUT_3D_SIZE 17
0.021515 0.025727 0.021515
0.037125 0.021897 0.025620
0.060380 0.021118 0.025193
0.086976 0.021683 0.022736
0.121920 0.021744 0.023331
0.169741 0.021912 0.026032
0.222934 0.021820 0.027329
0.280186 0.022675 0.030426
0.353307 0.023499 0.034531
0.434470 0.023346 0.036088
0.509499 0.023880 0.036316
0.590677 0.024704 0.038010
0.671260 0.024979 0.040620
0.739254 0.025711 0.042466
0.810498 0.026398 0.045945
0.884047 0.027497 0.048661
0.940414 0.027741 0.050568
0.027222 0.040543 0.020432
0.045151 0.034119 0.018875
0.072435 0.034836 0.021530
0.102953 0.036210 0.019471
0.143999 0.040543 0.021012
0.196719 0.041917 0.022263
0.251102 0.042664 0.023865
0.312245 0.045335 0.025513
0.382376 0.047135 0.027680
0.454978 0.047044 0.030152
0.522301 0.047929 0.032746
0.595865 0.048569 0.034974
0.674846 0.047425 0.037446
0.757763 0.045121 0.040497
0.842847 0.040787 0.044999
0.901884 0.036896 0.047410
0.950759 0.030930 0.048554
0.032151 0.059480 0.015610
0.053620 0.058183 0.015137
0.085634 0.058045 0.015412
0.123125 0.059983 0.016373
0.169558 0.065126 0.016083
0.226734 0.070253 0.018708
0.288396 0.075059 0.020981
0.350942 0.078904 0.022721
0.418906 0.081163 0.023606
0.485573 0.080018 0.024872
0.554162 0.080659 0.027619
0.624720 0.082231 0.031235
0.696239 0.079088 0.033860
0.773144 0.074113 0.036881
0.851423 0.067506 0.042054
0.918471 0.058167 0.045853
0.968353 0.044343 0.049516
0.037247 0.076402 0.013642
0.062104 0.082353 0.013092
0.097917 0.087022 0.012512
0.142138 0.092378 0.013184
0.187304 0.098283 0.013519
0.250370 0.105409 0.015564
0.316503 0.112734 0.018601
0.380804 0.119692 0.020111
0.444404 0.125566 0.021241
0.516121 0.126680 0.023102
0.584665 0.123339 0.025254
0.646891 0.121019 0.028458
0.713863 0.117250 0.031357
0.789258 0.113329 0.034409
0.863569 0.106310 0.038605
0.925551 0.097902 0.043549
0.975250 0.083314 0.045594
0.052064 0.104616 0.011948
0.079423 0.113329 0.011658
0.114702 0.126146 0.011719
0.159472 0.131930 0.011765
0.210407 0.136477 0.012741
0.270130 0.146654 0.013443
0.340108 0.154391 0.015900
0.407828 0.163394 0.018601
0.479149 0.172610 0.020218
0.547890 0.179065 0.022019
0.609964 0.175799 0.023957
0.671168 0.170184 0.026673
0.732921 0.166308 0.030014
0.805539 0.164706 0.033768
0.877668 0.159701 0.038148
0.934829 0.155550 0.042405
0.969284 0.143069 0.042741
0.084688 0.153048 0.010117
0.109102 0.162127 0.010330
0.142382 0.175128 0.010910
0.183932 0.188296 0.011917
0.238087 0.194018 0.012863
0.292866 0.194858 0.014221
0.366430 0.205447 0.015259
0.443610 0.218463 0.017502
0.512764 0.227451 0.019379
0.576669 0.235370 0.020600
0.636805 0.236713 0.022019
0.698863 0.230961 0.023972
0.762661 0.226215 0.027924
0.828321 0.225177 0.032700
0.894667 0.222736 0.038499
0.946517 0.215442 0.042725
0.960449 0.200992 0.041321
0.131640 0.218158 0.009995
0.152270 0.228168 0.010788
0.182727 0.242374 0.011246
0.217685 0.254383 0.012314
0.267231 0.263630 0.013764
0.322499 0.262074 0.014633
0.385901 0.267109 0.016297
0.469596 0.284047 0.017334
0.540246 0.296101 0.018799
0.602441 0.300862 0.019989
0.664179 0.306325 0.020859
0.724163 0.302068 0.022004
0.783597 0.293492 0.024537
0.841672 0.285969 0.029007
0.904921 0.282109 0.034882
0.942367 0.269902 0.039368
0.954177 0.243793 0.039002
0.179995 0.286534 0.010391
0.195087 0.299245 0.011734
0.225391 0.313527 0.012650
0.255299 0.331258 0.013443
0.298451 0.339025 0.014588
0.350317 0.341772 0.015610
0.417609 0.341161 0.016800
0.481453 0.353124 0.018006
0.555398 0.366964 0.018601
0.612390 0.373785 0.018845
0.677333 0.384543 0.019974
0.743267 0.382940 0.020890
0.798749 0.367529 0.022187
0.849851 0.353643 0.024186
0.903685 0.338750 0.028290
0.935790 0.323171 0.032013
0.946944 0.292393 0.034928
0.225132 0.351049 0.010666
0.236210 0.367620 0.012146
0.260151 0.383597 0.013657
0.289296 0.403540 0.015030
0.328008 0.414389 0.016281
0.380072 0.419776 0.017258
0.444648 0.424323 0.018158
0.507622 0.427436 0.018280
0.566476 0.443000 0.019150
0.630640 0.450111 0.019120
0.687785 0.453910 0.018692
0.755535 0.458381 0.019593
0.809140 0.444129 0.020325
0.855680 0.426337 0.021637
0.895705 0.401221 0.023529
0.924163 0.377997 0.025101
0.933471 0.345464 0.028046
0.263157 0.411048 0.011200
0.271397 0.436179 0.012909
0.288655 0.455634 0.014557
0.319356 0.470390 0.016617
0.356481 0.483726 0.019013
0.409918 0.491310 0.020111
0.469780 0.494011 0.019348
0.529259 0.500435 0.018906
0.579507 0.507454 0.018509
0.643488 0.520989 0.019532
0.706310 0.524498 0.019623
0.768872 0.520989 0.019059
0.823880 0.511452 0.019562
0.857862 0.495933 0.019989
0.889662 0.470939 0.021286
0.909239 0.444953 0.022217
0.916793 0.400870 0.023102
0.293248 0.468025 0.011322
0.297505 0.495979 0.012955
0.308537 0.519585 0.014557
0.340383 0.535058 0.017243
0.383993 0.544625 0.018936
0.431128 0.550103 0.019654
0.487800 0.551720 0.018418
0.539010 0.553933 0.018051
0.602899 0.563378 0.018341
0.656367 0.573999 0.018585
0.719310 0.580819 0.019471
0.777127 0.577691 0.019745
0.836881 0.569863 0.019837
0.863569 0.550134 0.020035
0.889799 0.533562 0.020294
0.898924 0.509407 0.020478
0.907607 0.460655 0.021485
0.314946 0.526864 0.011826
0.323445 0.546120 0.013184
0.331823 0.569131 0.014343
0.357702 0.592050 0.015885
0.404471 0.601694 0.017350
0.449821 0.604410 0.017685
0.498985 0.603449 0.017746
0.553338 0.609689 0.017243
0.617258 0.613108 0.017777
0.682109 0.620951 0.018418
0.738155 0.629755 0.018708
0.791028 0.628000 0.019364
0.840665 0.619974 0.019944
0.869490 0.599771 0.020157
0.888090 0.585977 0.020386
0.892821 0.565774 0.020432
0.898863 0.516670 0.020478
0.316579 0.588815 0.012238
0.329046 0.605432 0.013382
0.346288 0.626017 0.014466
0.376333 0.643320 0.015274
0.417624 0.652384 0.016281
0.470909 0.657923 0.017044
0.518166 0.657496 0.017060
0.573114 0.664195 0.016938
0.634653 0.669596 0.017258
0.699992 0.671107 0.018372
0.753994 0.677073 0.018967
0.804593 0.676799 0.019638
0.849744 0.669490 0.020127
0.871382 0.660105 0.020310
0.884855 0.638514 0.020478
0.886381 0.625376 0.020462
0.889906 0.590936 0.020447
0.305303 0.660456 0.012207
0.322637 0.671992 0.012818
0.343374 0.691417 0.013718
0.381216 0.702632 0.014710
0.422385 0.709575 0.015503
0.476402 0.715114 0.016495
0.534386 0.716945 0.016800
0.595804 0.720302 0.017105
0.655894 0.723781 0.017731
0.712963 0.723247 0.018631
0.771756 0.720974 0.019333
0.817945 0.716060 0.019928
0.846082 0.705425 0.020188
0.876387 0.707271 0.020554
0.880323 0.697993 0.020615
0.881346 0.687785 0.020600
0.882872 0.669871 0.020569
0.294163 0.741985 0.012390
0.316945 0.743984 0.012940
0.333120 0.755520 0.013214
0.370413 0.764187 0.013855
0.424903 0.770565 0.014664
0.479210 0.771801 0.015595
0.533593 0.771359 0.016159
0.601373 0.773342 0.017075
0.668757 0.776791 0.018051
0.716945 0.775265 0.018738
0.763363 0.770611 0.019394
0.816388 0.754849 0.020050
0.836805 0.746075 0.020218
0.865644 0.743618 0.020508
0.877928 0.745205 0.020737
0.878218 0.741955 0.020722
0.878416 0.738430 0.020722
0.273991 0.803952 0.011978
0.299596 0.801694 0.012543
0.326970 0.819211 0.013108
0.358999 0.825818 0.013703
0.414572 0.828855 0.014664
0.474678 0.827070 0.015640
0.524071 0.826825 0.016129
0.579278 0.824948 0.016876
0.646342 0.821988 0.017762
0.710628 0.819013 0.018723
0.751934 0.818402 0.019287
0.786801 0.812818 0.019852
0.819303 0.797436 0.020264
0.847761 0.787671 0.020508
0.865675 0.785855 0.020691
0.875181 0.795666 0.020920
0.875868 0.784009 0.020874
0.212161 0.857008 0.010880
0.251438 0.853529 0.011582
0.298482 0.857603 0.012558
0.337881 0.856123 0.013275
0.394598 0.860700 0.014435
0.459846 0.860700 0.015488
0.507469 0.858427 0.016037
0.558602 0.855482 0.016693
0.627375 0.851575 0.017502
0.686091 0.843122 0.018448
0.720836 0.835004 0.018891
0.759289 0.833799 0.019440
0.792844 0.833295 0.019989
0.819181 0.826017 0.020356
0.849790 0.805982 0.020615
0.863996 0.816281 0.020783
0.873976 0.816052 0.020981
0.022431 0.022782 0.049409
0.035126 0.024216 0.051713
0.056550 0.020844 0.051453
0.088365 0.021042 0.051942
0.128771 0.021561 0.052125
0.177768 0.021515 0.055421
0.231922 0.021332 0.057221
0.289876 0.022278 0.061295
0.351690 0.023285 0.065492
0.420447 0.023239 0.066300
0.492775 0.023713 0.067964
0.568841 0.024506 0.071489
0.645151 0.024552 0.074311
0.718654 0.024979 0.076753
0.798688 0.026307 0.079759
0.872999 0.027466 0.083223
0.924056 0.027726 0.083803
0.024903 0.038834 0.045029
0.042313 0.042298 0.046830
0.081209 0.029419 0.031952
0.120714 0.023209 0.026108
0.166278 0.022232 0.025742
0.218082 0.021866 0.027039
0.275822 0.022614 0.029709
0.346563 0.023224 0.031830
0.428519 0.023453 0.033783
0.509194 0.023987 0.036545
0.586297 0.024613 0.038544
0.662837 0.024796 0.039246
0.737591 0.025299 0.042237
0.814969 0.026398 0.046204
0.887541 0.027558 0.049226
0.928298 0.029984 0.055436
0.930526 0.041657 0.082063
0.029709 0.065736 0.039857
0.045029 0.074174 0.022217
0.116747 0.081529 0.021622
0.167132 0.066148 0.017746
0.214054 0.060044 0.019623
0.268208 0.057603 0.022248
0.325643 0.057099 0.023621
0.389609 0.056535 0.025788
0.457237 0.055390 0.027619
0.530877 0.054994 0.030228
0.603189 0.054597 0.034241
0.678645 0.052369 0.036820
0.762631 0.048463 0.040375
0.843824 0.043732 0.044709
0.902022 0.038880 0.047837
0.944656 0.036164 0.053071
0.951797 0.056458 0.079515
0.039719 0.092790 0.034501
0.053941 0.105318 0.013092
0.112047 0.124178 0.012985
0.202777 0.133547 0.014069
0.254078 0.115526 0.015534
0.310689 0.110079 0.018463
0.371420 0.108339 0.020584
0.434012 0.106126 0.022492
0.498054 0.102541 0.024292
0.564172 0.098711 0.026474
0.629236 0.096223 0.029877
0.697536 0.093324 0.032776
0.778561 0.087053 0.036500
0.855238 0.078233 0.041001
0.918990 0.068223 0.045502
0.954513 0.062501 0.051545
0.959808 0.097032 0.078309
0.053849 0.126757 0.030579
0.083909 0.151507 0.010254
0.129870 0.169223 0.011017
0.196078 0.186877 0.012009
0.291676 0.193683 0.013977
0.348791 0.175875 0.015274
0.412711 0.171786 0.018082
0.479179 0.171740 0.020020
0.542687 0.167422 0.021714
0.599847 0.159319 0.023697
0.656596 0.151141 0.026993
0.723323 0.145525 0.030716
0.796109 0.140017 0.034531
0.869276 0.133883 0.038590
0.927352 0.123262 0.042481
0.964767 0.115465 0.046769
0.958160 0.152071 0.075303
0.083726 0.176776 0.027970
0.127001 0.212497 0.010254
0.163073 0.233295 0.011337
0.216068 0.251377 0.012161
0.292088 0.261952 0.014160
0.385565 0.265995 0.015900
0.457252 0.252461 0.017166
0.520150 0.247364 0.019074
0.576944 0.243565 0.020447
0.635584 0.235752 0.022004
0.692622 0.222934 0.024018
0.755383 0.212879 0.027832
0.822797 0.206149 0.033265
0.886503 0.201236 0.038468
0.939406 0.192584 0.042786
0.958816 0.182406 0.045914
0.953811 0.209064 0.073289
0.121447 0.237888 0.026123
0.175692 0.282124 0.010300
0.201587 0.299931 0.012192
0.244083 0.325048 0.013413
0.303609 0.335851 0.014740
0.389746 0.344549 0.016922
0.481132 0.357412 0.017670
0.545693 0.336034 0.018540
0.604944 0.329244 0.019623
0.665080 0.318990 0.020401
0.722011 0.304402 0.021927
0.781308 0.290227 0.024277
0.841245 0.280354 0.029191
0.900374 0.268330 0.034989
0.941512 0.253376 0.040238
0.952865 0.240085 0.045930
0.947356 0.260716 0.072618
0.163409 0.300771 0.026276
0.223362 0.349386 0.010666
0.240696 0.370520 0.012802
0.275425 0.396048 0.014481
0.327657 0.412680 0.016480
0.401785 0.420142 0.017777
0.487556 0.429587 0.018250
0.563516 0.448203 0.019226
0.623468 0.424521 0.019135
0.680568 0.414023 0.019562
0.743770 0.400763 0.020127
0.797452 0.378622 0.021805
0.851102 0.358465 0.024063
0.902205 0.340017 0.028199
0.934890 0.313542 0.033082
0.945205 0.293523 0.041001
0.941176 0.311238 0.069352
0.207202 0.370840 0.027512
0.260929 0.409339 0.011109
0.273259 0.439048 0.013199
0.301961 0.464698 0.015381
0.351705 0.482277 0.018265
0.417990 0.490913 0.019913
0.493324 0.497414 0.018570
0.565759 0.507118 0.018585
0.641184 0.521096 0.019593
0.700175 0.504387 0.018997
0.757824 0.489204 0.019379
0.808972 0.472969 0.019883
0.852049 0.441764 0.021164
0.894011 0.416205 0.022568
0.921050 0.384283 0.025040
0.932219 0.354620 0.033707
0.933364 0.367590 0.062959
0.238712 0.437964 0.026719
0.291875 0.468193 0.011353
0.300404 0.497581 0.013352
0.325307 0.526268 0.015457
0.370245 0.540215 0.018158
0.429038 0.547082 0.018952
0.501198 0.553475 0.018524
0.571878 0.557916 0.018173
0.641886 0.571115 0.018875
0.719905 0.576181 0.019333
0.777951 0.562158 0.019196
0.825193 0.542077 0.019654
0.860182 0.520546 0.019989
0.887083 0.494118 0.020508
0.906554 0.459693 0.022141
0.919310 0.419333 0.027695
0.924529 0.424796 0.055314
0.256901 0.487343 0.023194
0.311955 0.528084 0.011841
0.323995 0.548653 0.013550
0.343435 0.580621 0.015106
0.386587 0.593912 0.016388
0.442023 0.601724 0.017395
0.506569 0.608118 0.017762
0.579370 0.611704 0.017868
0.650278 0.616495 0.018128
0.725963 0.628214 0.019303
0.789975 0.623285 0.019455
0.840040 0.609384 0.020005
0.865522 0.585458 0.020096
0.887633 0.564858 0.020356
0.897765 0.530282 0.021286
0.911513 0.486168 0.024125
0.918090 0.487388 0.051087
0.263706 0.538064 0.017655
0.313069 0.590616 0.012177
0.329442 0.606638 0.013443
0.351293 0.636439 0.014771
0.394720 0.648600 0.015595
0.454902 0.655116 0.016754
0.518929 0.662516 0.017304
0.590677 0.667552 0.017487
0.660761 0.669505 0.018051
0.732830 0.673075 0.018830
0.792920 0.673808 0.019501
0.844083 0.671504 0.020096
0.870695 0.652216 0.020294
0.882597 0.624338 0.020386
0.889311 0.599908 0.020768
0.900786 0.558129 0.022904
0.911299 0.554223 0.046708
0.260761 0.594064 0.013184
0.303777 0.660410 0.012253
0.324529 0.672465 0.013245
0.352209 0.695155 0.014221
0.397803 0.708522 0.014908
0.455177 0.715099 0.015885
0.523445 0.718013 0.016831
0.600473 0.721889 0.017380
0.672404 0.722683 0.018021
0.736690 0.719585 0.018906
0.793271 0.713970 0.019608
0.837293 0.707958 0.020111
0.872999 0.712215 0.020493
0.879438 0.691142 0.020584
0.883574 0.670207 0.020874
0.891279 0.642954 0.022812
0.904814 0.620600 0.042039
0.251301 0.659266 0.011688
0.289342 0.738811 0.012222
0.314900 0.743389 0.012909
0.343496 0.753979 0.013458
0.394080 0.762539 0.014389
0.453925 0.769467 0.015259
0.520470 0.772457 0.016129
0.596460 0.772763 0.017090
0.672389 0.775006 0.018128
0.732738 0.772168 0.018982
0.786435 0.763455 0.019715
0.829465 0.751003 0.020172
0.858824 0.743648 0.020447
0.877348 0.745830 0.020737
0.879057 0.733639 0.020951
0.883757 0.721935 0.022751
0.897871 0.694881 0.040269
0.240955 0.738003 0.011276
0.266667 0.802228 0.011826
0.299565 0.803601 0.012558
0.332418 0.813931 0.013260
0.381643 0.821576 0.014313
0.448417 0.821714 0.015366
0.514031 0.822019 0.016281
0.579980 0.820539 0.017166
0.653788 0.818219 0.018173
0.718181 0.814786 0.019135
0.761318 0.809888 0.019715
0.806348 0.797452 0.020386
0.839048 0.782452 0.020584
0.864225 0.782925 0.020829
0.875685 0.791424 0.021302
0.879103 0.780911 0.022751
0.888151 0.755276 0.037613
0.232502 0.798444 0.011093
0.221881 0.849424 0.011002
0.267124 0.846860 0.011933
0.315511 0.854932 0.013291
0.369299 0.861189 0.014755
0.437400 0.861479 0.016419
0.502831 0.857862 0.017838
0.563180 0.855024 0.018799
0.629602 0.850629 0.019745
0.695308 0.843626 0.020813
0.737118 0.837629 0.021363
0.773297 0.835142 0.021790
0.811978 0.827558 0.022065
0.845441 0.814572 0.022004
0.865797 0.816861 0.022248
0.874937 0.826200 0.023499
0.881758 0.807019 0.036439
0.195056 0.859266 0.010590
0.218219 0.856992 0.010986
0.263554 0.856550 0.012055
0.318181 0.874617 0.014450
0.383246 0.880354 0.020081
0.455528 0.879744 0.028122
0.521492 0.873793 0.034318
0.578607 0.868269 0.038209
0.632731 0.865278 0.040284
0.683391 0.861830 0.041367
0.720806 0.858305 0.041749
0.753902 0.852232 0.041291
0.788907 0.843992 0.039094
0.822400 0.839200 0.035492
0.842924 0.830808 0.032456
0.860243 0.839246 0.032059
0.872877 0.830259 0.032410
0.023331 0.023331 0.087861
0.033967 0.023011 0.087968
0.050996 0.022354 0.085939
0.086152 0.021027 0.084367
0.132815 0.021225 0.086610
0.182177 0.021149 0.089326
0.238712 0.020829 0.093553
0.301961 0.022065 0.098299
0.364019 0.023224 0.101213
0.422782 0.023133 0.101854
0.484245 0.023178 0.103593
0.558419 0.023713 0.107668
0.637079 0.024063 0.111971
0.710185 0.024491 0.114244
0.783459 0.025971 0.114214
0.856764 0.027314 0.113985
0.907668 0.027695 0.113405
0.024094 0.041047 0.080674
0.030182 0.030442 0.109804
0.076646 0.028717 0.104585
0.128130 0.022614 0.084367
0.178882 0.021424 0.076616
0.232502 0.021378 0.074617
0.290944 0.022385 0.076661
0.354177 0.023072 0.076921
0.422049 0.023285 0.076707
0.492210 0.023804 0.076051
0.569940 0.024369 0.077226
0.645380 0.024537 0.080140
0.717540 0.025101 0.082094
0.794263 0.026261 0.083421
0.866285 0.027512 0.086549
0.911574 0.030076 0.090822
0.917113 0.043870 0.114595
0.025818 0.067048 0.069245
0.039261 0.091234 0.085481
0.081239 0.073899 0.076722
0.138277 0.052674 0.056519
0.201038 0.035691 0.041871
0.270161 0.027176 0.034699
0.345617 0.024033 0.033753
0.424689 0.023545 0.034379
0.502739 0.024002 0.035904
0.585229 0.024537 0.038041
0.666896 0.024933 0.040162
0.741543 0.025513 0.042344
0.819791 0.026337 0.045548
0.882475 0.027741 0.049622
0.917510 0.031479 0.058335
0.928893 0.043641 0.082261
0.921569 0.069581 0.117937
0.037415 0.106508 0.061769
0.056046 0.143145 0.057420
0.086625 0.126177 0.042390
0.179446 0.138521 0.045533
0.266239 0.109895 0.032456
0.345892 0.092241 0.025727
0.410788 0.080110 0.024628
0.472923 0.072236 0.026078
0.543069 0.068360 0.028916
0.612207 0.065492 0.032044
0.684428 0.061021 0.035767
0.759838 0.055619 0.039246
0.841611 0.049393 0.043214
0.907790 0.043275 0.048508
0.942901 0.043549 0.057343
0.947448 0.063279 0.080568
0.936843 0.110735 0.117632
0.055711 0.146075 0.057496
0.082628 0.189944 0.044327
0.111666 0.190356 0.020691
0.187839 0.214801 0.025116
0.322560 0.228794 0.029328
0.411566 0.193545 0.020981
0.475715 0.169253 0.020951
0.528283 0.151568 0.022324
0.585565 0.135988 0.024674
0.644678 0.125368 0.027863
0.711070 0.115450 0.031556
0.782071 0.106035 0.035706
0.856092 0.096712 0.039887
0.917037 0.085939 0.044938
0.952636 0.084352 0.054063
0.958068 0.111269 0.076997
0.944793 0.166979 0.113771
0.081376 0.198154 0.054612
0.114900 0.242527 0.038361
0.164904 0.270222 0.012634
0.219806 0.300496 0.015290
0.314748 0.318639 0.017655
0.462074 0.340078 0.021653
0.526452 0.286946 0.019043
0.578607 0.255131 0.020294
0.629389 0.233280 0.021683
0.687434 0.211109 0.024414
0.744579 0.193301 0.028519
0.810208 0.181033 0.033707
0.876936 0.169421 0.038911
0.928298 0.158465 0.043198
0.957992 0.154910 0.051118
0.955840 0.176333 0.073320
0.942916 0.226078 0.112215
0.114137 0.257603 0.053254
0.151324 0.301106 0.035966
0.218524 0.344244 0.011124
0.256123 0.379248 0.014206
0.324727 0.403403 0.016754
0.439475 0.418387 0.018814
0.553750 0.437095 0.019333
0.611994 0.379095 0.019165
0.669184 0.350851 0.020203
0.722713 0.320867 0.021836
0.780179 0.291356 0.025208
0.840238 0.269612 0.030213
0.895033 0.252781 0.036179
0.939025 0.237797 0.041581
0.951949 0.229877 0.049973
0.949416 0.241688 0.072190
0.938170 0.280201 0.111528
0.147158 0.316579 0.052384
0.194324 0.368124 0.035355
0.259541 0.409247 0.011109
0.280964 0.449012 0.014069
0.339284 0.474464 0.017365
0.430457 0.487388 0.019516
0.533135 0.497978 0.018860
0.636835 0.516182 0.019089
0.688975 0.469490 0.019379
0.750027 0.440253 0.020050
0.804776 0.399649 0.021637
0.854276 0.363790 0.024155
0.900282 0.336461 0.029099
0.932799 0.311376 0.035203
0.944442 0.291676 0.045304
0.942519 0.298497 0.070176
0.935470 0.335546 0.110018
0.181659 0.376242 0.052049
0.230121 0.429358 0.032578
0.292424 0.468330 0.011353
0.307240 0.508904 0.013886
0.353002 0.535576 0.016953
0.428061 0.545678 0.018814
0.521477 0.553201 0.018585
0.620417 0.564233 0.018479
0.720928 0.576989 0.019318
0.769726 0.543496 0.019608
0.814237 0.507820 0.019898
0.855131 0.467063 0.020920
0.891279 0.427665 0.022629
0.919066 0.391943 0.026642
0.931197 0.361975 0.037125
0.935317 0.360784 0.063798
0.929763 0.392950 0.104463
0.210620 0.442878 0.051621
0.250187 0.483558 0.026963
0.310094 0.527123 0.011810
0.328115 0.560327 0.013993
0.365667 0.588479 0.016052
0.432990 0.601740 0.017380
0.514611 0.608148 0.017884
0.609567 0.613214 0.017960
0.701488 0.621134 0.018708
0.789670 0.623621 0.019532
0.831220 0.591257 0.019821
0.858763 0.554269 0.020005
0.884413 0.517311 0.020371
0.904021 0.476768 0.022202
0.917937 0.440848 0.029770
0.923644 0.431632 0.055009
0.921248 0.449836 0.097093
0.222248 0.501015 0.046143
0.256748 0.539696 0.020356
0.310948 0.591730 0.012161
0.334920 0.615137 0.013916
0.371481 0.642222 0.015213
0.434256 0.653117 0.016403
0.516869 0.662104 0.017166
0.608484 0.666407 0.017594
0.693950 0.667613 0.018372
0.775219 0.672221 0.019440
0.839826 0.670253 0.020066
0.868559 0.631113 0.020203
0.883345 0.597940 0.020356
0.894636 0.562066 0.021225
0.909392 0.519860 0.026276
0.916014 0.503700 0.049104
0.916747 0.510231 0.090654
0.220371 0.547372 0.035477
0.250111 0.597482 0.014023
0.301518 0.660609 0.012268
0.330022 0.675105 0.013397
0.370123 0.699672 0.014435
0.434012 0.709606 0.015473
0.513863 0.718593 0.016587
0.606577 0.723186 0.017365
0.690471 0.723766 0.018387
0.768261 0.717327 0.019318
0.828321 0.713222 0.020066
0.869032 0.713100 0.020447
0.879637 0.680491 0.020584
0.886122 0.647974 0.021317
0.898955 0.606332 0.024781
0.908644 0.577615 0.044739
0.909895 0.578820 0.084886
0.213596 0.599008 0.023606
0.243458 0.660060 0.012253
0.284520 0.735149 0.012085
0.318654 0.744366 0.013062
0.361151 0.758923 0.013931
0.428656 0.762646 0.014862
0.507530 0.769177 0.016236
0.593652 0.775723 0.017273
0.681941 0.775509 0.018372
0.749371 0.772442 0.019257
0.815778 0.752209 0.020096
0.851545 0.743679 0.020401
0.876112 0.753719 0.020783
0.880247 0.724559 0.021317
0.890242 0.699794 0.024750
0.901823 0.658000 0.042039
0.902663 0.642039 0.078798
0.200320 0.661097 0.013886
0.234485 0.735042 0.011200
0.261234 0.797559 0.011719
0.303029 0.802213 0.012665
0.347189 0.813062 0.013642
0.415442 0.817044 0.015000
0.494392 0.817121 0.016449
0.573022 0.818372 0.017456
0.659144 0.816800 0.018723
0.728008 0.814267 0.019852
0.777707 0.804761 0.020462
0.828473 0.783383 0.020859
0.862837 0.781979 0.021073
0.876051 0.793744 0.021439
0.882399 0.765179 0.024063
0.892805 0.734585 0.041276
0.898939 0.698054 0.074266
0.193973 0.737392 0.011276
0.219959 0.800031 0.010880
0.230747 0.846372 0.011231
0.280995 0.847181 0.012421
0.336187 0.852705 0.014145
0.405371 0.858976 0.016480
0.485130 0.857618 0.018616
0.557336 0.853971 0.020356
0.633951 0.848371 0.021973
0.709468 0.844038 0.023743
0.754162 0.839567 0.024216
0.793454 0.829572 0.023529
0.833188 0.818616 0.023163
0.865400 0.814038 0.023148
0.876829 0.819562 0.023590
0.882383 0.790600 0.038102
0.891783 0.747494 0.070420
0.188785 0.800961 0.010376
0.198352 0.851469 0.010727
0.220829 0.864836 0.011475
0.274876 0.871534 0.013382
0.338964 0.879606 0.017227
0.415320 0.881361 0.025177
0.497414 0.875273 0.032547
0.561639 0.869169 0.037217
0.619501 0.865431 0.040024
0.681880 0.860655 0.041840
0.728618 0.855406 0.041733
0.766293 0.847944 0.040665
0.805646 0.838804 0.038056
0.838331 0.829068 0.033814
0.859281 0.829770 0.032349
0.871687 0.831800 0.033845
0.881621 0.799771 0.064408
0.171283 0.863951 0.009934
0.196612 0.863706 0.010864
0.233219 0.881758 0.012940
0.292149 0.883986 0.019165
0.364752 0.884108 0.029892
0.435782 0.879301 0.042390
0.508415 0.875456 0.055863
0.566476 0.869963 0.064302
0.620600 0.869718 0.069596
0.677134 0.866590 0.072969
0.716075 0.860670 0.072343
0.742016 0.853864 0.069062
0.764782 0.840085 0.063600
0.793072 0.828290 0.054994
0.820401 0.816358 0.049470
0.842618 0.826123 0.047456
0.861051 0.832792 0.053483
0.023758 0.023758 0.132677
0.034134 0.023224 0.126833
0.051072 0.022461 0.122591
0.083650 0.021317 0.119692
0.134066 0.020844 0.121523
0.185977 0.020768 0.123064
0.243061 0.020554 0.127993
0.307210 0.021881 0.131792
0.368383 0.023026 0.134478
0.427848 0.022858 0.136126
0.485542 0.022904 0.138537
0.553109 0.023270 0.143725
0.631342 0.023774 0.150042
0.703593 0.024247 0.151751
