tools/luts_backup/Kodak Ektar 100_VS.cube
# (C) 2014 VisionColor & Patchflyer [www.vision-color.com]
# Generator: VC Patchmatch v.2.1.1 [64/53]
# All work and no play makes Jack a dull boy.
# LUT generated from: Kodak Ektar 100_VisionSpace
LUT_3D_SIZE 17
0.031647 0.016327 0.022248
0.058473 0.024231 0.029633
0.089326 0.033021 0.039185
0.121950 0.042695 0.049134
0.154940 0.053346 0.059510
0.193545 0.063416 0.069551
0.235966 0.074250 0.080201
0.276890 0.082765 0.089265
0.312230 0.089479 0.096132
0.345586 0.097566 0.102815
0.382391 0.107851 0.110536
0.422889 0.121736 0.121675
0.460456 0.139895 0.135500
0.490028 0.159121 0.148531
0.513970 0.172976 0.158968
0.525841 0.170596 0.162081
0.524529 0.154726 0.164553
0.046784 0.050416 0.035676
0.064027 0.051545 0.037720
0.100618 0.063844 0.047486
0.134401 0.075837 0.058320
0.164034 0.087526 0.068025
0.197665 0.099947 0.078340
0.240665 0.113710 0.088472
0.283757 0.128786 0.098817
0.319921 0.140627 0.106783
0.352270 0.148470 0.113191
0.389410 0.159396 0.122438
0.429938 0.177890 0.135897
0.468360 0.202274 0.151583
0.501305 0.228305 0.168338
0.528283 0.246738 0.182162
0.540887 0.241154 0.186313
0.547356 0.206607 0.184237
0.065583 0.105806 0.059785
0.078309 0.107668 0.054963
0.103517 0.112001 0.061250
0.138277 0.122591 0.071901
0.169589 0.135744 0.082521
0.202823 0.147677 0.091127
0.245274 0.164706 0.101503
0.290654 0.182650 0.111604
0.327703 0.196078 0.119417
0.359625 0.204044 0.125887
0.395392 0.213901 0.134554
0.437140 0.232334 0.149050
0.480171 0.259831 0.168490
0.515282 0.291783 0.188510
0.541222 0.321447 0.206119
0.557855 0.339483 0.219211
0.564385 0.328588 0.221622
0.083192 0.170047 0.084474
0.091737 0.167208 0.078798
0.109773 0.166476 0.078401
0.141878 0.169955 0.087098
0.173251 0.178927 0.095766
0.202609 0.186648 0.101656
0.237583 0.197574 0.107240
0.284642 0.218906 0.117922
0.330571 0.240696 0.129458
0.369146 0.253697 0.138888
0.408118 0.265507 0.149752
0.450141 0.286107 0.165530
0.491371 0.313726 0.185092
0.527977 0.348669 0.208011
0.555688 0.384985 0.230320
0.576043 0.418738 0.251316
0.592828 0.443091 0.270146
0.099275 0.229191 0.108003
0.107942 0.226932 0.098421
0.118776 0.221347 0.096834
0.141543 0.218387 0.102602
0.174044 0.218173 0.109194
0.202670 0.224460 0.112520
0.225223 0.223789 0.111788
0.264866 0.236606 0.118502
0.319951 0.266880 0.133455
0.372168 0.294804 0.150118
0.418799 0.315526 0.166445
0.464851 0.340368 0.185641
0.506340 0.369574 0.206790
0.542046 0.403418 0.230106
0.572808 0.443427 0.257115
0.597467 0.488136 0.286290
0.617029 0.531823 0.314794
0.117159 0.276493 0.129305
0.123964 0.280125 0.116487
0.141146 0.273564 0.120577
0.155764 0.268894 0.122560
0.176730 0.265507 0.125002
0.206332 0.266026 0.125063
0.231235 0.266911 0.125368
0.253758 0.264347 0.125063
0.304845 0.288029 0.137728
0.367132 0.326146 0.158633
0.421668 0.357061 0.180148
0.472724 0.387976 0.203128
0.519738 0.420722 0.228275
0.558282 0.454688 0.254002
0.589593 0.496315 0.284764
0.617548 0.545983 0.319005
0.642023 0.595422 0.347967
0.136843 0.316747 0.152773
0.141360 0.327489 0.136812
0.161685 0.322057 0.141512
0.175235 0.319646 0.142397
0.191897 0.319188 0.143313
0.213199 0.316899 0.143984
0.245609 0.320867 0.145357
0.270390 0.319127 0.145144
0.305058 0.328008 0.152132
0.362219 0.358129 0.169192
0.419043 0.391577 0.191440
0.472511 0.424384 0.216007
0.522545 0.458381 0.242466
0.565850 0.494759 0.271977
0.600671 0.535180 0.304845
0.627741 0.578973 0.338506
0.660761 0.632624 0.360723
0.151675 0.356939 0.172457
0.155612 0.373846 0.160342
0.168338 0.373053 0.157351
0.187228 0.369421 0.161990
0.203250 0.370031 0.162905
0.226230 0.372198 0.166079
0.255863 0.372778 0.167697
0.290562 0.378088 0.170169
0.321843 0.381109 0.173342
0.367132 0.400946 0.186618
0.415656 0.426215 0.203342
0.464240 0.451728 0.224186
0.516136 0.481086 0.249454
0.559716 0.514031 0.277775
0.599634 0.551263 0.310796
0.627955 0.587579 0.342382
0.661311 0.633143 0.360784
0.167269 0.395636 0.195773
0.176486 0.411383 0.194369
0.176883 0.421454 0.183871
0.183078 0.426337 0.178408
0.205478 0.425696 0.184909
0.229709 0.425513 0.189151
0.261357 0.428229 0.192844
0.296208 0.428595 0.193393
0.330571 0.429999 0.194308
0.370550 0.439063 0.202792
0.414038 0.457740 0.216495
0.453498 0.475898 0.231388
0.496071 0.490913 0.248325
0.540093 0.510948 0.269718
0.580621 0.539178 0.296147
0.614618 0.569024 0.326757
0.645289 0.602350 0.350042
0.183749 0.434241 0.222599
0.194400 0.450813 0.225650
0.199313 0.458137 0.225223
0.202731 0.467720 0.222202
0.204044 0.483009 0.212222
0.218570 0.491600 0.207523
0.255680 0.489540 0.217258
0.294835 0.488472 0.223606
0.327642 0.481758 0.221378
0.362249 0.478004 0.219821
0.405432 0.486641 0.228519
0.441993 0.497658 0.238956
0.470375 0.500725 0.245762
0.507591 0.502525 0.256321
0.549126 0.515892 0.274540
0.593713 0.542687 0.304540
0.630793 0.576074 0.340429
0.205264 0.479561 0.255589
0.212467 0.493050 0.258122
0.215824 0.499092 0.257420
0.218631 0.505547 0.257053
0.222477 0.515862 0.256199
0.227878 0.529351 0.251225
0.223178 0.553796 0.224613
0.268940 0.553613 0.236362
0.317784 0.544808 0.250431
0.355138 0.529198 0.251560
0.384588 0.517784 0.243900
0.423407 0.519554 0.247105
0.451972 0.518303 0.250156
0.477638 0.510094 0.252232
0.519982 0.510399 0.263798
0.580072 0.539086 0.297704
0.635431 0.585962 0.344488
0.228458 0.527184 0.290990
0.229740 0.529839 0.289433
0.232639 0.534783 0.288884
0.235203 0.538140 0.289158
0.238254 0.543328 0.289921
0.243809 0.550042 0.292760
0.249546 0.565667 0.289891
0.246708 0.596307 0.267445
0.270008 0.609857 0.254398
0.322240 0.593194 0.261570
0.374121 0.567956 0.271214
0.404150 0.546685 0.266026
0.440650 0.541009 0.264164
0.471992 0.536706 0.265843
0.512901 0.535424 0.276097
0.578607 0.560876 0.310033
0.651087 0.614649 0.354833
0.249546 0.563836 0.323552
0.250095 0.564721 0.320745
0.250217 0.566613 0.318029
0.251896 0.568566 0.317693
0.254673 0.572076 0.319341
0.260899 0.577050 0.327367
0.266758 0.586725 0.335332
0.269352 0.607202 0.334112
0.271519 0.633692 0.316915
0.294072 0.643763 0.291966
0.339605 0.624262 0.276799
0.399268 0.599847 0.284916
0.445441 0.582666 0.292943
0.493355 0.576959 0.299046
0.544518 0.584375 0.314763
0.601648 0.602014 0.341436
0.667384 0.642512 0.366430
0.272099 0.594263 0.358038
0.272496 0.594720 0.354681
0.271275 0.594873 0.349523
0.271580 0.595666 0.347143
0.272831 0.598962 0.347814
0.277256 0.606439 0.356054
0.286412 0.619959 0.376043
0.290501 0.636042 0.390448
0.300542 0.652949 0.393530
0.322606 0.666285 0.371038
0.353948 0.663874 0.332677
0.401312 0.647486 0.307530
0.465644 0.634028 0.310887
0.531701 0.631006 0.325994
0.592676 0.635065 0.343603
0.643030 0.650660 0.363775
0.680598 0.668482 0.382666
0.288365 0.618494 0.387457
0.287602 0.617639 0.383886
0.287419 0.618616 0.380529
0.287419 0.619745 0.378546
0.289189 0.623468 0.378943
0.292241 0.631861 0.385626
0.298192 0.654169 0.409339
0.326665 0.672114 0.454597
0.365148 0.679744 0.487037
0.404822 0.686091 0.478584
0.441505 0.688380 0.436561
0.471107 0.680140 0.388464
0.528557 0.673823 0.377142
0.585351 0.672145 0.382940
0.632227 0.674495 0.396124
0.671412 0.679683 0.406073
0.690089 0.685237 0.410285
0.296666 0.627741 0.407050
0.297337 0.628901 0.406287
0.297246 0.629419 0.404639
0.298741 0.631647 0.405951
0.300999 0.642634 0.409918
0.301183 0.659022 0.414069
0.323400 0.674311 0.440528
0.388128 0.688899 0.501213
0.472602 0.700648 0.562615
0.537209 0.708186 0.582635
0.575128 0.709010 0.560784
0.586938 0.708095 0.506004
0.619165 0.706569 0.490181
0.648798 0.706935 0.489204
0.672663 0.706233 0.482124
0.692439 0.706508 0.475654
0.700038 0.699733 0.453407
0.303380 0.629419 0.428046
0.302525 0.629633 0.424475
0.303777 0.630335 0.427344
0.305669 0.638361 0.429328
0.306737 0.658381 0.434150
0.325780 0.677943 0.448096
0.371588 0.690455 0.471809
0.442771 0.702632 0.508934
0.525093 0.711788 0.551537
0.586328 0.713832 0.575738
0.615961 0.715969 0.579675
0.639704 0.718746 0.581201
0.661585 0.720760 0.578668
0.680385 0.721798 0.572900
0.688502 0.718318 0.556085
0.700923 0.717281 0.534234
0.717281 0.720974 0.527733
0.030488 0.015106 0.024140
0.052064 0.022004 0.030976
0.083711 0.031495 0.041291
0.113313 0.039948 0.051331
0.143435 0.049104 0.060456
0.174014 0.057252 0.069398
0.215671 0.067720 0.080812
0.257664 0.076753 0.090913
0.292149 0.080781 0.095857
0.329534 0.089906 0.102663
0.370245 0.103395 0.111482
0.407599 0.112978 0.120821
0.446174 0.124239 0.132570
0.477394 0.135988 0.143313
0.506523 0.148928 0.156008
0.521019 0.155795 0.163394
0.528222 0.159396 0.166659
0.042756 0.039429 0.044923
0.059449 0.040894 0.045869
0.118410 0.045136 0.048310
0.153414 0.053986 0.059236
0.190127 0.062440 0.068513
0.231968 0.072816 0.078767
0.272251 0.081147 0.087465
0.307744 0.087373 0.093935
0.346014 0.096803 0.102296
0.384497 0.108644 0.111696
0.421454 0.122438 0.121706
0.456611 0.139895 0.133883
0.486336 0.156863 0.145998
0.512169 0.169802 0.158083
0.528038 0.172030 0.166110
0.535088 0.169406 0.172152
0.542443 0.198764 0.181338
0.061097 0.092409 0.074403
0.076783 0.139162 0.075837
0.124147 0.140993 0.075380
0.165591 0.131594 0.080598
0.201144 0.133455 0.086763
0.242466 0.140627 0.094636
0.283818 0.150607 0.102937
0.318181 0.157473 0.109285
0.351415 0.163363 0.115846
0.390265 0.174655 0.126192
0.430304 0.191073 0.138705
0.468391 0.213321 0.153964
0.501152 0.237766 0.170657
0.525353 0.252811 0.182895
0.538781 0.250278 0.188449
0.547509 0.236393 0.190249
0.553033 0.261662 0.199161
0.078279 0.152804 0.102144
0.095613 0.219974 0.103853
0.119448 0.214145 0.095430
0.169406 0.211063 0.105715
0.199374 0.193698 0.102998
0.236240 0.195682 0.106355
0.284123 0.209903 0.115908
0.327916 0.222110 0.124971
0.363592 0.229068 0.132265
0.402014 0.240391 0.142702
0.444129 0.258427 0.157473
0.482918 0.281437 0.174228
0.517296 0.310338 0.194156
0.544060 0.339178 0.212924
0.559533 0.355749 0.225071
0.567926 0.353185 0.230045
0.566491 0.339269 0.225864
0.098329 0.211887 0.133333
0.115846 0.273503 0.126955
0.130251 0.272221 0.116884
0.161349 0.263615 0.122408
0.205509 0.263401 0.123568
0.226902 0.242527 0.117372
0.266545 0.245212 0.121553
0.321324 0.267247 0.134218
0.370489 0.286259 0.147646
0.413520 0.302159 0.161044
0.457435 0.321721 0.177859
0.498360 0.346654 0.197421
0.533593 0.377508 0.219425
0.562219 0.412543 0.242924
0.583368 0.445777 0.265385
0.592859 0.455329 0.274357
0.583032 0.408881 0.254276
0.120974 0.262547 0.160037
0.135622 0.315587 0.150881
0.148348 0.322728 0.137148
0.172488 0.317113 0.141573
0.201236 0.316503 0.143923
0.246708 0.320958 0.146365
0.266117 0.297826 0.138460
0.308385 0.303471 0.143343
0.366033 0.329717 0.159976
0.418799 0.354559 0.178592
0.468482 0.380255 0.199283
0.513481 0.407141 0.221683
0.552117 0.441230 0.247562
0.582696 0.479194 0.275608
0.607324 0.521080 0.304997
0.618677 0.536492 0.317784
0.600061 0.468330 0.283146
0.137636 0.307774 0.180087
0.153170 0.357641 0.174838
0.155001 0.374151 0.153964
0.179477 0.370428 0.160067
0.205295 0.369299 0.163607
0.242588 0.372808 0.168002
0.290684 0.378149 0.171511
0.317266 0.361822 0.166323
0.361791 0.372534 0.175021
0.415564 0.395819 0.192905
0.470314 0.425177 0.216281
0.520348 0.454688 0.240940
0.563226 0.490913 0.270420
0.598169 0.530022 0.302464
0.624414 0.568017 0.332555
0.638483 0.586603 0.344518
0.612665 0.512840 0.306340
0.150759 0.348486 0.197330
0.169955 0.398352 0.198337
0.175601 0.412695 0.190097
0.177096 0.427283 0.178408
0.204074 0.426032 0.184573
0.240085 0.426459 0.191257
0.283482 0.430243 0.195224
0.327337 0.428870 0.194553
0.368383 0.426703 0.197604
0.410346 0.437629 0.208133
0.455970 0.454292 0.223789
0.509819 0.480751 0.247776
0.556298 0.511620 0.275975
0.596643 0.548547 0.309361
0.626734 0.582452 0.339757
0.645075 0.601587 0.349767
0.617395 0.533288 0.316960
0.166598 0.390143 0.219211
0.187503 0.438880 0.223972
0.193332 0.447608 0.223636
0.201816 0.462898 0.224796
0.202670 0.476875 0.212345
0.223789 0.490043 0.208713
0.273564 0.488945 0.221653
0.320012 0.485847 0.224613
0.359442 0.475807 0.219242
0.406134 0.479438 0.225589
0.442573 0.484108 0.232975
0.483375 0.493416 0.245792
0.530022 0.507836 0.264836
0.574304 0.532860 0.291814
0.609003 0.560113 0.320684
0.627863 0.573053 0.338415
0.604334 0.511498 0.301366
0.185702 0.434211 0.247257
0.208194 0.484504 0.257328
0.211856 0.489937 0.256535
0.217105 0.501122 0.257816
0.220706 0.511193 0.255283
0.227024 0.528313 0.249165
0.232654 0.555749 0.225895
0.293355 0.548379 0.243107
0.348424 0.532570 0.254582
0.383948 0.515343 0.243015
0.425299 0.511131 0.243503
0.459724 0.509544 0.247807
0.496498 0.506645 0.255406
0.543114 0.516075 0.273747
0.587335 0.536675 0.300267
0.611048 0.544793 0.316808
0.578668 0.466011 0.270329
0.205539 0.478035 0.277501
0.228092 0.526665 0.290745
0.231388 0.530510 0.289647
0.234073 0.536278 0.289342
0.238163 0.542443 0.289982
0.244541 0.551080 0.292699
0.249088 0.573388 0.287098
0.249226 0.606256 0.255802
0.301747 0.597818 0.257053
0.365301 0.571252 0.269566
0.407416 0.546136 0.266728
0.446418 0.536309 0.262669
0.479225 0.529259 0.263523
0.522240 0.526787 0.273716
0.578210 0.546471 0.302556
0.617548 0.563226 0.328283
0.578882 0.476661 0.275486
0.226963 0.521172 0.311284
0.250401 0.564446 0.324529
0.249577 0.562921 0.320226
0.251560 0.568078 0.318273
0.254643 0.571405 0.318608
0.260349 0.576349 0.325078
0.267155 0.589899 0.334661
0.268528 0.617517 0.328206
0.281437 0.639216 0.302907
0.327245 0.631342 0.280522
0.395087 0.603357 0.283726
0.452155 0.582818 0.295567
0.497108 0.573938 0.299168
0.538750 0.570764 0.305608
0.588495 0.583154 0.327367
0.638331 0.606073 0.349676
0.614527 0.552697 0.324285
0.248905 0.557702 0.344488
0.273014 0.594751 0.358007
0.270298 0.590753 0.352575
0.270298 0.592981 0.348516
0.272160 0.596674 0.347906
0.275120 0.603082 0.351934
0.284306 0.617853 0.371313
0.289311 0.641932 0.386389
0.309300 0.660761 0.384939
0.347051 0.668727 0.353216
0.395605 0.654841 0.317906
0.460578 0.635920 0.311711
0.534203 0.629999 0.326879
0.583917 0.627710 0.339178
0.622126 0.630304 0.349706
0.660548 0.645655 0.366339
0.656062 0.620691 0.355962
0.270848 0.587610 0.378393
0.286564 0.615564 0.383520
0.286503 0.615747 0.382452
0.285069 0.614466 0.377661
0.286717 0.618189 0.377081
0.290684 0.627680 0.381292
0.295476 0.648859 0.399176
0.323552 0.670680 0.441993
0.375280 0.682124 0.478187
0.425177 0.688106 0.466163
0.463203 0.686397 0.414191
0.509972 0.676265 0.380957
0.572198 0.671443 0.379492
0.626520 0.673365 0.391211
0.656947 0.671260 0.389532
0.678889 0.673579 0.394781
0.682277 0.665614 0.390967
0.290257 0.610773 0.412177
0.296910 0.627375 0.406806
0.297581 0.628412 0.407660
0.297307 0.628565 0.405615
0.299443 0.634119 0.406867
0.300145 0.650752 0.409674
0.315343 0.670405 0.425391
0.373678 0.688075 0.481666
0.460975 0.699062 0.545830
0.530037 0.705562 0.565606
0.564782 0.706081 0.531060
0.588281 0.702937 0.485603
0.626062 0.701595 0.475685
0.659632 0.701381 0.470680
0.682582 0.700099 0.463386
0.695216 0.694667 0.445869
0.697749 0.691981 0.438697
0.304448 0.626978 0.437690
0.306004 0.633692 0.430976
0.305760 0.636347 0.430549
0.305852 0.636896 0.430732
0.306493 0.648096 0.432715
0.313787 0.667597 0.440314
0.347112 0.684443 0.457954
0.417838 0.698726 0.501793
0.508400 0.708980 0.555627
0.585122 0.713680 0.590112
0.618677 0.717037 0.589258
0.640589 0.717861 0.576074
0.662409 0.718441 0.564416
0.681147 0.718471 0.555016
0.697658 0.718410 0.537499
0.712367 0.718349 0.520745
0.714229 0.711421 0.499458
0.308782 0.628473 0.453071
0.314946 0.652674 0.466957
0.317571 0.660456 0.470405
0.314641 0.657191 0.467048
0.316869 0.661402 0.467811
0.330449 0.675074 0.477363
0.370092 0.687434 0.500053
0.436637 0.700221 0.535912
0.517830 0.711452 0.574243
0.589517 0.716731 0.608240
0.632868 0.721309 0.625147
0.655055 0.723934 0.623346
0.674128 0.724300 0.617395
0.690303 0.724056 0.610468
0.700801 0.723171 0.599817
0.711696 0.722988 0.584710
0.721157 0.724269 0.557580
0.035554 0.019623 0.042206
0.054414 0.024506 0.045167
0.077150 0.030732 0.050355
0.106966 0.039063 0.061616
0.132265 0.046082 0.071046
0.161349 0.053498 0.080995
0.200748 0.063722 0.093843
0.245487 0.074403 0.106294
0.285710 0.082185 0.114229
0.321630 0.088899 0.118898
0.359289 0.099489 0.123903
0.398230 0.110719 0.130434
0.437354 0.120729 0.138308
0.468055 0.129763 0.145418
0.494911 0.139986 0.154910
0.511345 0.146792 0.162753
0.524742 0.156161 0.170871
0.046876 0.039796 0.068177
0.050050 0.029633 0.068330
0.091463 0.038148 0.070954
0.133608 0.050050 0.075593
0.167147 0.057374 0.080293
0.208103 0.066651 0.088808
0.250553 0.075166 0.096986
0.288090 0.080751 0.101472
0.327916 0.090578 0.107362
0.367895 0.101778 0.114260
0.404852 0.110933 0.121370
0.443153 0.122744 0.131594
0.475959 0.135348 0.142885
0.502586 0.146487 0.154177
0.519127 0.155154 0.162783
0.529320 0.162753 0.170626
0.536553 0.170871 0.175845
0.055299 0.076600 0.089662
0.067079 0.105653 0.121187
0.100008 0.080964 0.088502
0.177676 0.074495 0.074525
0.217655 0.078004 0.079835
0.264317 0.083558 0.087709
0.307103 0.089662 0.095247
0.342351 0.096040 0.101656
0.379248 0.106416 0.109926
0.420508 0.122377 0.121614
0.456153 0.138735 0.133822
0.484779 0.154177 0.145571
0.509667 0.166873 0.156374
0.526513 0.171328 0.165133
0.537469 0.175540 0.173068
0.542351 0.191928 0.180179
0.543542 0.197238 0.182376
0.076356 0.140902 0.123568
0.093904 0.187778 0.147585
0.100191 0.194827 0.114229
0.166262 0.198123 0.102449
0.221958 0.183505 0.107973
0.277043 0.187015 0.111635
0.321538 0.189517 0.117311
0.356573 0.190280 0.122774
0.392706 0.195865 0.130709
0.431891 0.210636 0.143160
0.471901 0.232181 0.159640
0.504173 0.253941 0.175570
0.528466 0.270573 0.188937
0.542657 0.273381 0.196078
0.549767 0.265904 0.198489
0.553735 0.264225 0.200839
0.554376 0.257755 0.200626
0.098878 0.198642 0.154421
0.118715 0.248447 0.170840
0.123232 0.282200 0.144778
0.152529 0.286870 0.125948
0.221988 0.280339 0.136355
0.255375 0.250462 0.124544
0.316320 0.262272 0.133150
0.368444 0.273350 0.144289
0.410468 0.280125 0.155245
0.452735 0.293980 0.169955
0.490944 0.315160 0.186587
0.523674 0.341405 0.205417
0.549096 0.366094 0.222934
0.565332 0.383917 0.236484
0.572351 0.380285 0.240299
0.569818 0.354437 0.232242
0.564263 0.317052 0.220706
0.118776 0.247135 0.179141
0.134432 0.298253 0.188602
0.150118 0.343725 0.173617
0.160464 0.361425 0.151736
0.212314 0.355657 0.162844
0.276982 0.358862 0.164645
0.305364 0.325475 0.152407
0.362554 0.335271 0.161898
0.418128 0.352422 0.178653
0.467384 0.370367 0.196597
0.509117 0.392309 0.215732
0.544335 0.419867 0.237400
0.572778 0.451118 0.260960
0.591180 0.476173 0.279759
0.598657 0.479469 0.286381
0.589288 0.432746 0.266148
0.576806 0.374609 0.242588
0.132845 0.294286 0.198398
0.148898 0.341924 0.205447
0.167697 0.393256 0.197513
0.174685 0.417060 0.182864
0.203098 0.422736 0.183047
0.258610 0.422736 0.192416
0.323278 0.423865 0.193332
0.360754 0.400153 0.186679
0.410925 0.406531 0.195895
0.467079 0.428138 0.216892
0.517998 0.452613 0.239933
0.560113 0.483742 0.266728
0.593286 0.520012 0.296483
0.616083 0.547906 0.320134
0.623041 0.551415 0.326726
0.607416 0.496803 0.298283
0.590814 0.425849 0.265599
0.146914 0.338354 0.217533
0.165377 0.384985 0.227390
0.187076 0.438422 0.225681
0.198306 0.454932 0.225437
0.202029 0.473518 0.213107
0.232517 0.486778 0.210727
0.298833 0.484260 0.223362
0.358770 0.475013 0.219730
0.404242 0.460304 0.217166
0.450782 0.464729 0.226963
0.503899 0.482307 0.247440
0.554131 0.511833 0.275944
0.594202 0.545678 0.307408
0.623102 0.575006 0.335088
0.633997 0.579644 0.341863
0.618097 0.532250 0.317693
0.597955 0.459937 0.280583
0.162234 0.379309 0.239475
0.184360 0.429480 0.253422
0.208103 0.484199 0.258000
0.215061 0.496468 0.258579
0.219974 0.508934 0.255863
0.226474 0.529168 0.246189
0.252506 0.552850 0.231357
0.331304 0.537865 0.252598
0.382086 0.514946 0.243198
0.430030 0.502419 0.240330
0.470192 0.497627 0.244968
0.520195 0.507073 0.262181
0.568505 0.530602 0.289158
0.603937 0.554406 0.316106
0.620111 0.558679 0.327489
0.609247 0.519280 0.307317
0.596002 0.467811 0.280674
0.182040 0.424506 0.269657
0.205325 0.475746 0.282719
0.228885 0.526818 0.290654
0.232151 0.532097 0.289982
0.236637 0.539940 0.289342
0.243503 0.549279 0.290959
0.247379 0.579400 0.281575
0.267567 0.606882 0.252995
0.349599 0.579538 0.265385
0.412512 0.548211 0.269841
0.449348 0.529564 0.258610
0.486397 0.518944 0.259251
0.537408 0.524468 0.276280
0.583215 0.538811 0.299840
0.601282 0.531792 0.306432
0.584955 0.479286 0.278813
0.580255 0.451362 0.265049
0.204532 0.473548 0.301122
0.225803 0.518578 0.314000
0.250401 0.563775 0.324285
0.249638 0.562310 0.318914
0.253086 0.568933 0.317876
0.260105 0.575830 0.323980
0.267582 0.593713 0.333776
0.269078 0.626795 0.320058
0.305196 0.639673 0.289769
0.381384 0.610986 0.281102
0.460304 0.586267 0.299565
0.493904 0.564874 0.292790
0.533867 0.556909 0.295018
0.581323 0.563012 0.313176
0.608942 0.559014 0.323156
0.586847 0.495918 0.287510
0.561517 0.440620 0.252750
0.226658 0.517998 0.332372
0.246921 0.554253 0.347387
0.271366 0.592584 0.357397
0.269139 0.589258 0.351049
0.271214 0.593500 0.348516
0.274235 0.601312 0.350256
0.283513 0.618097 0.368414
0.291386 0.646448 0.384161
0.326970 0.665797 0.376730
0.375128 0.660975 0.331548
0.449195 0.640650 0.312261
0.531456 0.631373 0.326818
0.571160 0.616663 0.334874
0.604242 0.612055 0.342901
0.635493 0.612116 0.349798
0.624384 0.573114 0.337469
0.573663 0.483558 0.278141
0.248631 0.553307 0.365911
0.270604 0.585534 0.382788
0.285985 0.614282 0.384192
0.284642 0.612146 0.380896
0.285435 0.614893 0.377752
0.288701 0.622766 0.378851
0.293736 0.643946 0.393194
0.321447 0.669184 0.433967
0.383734 0.683040 0.468238
0.442008 0.686488 0.445045
0.486763 0.679103 0.391272
0.558007 0.671138 0.379126
0.617517 0.670649 0.386908
0.645594 0.664607 0.376410
0.665400 0.659785 0.375372
0.664637 0.641291 0.367376
0.619623 0.570733 0.334600
0.272404 0.584314 0.400946
0.290440 0.609369 0.414588
0.296605 0.626215 0.407233
0.297246 0.627100 0.407507
0.297307 0.628840 0.404730
0.299290 0.641688 0.406775
0.306889 0.663996 0.416846
0.362234 0.684993 0.470039
0.453956 0.697139 0.533135
0.530434 0.702846 0.548638
0.567254 0.703944 0.505089
0.607355 0.699397 0.474922
0.647272 0.698360 0.465034
0.679072 0.698970 0.459266
0.688258 0.690242 0.432349
0.689815 0.681605 0.417700
0.667353 0.645441 0.376745
0.294255 0.609796 0.437079
0.303746 0.624842 0.439704
0.305791 0.637873 0.431250
0.306340 0.642115 0.433021
0.306401 0.641596 0.432197
0.306645 0.656153 0.433783
0.325689 0.677150 0.448066
0.394766 0.694301 0.493660
0.496910 0.706020 0.555535
0.585367 0.712978 0.595666
0.621485 0.716457 0.589807
0.644129 0.716213 0.565332
0.670314 0.716152 0.550256
0.691493 0.716793 0.536645
0.708095 0.715755 0.515190
0.709224 0.706874 0.486336
0.696742 0.692317 0.456672
0.310948 0.626245 0.465919
0.313390 0.635157 0.462623
0.317632 0.661311 0.469245
0.322820 0.666438 0.472328
0.315007 0.659022 0.466072
0.319646 0.665156 0.468971
0.342168 0.680537 0.483864
0.405386 0.695460 0.520043
0.498619 0.707179 0.570275
0.587808 0.714717 0.610956
0.638270 0.721401 0.628779
0.659907 0.723842 0.623285
0.679744 0.723507 0.611414
0.695369 0.723568 0.599786
0.710018 0.723476 0.584649
0.720974 0.723964 0.558038
0.717769 0.717189 0.538415
0.315862 0.628779 0.478828
0.326146 0.660121 0.501610
0.402167 0.689906 0.551720
0.419196 0.696712 0.561669
0.346441 0.678614 0.517449
0.331579 0.669245 0.501305
0.339849 0.676356 0.509361
0.380148 0.686854 0.537438
0.457816 0.700618 0.581933
0.553628 0.712001 0.626215
0.623743 0.721401 0.654932
0.664454 0.727901 0.669306
0.683742 0.730282 0.662104
0.696773 0.730678 0.648920
0.709224 0.730465 0.635065
0.719875 0.728908 0.617426
0.727993 0.728603 0.592950
0.045136 0.026825 0.069276
0.057038 0.028016 0.063630
0.074250 0.031830 0.067170
0.099519 0.037263 0.074800
0.125612 0.043854 0.085176
0.152102 0.050111 0.094362
0.189395 0.060182 0.108858
0.231876 0.069276 0.122621
0.273594 0.077150 0.132815
0.314733 0.087831 0.141573
0.352697 0.098299 0.146059
0.390204 0.108278 0.148257
0.430823 0.119051 0.151766
0.463294 0.128176 0.156191
