tools/luts_backup/Kodak Gold Gen.6 200_VS.cube
# (C) 2014 VisionColor & Patchflyer [www.vision-color.com]
# Generator: VC Patchmatch v.2.1.1 [64/53]
# All work and no play makes Jack a dull boy.
# LUT generated from: Kodak Gold Gen.6 200_VisionSpace
LUT_3D_SIZE 5
0.028138 0.028138 0.028138
0.163119 0.046204 0.046174
0.261112 0.054108 0.054047
0.364446 0.064179 0.067811
0.514794 0.082856 0.102663
0.076448 0.122805 0.051179
0.188998 0.152010 0.065858
0.347936 0.206729 0.091279
0.476234 0.249790 0.123262
0.580835 0.265934 0.147738
0.213321 0.340917 0.107668
0.337407 0.375525 0.127810
0.458564 0.412848 0.152895
0.573663 0.467720 0.195712
0.635950 0.454017 0.200870
0.377417 0.556329 0.183536
0.460304 0.572595 0.210330
0.570794 0.596246 0.234928
0.649866 0.620569 0.265904
0.673335 0.601251 0.264958
0.383062 0.669245 0.219028
0.547112 0.690150 0.264042
0.640803 0.699245 0.294377
0.697200 0.705348 0.315526
0.702388 0.705928 0.317601
0.033906 0.033906 0.113497
0.106477 0.040711 0.139528
0.235203 0.054261 0.164828
0.363378 0.068269 0.184390
0.469429 0.081819 0.206027
0.081636 0.158999 0.148074
0.198520 0.191684 0.190768
0.363348 0.095064 0.098024
0.502617 0.093233 0.113130
0.665766 0.259068 0.273716
0.178225 0.410407 0.170047
0.361425 0.515221 0.194186
0.614069 0.583764 0.270390
0.633021 0.460105 0.217166
0.682887 0.489479 0.327703
0.336553 0.564233 0.251560
0.405524 0.662867 0.221805
0.636835 0.695613 0.298497
0.708644 0.704860 0.330694
0.713863 0.640223 0.377630
0.340551 0.667781 0.239048
0.447852 0.679774 0.274449
0.597436 0.700435 0.357610
0.704494 0.736019 0.402930
0.745724 0.745724 0.417060
0.037781 0.037781 0.190707
0.090425 0.046265 0.228153
0.199191 0.053193 0.222141
0.331975 0.067933 0.265232
0.454078 0.086336 0.298863
0.090761 0.169375 0.275975
0.056397 0.070161 0.295476
0.293065 0.094362 0.334325
0.453285 0.097658 0.302129
0.639277 0.280888 0.397925
0.189609 0.370092 0.374670
0.277836 0.516716 0.534264
0.456367 0.469154 0.463066
0.683986 0.338704 0.334585
0.703120 0.522789 0.491127
0.279301 0.576806 0.411154
0.304265 0.710262 0.364645
0.474983 0.667964 0.325933
0.741238 0.729824 0.428717
0.731502 0.665797 0.532403
0.308507 0.722713 0.371328
0.347448 0.736202 0.371725
0.553124 0.736446 0.479454
0.711116 0.753689 0.560632
0.770443 0.770443 0.579278
0.045930 0.045930 0.311315
0.068116 0.047333 0.305364
0.154910 0.053285 0.294377
0.305058 0.071015 0.361944
0.430060 0.090791 0.389715
0.088930 0.188754 0.413703
0.055329 0.065461 0.422004
0.128038 0.068269 0.397345
0.390204 0.104524 0.473976
0.534264 0.248478 0.449470
0.189975 0.386938 0.505150
0.173617 0.428092 0.591638
0.160327 0.263508 0.503502
0.518578 0.311025 0.609766
0.654932 0.491524 0.572595
0.273625 0.543297 0.579736
0.256657 0.611322 0.639490
0.352056 0.646540 0.667445
0.652979 0.662348 0.666010
0.723659 0.674311 0.662257
0.304570 0.666712 0.567803
0.347143 0.681697 0.596216
0.514229 0.751369 0.686671
0.712947 0.764035 0.716945
0.777890 0.777890 0.723812
0.053315 0.053315 0.431006
0.048981 0.048981 0.364233
0.115267 0.055024 0.392920
0.242130 0.070130 0.429175
0.395758 0.097169 0.484047
0.098482 0.217685 0.540856
0.102235 0.201999 0.494606
0.204410 0.235172 0.561532
0.358373 0.251225 0.593988
0.481819 0.267185 0.567437
0.175784 0.447028 0.601312
0.190707 0.396521 0.586084
0.297032 0.441398 0.650492
0.469673 0.466743 0.691402
0.618677 0.482795 0.698421
0.234592 0.548913 0.638483
0.295109 0.556207 0.647791
0.426368 0.630060 0.730922
0.635096 0.665766 0.736568
0.719570 0.677821 0.740871
0.251621 0.613611 0.648890
0.314031 0.651637 0.671412
0.431388 0.740444 0.742672
0.697658 0.770687 0.770687
0.791287 0.791287 0.791287
