tools/luts_backup/Kodak Vision3 500T 5219 (NEG)_CIN.cube
# (C) 2014 VisionColor & Patchflyer [www.vision-color.com]
# Generator: VC Patchmatch v.2.1.1 [64/53]
# All work and no play makes Jack a dull boy.
# LUT generated from: BMD Film to Kodak Vision3 500T 5219 (NEG)_Cineon
LUT_3D_SIZE 9
0.098039 0.098039 0.098039
0.243137 0.066667 0.047059
0.403922 0.094118 0.003922
0.501961 0.180392 0.003922
0.588235 0.188235 0.003922
0.654902 0.149020 0.003922
0.670588 0.082353 0.000000
0.674510 0.066667 0.000000
0.670588 0.043137 0.000000
0.168627 0.184314 0.035294
0.243137 0.164706 0.043137
0.403922 0.160784 0.003922
0.501961 0.203922 0.003922
0.592157 0.211765 0.000000
0.654902 0.180392 0.000000
0.670588 0.133333 0.000000
0.670588 0.152941 0.000000
0.670588 0.180392 0.000000
0.078431 0.321569 0.000000
0.223529 0.321569 0.000000
0.388235 0.301961 0.000000
0.501961 0.305882 0.000000
0.596078 0.325490 0.000000
0.658824 0.309819 0.000000
0.674510 0.262745 0.000000
0.674510 0.239216 0.000000
0.674510 0.231373 0.000000
0.011765 0.427451 0.011765
0.180407 0.423529 0.003922
0.415686 0.443137 0.000000
0.505882 0.423529 0.000000
0.607843 0.431373 0.000000
0.666667 0.439216 0.000000
0.674510 0.415686 0.000000
0.674510 0.392157 0.000000
0.670588 0.368627 0.000000
0.164721 0.545098 0.117647
0.274510 0.549020 0.039216
0.439216 0.552956 0.000000
0.517662 0.517662 0.000000
0.631373 0.517662 0.000000
0.670588 0.525490 0.000000
0.670588 0.521584 0.000000
0.674510 0.513726 0.000000
0.674510 0.498039 0.000000
0.250980 0.627451 0.211765
0.333333 0.635294 0.180377
0.486275 0.647059 0.003922
0.592157 0.654902 0.000000
0.658824 0.654902 0.000000
0.670588 0.639216 0.000000
0.670588 0.627451 0.000000
0.674510 0.619608 0.000000
0.674510 0.611765 0.000000
0.262745 0.666667 0.192157
0.352941 0.662745 0.172549
0.509804 0.670588 0.058824
0.615686 0.670588 0.000000
0.670588 0.674510 0.000000
0.674510 0.674510 0.000000
0.670588 0.670588 0.000000
0.670588 0.670588 0.000000
0.674510 0.666667 0.000000
0.258824 0.670588 0.141176
0.364706 0.674510 0.125490
0.525490 0.674510 0.058824
0.631373 0.674510 0.003922
0.674510 0.674510 0.000000
0.670588 0.670588 0.000000
0.674510 0.674510 0.000000
0.674510 0.674510 0.000000
0.674510 0.674510 0.000000
0.270588 0.674510 0.078431
0.372549 0.674510 0.082353
0.533333 0.674510 0.027451
0.639216 0.670588 0.000000
0.670588 0.670588 0.000000
0.670588 0.670588 0.000000
0.674510 0.674510 0.000000
0.674510 0.674510 0.000000
0.674510 0.674510 0.000000
0.105882 0.035294 0.196078
0.196078 0.039216 0.192157
0.368627 0.015686 0.219608
0.478431 0.043137 0.223529
0.564706 0.117647 0.250980
0.627451 0.047074 0.223529
0.654902 0.003922 0.219608
0.670588 0.000000 0.180392
0.670588 0.000000 0.200000
0.121569 0.164706 0.180392
0.203922 0.192157 0.176471
0.380392 0.184314 0.156863
0.482353 0.215686 0.164706
0.576471 0.243137 0.188235
0.639216 0.215686 0.184314
0.666667 0.090196 0.196078
0.670588 0.015686 0.137255
0.674510 0.011765 0.149020
0.035294 0.309804 0.149020
0.188235 0.313726 0.105882
0.376471 0.313726 0.078431
0.494118 0.317647 0.039216
0.592157 0.329412 0.015686
0.654902 0.313741 0.007843
0.670588 0.258824 0.000000
0.674510 0.227451 0.000000
0.674510 0.211765 0.000000
0.003922 0.415686 0.125490
0.145098 0.427451 0.121569
0.392157 0.443137 0.062745
0.501961 0.435294 0.007843
0.600000 0.435294 0.000000
0.662745 0.439216 0.000000
0.670588 0.419608 0.000000
0.674510 0.396078 0.000000
0.674510 0.372549 0.000000
0.121569 0.541176 0.207843
0.239216 0.541176 0.172549
0.427451 0.549020 0.007843
0.529412 0.552941 0.000000
0.627451 0.529412 0.000000
0.670588 0.533333 0.000000
0.670588 0.525505 0.000000
0.670588 0.521569 0.000000
0.674510 0.501961 0.000000
0.235294 0.627451 0.262745
0.305882 0.631373 0.254902
0.462745 0.643137 0.031373
0.568627 0.654902 0.000000
0.654902 0.654902 0.000000
0.674510 0.639216 0.000000
0.674510 0.631373 0.000000
0.670588 0.627451 0.000000
0.674510 0.619608 0.000000
0.250980 0.662745 0.250980
0.337255 0.662745 0.266667
0.494118 0.670588 0.203922
0.600000 0.674510 0.066651
0.666667 0.674510 0.000000
0.674510 0.674510 0.000000
0.674510 0.674510 0.000000
0.674510 0.670588 0.000000
0.674510 0.670588 0.000000
0.250980 0.674510 0.223529
0.349020 0.674510 0.250980
0.513726 0.674510 0.207843
0.619608 0.670588 0.070588
0.670588 0.674510 0.000000
0.670588 0.670588 0.000000
0.670588 0.670588 0.000000
0.674510 0.674510 0.000000
0.670588 0.670588 0.000000
0.254902 0.674510 0.160784
0.360784 0.674510 0.223529
0.521569 0.670588 0.180392
0.627451 0.670588 0.031373
0.670588 0.670588 0.000000
0.670588 0.670588 0.000000
0.674510 0.674510 0.000000
0.670588 0.670588 0.000000
0.674510 0.674510 0.000000
0.003922 0.000000 0.352941
0.019608 0.000000 0.349020
0.266667 0.000000 0.345098
0.435294 0.000000 0.360784
0.537255 0.027466 0.407843
0.611765 0.137255 0.423529
0.607843 0.000000 0.337255
0.635294 0.000000 0.305882
0.639216 0.000000 0.298039
0.003922 0.054902 0.349020
0.039216 0.086275 0.341176
0.298039 0.086275 0.333333
0.443137 0.066667 0.345098
0.529412 0.070588 0.372549
0.611765 0.137255 0.403922
0.619608 0.003922 0.364706
0.647059 0.000000 0.305882
0.654902 0.000000 0.294118
0.000000 0.286275 0.333333
0.023529 0.294118 0.329412
0.317647 0.305882 0.309804
0.454902 0.313726 0.309804
0.549020 0.317647 0.317647
0.615686 0.286275 0.321569
0.647059 0.219608 0.337255
0.650980 0.066682 0.317647
0.658824 0.035294 0.278431
0.000000 0.403922 0.349020
0.027451 0.411765 0.333333
0.341176 0.439216 0.313726
0.470588 0.431373 0.254902
0.572549 0.423529 0.196078
0.643137 0.411765 0.156863
0.666667 0.380392 0.152941
0.670588 0.325490 0.121569
0.674510 0.309819 0.086275
0.003922 0.517647 0.384314
0.054902 0.517662 0.349020
0.372549 0.533349 0.294118
0.505882 0.560784 0.207843
0.600000 0.537255 0.133333
0.662745 0.525490 0.058824
0.674510 0.509819 0.023529
0.674510 0.501961 0.035294
0.670588 0.482353 0.035294
0.027451 0.615686 0.392157
0.156863 0.623529 0.360784
0.407843 0.631373 0.254902
0.525490 0.647059 0.086290
0.627451 0.650980 0.011780
0.670588 0.635294 0.007858
0.670588 0.623529 0.000000
0.670588 0.615686 0.000000
0.674510 0.603922 0.000000
0.109804 0.662745 0.403922
0.254902 0.666667 0.388235
0.454902 0.670588 0.356863
0.545098 0.670588 0.074510
0.639216 0.670588 0.007843
0.670588 0.670588 0.003922
0.674510 0.674510 0.000000
0.674510 0.670588 0.000000
0.674510 0.666667 0.000000
0.152941 0.674510 0.392157
0.270588 0.674510 0.384314
0.474510 0.670588 0.376471
0.576471 0.674510 0.207828
0.654902 0.674510 0.019608
0.674510 0.674510 0.164706
0.670588 0.670588 0.000000
0.674510 0.674510 0.000000
0.674510 0.674510 0.000000
0.172549 0.670588 0.356863
0.274510 0.670588 0.356863
0.486275 0.674510 0.376471
0.592157 0.674510 0.278416
0.662745 0.674510 0.125490
0.674510 0.674510 0.113725
0.670588 0.670588 0.003922
0.670588 0.670588 0.000000
0.674510 0.674510 0.000000
0.000000 0.000000 0.427451
0.000000 0.000000 0.427451
0.050980 0.000000 0.411765
0.349020 0.000000 0.400000
0.490196 0.003922 0.462745
0.521569 0.027451 0.411765
0.545098 0.000000 0.360784
0.572549 0.000000 0.337255
0.584314 0.000000 0.325490
0.000000 0.007843 0.423529
0.000000 0.011765 0.419608
0.090196 0.011765 0.411765
0.372549 0.003922 0.400000
0.486275 0.000000 0.435294
0.537255 0.023529 0.423529
0.560784 0.000000 0.376471
0.596078 0.000000 0.352941
0.603922 0.000000 0.341176
0.000000 0.235294 0.415686
0.000000 0.243137 0.411765
0.200000 0.270588 0.403922
0.396078 0.258824 0.403922
0.482353 0.168627 0.407843
0.545098 0.070603 0.411765
0.572549 0.011765 0.392157
0.584314 0.000000 0.352941
0.611765 0.000000 0.345098
0.000000 0.388235 0.427451
0.000000 0.392157 0.431373
0.188235 0.407843 0.427451
0.423529 0.419608 0.415686
0.517647 0.411765 0.407843
0.588235 0.392157 0.400000
0.623529 0.360784 0.376471
0.623529 0.313741 0.337255
0.600000 0.254902 0.270588
0.000000 0.494118 0.474510
0.000000 0.498039 0.462745
0.211765 0.513726 0.447059
0.450980 0.533333 0.423529
0.552941 0.525490 0.384314
0.627451 0.509804 0.356878
0.662745 0.490211 0.313741
0.670588 0.470588 0.270588
0.662745 0.443137 0.215686
0.000000 0.592157 0.486275
0.003922 0.596078 0.470588
0.247059 0.611765 0.419623
0.470588 0.627451 0.403922
0.584314 0.639216 0.341192
0.643137 0.619608 0.313741
0.670588 0.607843 0.270604
0.674510 0.596078 0.219623
0.674510 0.580377 0.141192
0.007843 0.654902 0.509804
0.078416 0.658824 0.490196
0.352941 0.662745 0.419608
0.486275 0.666667 0.341192
0.600000 0.670588 0.270604
0.662745 0.670588 0.215702
0.670588 0.662745 0.192172
0.670588 0.658824 0.168643
0.670588 0.654902 0.117662
0.015686 0.670588 0.513726
0.141176 0.670588 0.494118
0.411765 0.674510 0.458824
0.509804 0.674510 0.282353
0.607843 0.670588 0.160800
0.666667 0.674510 0.203922
0.674510 0.674510 0.121584
0.674510 0.674510 0.101976
0.674510 0.674510 0.074525
0.031373 0.670588 0.501961
0.180392 0.670588 0.490196
0.415686 0.674510 0.470588
0.525490 0.674510 0.301961
0.619608 0.670588 0.156878
0.670588 0.674510 0.164706
0.674510 0.674510 0.156878
0.674510 0.674510 0.117662
0.674510 0.674510 0.043153
0.000000 0.000000 0.443137
0.000000 0.000000 0.439216
0.000000 0.000000 0.427451
0.254917 0.000000 0.400000
0.466667 0.086275 0.435294
0.443137 0.000000 0.384314
0.486275 0.000000 0.364706
0.509804 0.000000 0.337255
0.517647 0.000000 0.309804
0.000000 0.000000 0.443137
0.000000 0.000000 0.435294
0.000000 0.000000 0.419608
0.247059 0.000000 0.396078
0.439216 0.019608 0.419608
0.454902 0.000000 0.392157
0.501961 0.000000 0.380392
0.533333 0.000000 0.364706
0.541176 0.000000 0.352941
0.000000 0.101961 0.431373
0.000000 0.105882 0.431373
0.019608 0.145098 0.427451
0.223529 0.082353 0.415686
0.419608 0.023529 0.411765
0.474510 0.000000 0.392157
0.494118 0.000000 0.360784
0.501961 0.000000 0.333333
0.537255 0.000000 0.360784
0.000000 0.356863 0.458824
0.000000 0.352941 0.458824
0.015686 0.356863 0.454902
0.333333 0.376471 0.454902
0.454902 0.360784 0.447059
0.521569 0.298039 0.439216
0.545098 0.215702 0.411765
0.529412 0.133349 0.356863
0.498039 0.082368 0.298039
0.000000 0.474510 0.509804
0.000000 0.470588 0.509804
0.027451 0.482353 0.501961
0.368627 0.494118 0.501961
0.501961 0.501961 0.498039
0.576471 0.490196 0.474510
0.607843 0.470603 0.439231
0.623529 0.458824 0.403922
0.619608 0.435309 0.352956
0.000000 0.549020 0.556863
0.000000 0.533318 0.568627
0.031373 0.549020 0.556863
0.388235 0.592157 0.529412
0.525490 0.603922 0.498039
0.603922 0.592157 0.474525
0.643137 0.576471 0.439216
0.662745 0.560769 0.403922
0.666667 0.537240 0.349020
0.000000 0.627451 0.580392
0.000000 0.635294 0.580392
0.117632 0.635294 0.560784
0.411765 0.654902 0.505898
0.549020 0.658824 0.490196
0.627451 0.658824 0.466682
0.658824 0.647059 0.435309
0.670588 0.639216 0.411780
0.674510 0.631373 0.384329
0.000000 0.662745 0.600000
0.003922 0.666667 0.592157
0.254887 0.658824 0.560800
0.443137 0.670588 0.478447
0.560784 0.670588 0.474525
0.639216 0.674510 0.458839
0.670588 0.670588 0.427466
0.674510 0.670588 0.407858
0.670588 0.666667 0.384329
0.000000 0.670588 0.611765
0.011765 0.670588 0.596078
0.298039 0.670588 0.568627
0.454902 0.674510 0.474510
0.572549 0.674510 0.466682
0.647059 0.674510 0.458839
0.670588 0.670588 0.427466
0.674510 0.674510 0.400015
0.670588 0.670588 0.372564
0.000000 0.000000 0.450980
0.000000 0.000000 0.447059
0.000000 0.000000 0.439216
0.043153 0.000000 0.411765
0.282399 0.011765 0.400000
0.392172 0.015702 0.392157
0.439216 0.000000 0.356863
0.458824 0.000000 0.309804
0.454902 0.000000 0.274510
0.000000 0.000000 0.450980
0.000000 0.000000 0.443137
0.000000 0.000000 0.423529
0.039231 0.000000 0.388235
0.321599 0.007843 0.376471
0.403922 0.007843 0.380392
0.454902 0.000000 0.384314
0.478431 0.000000 0.360784
0.486275 0.000000 0.341176
0.000000 0.007858 0.458824
0.000000 0.007843 0.447059
0.000000 0.011780 0.411765
0.007858 0.003922 0.396078
0.274525 0.000000 0.376471
0.403922 0.000000 0.364706
0.396078 0.000000 0.337255
0.486275 0.000000 0.392157
0.521569 0.000000 0.407843
0.000000 0.301976 0.482353
0.000000 0.298054 0.474510
0.000000 0.286290 0.458824
0.145129 0.317662 0.466667
0.349035 0.274525 0.454902
0.450980 0.176501 0.443137
0.462760 0.051011 0.407843
0.450996 0.027466 0.368627
0.431388 0.019623 0.337255
0.003922 0.458824 0.545098
0.035279 0.458824 0.545098
0.003922 0.447074 0.533333
0.219638 0.450996 0.537255
0.439231 0.466667 0.541176
0.513726 0.458839 0.517647
0.552941 0.431388 0.486275
0.580392 0.415702 0.466667
0.588235 0.400015 0.450980
0.000000 0.521569 0.588235
0.000000 0.501961 0.600000
0.003922 0.486275 0.607843
0.266682 0.552941 0.596078
0.462760 0.560784 0.588235
0.560784 0.568627 0.560784
0.611765 0.556863 0.533333
0.639216 0.545098 0.505882
0.654902 0.537255 0.494118
0.000000 0.607843 0.623529
0.000000 0.607843 0.623529
0.062745 0.588235 0.650980
0.301976 0.623529 0.631373
0.486290 0.635294 0.607843
0.580392 0.635294 0.572549
0.635294 0.631373 0.545098
0.662745 0.619608 0.513726
0.670588 0.607843 0.494118
0.000000 0.643137 0.650980
0.000000 0.647059 0.647059
0.105898 0.658824 0.650980
0.337270 0.658824 0.635294
0.501976 0.666667 0.600000
0.596078 0.666667 0.580392
0.650980 0.666667 0.552941
0.666667 0.662745 0.529412
0.674510 0.658824 0.513726
0.000000 0.662745 0.658824
0.000000 0.662745 0.658824
0.109819 0.666667 0.650980
0.380407 0.670588 0.631357
0.509819 0.670588 0.599985
0.607843 0.674510 0.588235
0.658824 0.674510 0.560784
0.674510 0.674510 0.537255
0.674510 0.670588 0.529412
0.000000 0.000000 0.454902
0.000000 0.000000 0.454902
0.000000 0.000000 0.450980
0.000000 0.000000 0.423529
0.003922 0.000000 0.400000
0.196078 0.000000 0.380392
0.368627 0.000000 0.376471
0.411765 0.000000 0.282353
0.407843 0.000000 0.239216
0.000000 0.000000 0.458824
0.000000 0.000000 0.462745
0.000000 0.000000 0.450980
0.000000 0.000000 0.411765
0.011780 0.000000 0.380392
0.282353 0.000000 0.360784
0.392157 0.000000 0.392157
0.435294 0.000000 0.349020
0.447059 0.000000 0.321569
0.000000 0.000000 0.474510
0.000000 0.000000 0.462745
0.000000 0.000000 0.415686
0.000000 0.000000 0.376471
0.031403 0.000000 0.349020
0.301961 0.000000 0.313726
0.372549 0.000000 0.356863
0.466667 0.000000 0.423529
0.494118 0.000000 0.431373
0.000000 0.196094 0.505882
0.000000 0.192172 0.498039
0.000000 0.184329 0.454902
0.019623 0.227466 0.470588
0.149050 0.133349 0.454902
0.364706 0.074540 0.443137
0.415686 0.027466 0.419608
0.400015 0.011780 0.388235
0.458824 0.007858 0.419608
0.007843 0.439216 0.568627
0.047074 0.443153 0.572549
0.015702 0.423545 0.549020
0.058854 0.419623 0.560784
0.384329 0.439216 0.576471
0.450980 0.411780 0.545098
0.517647 0.403937 0.521569
0.545113 0.364721 0.498039
0.564706 0.360800 0.490196
0.000000 0.525490 0.611765
0.011780 0.525490 0.615686
0.098039 0.517647 0.635294
0.113741 0.517647 0.635294
0.415686 0.529412 0.631373
0.517647 0.537255 0.607843
0.580392 0.529412 0.580392
0.619608 0.525490 0.564706
0.635294 0.521569 0.552941
0.000000 0.592157 0.643137
0.000000 0.592157 0.643137
0.094118 0.584314 0.658824
0.200015 0.600000 0.662745
0.439231 0.607843 0.658824
0.537255 0.611765 0.635294
0.607843 0.611765 0.607843
0.647059 0.611765 0.592157
0.658824 0.607843 0.584314
0.000000 0.631373 0.666667
0.000000 0.631373 0.666667
0.011765 0.643137 0.666667
0.250996 0.643137 0.670588
0.447074 0.650980 0.666667
0.549020 0.650980 0.647059
0.627451 0.654902 0.623529
0.654902 0.650980 0.603922
0.666667 0.643137 0.584314
0.000000 0.650980 0.674510
0.000000 0.650980 0.670588
0.003922 0.658824 0.670588
0.262760 0.666667 0.674510
0.454917 0.666667 0.666667
0.560784 0.670588 0.650980
0.635294 0.670588 0.631373
0.662745 0.670588 0.611765
0.670588 0.670588 0.600000
0.000000 0.000000 0.439216
0.000000 0.000000 0.435294
0.000000 0.000000 0.435294
0.000000 0.000000 0.431373
0.000000 0.000000 0.419608
0.007843 0.000000 0.400000
0.262745 0.000000 0.372549
0.368627 0.000000 0.329412
0.364706 0.000000 0.223529
0.000000 0.000000 0.450980
0.000000 0.000000 0.454902
0.000000 0.000000 0.447059
0.000000 0.000000 0.435294
0.000000 0.000000 0.427451
0.058824 0.000000 0.411765
0.305882 0.000000 0.396078
0.400000 0.000000 0.376471
0.411765 0.000000 0.313726
0.000000 0.000000 0.478431
0.000000 0.000000 0.478431
0.000000 0.000000 0.443137
0.000000 0.000000 0.411765
0.000000 0.000000 0.392157
0.050980 0.000000 0.345098
0.274510 0.000000 0.349020
0.427451 0.000000 0.427451
0.470588 0.000000 0.435294
0.000000 0.125505 0.525490
0.000000 0.117662 0.521569
0.000000 0.113741 0.474510
0.000015 0.176486 0.470588
0.031388 0.050996 0.447059
0.223529 0.015702 0.435309
0.333349 0.011780 0.411780
0.376486 0.007858 0.403922
0.470588 0.003937 0.454902
0.000000 0.403937 0.580392
0.000000 0.407858 0.580392
0.000000 0.400015 0.568627
0.019623 0.396078 0.568627
0.317662 0.415702 0.600000
0.396078 0.376486 0.572549
0.482353 0.368643 0.552941
0.525490 0.349035 0.525490
0.552941 0.337270 0.513726
0.000000 0.505882 0.631373
0.000000 0.509804 0.631373
0.027451 0.490196 0.650980
0.050996 0.498039 0.650980
0.360800 0.501961 0.650980
0.490196 0.517647 0.635294
0.545098 0.513726 0.615686
0.596078 0.509804 0.592157
0.623529 0.501961 0.580392
0.000000 0.576471 0.658824
0.000000 0.580392 0.658824
0.000000 0.584314 0.666667
0.070603 0.576471 0.670588
0.400000 0.588235 0.670588
0.513726 0.596078 0.658824
0.592157 0.603922 0.639216
0.627451 0.596078 0.623529
0.650980 0.596078 0.619608
0.000000 0.619608 0.670588
0.000000 0.623529 0.670588
0.000000 0.631373 0.670588
0.168643 0.631373 0.674510
0.415702 0.635294 0.674510
0.525490 0.639216 0.666667
0.603922 0.643137 0.650980
0.643137 0.647059 0.639216
0.662745 0.643137 0.631373
0.000000 0.635294 0.670588
0.000000 0.643137 0.674510
0.000000 0.650980 0.670588
0.192172 0.654902 0.670588
0.419608 0.654902 0.670588
0.529412 0.658824 0.670588
0.607843 0.662745 0.658824
0.650980 0.666667 0.647059
0.666667 0.662745 0.635294
0.000000 0.000000 0.411765
0.000000 0.000000 0.407843
0.000000 0.000000 0.407843
0.000000 0.000000 0.411765
0.000000 0.000000 0.407843
0.000000 0.000000 0.388235
0.078431 0.000000 0.356863
0.282353 0.000000 0.309804
0.341176 0.000000 0.262745
0.000000 0.000000 0.431373
0.000000 0.000000 0.447059
0.000000 0.000000 0.431373
0.000000 0.000000 0.435294
0.000000 0.000000 0.427451
0.000000 0.000000 0.415686
0.176455 0.000000 0.400000
0.333333 0.000000 0.376471
0.392157 0.000000 0.341176
0.000000 0.000000 0.470588
0.000000 0.000000 0.478431
0.000000 0.000000 0.474510
0.000000 0.000000 0.454902
0.000000 0.000000 0.447059
0.000000 0.000000 0.403922
0.223514 0.000000 0.411765
0.384314 0.000000 0.439216
0.447059 0.000000 0.443137
0.000000 0.082368 0.529412
0.000000 0.082368 0.529412
0.000000 0.101976 0.505882
0.000000 0.188251 0.482353
0.003937 0.019623 0.447059
0.094118 0.011780 0.439216
0.250996 0.003937 0.415702
0.352941 0.007858 0.419608
0.431373 0.003937 0.450980
0.000000 0.388251 0.592157
0.000000 0.384329 0.592157
0.000000 0.388235 0.596078
0.007858 0.384314 0.572549
0.247074 0.396094 0.607843
0.341176 0.337270 0.576471
0.447059 0.341192 0.572549
0.505882 0.333349 0.549020
0.533333 0.317662 0.529412
0.000000 0.490196 0.639216
0.000000 0.494118 0.643137
0.000000 0.486275 0.654902
0.011780 0.474510 0.654902
0.321584 0.486275 0.658824
0.470588 0.509804 0.654902
0.509804 0.494118 0.635294
0.572549 0.498039 0.615686
0.607843 0.498039 0.600000
0.000000 0.564706 0.666667
0.000000 0.572549 0.666667
0.000000 0.572549 0.666667
0.035309 0.564706 0.670588
0.368627 0.576471 0.674510
0.490196 0.580392 0.670588
0.572549 0.592157 0.654902
0.607843 0.584314 0.643137
0.639216 0.588235 0.635294
0.000000 0.607843 0.674510
0.000000 0.611765 0.674510
0.000000 0.623529 0.674510
0.070603 0.623529 0.674510
0.388251 0.623529 0.674510
0.505882 0.627451 0.670588
0.588235 0.631373 0.666667
0.631373 0.635294 0.654902
0.650980 0.635294 0.647059
0.000000 0.627451 0.670588
0.000000 0.631373 0.670588
0.000000 0.647059 0.670588
0.141192 0.650980 0.674510
0.403922 0.650980 0.674510
0.513726 0.654902 0.674510
0.592157 0.654902 0.666667
0.639216 0.658824 0.662745
0.658824 0.658824 0.654902
