tools/luts_backup/Kodak Vision3 50D 5203 (NEG)_FC.cube
# (C) 2014 VisionColor & Patchflyer [www.vision-color.com]
# Generator: VC Patchmatch v.2.1.1 [64/53]
# All work and no play makes Jack a dull boy.
# LUT generated from: BMD Film to Kodak Vision3 50D 5203 (NEG)_Cineon
LUT_3D_SIZE 9
0.020325 0.020325 0.020325
0.096101 0.019715 0.019944
0.191959 0.022721 0.023896
0.331594 0.026139 0.026612
0.486519 0.028412 0.028275
0.632517 0.031785 0.029526
0.780468 0.040375 0.033433
0.882628 0.049943 0.038407
0.943999 0.043290 0.043366
0.028519 0.078538 0.025971
0.097078 0.083421 0.013794
0.192187 0.088930 0.014282
0.303120 0.093935 0.019883
0.442847 0.098772 0.022736
0.585458 0.100710 0.024750
0.733730 0.117357 0.031098
0.846113 0.146212 0.038590
0.924346 0.147753 0.045274
0.026123 0.189242 0.034684
0.068421 0.190631 0.022858
0.160037 0.194018 0.017807
0.271519 0.186526 0.016190
0.419043 0.198260 0.019654
0.586282 0.215106 0.025162
0.733043 0.240879 0.034394
0.854887 0.292271 0.046342
0.926467 0.358999 0.062730
0.019669 0.335866 0.032792
0.065995 0.340276 0.022446
0.129595 0.337209 0.019821
0.242206 0.333471 0.019562
0.389120 0.329030 0.023041
0.579156 0.362280 0.032136
0.740993 0.402716 0.044495
0.863111 0.451972 0.060136
0.921889 0.532616 0.086900
0.020752 0.502586 0.038590
0.050706 0.508949 0.033371
0.105348 0.505577 0.029129
0.205417 0.497154 0.027436
0.363256 0.497078 0.028748
0.548394 0.510292 0.041001
0.708324 0.517617 0.048615
0.843732 0.539925 0.060197
0.917464 0.586587 0.083223
0.023224 0.661295 0.054719
0.039475 0.667811 0.050584
0.074556 0.670726 0.051667
0.156100 0.659678 0.052689
0.295995 0.642664 0.044205
0.472694 0.633616 0.043000
0.647440 0.628473 0.054078
0.795056 0.606409 0.057343
0.912566 0.644999 0.080430
0.027314 0.794537 0.073182
0.043656 0.794171 0.070359
0.074723 0.788693 0.081910
0.156237 0.779568 0.095155
0.281254 0.768994 0.082780
0.450385 0.757305 0.071397
0.624140 0.749218 0.076860
0.786648 0.735912 0.081605
0.913069 0.761685 0.105257
0.038102 0.886473 0.101595
0.060548 0.882689 0.101930
0.121294 0.871046 0.133303
0.254734 0.858701 0.173190
0.431357 0.867613 0.151614
0.580880 0.867964 0.143908
0.729992 0.863325 0.148669
0.850919 0.858717 0.146441
0.914534 0.858396 0.143282
0.043809 0.942428 0.125490
0.082734 0.935470 0.137362
0.180804 0.917769 0.168246
0.383169 0.910750 0.197375
0.573877 0.918013 0.214817
0.708247 0.920012 0.233433
0.813962 0.919203 0.235981
0.880354 0.916091 0.221118
0.927001 0.915969 0.211521
0.026291 0.014221 0.065202
0.085344 0.016632 0.056428
0.169131 0.019272 0.059876
0.292241 0.022919 0.061616
0.458091 0.026078 0.061112
0.612146 0.029541 0.056931
0.766644 0.033814 0.056535
0.882994 0.038804 0.059373
0.941680 0.043168 0.063340
0.026673 0.059800 0.073915
0.074937 0.062364 0.061906
0.243412 0.045670 0.035401
0.390417 0.041154 0.038651
0.536171 0.043778 0.039658
0.680476 0.052674 0.043961
0.805997 0.061036 0.049271
0.891005 0.064485 0.055039
0.938628 0.073182 0.057465
0.021332 0.170626 0.089723
0.047517 0.232441 0.055146
0.189288 0.238102 0.037201
0.355306 0.196170 0.031220
0.507591 0.180880 0.035325
0.648112 0.190326 0.042939
0.771771 0.215518 0.051728
0.860746 0.217350 0.057725
0.920012 0.173144 0.057969
0.016663 0.319875 0.089754
0.046952 0.394614 0.048539
0.139361 0.398627 0.039124
0.296895 0.416281 0.040742
0.499962 0.390509 0.046662
0.665751 0.399786 0.058152
0.794232 0.436347 0.073976
0.875792 0.443488 0.083207
0.920577 0.322499 0.067109
0.019699 0.513329 0.079713
0.044175 0.535531 0.059602
0.105943 0.539193 0.052064
0.223651 0.541772 0.051316
0.406928 0.556374 0.054719
0.612543 0.540841 0.067033
0.771191 0.540978 0.076310
0.871214 0.539940 0.086305
0.909010 0.448325 0.073442
0.025040 0.676387 0.089082
0.041444 0.670970 0.075334
0.081239 0.672404 0.075273
0.183108 0.663157 0.073701
0.335164 0.661784 0.072587
0.553429 0.675319 0.089067
0.729549 0.654810 0.090578
0.858351 0.623270 0.090211
0.894041 0.517098 0.069001
0.029557 0.794766 0.106645
0.045716 0.791623 0.100664
0.080659 0.784772 0.116564
0.168322 0.773114 0.127886
0.325750 0.769207 0.111482
0.548745 0.777356 0.129442
0.754757 0.789395 0.157900
0.869383 0.779400 0.147692
0.901427 0.705379 0.109102
0.041306 0.883970 0.140429
0.063767 0.879042 0.140551
0.126711 0.864790 0.181674
0.250355 0.851133 0.223560
0.434974 0.864118 0.190402
0.629084 0.869444 0.206851
0.793240 0.873640 0.234180
0.884642 0.875288 0.237079
0.920256 0.862791 0.208240
0.048631 0.940490 0.174960
0.088380 0.930358 0.189105
0.181201 0.912795 0.218524
0.368887 0.905440 0.245823
0.562539 0.914321 0.258366
0.710430 0.917662 0.288273
0.819852 0.918975 0.303532
0.887663 0.919478 0.303380
0.932921 0.920592 0.297154
0.025620 0.015259 0.169894
0.071595 0.014023 0.145892
0.147112 0.016297 0.131716
0.266361 0.019989 0.130770
0.433494 0.024155 0.125948
0.596139 0.027893 0.119646
0.751019 0.032227 0.109148
0.872663 0.036423 0.103166
0.938827 0.041871 0.104448
0.019165 0.050797 0.192737
0.041215 0.030137 0.226642
0.188113 0.031479 0.170047
0.354223 0.034638 0.121691
0.513436 0.038758 0.098665
0.667292 0.043900 0.084581
0.802563 0.048615 0.081254
0.888945 0.053758 0.082582
0.936767 0.056626 0.084947
0.016999 0.137041 0.180560
0.032853 0.177234 0.230716
0.160555 0.153948 0.167727
0.384344 0.101305 0.082109
0.554574 0.077668 0.059953
0.702647 0.080430 0.061952
0.810956 0.084016 0.068009
0.886931 0.088380 0.072679
0.936614 0.085527 0.076204
0.012497 0.294972 0.178882
0.035569 0.399008 0.137224
0.143954 0.423377 0.084855
0.338445 0.393637 0.104601
0.548470 0.348638 0.074540
0.703380 0.354864 0.080766
0.798764 0.346151 0.087343
0.858106 0.258412 0.078187
0.923415 0.207965 0.080858
0.017838 0.499825 0.177310
0.042100 0.583566 0.124666
0.100420 0.578866 0.104631
0.285252 0.571420 0.082750
0.477729 0.586618 0.114885
0.679210 0.548913 0.100237
0.802792 0.531685 0.107118
0.864332 0.458152 0.096544
0.912734 0.389212 0.094835
0.029053 0.684672 0.183413
0.049042 0.707530 0.143709
0.092073 0.697292 0.156802
0.220462 0.687984 0.142046
0.451072 0.696193 0.139300
0.674113 0.713405 0.183398
0.794476 0.666285 0.138567
0.855772 0.571359 0.102785
0.907042 0.555810 0.109834
0.044541 0.813352 0.204501
0.062242 0.806714 0.183474
0.118837 0.791852 0.214405
0.249271 0.778759 0.254612
0.469535 0.795789 0.208225
0.691157 0.812696 0.261448
0.833951 0.822126 0.276448
0.877516 0.779843 0.206577
0.909468 0.714199 0.152377
0.062547 0.886122 0.250172
0.083436 0.876753 0.244190
0.154498 0.862318 0.268345
0.326223 0.855634 0.325811
0.549554 0.870207 0.318898
0.715724 0.878691 0.343145
0.835843 0.882582 0.359380
0.896742 0.883619 0.351522
0.922637 0.865049 0.296437
0.113878 0.921645 0.338933
0.113970 0.919203 0.310475
0.163806 0.908293 0.316304
0.316060 0.897200 0.361044
0.548943 0.905028 0.379797
0.713130 0.918441 0.402884
0.824643 0.922744 0.420142
0.892714 0.924224 0.422950
0.936996 0.926986 0.428763
0.024109 0.017792 0.328389
0.067918 0.015198 0.285145
0.135851 0.015061 0.249439
0.247852 0.017639 0.226902
0.432364 0.023453 0.220645
0.593820 0.027695 0.200961
0.742641 0.031098 0.193454
0.863340 0.035264 0.183597
0.934325 0.040131 0.170703
0.017670 0.042771 0.370138
0.033509 0.029419 0.432441
0.138582 0.026474 0.352743
0.358007 0.031479 0.279667
0.512825 0.037522 0.217914
0.656031 0.041428 0.187274
0.788571 0.046036 0.166033
0.880476 0.051148 0.145068
0.935149 0.055161 0.126574
0.014298 0.107195 0.345510
0.024598 0.089952 0.452781
0.073518 0.061936 0.422736
0.373404 0.070069 0.310826
0.542855 0.056138 0.194797
0.698161 0.058991 0.139925
0.810300 0.064454 0.118883
0.882307 0.069581 0.109895
0.933974 0.076326 0.114214
0.011795 0.247776 0.317601
0.022400 0.326482 0.387854
0.087922 0.336599 0.360021
0.306249 0.308354 0.321782
0.553719 0.205646 0.185199
0.691432 0.131609 0.099184
0.801007 0.114275 0.092683
0.876753 0.117678 0.098497
0.935943 0.158038 0.117250
0.013703 0.465003 0.306127
0.049287 0.576944 0.319661
0.100526 0.582238 0.215900
0.278370 0.573831 0.226215
0.522820 0.546624 0.262150
0.694026 0.475471 0.145922
0.792584 0.407050 0.119448
0.858198 0.338842 0.118029
0.914977 0.371969 0.151614
0.036698 0.676677 0.339483
0.069947 0.725078 0.289998
0.114702 0.716472 0.273213
0.285512 0.708507 0.311757
0.583322 0.725917 0.261585
0.704341 0.722377 0.309987
0.798932 0.626337 0.168734
0.866835 0.565789 0.147448
0.915557 0.587076 0.188937
0.065202 0.811826 0.371176
0.098253 0.810132 0.334035
0.139284 0.797498 0.331548
0.332464 0.793759 0.413397
0.581811 0.818662 0.381125
0.759106 0.833494 0.407019
0.853559 0.833051 0.401587
0.879210 0.771527 0.274876
0.919753 0.755093 0.262592
0.103578 0.881666 0.422583
0.156695 0.870680 0.426627
0.166522 0.862028 0.397574
0.316213 0.856580 0.445396
0.562341 0.868757 0.489418
0.737438 0.884138 0.484703
0.849302 0.888380 0.493843
0.903243 0.889250 0.488945
0.933150 0.874342 0.429114
0.176455 0.912947 0.500816
0.206073 0.907912 0.490776
0.208286 0.902281 0.458335
0.329519 0.896788 0.488258
0.527016 0.900740 0.522591
0.715709 0.917372 0.547616
0.832822 0.926802 0.551736
0.899977 0.929595 0.563012
0.939788 0.932204 0.571771
0.022858 0.020722 0.573831
0.068742 0.017746 0.507836
0.147295 0.017121 0.446571
0.280034 0.018326 0.390112
0.444266 0.022156 0.348180
0.610407 0.027848 0.320928
0.748852 0.031479 0.299443
0.858137 0.035889 0.276539
0.930022 0.039811 0.233509
0.018051 0.041001 0.618830
0.031647 0.031678 0.676036
0.108827 0.027985 0.583413
0.326879 0.030304 0.476371
0.541863 0.038087 0.384146
0.670649 0.042634 0.327611
0.784543 0.046647 0.281010
0.874159 0.051087 0.225650
0.931334 0.054978 0.185489
0.013733 0.091463 0.566522
0.026642 0.064347 0.686000
0.047562 0.046296 0.702358
0.256611 0.044968 0.564630
0.581704 0.056733 0.433127
0.698558 0.058885 0.305104
0.799512 0.062882 0.224216
0.875837 0.067842 0.182269
0.931319 0.076234 0.190921
0.011948 0.203403 0.497810
0.018906 0.193942 0.592081
0.042634 0.141634 0.646311
0.138796 0.123644 0.569635
0.533974 0.156481 0.469642
0.680323 0.092393 0.279637
0.798123 0.085969 0.171710
0.875578 0.098909 0.167773
0.942428 0.147097 0.214359
0.008789 0.392676 0.463844
0.030472 0.489296 0.535760
0.083742 0.528313 0.547738
0.220752 0.500404 0.509590
0.495171 0.494759 0.499062
0.693919 0.358480 0.341939
0.798077 0.198016 0.160861
0.870558 0.212268 0.160189
0.920607 0.358221 0.258854
0.034165 0.640162 0.479088
0.101228 0.716808 0.529747
0.159411 0.712459 0.482261
0.292683 0.706065 0.473640
0.527199 0.711406 0.499352
0.706630 0.702419 0.490791
0.811429 0.602075 0.266667
0.875380 0.548852 0.233021
0.924590 0.605509 0.343557
0.085817 0.806363 0.529671
0.166293 0.809003 0.554086
0.208545 0.801434 0.514626
0.298238 0.796063 0.524224
0.588647 0.823896 0.576608
0.778363 0.840101 0.528252
0.854261 0.837461 0.552224
0.887510 0.778805 0.387610
0.928420 0.771084 0.427176
0.146212 0.881544 0.582361
0.253544 0.871656 0.602594
0.271321 0.865339 0.576089
0.334813 0.860914 0.573678
0.555978 0.869413 0.623224
0.736645 0.887205 0.633494
0.855695 0.893904 0.629541
0.907729 0.895079 0.630182
0.936019 0.880385 0.566903
0.260761 0.914748 0.640864
0.285313 0.907759 0.625788
0.325567 0.903136 0.617868
0.426184 0.903227 0.624979
0.573541 0.907530 0.641443
0.727962 0.919554 0.663096
0.847272 0.931151 0.671992
0.905180 0.933577 0.675883
0.941619 0.934844 0.674708
0.021973 0.023224 0.836072
0.057527 0.020294 0.765316
0.138949 0.018769 0.683040
0.285969 0.019913 0.592416
0.487037 0.024369 0.515740
0.626093 0.028855 0.455100
0.759518 0.033463 0.433555
0.863142 0.037903 0.410910
0.925017 0.042878 0.361074
0.018952 0.039673 0.847639
0.031022 0.033082 0.882307
0.086046 0.030365 0.805234
0.298741 0.031449 0.685908
0.548669 0.039628 0.591409
0.689632 0.046906 0.519081
0.793423 0.051087 0.463035
0.868940 0.053376 0.381781
0.925887 0.056245 0.282704
0.015946 0.074083 0.796582
0.027665 0.056809 0.866850
0.042512 0.045335 0.880217
0.172061 0.041627 0.784405
0.537667 0.054322 0.654582
0.722438 0.067948 0.576699
0.798505 0.067994 0.446281
0.867048 0.070283 0.321614
0.924437 0.079942 0.322118
0.011658 0.164233 0.693156
0.022766 0.118105 0.800381
0.038636 0.082078 0.856367
0.070176 0.064729 0.827588
0.391959 0.073930 0.687053
0.701885 0.102113 0.583642
0.785794 0.090745 0.383505
0.863478 0.102831 0.324392
0.929229 0.153460 0.393042
0.008988 0.334356 0.627405
0.022293 0.348135 0.702388
0.041215 0.283742 0.746502
0.079042 0.208042 0.744015
0.258885 0.224643 0.666636
0.671931 0.335653 0.625559
0.788006 0.182879 0.416266
0.870726 0.195789 0.352468
0.916381 0.337743 0.471916
0.017304 0.557046 0.610605
0.060288 0.640574 0.679118
0.120668 0.676188 0.702190
0.214649 0.666300 0.676890
0.431373 0.655451 0.661646
0.658549 0.660563 0.657435
0.812070 0.547738 0.525521
0.880644 0.458183 0.362539
0.928191 0.597910 0.555062
0.072129 0.783673 0.641535
0.153109 0.806134 0.686534
0.305867 0.810468 0.707515
0.396735 0.807202 0.685679
0.573632 0.819593 0.696895
0.757198 0.839887 0.691203
0.843656 0.826658 0.669657
0.892714 0.772412 0.531289
0.937316 0.781338 0.630488
0.140185 0.880888 0.685847
0.290410 0.873625 0.717220
0.397147 0.872999 0.721981
0.437034 0.868849 0.704677
0.584222 0.875273 0.723461
0.745327 0.887663 0.742916
0.863020 0.897047 0.732586
0.909483 0.898573 0.733410
0.939437 0.883619 0.690929
0.269764 0.916320 0.726192
0.339544 0.912840 0.729732
0.399786 0.909087 0.726986
0.496452 0.910842 0.729976
0.615808 0.914443 0.736431
0.738994 0.921691 0.748745
0.853971 0.933013 0.760342
0.908309 0.935683 0.757183
0.943526 0.937896 0.752987
0.021790 0.024002 0.964996
0.048997 0.023468 0.946334
0.137758 0.020401 0.883452
0.315724 0.022950 0.788495
0.504982 0.026963 0.706737
0.657649 0.032013 0.647364
0.767605 0.036088 0.596338
0.866178 0.042969 0.577996
0.924773 0.045640 0.539773
0.019135 0.040604 0.965881
0.030777 0.033936 0.961578
0.073518 0.031861 0.926040
0.251087 0.031846 0.860319
0.502251 0.039628 0.767117
0.697887 0.049531 0.708476
0.802472 0.057160 0.663340
0.869703 0.059159 0.602304
0.917067 0.059205 0.493217
0.017578 0.064210 0.938109
0.027939 0.054994 0.949981
0.042908 0.045823 0.952453
0.130465 0.041764 0.902678
0.427482 0.050782 0.808865
0.691539 0.066239 0.740948
0.808484 0.080537 0.698985
0.862150 0.080583 0.591455
0.916228 0.089418 0.504677
0.014862 0.116381 0.879698
0.025193 0.091081 0.925917
0.039063 0.074189 0.938598
0.061509 0.061662 0.929366
0.275700 0.060868 0.848753
0.657435 0.089113 0.754192
0.797040 0.120104 0.707240
0.856138 0.127977 0.589563
0.911894 0.176425 0.604669
0.011597 0.270344 0.810147
0.024613 0.225544 0.871931
0.037812 0.157931 0.904036
0.055436 0.106157 0.918624
0.116686 0.091691 0.887404
0.540047 0.139239 0.759441
0.779934 0.264424 0.721508
0.852277 0.243137 0.631571
0.903044 0.372869 0.668376
0.012116 0.502541 0.762707
0.047562 0.537118 0.798535
0.062333 0.484260 0.815763
0.078340 0.354162 0.820935
0.165621 0.310018 0.793866
0.463569 0.372732 0.764446
0.798672 0.575097 0.768063
0.872572 0.478264 0.678309
0.925750 0.605142 0.731792
0.042466 0.709529 0.749447
0.098863 0.756283 0.788159
0.177432 0.772824 0.793652
0.265797 0.775906 0.789853
0.415625 0.781537 0.790249
0.638132 0.794308 0.791714
0.796445 0.797101 0.790280
0.895109 0.729320 0.717571
0.939071 0.776379 0.776440
0.108797 0.866682 0.772992
0.183886 0.867720 0.787869
0.308125 0.864729 0.793591
0.464652 0.870390 0.806760
0.595773 0.878630 0.809033
0.746166 0.889006 0.817197
0.862837 0.898787 0.812329
0.907012 0.897520 0.805859
0.942641 0.883314 0.799985
0.172717 0.911864 0.784527
0.289738 0.908721 0.795102
0.408423 0.909911 0.808713
0.526986 0.914931 0.814954
0.635294 0.919814 0.811978
0.744747 0.925444 0.815610
0.847761 0.933745 0.819989
0.910033 0.937682 0.820279
0.943725 0.939895 0.825147
0.021668 0.024720 0.986328
0.046647 0.023499 0.982101
0.117525 0.021149 0.968872
0.306371 0.024323 0.924559
0.496208 0.029252 0.860304
0.659602 0.034791 0.809750
0.788144 0.041337 0.770260
0.871199 0.046082 0.738598
0.927108 0.049973 0.713008
0.018921 0.040436 0.985016
0.031540 0.034562 0.979934
0.071778 0.032898 0.969055
0.192905 0.031266 0.951354
0.431373 0.039078 0.886503
0.641276 0.047852 0.836927
0.801038 0.059709 0.802457
0.872328 0.065492 0.775723
0.919020 0.065553 0.709529
0.017426 0.062623 0.978714
0.028290 0.054459 0.980575
0.046372 0.048478 0.978805
0.135210 0.044800 0.957183
0.368490 0.052064 0.897322
0.633799 0.065705 0.843091
0.791577 0.081453 0.810819
0.864683 0.094972 0.786542
0.914855 0.112352 0.721675
0.015381 0.095369 0.973877
0.026230 0.084428 0.970794
0.042084 0.073960 0.970596
0.069718 0.065629 0.964004
0.235676 0.063752 0.922621
0.580270 0.090181 0.850614
0.768292 0.128359 0.812070
0.848646 0.185916 0.792920
0.896773 0.227314 0.763516
0.014145 0.195773 0.933577
0.024918 0.159136 0.958495
0.040146 0.116060 0.961059
0.064714 0.098924 0.963363
0.132631 0.090410 0.939406
0.463142 0.121645 0.858351
0.746288 0.234394 0.815564
0.851133 0.382177 0.820432
0.897993 0.433463 0.805142
0.026581 0.456138 0.886824
0.034241 0.391379 0.897658
0.046525 0.272312 0.910506
0.077974 0.213489 0.913954
0.155764 0.184833 0.889693
0.331609 0.160113 0.857496
0.734783 0.405295 0.835630
0.866148 0.584100 0.847547
0.919295 0.652644 0.847120
0.045151 0.663951 0.857069
0.063005 0.661952 0.869444
0.095201 0.625574 0.871641
0.147570 0.582208 0.861967
0.266133 0.584283 0.847089
0.475715 0.573846 0.850294
0.714992 0.598321 0.856153
0.882963 0.757946 0.869383
0.934310 0.791760 0.868315
0.077012 0.818738 0.851698
0.143389 0.842268 0.859602
0.224765 0.848051 0.857298
0.316640 0.849943 0.854505
0.454948 0.859129 0.861784
0.648814 0.877943 0.876356
0.795987 0.887419 0.880018
0.891569 0.890562 0.882536
0.946014 0.883314 0.883619
0.140108 0.902525 0.859419
0.208576 0.899550 0.854978
0.320470 0.901839 0.857832
0.498512 0.912581 0.869184
0.635386 0.921950 0.874220
0.747234 0.929854 0.876448
0.845426 0.936065 0.870726
0.909743 0.939025 0.873686
0.944900 0.943084 0.886854
0.020630 0.023758 0.989181
0.043671 0.023255 0.988113
0.096452 0.021424 0.984833
0.219318 0.022614 0.978851
0.418921 0.028809 0.944106
0.604181 0.034241 0.909468
0.772061 0.043656 0.884657
0.873899 0.051606 0.866850
0.927718 0.056214 0.852964
0.018585 0.040391 0.987961
0.033478 0.036408 0.986542
0.096101 0.034638 0.983627
0.211246 0.034119 0.980301
0.422095 0.042542 0.938720
0.628168 0.052201 0.907805
0.764065 0.058381 0.884001
0.864836 0.067842 0.865171
0.921080 0.073579 0.847776
0.017029 0.061494 0.988098
0.030793 0.057130 0.987213
0.052033 0.053574 0.987564
0.133242 0.050401 0.983841
0.324804 0.056199 0.954452
0.593942 0.071977 0.910018
0.753552 0.089158 0.886641
0.849226 0.109590 0.869398
0.901961 0.147799 0.857160
0.015915 0.093919 0.986740
0.028580 0.083360 0.986893
0.048325 0.076371 0.987396
0.099519 0.072313 0.983505
0.269932 0.074113 0.952850
0.551781 0.108492 0.912306
0.737514 0.165469 0.883757
0.834546 0.226932 0.867964
0.889265 0.318090 0.867750
0.014954 0.173159 0.976898
0.027070 0.120119 0.985641
0.047898 0.109377 0.985031
0.100069 0.101015 0.973236
0.263355 0.105577 0.936843
0.546761 0.178958 0.904585
0.737087 0.320470 0.877562
0.846281 0.429709 0.878202
0.896895 0.492012 0.879438
0.015488 0.338293 0.948837
0.030625 0.236408 0.961975
0.053346 0.204746 0.959960
0.132464 0.225360 0.941878
0.280812 0.217868 0.919402
0.546807 0.299901 0.888350
0.754162 0.507424 0.891981
0.862257 0.626337 0.900557
0.913664 0.653452 0.897169
0.024002 0.574655 0.931792
0.049882 0.514885 0.934356
0.080217 0.458518 0.936446
0.189639 0.527260 0.908721
0.391989 0.568475 0.895155
0.584024 0.597955 0.895888
0.772427 0.702068 0.906767
0.876127 0.778805 0.917571
0.930282 0.795972 0.918257
0.046510 0.761715 0.920653
0.092958 0.759991 0.911315
0.151949 0.744183 0.904067
0.276188 0.771054 0.895628
0.473610 0.809567 0.903105
0.646510 0.837034 0.916335
0.796323 0.868437 0.925078
0.889006 0.885344 0.930678
0.941726 0.890974 0.931563
0.117906 0.894728 0.900786
0.181628 0.892653 0.896040
0.254948 0.892012 0.893111
0.367559 0.895262 0.897246
0.568902 0.913176 0.912383
0.718654 0.927382 0.924178
0.828534 0.936095 0.929076
0.902708 0.941649 0.933593
0.947982 0.944915 0.938170
