tools/luts_backup/Kodak Vision3 500T 5219 (NEG)_FPE.cube
# (C) 2014 VisionColor & Patchflyer [www.vision-color.com]
# Generator: VC Patchmatch v.2.1.1 [64/53]
# All work and no play makes Jack a dull boy.
# LUT generated from: Kodak Vision3 500T 5219 (NEG)_FPE
LUT_3D_SIZE 17
0.034241 0.038163 0.038697
0.047303 0.037537 0.034318
0.091066 0.039658 0.032242
0.156008 0.042939 0.032776
0.252979 0.049470 0.038300
0.337682 0.056809 0.042206
0.415122 0.066819 0.044999
0.478614 0.074006 0.047883
0.519387 0.061616 0.051194
0.529931 0.053452 0.051560
0.554589 0.054429 0.053193
0.541329 0.052735 0.052644
0.531304 0.050538 0.050538
0.530678 0.050385 0.050385
0.527153 0.050034 0.050034
0.517662 0.049577 0.049577
0.514290 0.049500 0.049500
0.037659 0.041093 0.035843
0.047578 0.041169 0.034653
0.097505 0.042786 0.031876
0.159121 0.044938 0.032914
0.255726 0.051804 0.038178
0.332891 0.058946 0.041871
0.417731 0.070726 0.044923
0.486549 0.079194 0.048310
0.524697 0.062730 0.051362
0.546181 0.055467 0.052033
0.565438 0.055818 0.052766
0.561181 0.054902 0.053819
0.550942 0.053513 0.053361
0.555734 0.053895 0.053712
0.554833 0.054017 0.053788
0.557137 0.054261 0.053834
0.559457 0.054520 0.053880
0.056962 0.062211 0.032792
0.071504 0.066316 0.032486
0.106874 0.062272 0.032364
0.171954 0.061280 0.032792
0.275502 0.067002 0.037842
0.350347 0.072663 0.041962
0.428153 0.079011 0.045563
0.500526 0.088808 0.049134
0.538109 0.073533 0.051987
0.552895 0.057511 0.051957
0.572641 0.057572 0.052766
0.570901 0.055756 0.054047
0.557137 0.054261 0.053834
0.559457 0.054520 0.053880
0.568719 0.055558 0.054063
0.578439 0.056535 0.054139
0.584848 0.057923 0.053483
0.042603 0.093629 0.033402
0.060304 0.102724 0.032547
0.126879 0.119539 0.033021
0.187030 0.110979 0.034012
0.304448 0.113939 0.040558
0.391974 0.115969 0.044770
0.452216 0.113817 0.047868
0.515969 0.118196 0.050965
0.584344 0.115053 0.054231
0.601617 0.092683 0.055390
0.616159 0.081025 0.055512
0.600763 0.065888 0.053803
0.590295 0.058549 0.053651
0.585565 0.057740 0.053849
0.587915 0.058152 0.053742
0.584848 0.057923 0.053483
0.592660 0.058946 0.053544
0.031266 0.114153 0.035447
0.035370 0.125109 0.035035
0.089143 0.149050 0.033783
0.236042 0.187732 0.034714
0.312154 0.164508 0.040665
0.404654 0.162478 0.045701
0.486671 0.168093 0.049638
0.568887 0.179400 0.053468
0.621195 0.178698 0.056107
0.678203 0.183627 0.059342
0.678248 0.152819 0.059159
0.661799 0.116213 0.058473
0.651469 0.100526 0.057679
0.641611 0.090959 0.056901
0.631769 0.082948 0.055940
0.622126 0.077775 0.055268
0.625193 0.077592 0.055299
0.031113 0.135073 0.035615
0.033005 0.143465 0.036896
0.056107 0.185336 0.035401
0.196918 0.231830 0.037064
0.409888 0.282750 0.046586
0.440589 0.237354 0.047349
0.524025 0.240345 0.052415
0.607752 0.248508 0.056703
0.684077 0.258427 0.060746
0.742763 0.271702 0.066499
0.758328 0.263584 0.067353
0.734997 0.217044 0.063584
0.720638 0.190417 0.061997
0.702586 0.170352 0.060578
0.695994 0.155581 0.060227
0.682063 0.136736 0.059556
0.671656 0.127855 0.059007
0.030823 0.173861 0.033326
0.033051 0.180652 0.036301
0.044053 0.213825 0.035889
0.188663 0.286656 0.040040
0.403418 0.337636 0.046998
0.560983 0.377661 0.061860
0.570031 0.324239 0.059037
0.645274 0.320409 0.063691
0.733776 0.333974 0.070497
0.791745 0.343084 0.076936
0.811002 0.341268 0.078798
0.801816 0.313115 0.074937
0.793591 0.299962 0.073030
0.777920 0.281636 0.070329
0.769955 0.262608 0.068208
0.758251 0.244923 0.066346
0.742718 0.228290 0.064607
0.036591 0.247639 0.037018
0.037766 0.260899 0.037568
0.067826 0.306325 0.038880
0.223590 0.356222 0.044022
0.405371 0.394278 0.049058
0.560525 0.428260 0.065187
0.677729 0.437461 0.078874
0.709804 0.401663 0.077775
0.775219 0.400885 0.082963
0.826047 0.404730 0.088624
0.853407 0.408698 0.092164
0.857282 0.408286 0.092531
0.849775 0.394797 0.089784
0.834684 0.374945 0.085283
0.830915 0.368170 0.083909
0.830976 0.361074 0.082948
0.818509 0.340505 0.079515
0.040864 0.322972 0.041291
0.047669 0.356191 0.043534
0.102358 0.392905 0.045090
0.314397 0.455039 0.054398
0.464073 0.477073 0.062501
0.598795 0.498070 0.076188
0.645914 0.471962 0.078157
0.829099 0.538308 0.112856
0.846464 0.481590 0.104387
0.878477 0.492958 0.110628
0.893751 0.490929 0.112062
0.893751 0.490929 0.112062
0.891279 0.484352 0.110338
0.885603 0.470924 0.106905
0.889403 0.470420 0.107271
0.882307 0.456580 0.103899
0.875227 0.442771 0.100542
0.045808 0.387533 0.049683
0.054902 0.411612 0.048463
0.125811 0.463584 0.052903
0.371298 0.517113 0.065827
0.551125 0.558724 0.082979
0.670069 0.580728 0.099748
0.808042 0.610361 0.123232
0.832288 0.590143 0.123262
0.939696 0.662303 0.157122
0.927504 0.585245 0.136843
0.929030 0.579126 0.135729
0.933379 0.584604 0.137743
0.931945 0.578805 0.136172
0.931945 0.578805 0.136172
0.927108 0.566598 0.132815
0.920027 0.548257 0.127764
0.917647 0.542107 0.126070
0.049683 0.427527 0.062608
0.059388 0.448508 0.059892
0.145006 0.509544 0.061814
0.431556 0.576547 0.078843
0.598169 0.597208 0.093523
0.734783 0.629557 0.115633
0.858701 0.657862 0.138567
0.924834 0.680781 0.157046
0.938704 0.682246 0.161700
0.949599 0.691035 0.166125
0.944900 0.662043 0.158190
0.946273 0.651316 0.155840
0.943053 0.646189 0.153872
0.945663 0.646021 0.154391
0.944427 0.635462 0.151507
0.944427 0.635462 0.151507
0.942901 0.624796 0.148623
0.053178 0.447700 0.062882
0.065461 0.469505 0.063127
0.163439 0.528634 0.065751
0.467750 0.609949 0.087755
0.655039 0.631815 0.105989
0.768780 0.648203 0.123339
0.874327 0.671778 0.143603
0.931136 0.692454 0.160388
0.945342 0.699489 0.166888
0.950118 0.700481 0.168460
0.947540 0.700648 0.167941
0.949859 0.695735 0.167285
0.949340 0.686305 0.164950
0.949340 0.686305 0.164950
0.946502 0.681758 0.163272
0.948821 0.676860 0.162631
0.948821 0.676860 0.162631
0.054459 0.452720 0.055390
0.068696 0.473213 0.057053
0.184680 0.539818 0.066758
0.501717 0.626505 0.093339
0.694591 0.654444 0.114870
0.818250 0.670848 0.134295
0.900984 0.682368 0.150454
0.937285 0.698299 0.163317
0.948211 0.704036 0.168582
0.947540 0.700648 0.167941
0.950378 0.705180 0.169619
0.950378 0.705180 0.169619
0.947540 0.700648 0.167941
0.950118 0.700481 0.168460
0.947540 0.700648 0.167941
0.950118 0.700481 0.168460
0.949859 0.695735 0.167285
0.055268 0.454627 0.053117
0.069810 0.474922 0.054536
0.212222 0.548089 0.067430
0.528511 0.633173 0.096422
0.733791 0.670192 0.122484
0.843687 0.676600 0.139040
0.910475 0.690486 0.154513
0.941649 0.700587 0.165423
0.948211 0.704036 0.168582
0.947540 0.700648 0.167941
0.947540 0.700648 0.167941
0.950378 0.705180 0.169619
0.950378 0.705180 0.169619
0.947540 0.700648 0.167941
0.950378 0.705180 0.169619
0.950378 0.705180 0.169619
0.947540 0.700648 0.167941
0.055039 0.449104 0.049989
0.074617 0.474434 0.052598
0.233799 0.551904 0.067948
0.531075 0.626078 0.094881
0.738720 0.667369 0.122667
0.854215 0.682246 0.141436
0.919112 0.693370 0.157366
0.943847 0.701747 0.166476
0.950378 0.705180 0.169619
0.950378 0.705180 0.169619
0.947540 0.700648 0.167941
0.950378 0.705180 0.169619
0.950378 0.705180 0.169619
0.950378 0.705180 0.169619
0.950378 0.705180 0.169619
0.947540 0.700648 0.167941
0.950378 0.705180 0.169619
0.060151 0.454856 0.049760
0.078599 0.475502 0.052354
0.257176 0.555245 0.069062
0.553826 0.630335 0.097246
0.740291 0.662348 0.121904
0.855879 0.673686 0.140703
0.923186 0.692958 0.158190
0.943847 0.701747 0.166476
0.948211 0.704036 0.168582
0.950378 0.705180 0.169619
0.950378 0.705180 0.169619
0.950378 0.705180 0.169619
0.950378 0.705180 0.169619
0.950378 0.705180 0.169619
0.950378 0.705180 0.169619
0.950378 0.705180 0.169619
0.950378 0.705180 0.169619
0.071107 0.464347 0.050889
0.097398 0.485328 0.053605
0.280369 0.557137 0.070085
0.551766 0.622263 0.095186
0.736751 0.655787 0.120226
0.863401 0.678935 0.142916
0.926848 0.691020 0.158968
0.943847 0.701747 0.166476
0.947540 0.700648 0.167941
0.947540 0.700648 0.167941
0.947540 0.700648 0.167941
0.950378 0.705180 0.169619
0.950378 0.705180 0.169619
0.950378 0.705180 0.169619
0.950378 0.705180 0.169619
0.950378 0.705180 0.169619
0.950378 0.705180 0.169619
0.034165 0.036774 0.041199
0.040604 0.036515 0.039445
0.088014 0.037537 0.037308
0.143755 0.040345 0.036072
0.238346 0.041123 0.037278
0.321248 0.044327 0.041138
0.396231 0.048127 0.044678
0.471305 0.054170 0.048859
0.516060 0.052583 0.050889
0.516945 0.051850 0.051789
0.520104 0.050431 0.050431
0.513298 0.048783 0.048783
0.504463 0.049210 0.049210
0.506874 0.049256 0.049256
0.499855 0.048936 0.048936
0.506279 0.049195 0.049195
0.507332 0.049638 0.049638
0.036545 0.041688 0.042344
0.040696 0.043946 0.042832
0.087053 0.044083 0.035477
0.155413 0.047135 0.034104
0.262226 0.051118 0.037812
0.331273 0.055924 0.041291
0.422766 0.062394 0.045289
0.497688 0.065431 0.048997
0.541466 0.058595 0.051484
0.545586 0.054551 0.052735
0.557290 0.054841 0.053483
0.541619 0.052171 0.052110
0.520531 0.049348 0.049348
0.511315 0.049332 0.049332
0.509163 0.049363 0.049363
0.505776 0.049210 0.049210
0.505699 0.049195 0.049195
0.050828 0.059403 0.035935
0.063279 0.063844 0.034897
0.096361 0.065888 0.034424
0.173190 0.065309 0.033158
0.267994 0.070832 0.037293
0.361212 0.075151 0.042359
0.423056 0.082536 0.045411
0.495537 0.089296 0.048905
0.541695 0.075303 0.052125
0.557580 0.060258 0.052567
0.580179 0.059342 0.052979
0.577020 0.056886 0.053422
0.557137 0.054261 0.053834
0.550942 0.053513 0.053361
0.553704 0.053559 0.053407
0.547570 0.052552 0.052476
0.538705 0.051499 0.051499
0.035279 0.090547 0.033906
0.055634 0.098619 0.032990
0.116991 0.117617 0.033234
0.183948 0.111727 0.034333
0.297581 0.119783 0.040482
0.388479 0.119509 0.044694
0.461448 0.124132 0.048493
0.525979 0.125292 0.051499
0.582879 0.119493 0.054124
0.607446 0.098909 0.055650
0.616205 0.084092 0.055726
0.606790 0.067567 0.054078
0.590295 0.058549 0.053651
0.580118 0.057115 0.053681
0.583185 0.057343 0.053941
0.580118 0.057115 0.053681
0.587915 0.058152 0.053742
0.031113 0.114366 0.035859
0.032593 0.119768 0.035248
0.081224 0.147036 0.033906
0.204318 0.179324 0.034455
0.317250 0.172732 0.040711
0.405631 0.171374 0.045716
0.485084 0.176699 0.049454
0.572213 0.184710 0.053712
0.627848 0.188724 0.056580
0.681605 0.188617 0.059648
0.691585 0.166171 0.059861
0.671656 0.127871 0.059007
0.654841 0.104326 0.057908
0.641657 0.094041 0.057099
0.631968 0.085801 0.056229
0.628458 0.080262 0.055619
0.625193 0.077592 0.055299
0.030381 0.136965 0.034897
0.032929 0.143969 0.037079
0.045777 0.172671 0.035294
0.179004 0.229953 0.037018
0.381643 0.275944 0.044541
0.445640 0.247868 0.047807
0.532509 0.256962 0.053407
0.613993 0.260060 0.057496
0.682887 0.264881 0.060883
0.746822 0.277958 0.067231
0.758328 0.263584 0.067353
0.746593 0.233951 0.065110
0.724239 0.195560 0.062287
0.706157 0.175448 0.060883
0.702831 0.164950 0.060563
0.689036 0.146166 0.059892
0.682063 0.136721 0.059556
0.030732 0.170214 0.033967
0.032364 0.182086 0.035431
0.042695 0.215290 0.036225
0.170672 0.280095 0.039414
0.386267 0.334356 0.045777
0.536995 0.370733 0.059342
0.581598 0.336477 0.060853
0.654032 0.339025 0.066194
0.728420 0.334508 0.070207
0.791424 0.350362 0.077653
0.815122 0.348135 0.079942
0.810162 0.326818 0.077226
0.793622 0.300008 0.073030
0.777920 0.281636 0.070329
0.777829 0.275059 0.069810
0.758236 0.250874 0.066575
0.750454 0.239567 0.065614
0.036728 0.242206 0.038041
0.038056 0.262135 0.038880
0.058473 0.302281 0.039322
0.216617 0.356649 0.044114
0.405371 0.394278 0.049058
0.551492 0.426566 0.064103
0.670115 0.437018 0.077928
0.712978 0.408057 0.078889
0.787778 0.414099 0.086137
0.840894 0.424842 0.093324
0.860655 0.422461 0.095125
0.861021 0.415106 0.093919
0.853544 0.401572 0.091173
0.846036 0.388083 0.088411
0.842268 0.381308 0.087037
0.827131 0.361440 0.082567
0.830976 0.361074 0.082948
0.040864 0.325734 0.043763
0.043915 0.339162 0.042969
0.087785 0.394491 0.045151
0.288319 0.444877 0.052659
0.474525 0.483467 0.064134
0.580606 0.494682 0.073671
0.658106 0.487617 0.081743
0.804150 0.525139 0.107012
0.852842 0.494514 0.107713
0.884764 0.499092 0.112718
0.898695 0.504143 0.115511
0.896239 0.497566 0.113787
0.902510 0.503639 0.115862
0.897566 0.490471 0.112428
0.888808 0.477760 0.108614
0.885832 0.463462 0.105577
0.874846 0.450156 0.101869
0.044800 0.386648 0.052247
0.049485 0.405356 0.051102
0.109514 0.454673 0.051896
0.364355 0.519722 0.066011
0.541070 0.556588 0.081788
0.649805 0.573343 0.096086
0.788830 0.605768 0.119814
0.841733 0.600229 0.126726
0.933867 0.657374 0.154650
0.925917 0.591287 0.137957
0.936065 0.596109 0.140856
0.934707 0.590341 0.139300
0.934707 0.590341 0.139300
0.930449 0.584924 0.137301
0.929473 0.572732 0.134508
0.924010 0.566949 0.132387
0.922377 0.554345 0.129442
0.048432 0.424231 0.066667
0.055863 0.446571 0.069993
0.125689 0.505714 0.063920
0.414969 0.581628 0.079149
0.577310 0.592599 0.090822
0.714641 0.625528 0.112306
0.851911 0.659327 0.137545
0.915541 0.674495 0.153567
0.938704 0.682246 0.161700
0.947021 0.691203 0.165606
0.944900 0.662043 0.158190
0.946883 0.656580 0.157275
0.943664 0.651484 0.155322
0.943053 0.646189 0.153872
0.945663 0.646021 0.154391
0.945052 0.640757 0.152956
0.944427 0.635462 0.151507
0.051026 0.442771 0.068284
0.060502 0.465904 0.074937
0.143252 0.525505 0.069657
0.454063 0.616175 0.088670
0.631357 0.631952 0.103883
0.751476 0.645716 0.120516
0.876112 0.677287 0.144900
0.931136 0.692454 0.160388
0.945342 0.699489 0.166888
0.947540 0.700648 0.167941
0.950378 0.705180 0.169619
0.947280 0.695903 0.166766
0.949599 0.691035 0.166125
0.949599 0.691035 0.166125
0.949340 0.686305 0.164950
0.946502 0.681758 0.163272
0.948821 0.676860 0.162631
0.051987 0.447974 0.057969
0.062379 0.470008 0.063615
0.165209 0.537636 0.068910
0.474632 0.627741 0.092531
0.695705 0.667445 0.117342
0.825635 0.678950 0.137026
0.899428 0.688441 0.151049
0.935103 0.697154 0.162280
0.945342 0.699489 0.166888
0.947540 0.700648 0.167941
0.947540 0.700648 0.167941
0.950378 0.705180 0.169619
0.950378 0.705180 0.169619
0.950378 0.705180 0.169619
0.947540 0.700648 0.167941
0.947540 0.700648 0.167941
0.950118 0.700481 0.168460
0.051942 0.446632 0.052888
0.065217 0.472145 0.057435
0.188800 0.547494 0.069017
0.504753 0.635462 0.095491
0.723674 0.676555 0.122057
0.844846 0.688716 0.141680
0.906050 0.687572 0.153063
0.938811 0.696056 0.163745
0.948211 0.704036 0.168582
0.950378 0.705180 0.169619
0.950378 0.705180 0.169619
0.947540 0.700648 0.167941
0.950378 0.705180 0.169619
0.950378 0.705180 0.169619
0.950378 0.705180 0.169619
0.950378 0.705180 0.169619
0.950378 0.705180 0.169619
0.053864 0.450477 0.050996
0.068482 0.476555 0.056062
0.194080 0.545586 0.067201
0.496880 0.629999 0.093904
0.742428 0.679683 0.125185
0.868666 0.694179 0.145892
0.914107 0.688533 0.155291
0.941649 0.700587 0.165423
0.950378 0.705180 0.169619
0.950378 0.705180 0.169619
0.947540 0.700648 0.167941
0.947540 0.700648 0.167941
0.947540 0.700648 0.167941
0.950378 0.705180 0.169619
0.947540 0.700648 0.167941
0.947540 0.700648 0.167941
0.947540 0.700648 0.167941
0.056611 0.449378 0.049210
0.069917 0.475914 0.053971
0.225177 0.553262 0.068513
0.528511 0.633173 0.096422
0.747127 0.672084 0.124712
0.863203 0.686320 0.143816
0.914107 0.688533 0.155291
0.941649 0.700587 0.165423
0.948211 0.704036 0.168582
0.948211 0.704036 0.168582
0.950378 0.705180 0.169619
0.950378 0.705180 0.169619
0.950378 0.705180 0.169619
0.947540 0.700648 0.167941
0.950378 0.705180 0.169619
0.950378 0.705180 0.169619
0.950378 0.705180 0.169619
0.067460 0.460441 0.050385
0.084504 0.483589 0.053483
0.239216 0.550149 0.067735
0.555001 0.635477 0.098604
0.749798 0.670054 0.124636
0.852445 0.674098 0.140002
0.922530 0.689570 0.157549
0.943175 0.698344 0.165835
0.947540 0.700648 0.167941
0.950378 0.705180 0.169619
0.950378 0.705180 0.169619
0.950378 0.705180 0.169619
0.950378 0.705180 0.169619
0.947540 0.700648 0.167941
0.950378 0.705180 0.169619
0.950378 0.705180 0.169619
0.950378 0.705180 0.169619
0.032074 0.030304 0.057877
0.035065 0.030793 0.060533
0.062852 0.035355 0.062867
0.121279 0.038270 0.077531
0.203586 0.039261 0.071321
0.287968 0.040360 0.065827
0.353567 0.043061 0.067262
0.431189 0.046693 0.070695
0.487404 0.049271 0.071824
0.520485 0.050553 0.068223
0.510414 0.050675 0.061326
0.504936 0.048859 0.060838
0.509377 0.048463 0.061265
0.510628 0.048264 0.054627
0.514412 0.048768 0.052689
0.515312 0.048676 0.053513
0.516747 0.048707 0.056031
0.031891 0.032731 0.058640
0.037140 0.035721 0.058549
0.067445 0.040650 0.061707
0.130190 0.040620 0.067781
0.232593 0.042313 0.059571
0.308583 0.043809 0.054337
0.378210 0.045884 0.055421
0.440391 0.049592 0.058671
0.510842 0.053773 0.065263
0.533928 0.052598 0.059586
0.527977 0.051652 0.054170
0.518593 0.050431 0.056031
0.513436 0.048554 0.055955
0.513527 0.048631 0.052888
0.512245 0.049027 0.050690
0.511360 0.049027 0.050217
0.516442 0.049104 0.052018
0.030900 0.052049 0.062348
0.039796 0.058045 0.064363
0.068238 0.070146 0.063752
0.136858 0.071534 0.059251
0.251911 0.076448 0.048508
0.345098 0.078889 0.048264
0.418967 0.081346 0.051072
0.498939 0.084901 0.053758
0.558297 0.079667 0.054978
0.583169 0.066789 0.054780
0.594461 0.059693 0.055528
0.584054 0.055451 0.056687
0.552163 0.052613 0.054444
0.525658 0.050248 0.051316
0.516014 0.049470 0.049760
0.518502 0.049653 0.049836
0.518563 0.049577 0.050294
0.028717 0.082048 0.068376
0.029511 0.082277 0.061067
0.070726 0.101427 0.051453
0.150515 0.109941 0.045670
0.293950 0.122286 0.040986
0.407370 0.122469 0.044602
0.466896 0.115068 0.048096
0.534615 0.117144 0.052110
0.584100 0.108721 0.054246
0.605173 0.091585 0.055695
0.629618 0.088334 0.057023
0.622644 0.077638 0.056107
0.596063 0.059983 0.054002
0.579232 0.056214 0.054337
0.565148 0.054734 0.054154
0.550118 0.052522 0.052461
0.533074 0.050156 0.050156
0.029725 0.111620 0.060990
0.029786 0.112825 0.047837
0.048890 0.136339 0.043503
0.163043 0.174563 0.037949
0.317723 0.185245 0.040894
0.435355 0.187320 0.047349
0.505714 0.184619 0.050431
0.576532 0.186664 0.053956
0.628794 0.184253 0.056733
0.679011 0.184390 0.059617
0.679896 0.156741 0.059251
0.669276 0.123308 0.058930
0.644785 0.097093 0.057328
0.628458 0.080262 0.055619
0.621897 0.074907 0.054978
0.612833 0.069261 0.054368
0.609827 0.067567 0.054215
0.032532 0.146029 0.055650
0.032044 0.146227 0.045548
0.034989 0.174182 0.043397
0.139071 0.230137 0.037980
0.396002 0.305898 0.046372
0.464286 0.268925 0.050523
0.528664 0.262318 0.053788
0.617350 0.268132 0.058457
0.684138 0.272450 0.061646
0.738170 0.272221 0.066102
0.762280 0.269825 0.068162
0.746593 0.233951 0.065110
0.720638 0.190417 0.061997
0.709880 0.175051 0.061112
0.692546 0.156115 0.060014
0.682063 0.136736 0.059556
0.671855 0.123430 0.059068
0.033875 0.177905 0.054963
0.034485 0.178454 0.049500
0.036469 0.214725 0.045045
0.141619 0.297124 0.041108
0.392325 0.364569 0.048432
0.533715 0.377859 0.060243
0.578943 0.346197 0.061631
0.651209 0.340764 0.066316
0.726802 0.341756 0.071015
0.782513 0.343999 0.076097
0.807202 0.341634 0.078431
0.810162 0.326818 0.077226
0.793912 0.306676 0.073442
0.785718 0.287510 0.071427
0.773907 0.268849 0.069017
0.758236 0.250874 0.066575
0.750500 0.233646 0.065324
0.036088 0.237858 0.069123
0.038331 0.251011 0.061158
0.040497 0.277989 0.050141
0.160311 0.362158 0.044007
0.418204 0.424933 0.055665
0.544182 0.438941 0.065003
0.659586 0.448539 0.077699
0.702525 0.413901 0.078767
0.776761 0.414740 0.085283
0.825071 0.412009 0.089601
0.849180 0.416541 0.092851
0.853407 0.408698 0.092164
0.853544 0.401572 0.091173
0.846036 0.388083 0.088411
0.838422 0.381659 0.086656
0.830976 0.361074 0.082948
0.826856 0.354208 0.081804
0.040467 0.316899 0.079042
0.040864 0.328603 0.070420
0.050156 0.364858 0.050538
0.232013 0.451102 0.052796
0.440330 0.472206 0.061006
0.562020 0.495613 0.072297
0.683024 0.518822 0.089403
0.797665 0.524773 0.105989
0.850904 0.501122 0.108827
0.881590 0.499458 0.112291
0.898695 0.504143 0.115511
0.900038 0.497063 0.114137
0.893767 0.490974 0.112062
0.891279 0.484352 0.110338
0.891279 0.484352 0.110338
0.881941 0.463996 0.105241
0.878752 0.449622 0.102220
0.042298 0.374884 0.087160
0.043091 0.386831 0.078721
0.064485 0.435401 0.060594
0.302449 0.513527 0.063066
0.499825 0.540581 0.075731
0.609964 0.562554 0.089448
0.760067 0.598917 0.114717
0.827985 0.596506 0.123598
0.926772 0.641886 0.149279
0.927260 0.597055 0.139513
0.931792 0.590646 0.138842
0.931792 0.590646 0.138842
0.931792 0.590646 0.138842
0.933379 0.584604 0.137743
0.931945 0.578805 0.136172
0.927108 0.566598 0.132815
0.924727 0.560449 0.131121
0.045930 0.421180 0.104646
0.047333 0.432151 0.100893
0.077638 0.480690 0.088136
0.325917 0.571008 0.075578
0.545281 0.591775 0.088838
0.673762 0.610788 0.104524
0.806241 0.645228 0.128191
0.903273 0.673564 0.149935
0.936110 0.682414 0.161166
0.947021 0.691203 0.165606
0.947494 0.661875 0.158709
0.946883 0.656580 0.157275
0.946273 0.651316 0.155840
0.946273 0.651316 0.155840
0.943053 0.646189 0.153872
0.945052 0.640757 0.152956
0.944427 0.635462 0.151507
0.048142 0.441703 0.105303
0.049500 0.449134 0.102266
0.098360 0.516213 0.106050
0.363851 0.608438 0.095323
0.621149 0.652750 0.107286
0.763668 0.663600 0.125582
0.852445 0.674098 0.140002
0.918227 0.688136 0.156130
0.940307 0.693767 0.164141
0.947540 0.700648 0.167941
0.950378 0.705180 0.169619
0.949859 0.695735 0.167285
0.949599 0.691035 0.166125
0.949599 0.691035 0.166125
0.949340 0.686305 0.164950
0.949340 0.686305 0.164950
0.946502 0.681758 0.163272
0.048051 0.442466 0.087816
0.050645 0.452293 0.090333
0.113466 0.527504 0.098650
0.400275 0.623835 0.100542
0.631662 0.674540 0.114748
0.840604 0.713970 0.144671
0.914717 0.717983 0.159091
0.932235 0.699519 0.162203
0.946014 0.702892 0.167529
0.950378 0.705180 0.169619
0.950378 0.705180 0.169619
0.947540 0.700648 0.167941
0.950378 0.705180 0.169619
0.950118 0.700481 0.168460
0.950118 0.700481 0.168460
0.950118 0.700481 0.168460
0.950118 0.700481 0.168460
0.048920 0.445182 0.079744
0.053071 0.459998 0.082078
0.123552 0.534081 0.091752
0.428992 0.632639 0.101884
0.666529 0.688869 0.121843
0.863737 0.727901 0.151369
0.935103 0.730480 0.166537
0.937606 0.703655 0.165072
0.945342 0.699489 0.166888
0.950378 0.705180 0.169619
0.950378 0.705180 0.169619
0.950378 0.705180 0.169619
0.950378 0.705180 0.169619
0.950378 0.705180 0.169619
0.950378 0.705180 0.169619
0.950378 0.705180 0.169619
0.950378 0.705180 0.169619
0.049973 0.446540 0.069581
0.054047 0.459846 0.071397
0.140963 0.543954 0.087999
0.459617 0.640024 0.101427
0.695811 0.693614 0.125277
0.874418 0.729809 0.153384
0.935729 0.723598 0.165957
0.938811 0.699504 0.164889
0.948211 0.704036 0.168582
0.950378 0.705180 0.169619
0.947540 0.700648 0.167941
0.950378 0.705180 0.169619
0.947540 0.700648 0.167941
0.950378 0.705180 0.169619
0.950378 0.705180 0.169619
0.950378 0.705180 0.169619
0.947540 0.700648 0.167941
0.050568 0.445716 0.056687
0.054643 0.459358 0.061891
0.161868 0.552270 0.084977
0.476341 0.642313 0.100465
0.714122 0.693721 0.126345
0.903166 0.732052 0.158953
0.930617 0.719188 0.164538
0.941649 0.704051 0.166583
0.947540 0.700648 0.167941
0.947540 0.700648 0.167941
0.950378 0.705180 0.169619
0.947540 0.700648 0.167941
0.947540 0.700648 0.167941
0.950378 0.705180 0.169619
0.950378 0.705180 0.169619
0.950378 0.705180 0.169619
0.950378 0.705180 0.169619
0.052445 0.447257 0.050935
0.059648 0.461875 0.053880
0.182437 0.555901 0.077363
0.496956 0.641886 0.099336
0.732555 0.693721 0.128084
0.905806 0.727153 0.159228
0.920943 0.702846 0.160082
0.941649 0.700587 0.165423
0.947540 0.700648 0.167941
0.950378 0.705180 0.169619
0.947540 0.700648 0.167941
0.950378 0.705180 0.169619
0.950378 0.705180 0.169619
0.947540 0.700648 0.167941
0.947540 0.700648 0.167941
0.950378 0.705180 0.169619
0.950378 0.705180 0.169619
0.029786 0.029877 0.095933
0.029908 0.029938 0.097780
0.031968 0.029923 0.098650
0.071626 0.032990 0.111681
0.171435 0.036545 0.124849
0.245838 0.039307 0.121324
0.314214 0.042344 0.118746
0.372045 0.044678 0.131914
0.452827 0.047745 0.156161
0.558511 0.053437 0.187198
0.555383 0.052598 0.157900
0.501091 0.050523 0.123522
0.498634 0.049821 0.108446
