tools/luts_backup/Kodak Elite Chrome 200_FPE.cube
# (C) 2014 VisionColor & Patchflyer [www.vision-color.com]
# Generator: VC Patchmatch v.2.1.1 [64/53]
# All work and no play makes Jack a dull boy.
# LUT generated from: Kodak Elite Chrome 200_FPE
LUT_3D_SIZE 17
0.033509 0.036683 0.037079
0.044587 0.036439 0.034745
0.061967 0.039170 0.035111
0.082307 0.041764 0.036347
0.103426 0.044617 0.038315
0.123369 0.047379 0.039216
0.139269 0.049119 0.039460
0.157824 0.050645 0.039231
0.181430 0.052354 0.039445
0.204746 0.052949 0.039994
0.233860 0.054047 0.041016
0.268299 0.056886 0.043839
0.300877 0.056947 0.045487
0.329137 0.056229 0.046494
0.349584 0.055589 0.047318
0.362203 0.054734 0.047532
0.379248 0.053529 0.047791
0.032441 0.046311 0.036881
0.049973 0.053086 0.037461
0.076188 0.058396 0.038682
0.101915 0.061311 0.039826
0.126360 0.061799 0.040406
0.152361 0.063996 0.041245
0.174777 0.066529 0.041566
0.196292 0.068482 0.042603
0.222583 0.070069 0.043290
0.249653 0.071061 0.043626
0.275746 0.072755 0.044648
0.303975 0.072892 0.046510
0.331441 0.070893 0.047547
0.356985 0.071305 0.048753
0.380423 0.071626 0.049958
0.399329 0.074968 0.050980
0.416617 0.072877 0.051469
0.031296 0.058228 0.037903
0.049180 0.070466 0.040360
0.086091 0.082521 0.041276
0.116808 0.087984 0.042222
0.150759 0.091997 0.042893
0.178988 0.091325 0.045060
0.209155 0.093080 0.046098
0.235508 0.095079 0.047318
0.265263 0.096757 0.048402
0.292866 0.096956 0.048997
0.316823 0.097871 0.049546
0.343481 0.098085 0.051026
0.367910 0.096010 0.051469
0.388281 0.093919 0.051347
0.407538 0.093629 0.052110
0.427756 0.097917 0.053193
0.454078 0.103044 0.054887
0.031388 0.077424 0.041474
0.048493 0.091890 0.043503
0.082628 0.105119 0.044648
0.125689 0.117266 0.044694
0.165347 0.125750 0.047288
0.209583 0.134371 0.049821
0.246281 0.136431 0.052033
0.279911 0.137087 0.053742
0.313375 0.137484 0.054322
0.344823 0.137484 0.055726
0.369116 0.136584 0.056260
0.391669 0.136263 0.056779
0.413642 0.134737 0.056596
0.431601 0.130907 0.055558
0.445975 0.127413 0.055268
0.462531 0.129015 0.056260
0.493935 0.139895 0.059190
0.032059 0.097002 0.044984
0.046067 0.111299 0.045975
0.077348 0.128832 0.046845
0.117830 0.142412 0.047532
0.172686 0.160769 0.050919
0.233783 0.176272 0.055589
0.286503 0.185840 0.058412
0.326879 0.186816 0.061051
0.360555 0.182239 0.060945
0.394507 0.178607 0.060548
0.419928 0.176440 0.062028
0.440543 0.176089 0.063630
0.460258 0.176059 0.064347
0.478523 0.173770 0.063325
0.489830 0.167132 0.060197
0.497200 0.162081 0.059388
0.521385 0.169970 0.062928
0.033082 0.115190 0.047517
0.043015 0.131106 0.047623
0.066941 0.148913 0.050233
0.102846 0.165515 0.051469
0.149432 0.184634 0.053635
0.231434 0.212436 0.058152
0.310796 0.233051 0.063600
0.370092 0.240314 0.068513
0.417212 0.242466 0.071244
0.454444 0.240024 0.072496
0.480751 0.233967 0.071809
0.502281 0.231662 0.073472
0.523476 0.233600 0.075792
0.541848 0.231800 0.075822
0.553491 0.224369 0.073381
0.552529 0.212589 0.069551
0.560769 0.206470 0.070069
0.033646 0.135119 0.050965
0.041794 0.153674 0.052003
0.060044 0.172946 0.053880
0.087968 0.189441 0.054276
0.121080 0.204791 0.054612
0.193927 0.234668 0.059419
0.304524 0.276020 0.066606
0.406790 0.307057 0.077287
0.470893 0.313405 0.082979
0.523613 0.321584 0.088457
0.559121 0.324605 0.091432
0.580621 0.317586 0.091127
0.604654 0.318669 0.096666
0.626261 0.319936 0.100420
0.638788 0.314183 0.099413
0.637095 0.298528 0.094881
0.632197 0.276524 0.087602
0.033997 0.158221 0.055451
0.041611 0.180926 0.055818
0.058457 0.202243 0.057328
0.080354 0.222629 0.058030
0.110780 0.237293 0.057023
0.157412 0.256291 0.058427
0.272633 0.304799 0.068254
0.407248 0.358846 0.081819
0.509209 0.388922 0.096834
0.573190 0.395987 0.106737
0.623529 0.406287 0.116854
0.654261 0.407752 0.119982
0.678187 0.404532 0.125154
0.702144 0.407477 0.136233
0.713802 0.403250 0.137942
0.717281 0.390372 0.135439
0.721401 0.379034 0.128649
0.035767 0.184451 0.057740
0.043732 0.212222 0.058701
0.057481 0.235172 0.060563
0.076844 0.261128 0.061936
0.106798 0.278462 0.061311
0.151125 0.295460 0.059922
0.245258 0.332860 0.067552
0.400198 0.395453 0.083848
0.528069 0.443809 0.107729
0.604639 0.458366 0.122988
0.667079 0.469764 0.138186
0.711147 0.479881 0.150240
0.743008 0.482261 0.158923
0.768353 0.487724 0.172076
0.778317 0.483101 0.176547
0.780087 0.470512 0.172900
0.790967 0.467536 0.170840
0.037171 0.215061 0.061173
0.045350 0.246357 0.063569
0.059190 0.271885 0.064027
0.079988 0.299046 0.066590
0.109163 0.318791 0.067506
0.152880 0.336553 0.067216
0.239185 0.367605 0.069490
0.387839 0.422156 0.084367
0.532555 0.478248 0.111299
0.642176 0.516884 0.145968
0.700114 0.521416 0.156252
0.750683 0.536278 0.173816
0.790799 0.545754 0.190921
0.815579 0.553384 0.207309
0.829358 0.552285 0.214435
0.833844 0.542641 0.209522
0.833585 0.528008 0.201022
0.039948 0.250980 0.067445
0.046983 0.279606 0.071015
0.059480 0.305882 0.071687
0.082017 0.331823 0.073594
0.115770 0.351415 0.073991
0.160525 0.372229 0.075135
0.251072 0.403037 0.077745
0.379294 0.447196 0.087312
0.530739 0.503548 0.114565
0.650690 0.549935 0.156024
0.736431 0.574685 0.183185
0.777417 0.578408 0.195163
0.818921 0.593439 0.215991
0.844739 0.603357 0.232731
0.865141 0.609476 0.248463
0.870420 0.602792 0.246525
0.860273 0.577996 0.228275
0.042023 0.287449 0.075257
0.049607 0.310338 0.076387
0.060075 0.333318 0.077714
0.080720 0.357870 0.078355
0.110521 0.378012 0.079713
0.155001 0.399130 0.081254
0.254459 0.433204 0.085649
0.388418 0.476417 0.096590
0.534173 0.529473 0.123033
0.665095 0.577554 0.165835
0.759258 0.613169 0.202182
0.806638 0.621134 0.218051
0.835538 0.624475 0.232273
0.864454 0.641505 0.254276
0.885313 0.650874 0.274434
0.894713 0.656001 0.284657
0.889403 0.633219 0.274846
0.042588 0.315022 0.079118
0.049622 0.336172 0.079591
0.062989 0.358968 0.083558
0.080919 0.382483 0.085420
0.109163 0.401297 0.087388
0.151629 0.422751 0.088777
0.249287 0.456168 0.092439
0.393561 0.502129 0.107759
0.545403 0.555367 0.135576
0.677134 0.603769 0.175906
0.769055 0.638148 0.215351
0.831479 0.659175 0.238361
0.855680 0.660624 0.250553
0.879728 0.669169 0.270573
0.898421 0.681651 0.294759
0.908644 0.686625 0.312642
0.919295 0.690471 0.329595
0.043763 0.340230 0.085069
0.050004 0.357794 0.086259
0.063508 0.379568 0.089097
0.084627 0.402579 0.092180
0.111330 0.422126 0.094347
0.159991 0.444968 0.095415
0.263096 0.480644 0.101778
0.405081 0.527810 0.119310
0.558145 0.579843 0.149371
0.697292 0.629099 0.189883
0.784497 0.661814 0.228916
0.847578 0.684886 0.254398
0.872923 0.695186 0.273762
0.893400 0.697734 0.287358
0.903365 0.704662 0.309163
0.917342 0.713314 0.327611
0.930999 0.723232 0.356085
0.045212 0.359915 0.090135
0.052857 0.376989 0.092561
0.064759 0.396933 0.093309
0.091997 0.422202 0.095201
0.131655 0.447898 0.098314
0.184649 0.474144 0.103624
0.296407 0.510491 0.112993
0.435706 0.554971 0.132570
0.572473 0.600961 0.162112
0.711086 0.649775 0.203800
0.804150 0.686473 0.244633
0.852125 0.706401 0.272023
0.883192 0.723293 0.289326
0.901396 0.731350 0.307805
0.912215 0.732921 0.321889
0.922744 0.737713 0.339284
0.936370 0.746136 0.363745
0.045945 0.376715 0.092927
0.057954 0.395590 0.094789
0.072374 0.417762 0.095796
0.104463 0.445975 0.097917
0.164324 0.475776 0.102937
0.244877 0.507179 0.111345
0.356527 0.542107 0.124041
0.486183 0.584253 0.149996
0.608270 0.625605 0.178317
0.728939 0.671305 0.218875
0.816693 0.709026 0.257755
0.859297 0.730144 0.286000
0.888350 0.745327 0.308141
0.907668 0.756313 0.327596
0.917006 0.761212 0.339727
0.925368 0.762158 0.353262
0.937667 0.763104 0.369238
0.049577 0.394751 0.097230
0.059846 0.408972 0.096437
0.072663 0.424430 0.097230
0.112779 0.460441 0.103700
0.186465 0.495842 0.112566
0.289265 0.532296 0.120943
0.405280 0.568994 0.134707
0.523659 0.606699 0.162799
0.631312 0.643015 0.192523
0.735180 0.684779 0.223407
0.817990 0.722515 0.259617
0.864424 0.747173 0.293233
0.897353 0.766201 0.325322
0.911040 0.777111 0.346822
0.919173 0.784054 0.369284
0.928450 0.792233 0.382696
0.937819 0.794491 0.399069
0.030976 0.035950 0.046769
0.043839 0.036561 0.043091
0.064118 0.040009 0.043931
0.084062 0.042573 0.044770
0.106264 0.045853 0.045792
0.127245 0.048463 0.046647
0.147326 0.050660 0.047272
0.167086 0.052766 0.047639
0.190677 0.053712 0.047532
0.214725 0.054032 0.047807
0.243702 0.055344 0.049470
0.276997 0.058000 0.052827
0.309911 0.059083 0.054032
0.338308 0.058930 0.054536
0.355901 0.057435 0.054231
0.372030 0.057862 0.054139
0.385168 0.057084 0.054459
0.030396 0.046372 0.048142
0.047730 0.054841 0.053544
0.078676 0.045594 0.039551
0.104356 0.045884 0.039185
0.121645 0.047059 0.039277
0.139345 0.049821 0.039521
0.157168 0.051270 0.039338
0.179477 0.052262 0.039490
0.204685 0.052903 0.039994
0.233814 0.054154 0.041093
0.265293 0.056504 0.043503
0.297215 0.057649 0.045609
0.327672 0.057160 0.046784
0.347753 0.056184 0.047303
0.365469 0.056596 0.047837
0.381247 0.056184 0.049058
0.412406 0.069734 0.058015
0.029999 0.061357 0.050721
0.035294 0.073487 0.043900
0.109316 0.103182 0.048157
0.147066 0.090333 0.043748
0.169802 0.080430 0.043366
0.190616 0.077974 0.043519
0.212436 0.078126 0.044419
0.235492 0.077104 0.044038
0.259251 0.076646 0.044480
0.282216 0.075532 0.045441
0.308141 0.075639 0.046677
0.336538 0.074723 0.047883
0.361608 0.073625 0.049226
0.382116 0.073671 0.049836
0.401373 0.076326 0.051270
0.421195 0.079423 0.053025
0.449821 0.099748 0.063432
0.030030 0.079103 0.054566
0.033448 0.097658 0.045808
0.074235 0.124559 0.046967
0.169100 0.157595 0.051575
0.215305 0.143450 0.052003
0.243824 0.132952 0.051499
0.269825 0.126650 0.052171
0.294865 0.120974 0.051911
0.317540 0.115877 0.051667
0.341344 0.115236 0.052934
0.365637 0.114702 0.053819
0.385443 0.111437 0.053391
0.402609 0.107195 0.052644
0.419211 0.104219 0.053193
0.438087 0.106432 0.054643
0.462837 0.112825 0.056764
0.484550 0.132677 0.067811
0.030747 0.100664 0.060792
0.033448 0.115908 0.047578
0.056229 0.141497 0.048844
0.114061 0.171145 0.052384
0.230686 0.213016 0.058167
0.297459 0.205692 0.061112
0.333440 0.193988 0.061265
0.361959 0.183032 0.060899
0.388052 0.173373 0.060853
0.407034 0.166064 0.060746
0.425345 0.162722 0.061021
0.441520 0.158068 0.060945
0.454078 0.151354 0.058701
0.465751 0.146242 0.057343
0.478721 0.144213 0.057679
0.495644 0.148226 0.061219
0.505440 0.156390 0.069520
0.031205 0.120577 0.064942
0.033829 0.134981 0.050980
0.049119 0.162737 0.052171
0.087739 0.190661 0.054841
0.154314 0.219348 0.056977
0.306767 0.279072 0.068345
0.392782 0.279332 0.074525
0.437140 0.267613 0.075090
0.464668 0.253193 0.074556
0.481636 0.236851 0.073426
0.494789 0.226429 0.072740
0.509117 0.220951 0.073152
0.519997 0.211780 0.071168
0.526268 0.200443 0.067597
0.531807 0.191028 0.066224
0.533333 0.183810 0.067033
0.531884 0.186343 0.075532
0.031876 0.139605 0.068009
0.034134 0.159075 0.055390
0.046906 0.187335 0.055848
0.076066 0.219379 0.057328
0.120165 0.242496 0.058930
0.227985 0.287037 0.065003
0.410910 0.361730 0.084474
0.490394 0.356634 0.091646
0.540825 0.347555 0.094652
0.570123 0.337423 0.094881
0.585412 0.323476 0.094240
0.601617 0.317433 0.096513
0.616800 0.309895 0.097627
0.618906 0.291432 0.091371
0.615991 0.272221 0.086168
0.608164 0.255589 0.084169
0.597665 0.253117 0.093614
0.033066 0.161929 0.071015
0.036118 0.188006 0.058717
0.046357 0.218372 0.060273
0.069535 0.252186 0.061189
0.109133 0.278218 0.061204
0.178744 0.307301 0.062654
0.353368 0.375952 0.078080
0.526604 0.442741 0.110170
0.593729 0.436423 0.117494
0.641001 0.433417 0.125338
0.670497 0.427649 0.129961
0.689113 0.419379 0.132540
0.705058 0.413581 0.137789
0.712108 0.400763 0.137438
0.710155 0.382208 0.131731
0.706889 0.366796 0.125841
0.693049 0.356191 0.132326
0.034760 0.189441 0.075013
0.037308 0.217227 0.062821
0.048493 0.252766 0.064820
0.068147 0.288975 0.066529
0.106386 0.315709 0.067536
0.166735 0.340490 0.068116
0.299107 0.391287 0.074372
0.488609 0.461082 0.102174
0.644587 0.518318 0.147387
0.691859 0.509560 0.153140
0.731380 0.511223 0.164996
0.762737 0.510506 0.174197
0.781903 0.506111 0.181186
0.790433 0.498161 0.185229
0.788571 0.481132 0.180163
0.785489 0.466575 0.173800
0.776776 0.454078 0.181262
0.036744 0.220691 0.080476
0.039124 0.249088 0.066941
0.050324 0.285405 0.070253
0.071687 0.321721 0.073228
0.103975 0.346822 0.074662
0.160937 0.371267 0.075334
0.281025 0.415198 0.080720
0.456672 0.477638 0.100679
0.624048 0.538109 0.145830
0.740688 0.579293 0.182498
0.768902 0.568719 0.190738
0.804669 0.574838 0.207477
0.828901 0.577798 0.219318
0.841093 0.572259 0.225025
0.842603 0.555489 0.218326
0.836500 0.537423 0.209384
0.829770 0.522011 0.218250
0.038682 0.253437 0.085878
0.041398 0.283970 0.073869
0.051591 0.314244 0.076127
0.070649 0.347372 0.077836
0.100450 0.372168 0.079759
0.148638 0.395911 0.081483
0.267430 0.438071 0.086519
0.438056 0.494881 0.105348
0.609384 0.556573 0.145068
0.739391 0.605097 0.194614
0.807111 0.623407 0.217563
0.829816 0.620066 0.229786
0.855055 0.627802 0.247791
0.875837 0.630900 0.261433
0.877211 0.619440 0.260868
0.870634 0.599863 0.247761
0.859663 0.577951 0.256825
0.040787 0.287510 0.093309
0.042405 0.312581 0.079240
0.051026 0.339590 0.080476
0.068620 0.367300 0.084428
0.097566 0.394629 0.087037
0.143893 0.418799 0.087953
0.255009 0.457542 0.092393
0.428992 0.513924 0.112535
0.602701 0.574975 0.149310
0.739147 0.627192 0.200443
0.821149 0.656977 0.234852
0.855558 0.660624 0.249790
0.872953 0.662257 0.269429
0.894011 0.672450 0.287541
0.904372 0.676249 0.302525
0.904799 0.666362 0.303105
0.888609 0.638727 0.307485
0.041749 0.316793 0.100450
0.043748 0.337285 0.084306
0.052140 0.362112 0.086259
0.070222 0.387671 0.090898
0.100496 0.416052 0.093507
0.148760 0.440787 0.093996
0.254902 0.478370 0.100130
0.426078 0.533608 0.120989
0.601053 0.593378 0.160830
0.740063 0.644678 0.208591
0.827390 0.678553 0.245640
0.868482 0.694499 0.269062
0.889982 0.698161 0.287846
0.902235 0.699748 0.305333
0.914473 0.709072 0.326452
0.924865 0.708965 0.346761
0.917739 0.694408 0.358038
0.043061 0.342367 0.106401
0.045136 0.359945 0.090166
0.055482 0.380682 0.091173
0.073381 0.406424 0.094438
0.108186 0.437095 0.097734
0.166140 0.465583 0.101518
0.271473 0.502831 0.110735
0.437201 0.555032 0.132006
0.606165 0.611963 0.169879
0.741833 0.663005 0.219226
0.829602 0.698192 0.258488
0.872923 0.718547 0.284077
0.898192 0.728878 0.304036
0.910933 0.732097 0.322683
0.921263 0.732754 0.336950
0.931899 0.738094 0.361135
0.929107 0.727687 0.386069
0.044282 0.362097 0.111650
0.046204 0.378500 0.095903
0.059724 0.398352 0.095186
0.079591 0.423102 0.097322
0.122835 0.457099 0.102541
0.205356 0.493309 0.111223
0.318151 0.530694 0.122026
0.465507 0.578302 0.147036
0.620874 0.630732 0.180850
0.749615 0.680430 0.225498
0.837842 0.718563 0.268727
0.876539 0.737987 0.296254
0.903120 0.751202 0.318334
0.915755 0.759060 0.338308
0.925261 0.762585 0.354284
0.934905 0.759670 0.368734
0.935195 0.752758 0.392142
0.045823 0.381872 0.119020
0.049821 0.395956 0.102785
0.062226 0.412512 0.102098
0.085176 0.436896 0.103975
0.140429 0.475364 0.111559
0.244572 0.516457 0.121477
0.368536 0.555489 0.135225
0.499458 0.598367 0.162615
0.629786 0.645502 0.195865
0.743908 0.691707 0.231739
0.829770 0.729091 0.275761
0.876204 0.754055 0.310506
0.903517 0.769665 0.337072
0.913436 0.776944 0.358770
0.922332 0.783032 0.377630
0.934707 0.788968 0.393469
0.936217 0.766171 0.395972
0.048081 0.398978 0.118395
0.058350 0.418097 0.123980
0.078553 0.437873 0.124041
0.116976 0.467079 0.127489
0.194110 0.505638 0.138369
0.292180 0.539681 0.148302
0.408316 0.575814 0.162600
0.523919 0.613962 0.185611
0.630991 0.653773 0.215442
0.734340 0.695583 0.249409
0.816266 0.731243 0.290333
0.860792 0.754482 0.326116
0.891295 0.769955 0.353368
0.906813 0.780209 0.373938
0.916457 0.785580 0.389197
0.927382 0.789944 0.402136
0.937392 0.795605 0.417746
0.030182 0.036225 0.062425
0.041169 0.037873 0.061616
0.063371 0.041871 0.062638
0.085603 0.044221 0.061173
0.109651 0.047608 0.061585
0.133425 0.051194 0.062119
0.156130 0.053681 0.063188
0.177829 0.055024 0.063249
0.203601 0.056306 0.063035
0.230823 0.056428 0.062791
0.259586 0.058335 0.064073
0.290974 0.060807 0.067613
0.321324 0.061387 0.069200
0.350088 0.061921 0.069673
0.370214 0.060822 0.068528
0.382315 0.060487 0.068040
0.397986 0.059220 0.067353
0.029847 0.046510 0.067842
0.032883 0.041749 0.075380
0.079637 0.048341 0.078706
0.107195 0.047745 0.061875
0.131090 0.050065 0.056992
0.152544 0.052476 0.055543
0.172488 0.053727 0.053437
0.195773 0.054520 0.051896
0.221042 0.054734 0.050919
0.248417 0.056107 0.052079
0.279545 0.058412 0.053925
0.309758 0.058869 0.054902
0.338262 0.058885 0.055497
0.360220 0.058991 0.056321
0.374166 0.058549 0.056260
0.391058 0.059449 0.058152
0.415778 0.071321 0.068971
0.028580 0.062272 0.071229
0.031373 0.077073 0.092287
0.079667 0.084947 0.085328
0.124178 0.068299 0.058289
0.149981 0.058671 0.047105
0.162722 0.054200 0.041138
0.181262 0.053315 0.040040
0.204166 0.053346 0.040055
0.232410 0.054063 0.040818
0.265064 0.055741 0.043107
0.298070 0.057511 0.045670
0.326284 0.057542 0.046677
0.349096 0.056764 0.047395
0.362676 0.055512 0.047868
0.381430 0.058473 0.050141
0.408621 0.069780 0.057481
0.434012 0.092073 0.073289
0.029541 0.083085 0.079500
0.030396 0.101442 0.083803
0.048432 0.111330 0.067109
0.164904 0.150072 0.070527
0.221759 0.131151 0.060121
0.247318 0.110567 0.051881
0.264607 0.097505 0.048432
0.282368 0.090242 0.047501
0.302419 0.087495 0.047593
0.323384 0.085344 0.048341
0.345876 0.081621 0.048722
0.366873 0.079576 0.049271
0.387198 0.078660 0.050614
0.408362 0.080964 0.051972
0.429053 0.086107 0.054429
0.449378 0.100526 0.063264
0.466575 0.122866 0.079271
0.030488 0.104479 0.086183
0.031327 0.123583 0.080552
0.037369 0.135073 0.059083
0.094255 0.175158 0.061662
0.259251 0.235874 0.072114
0.340017 0.213718 0.067048
0.360052 0.181628 0.061494
0.369985 0.159075 0.058762
0.382162 0.146731 0.057496
0.396750 0.140566 0.057023
0.412451 0.133913 0.056275
0.425956 0.126253 0.055100
0.436561 0.119799 0.055024
0.452842 0.119966 0.056138
0.473518 0.127489 0.059266
0.485573 0.136614 0.068040
0.483009 0.143908 0.081437
0.031296 0.125490 0.092119
0.031998 0.143099 0.079728
0.034775 0.156558 0.056596
0.067582 0.206149 0.059525
0.144823 0.245335 0.062348
0.396567 0.347982 0.085100
0.461906 0.308766 0.082673
0.480095 0.272175 0.078325
0.480980 0.235721 0.072740
0.482612 0.214878 0.070466
0.487160 0.199908 0.068589
0.494438 0.188006 0.066041
0.499229 0.176501 0.063142
0.502052 0.166155 0.061646
0.508873 0.164858 0.063722
0.510094 0.166934 0.070237
0.503120 0.166217 0.081865
0.031815 0.145693 0.093874
0.033143 0.165011 0.080827
0.035706 0.183825 0.058900
0.058412 0.235492 0.060990
0.111925 0.275792 0.062135
0.247898 0.333196 0.069932
0.519905 0.438834 0.108461
0.568734 0.398627 0.107424
0.592920 0.369284 0.105119
0.597177 0.336690 0.098451
0.598718 0.312612 0.094713
0.600214 0.293111 0.090761
0.597452 0.273594 0.085618
0.589395 0.248707 0.079866
0.578592 0.228580 0.077699
0.567544 0.221195 0.082292
0.558221 0.220233 0.093111
0.032944 0.169207 0.096162
0.034714 0.192065 0.083436
0.037232 0.217975 0.063569
0.055955 0.266438 0.065263
0.098894 0.308400 0.066606
0.192874 0.350088 0.070100
0.408515 0.430243 0.090181
0.640848 0.517174 0.147662
0.670665 0.481575 0.142641
0.696239 0.461128 0.143465
0.705547 0.440299 0.141283
0.707851 0.417899 0.138933
0.705455 0.396704 0.134234
0.702037 0.375418 0.126421
0.688930 0.348135 0.117723
0.673304 0.330831 0.120180
0.655680 0.318532 0.126513
0.034531 0.197589 0.100435
0.036698 0.221057 0.085222
0.040620 0.253727 0.067643
0.054856 0.297993 0.071885
0.088762 0.337591 0.073365
0.160845 0.371435 0.074830
0.337575 0.433661 0.085344
0.569162 0.518029 0.127016
0.736065 0.575082 0.183261
0.759533 0.551995 0.180194
0.785550 0.542855 0.189425
0.798520 0.527306 0.192172
0.799435 0.507637 0.187839
0.792798 0.488304 0.181567
0.781567 0.464012 0.174289
0.770932 0.447379 0.177569
0.749905 0.426810 0.178027
0.036790 0.229999 0.108751
0.038590 0.252369 0.089525
0.041672 0.284443 0.074128
0.054582 0.322560 0.076509
0.084596 0.361364 0.079088
0.137972 0.391806 0.081086
0.290410 0.444450 0.087282
0.516976 0.523827 0.121309
0.699825 0.589456 0.177157
0.806363 0.621241 0.216510
0.824613 0.607889 0.222309
0.843763 0.605768 0.235966
0.854246 0.593713 0.236789
0.852171 0.575006 0.227848
0.842008 0.546426 0.217334
0.832868 0.528572 0.221317
0.820829 0.516655 0.233219
0.038743 0.261097 0.114855
0.040635 0.286503 0.096559
0.042039 0.311177 0.079545
0.053162 0.343435 0.080552
0.080079 0.381262 0.085283
0.124727 0.410132 0.087434
0.255711 0.458457 0.093523
0.470192 0.530251 0.121004
0.671748 0.600351 0.174395
0.799390 0.647898 0.225849
0.856413 0.660929 0.249638
0.868376 0.656001 0.264881
0.884764 0.656413 0.280156
0.888914 0.646662 0.281437
0.879286 0.618036 0.268376
0.867491 0.594888 0.266789
0.861006 0.582406 0.282872
0.040665 0.291722 0.119371
0.041596 0.315267 0.102586
0.043671 0.337636 0.084779
0.053437 0.363729 0.086763
0.081392 0.398642 0.090791
0.127184 0.430304 0.093645
0.241901 0.475227 0.101534
0.444739 0.541741 0.126421
0.646433 0.610071 0.174701
0.783703 0.662852 0.229114
0.862882 0.692103 0.265919
0.889052 0.695598 0.285771
0.899580 0.694636 0.300206
0.910613 0.696544 0.319783
0.913314 0.687251 0.328923
0.901595 0.664683 0.327764
0.888350 0.640955 0.334310
0.041718 0.320775 0.126116
0.042725 0.341054 0.107805
0.045167 0.360204 0.089860
0.056718 0.382620 0.091814
0.086458 0.416602 0.095338
0.145174 0.453895 0.099306
0.252888 0.494881 0.108186
0.437385 0.555276 0.133608
0.633738 0.621347 0.178607
0.776867 0.675669 0.232654
0.858564 0.710277 0.273610
0.894881 0.727001 0.300999
0.909911 0.731121 0.319966
0.919448 0.727260 0.334112
0.927077 0.727337 0.357809
0.923812 0.713359 0.373251
0.914717 0.693843 0.382757
0.043076 0.345724 0.131914
0.044282 0.363363 0.114168
0.046326 0.378546 0.095766
0.060517 0.399496 0.096391
0.093217 0.434485 0.099367
0.165713 0.476417 0.107332
0.282628 0.517815 0.117540
0.450294 0.572259 0.143542
0.627695 0.632410 0.183444
0.767163 0.686137 0.234134
0.853208 0.726223 0.282902
0.891920 0.747051 0.311910
0.912490 0.757961 0.337026
0.924727 0.762173 0.354726
0.932845 0.753124 0.365759
0.933318 0.745998 0.391180
0.928786 0.730190 0.411215
0.044572 0.366323 0.136568
0.045808 0.381582 0.120394
0.051026 0.397360 0.103410
0.065492 0.417243 0.105318
0.103319 0.452705 0.109163
0.192889 0.496803 0.117739
0.322499 0.540825 0.130816
0.473259 0.589532 0.157015
0.630182 0.644358 0.195193
0.761990 0.696452 0.240299
0.847730 0.736126 0.288960
0.885237 0.758740 0.322881
0.908812 0.771893 0.351934
0.921080 0.779980 0.371939
0.932952 0.784543 0.385534
0.935958 0.765789 0.396643
0.935027 0.758373 0.421286
0.046143 0.385519 0.142519
0.048569 0.398627 0.127031
0.058930 0.418509 0.123125
0.082292 0.441367 0.124788
0.134463 0.476768 0.130434
0.233982 0.519203 0.141939
0.360281 0.560616 0.155993
0.491814 0.601846 0.176425
0.625330 0.650294 0.213886
0.746944 0.700587 0.258793
0.830106 0.736797 0.302419
0.872419 0.760784 0.339712
0.900175 0.776898 0.366873
0.912016 0.783993 0.386419
0.923400 0.790311 0.402640
0.937423 0.794339 0.417151
0.936599 0.771008 0.424552
0.047578 0.398825 0.137438
0.058366 0.423270 0.146487
0.077577 0.444221 0.143999
0.117815 0.471687 0.150210
0.191745 0.508904 0.161807
0.301350 0.548318 0.173037
0.404364 0.580316 0.184833
0.518288 0.616861 0.206409
0.633310 0.659449 0.240330
0.738201 0.704128 0.284016
0.821836 0.740826 0.326299
0.862318 0.762905 0.359625
0.887007 0.775189 0.382910
0.905806 0.786572 0.401679
0.919799 0.794156 0.418463
0.928817 0.797269 0.430137
0.940612 0.798535 0.438697
0.030808 0.037476 0.081132
0.039902 0.039200 0.081010
0.058808 0.042588 0.081331
0.086198 0.045731 0.082307
0.109438 0.048707 0.080781
0.136858 0.052750 0.080934
0.160845 0.055558 0.081117
0.184649 0.057023 0.080827
0.211978 0.058625 0.081483
0.242481 0.059846 0.082307
0.272419 0.061280 0.083787
0.303059 0.063172 0.086427
0.331884 0.062745 0.086381
0.360235 0.063096 0.086625
