tools/luts_backup/Kodak Vision3 250D 5207 (NEG)_FC.cube
# (C) 2014 VisionColor & Patchflyer [www.vision-color.com]
# Generator: VC Patchmatch v.2.1.1 [64/53]
# All work and no play makes Jack a dull boy.
# LUT generated from: Kodak Vision3 250D 5207 (NEG)_FC01
LUT_3D_SIZE 17
0.023056 0.025788 0.023560
0.076387 0.021866 0.019501
0.135012 0.022400 0.017121
0.180560 0.024170 0.015854
0.200946 0.023117 0.016068
0.215656 0.021180 0.016800
0.235660 0.019547 0.016541
0.261021 0.018143 0.015549
0.287160 0.017029 0.014588
0.306920 0.016388 0.013947
0.308171 0.016358 0.013916
0.317525 0.016114 0.013672
0.427131 0.013458 0.011109
0.620768 0.010040 0.008667
0.706844 0.009262 0.007919
0.741558 0.009064 0.007721
0.781430 0.008881 0.007538
0.028107 0.039033 0.021424
0.059358 0.039689 0.017868
0.123003 0.037797 0.013169
0.195880 0.042374 0.009415
0.256977 0.044999 0.008316
0.290013 0.037247 0.009888
0.307301 0.026123 0.011948
0.315068 0.019577 0.012802
0.323568 0.016785 0.013260
0.344793 0.015610 0.013092
0.371817 0.014939 0.012528
0.406455 0.014054 0.011704
0.489906 0.012161 0.009857
0.625299 0.010040 0.008667
0.707912 0.009277 0.007919
0.747463 0.009033 0.007691
0.789471 0.008850 0.007507
0.026612 0.071565 0.019959
0.051911 0.072984 0.017044
0.100145 0.074769 0.014725
0.163317 0.069001 0.013016
0.222629 0.069215 0.011322
0.287236 0.068284 0.010315
0.346441 0.057572 0.009293
0.380102 0.037934 0.008331
0.384161 0.023804 0.010285
0.391821 0.016938 0.011505
0.419059 0.014038 0.011353
0.459495 0.012757 0.010407
0.513741 0.011643 0.009323
0.601816 0.010590 0.008820
0.705516 0.009567 0.007965
0.753872 0.009018 0.007660
0.794339 0.008820 0.007477
0.033326 0.125170 0.017746
0.048981 0.121675 0.015824
0.071229 0.129198 0.016037
0.129961 0.122698 0.019272
0.195407 0.112383 0.018662
0.268559 0.110460 0.016968
0.341787 0.103029 0.013443
0.385367 0.082643 0.008972
0.419028 0.057176 0.006699
0.459373 0.035264 0.006897
0.492363 0.021653 0.008240
0.531914 0.014633 0.008789
0.577127 0.012253 0.008789
0.672694 0.014633 0.007828
0.789364 0.022507 0.006409
0.811749 0.012619 0.007141
0.799893 0.008804 0.007446
0.053803 0.175540 0.022675
0.063172 0.174884 0.020691
0.078538 0.183185 0.023026
0.099443 0.188968 0.026093
0.174563 0.172030 0.032715
0.261967 0.166964 0.029816
0.347189 0.157870 0.022843
0.411170 0.140154 0.015061
0.451728 0.115785 0.008362
0.489357 0.086717 0.005615
0.539864 0.057191 0.005783
0.602319 0.033875 0.006058
0.646021 0.022644 0.007050
0.726802 0.023545 0.006546
0.844327 0.050050 0.005447
0.859846 0.033829 0.005615
0.818936 0.009110 0.007324
0.094469 0.225040 0.036820
0.097353 0.225116 0.035004
0.110567 0.236164 0.036545
0.116503 0.247623 0.038392
0.132418 0.244068 0.040223
0.215198 0.229221 0.045884
0.323766 0.219211 0.041032
0.413642 0.200015 0.029999
0.497429 0.180255 0.017121
0.555291 0.153323 0.007813
0.596857 0.116045 0.005097
0.643915 0.079042 0.005249
0.694041 0.049836 0.005722
0.761501 0.032013 0.005844
0.842832 0.039765 0.005615
0.871412 0.048188 0.005478
0.841993 0.020508 0.006302
0.160006 0.281712 0.050294
0.156451 0.278721 0.048646
0.162493 0.285863 0.049561
0.160204 0.296849 0.049470
0.147631 0.303960 0.047532
0.151812 0.302708 0.045731
0.250431 0.294057 0.052949
0.388525 0.272511 0.048478
0.515648 0.251469 0.035874
0.633982 0.227970 0.018585
0.699321 0.189395 0.007172
0.731228 0.139742 0.004944
0.750317 0.091844 0.005005
0.775235 0.044190 0.005631
0.814054 0.022644 0.006348
0.868101 0.055222 0.005356
0.895720 0.067308 0.005188
0.247593 0.351598 0.060105
0.242145 0.347860 0.059815
0.241428 0.351614 0.060746
0.231769 0.360143 0.060639
0.210361 0.367224 0.058213
0.190692 0.370794 0.054398
0.220691 0.370184 0.053910
0.353674 0.365469 0.060441
0.519326 0.339284 0.055116
0.679911 0.315923 0.041215
0.803342 0.273411 0.020050
0.836011 0.214633 0.007218
0.827619 0.146197 0.004990
0.786648 0.068803 0.005310
0.764538 0.019135 0.006806
0.851682 0.061601 0.005341
0.943648 0.149981 0.004944
0.340337 0.430594 0.061204
0.340124 0.428046 0.063035
0.337758 0.431373 0.064057
0.325185 0.439536 0.065919
0.296132 0.444923 0.065156
0.262821 0.444892 0.062043
0.267781 0.444770 0.060670
0.337499 0.446235 0.062348
0.512932 0.436988 0.066499
0.704265 0.410498 0.063066
0.854475 0.373236 0.048096
0.926558 0.305577 0.021118
0.916777 0.228122 0.007370
0.890272 0.150317 0.005753
0.802991 0.073671 0.006287
0.890272 0.105806 0.006119
0.975189 0.244648 0.008270
0.441276 0.526299 0.059724
0.438331 0.526055 0.056519
0.436027 0.533379 0.052857
0.435737 0.540429 0.059831
0.409720 0.543816 0.065629
0.359503 0.535073 0.067018
0.328206 0.518975 0.065644
0.361471 0.515007 0.066545
0.466682 0.520134 0.069474
0.688838 0.487190 0.073121
0.885832 0.482185 0.076020
0.950866 0.447486 0.064576
0.973022 0.354040 0.031250
0.969100 0.289403 0.017548
0.971862 0.258930 0.020340
0.977218 0.256504 0.020249
0.992874 0.341970 0.025727
0.592294 0.654276 0.067414
0.569299 0.652399 0.055253
0.542580 0.666163 0.042100
0.562585 0.669795 0.045136
0.546319 0.667506 0.058030
0.489036 0.651682 0.067430
0.418601 0.618173 0.069780
0.397269 0.585306 0.069917
0.448676 0.580530 0.072114
0.584970 0.586801 0.076524
0.823728 0.524941 0.080491
0.955978 0.586069 0.098497
0.974380 0.562264 0.094301
0.977340 0.469490 0.066529
0.986923 0.458503 0.065278
0.992538 0.458473 0.067948
0.994629 0.446616 0.064408
0.750622 0.772412 0.080888
0.727581 0.764874 0.071916
0.691615 0.772045 0.051225
0.693614 0.765209 0.053437
0.674846 0.753491 0.064454
0.620554 0.739452 0.072587
0.538216 0.715068 0.075608
0.469902 0.681010 0.074464
0.472007 0.657435 0.075380
0.545876 0.657542 0.079377
0.681102 0.654536 0.083940
0.874372 0.607034 0.090898
0.961959 0.677806 0.116365
0.974990 0.645243 0.113817
0.987442 0.606516 0.108782
0.991516 0.592630 0.109346
0.994110 0.560876 0.102831
0.858961 0.850965 0.091524
0.848829 0.843534 0.089601
0.831632 0.838865 0.081575
0.815106 0.828565 0.082063
0.784253 0.816205 0.085847
0.736538 0.802991 0.087846
0.672587 0.785977 0.087037
0.594980 0.765972 0.083558
0.556390 0.748486 0.082200
0.597360 0.741024 0.085863
0.686748 0.740505 0.091371
0.788815 0.731365 0.096239
0.905974 0.715053 0.108690
0.965225 0.726650 0.127413
0.987182 0.713146 0.135668
0.992599 0.697993 0.139330
0.995270 0.673411 0.137560
0.912001 0.892439 0.100923
0.908721 0.889799 0.100237
0.903532 0.886320 0.099138
0.895705 0.881376 0.098268
0.880385 0.875776 0.098695
0.853223 0.869078 0.099992
0.797925 0.861448 0.099184
0.730129 0.847395 0.095369
0.678004 0.832547 0.092454
0.688396 0.823621 0.095476
0.752407 0.820478 0.103487
0.837812 0.814755 0.111772
0.901427 0.804211 0.120806
0.959594 0.797009 0.138857
0.987137 0.794461 0.155917
0.992676 0.784970 0.163836
0.995560 0.769543 0.166033
0.945296 0.924590 0.112184
0.944183 0.923171 0.111620
0.943160 0.921752 0.111025
0.941283 0.919509 0.110323
0.936675 0.915831 0.110521
0.920607 0.911223 0.112383
0.890867 0.904830 0.113344
0.848463 0.896147 0.110292
0.787564 0.888701 0.106310
0.776516 0.882231 0.108614
0.823117 0.878019 0.117998
0.880949 0.874601 0.129412
0.929717 0.868727 0.141329
0.963302 0.864820 0.155489
0.987778 0.861295 0.175296
0.993439 0.859037 0.188190
0.996338 0.850248 0.193378
0.967865 0.944823 0.124285
0.966323 0.943755 0.123568
0.965301 0.943053 0.122896
0.964782 0.942641 0.122560
0.963333 0.941939 0.122698
0.957000 0.939864 0.124392
0.943282 0.937148 0.126543
0.915160 0.933410 0.125566
0.874098 0.925399 0.121294
0.856107 0.919142 0.122530
0.876738 0.915831 0.133516
0.916609 0.913405 0.149035
0.950042 0.909483 0.163317
0.978256 0.906691 0.179599
0.989441 0.904662 0.197177
0.994186 0.900679 0.211841
0.996963 0.895796 0.217426
0.983993 0.956741 0.138689
0.983856 0.956313 0.138170
0.983429 0.955657 0.136660
0.983093 0.954864 0.135637
0.982940 0.954543 0.135653
0.980789 0.954070 0.136873
0.971893 0.952773 0.139391
0.954253 0.950332 0.140215
0.928710 0.946471 0.136706
0.902968 0.943175 0.137087
0.914702 0.941085 0.149554
0.943542 0.940276 0.167437
0.969116 0.938674 0.187320
0.986038 0.936965 0.206638
0.991531 0.936019 0.223362
0.994797 0.934371 0.233906
0.997452 0.929763 0.239887
0.022995 0.025345 0.056962
0.055680 0.024949 0.051957
0.122454 0.023011 0.044450
0.176120 0.022660 0.038300
0.200671 0.021500 0.034470
0.208072 0.020325 0.030121
0.215137 0.020020 0.023072
0.234165 0.019257 0.018051
0.258747 0.018204 0.015854
0.282765 0.017182 0.014740
0.304967 0.016449 0.014008
0.335134 0.015732 0.013291
0.421836 0.013611 0.011261
0.581369 0.010666 0.008942
0.686656 0.009461 0.008087
0.737163 0.009079 0.007736
0.784985 0.008865 0.007523
0.018585 0.040681 0.049317
0.036042 0.040543 0.040208
0.120424 0.036439 0.025956
0.217182 0.040421 0.019135
0.281239 0.040436 0.017548
0.308003 0.032792 0.017975
0.307393 0.025925 0.016739
0.290684 0.021210 0.015885
0.286732 0.018433 0.015076
0.310811 0.016632 0.013886
0.350652 0.015442 0.013001
0.389349 0.014511 0.012085
0.438941 0.013245 0.010925
0.538018 0.011307 0.009186
0.664897 0.009689 0.008301
0.746029 0.009079 0.007691
0.796002 0.008804 0.007477
0.018814 0.073823 0.041764
0.029648 0.067536 0.028824
0.094606 0.071077 0.022889
0.192691 0.068360 0.015869
0.300801 0.076890 0.012848
0.423468 0.082200 0.014130
0.473854 0.066911 0.012406
0.449638 0.047852 0.010468
0.417075 0.034012 0.010437
0.412512 0.024491 0.010452
0.439155 0.016129 0.010468
0.481102 0.012573 0.009903
0.526696 0.011460 0.009247
0.594202 0.010544 0.008896
0.695460 0.009552 0.008057
0.792065 0.012634 0.007279
0.824018 0.010666 0.007248
0.025101 0.130617 0.031876
0.033051 0.116991 0.023102
0.071489 0.117906 0.020096
0.153323 0.119265 0.020294
0.250629 0.121080 0.019242
0.369360 0.129183 0.019608
0.466590 0.117769 0.015213
0.493660 0.094453 0.010758
0.493233 0.075212 0.008881
0.494484 0.057923 0.007370
0.519371 0.033951 0.006470
0.552621 0.017639 0.008194
0.592035 0.011765 0.008759
0.641886 0.010071 0.008560
0.718502 0.009720 0.007904
0.795453 0.011612 0.007385
0.827649 0.010727 0.007233
0.048478 0.190661 0.028046
0.051957 0.178836 0.024079
0.075593 0.177829 0.022065
0.112322 0.187854 0.024598
0.200610 0.186999 0.032486
0.325826 0.193973 0.034775
0.453239 0.177676 0.025284
0.499397 0.148745 0.015946
0.512093 0.126665 0.011276
0.524330 0.106401 0.007828
0.555764 0.075914 0.005783
0.614710 0.043412 0.005936
0.658534 0.024201 0.006775
0.700603 0.015732 0.007477
0.766247 0.018921 0.006867
0.830335 0.036957 0.005661
0.838819 0.029618 0.005676
0.088609 0.241367 0.034119
0.081285 0.236561 0.031754
0.097490 0.240726 0.029999
0.125902 0.250889 0.032807
0.155840 0.254246 0.038285
0.248219 0.253208 0.047639
0.393149 0.244526 0.044297
0.502815 0.211307 0.029679
0.560235 0.181567 0.017502
0.582666 0.160494 0.010895
0.612161 0.131533 0.005875
0.656870 0.093645 0.005066
0.699626 0.060822 0.005493
0.751171 0.039353 0.005737
0.804852 0.038392 0.005692
0.877119 0.078706 0.005081
0.902235 0.077012 0.005081
0.154833 0.301946 0.041718
0.138033 0.291386 0.041352
0.146838 0.300755 0.037003
0.167742 0.310384 0.038209
0.175769 0.314260 0.042527
0.204654 0.316289 0.048753
0.297856 0.310384 0.058122
0.443503 0.291020 0.052110
0.565789 0.256199 0.036728
0.658564 0.227649 0.019944
0.708690 0.198123 0.009583
0.750530 0.160647 0.005417
0.779492 0.121508 0.004913
0.799054 0.087190 0.005066
0.831479 0.069673 0.005234
0.893843 0.097063 0.004898
0.926879 0.120485 0.004822
0.247562 0.371756 0.050401
0.227680 0.362356 0.050141
0.225101 0.367208 0.045319
0.232807 0.374777 0.043595
0.222980 0.374884 0.049226
0.225208 0.378958 0.053864
0.266545 0.382193 0.059388
0.374746 0.375555 0.064378
0.527260 0.351583 0.059266
0.675944 0.324269 0.045655
0.802533 0.289281 0.025681
0.855421 0.248020 0.012421
0.875624 0.201282 0.006394
0.875853 0.150546 0.005066
0.875120 0.110307 0.004959
0.906645 0.121202 0.004898
0.945052 0.168063 0.004913
0.350790 0.447684 0.057664
0.339071 0.443000 0.056825
0.330617 0.440452 0.056672
0.323964 0.445853 0.055909
0.301747 0.447089 0.059220
0.274220 0.447425 0.060456
0.289281 0.451347 0.062593
0.356313 0.454475 0.065568
0.507500 0.448234 0.068910
0.676310 0.422110 0.066300
0.824201 0.396292 0.055879
0.922133 0.351614 0.036515
0.940536 0.295735 0.017578
0.934890 0.231449 0.007782
0.916762 0.167727 0.005554
0.931075 0.172915 0.005707
0.971695 0.246006 0.008270
0.456519 0.539467 0.059602
0.448356 0.540810 0.052735
0.444999 0.536934 0.055070
0.435447 0.535531 0.059876
0.407446 0.534920 0.064698
0.363455 0.530846 0.065965
0.343511 0.527352 0.066239
0.393088 0.530785 0.069047
0.493309 0.535332 0.072435
0.676020 0.520333 0.077226
0.838849 0.498253 0.078096
0.926497 0.462974 0.070375
0.966476 0.403265 0.048905
0.976196 0.332387 0.024109
0.970092 0.269566 0.013169
0.976150 0.273213 0.014603
0.992874 0.345998 0.026886
0.597803 0.664622 0.063478
0.576196 0.672343 0.044587
0.569131 0.680247 0.043030
0.567452 0.675776 0.046403
0.541329 0.660975 0.054612
0.484306 0.642741 0.064271
0.431525 0.624048 0.068864
0.443473 0.612024 0.072679
0.516152 0.609964 0.076738
0.648859 0.616159 0.081910
0.841199 0.601480 0.091142
0.938369 0.586633 0.096696
0.969329 0.533196 0.089235
0.980941 0.464836 0.068284
0.987854 0.409674 0.048447
0.992142 0.412406 0.050172
0.994507 0.458183 0.068467
0.750790 0.779492 0.074189
0.727001 0.784482 0.054444
0.706218 0.805753 0.045350
0.698848 0.816129 0.045655
0.699916 0.794568 0.042710
0.637201 0.764920 0.054994
0.549935 0.731746 0.068055
0.508980 0.700725 0.075303
0.537896 0.678676 0.079744
0.626535 0.676005 0.084413
0.780301 0.688762 0.093156
0.930983 0.690929 0.113069
0.977813 0.672496 0.121035
0.987686 0.612726 0.110536
0.988159 0.579217 0.101442
0.990982 0.566522 0.100328
0.993866 0.577737 0.107652
0.858885 0.854551 0.087114
0.848539 0.851972 0.080568
0.836606 0.864530 0.065599
0.821775 0.876341 0.056916
0.812146 0.863188 0.054658
0.761013 0.836530 0.064973
0.684596 0.808499 0.075441
0.609125 0.779248 0.080598
0.588327 0.755673 0.083742
0.633280 0.742870 0.088075
0.731258 0.746960 0.094789
0.862074 0.755032 0.106889
0.952300 0.761379 0.129610
0.985183 0.729320 0.135943
0.988403 0.707515 0.135470
0.991730 0.699809 0.138582
0.994949 0.688060 0.140948
0.910430 0.892042 0.098833
0.907576 0.889738 0.098436
0.904051 0.889647 0.094041
0.898756 0.891386 0.085771
0.884627 0.883452 0.088045
0.857435 0.873320 0.092699
0.801663 0.864027 0.094942
0.733471 0.849912 0.093736
0.680049 0.833127 0.091844
0.686213 0.822461 0.094484
0.745953 0.819440 0.102251
0.832563 0.817853 0.111498
0.900771 0.811856 0.121523
0.958984 0.807401 0.140642
0.985931 0.793576 0.153338
0.991409 0.787625 0.161715
0.994934 0.776043 0.166430
0.943435 0.922210 0.110719
0.943084 0.921614 0.110689
0.942229 0.920714 0.110246
0.940490 0.918639 0.108797
0.935851 0.914580 0.108934
0.919631 0.909682 0.110887
0.891371 0.903181 0.112184
0.852384 0.894392 0.109621
0.787686 0.886534 0.105211
0.761913 0.879728 0.105348
0.797925 0.875181 0.113100
0.860899 0.871763 0.123491
0.908660 0.866438 0.134417
0.949676 0.861051 0.147066
0.984543 0.857618 0.165667
0.991623 0.856260 0.181735
0.995483 0.851240 0.191073
0.965255 0.942916 0.122667
0.964370 0.942504 0.122362
0.964172 0.942321 0.122133
0.964034 0.942123 0.122087
0.962585 0.941299 0.122103
0.956695 0.939132 0.123186
0.943771 0.936217 0.125109
0.918364 0.931624 0.124544
0.876554 0.922957 0.120165
0.844526 0.915267 0.118166
0.856535 0.910384 0.125154
0.890822 0.907637 0.138689
0.932845 0.903273 0.152453
0.960967 0.899397 0.165682
0.985016 0.897673 0.182483
0.992050 0.894896 0.201419
0.995895 0.893156 0.213123
0.983337 0.955337 0.136568
0.983139 0.955108 0.135851
0.982925 0.954498 0.135271
0.982818 0.954391 0.135058
0.982986 0.954543 0.135409
0.982071 0.954253 0.136095
0.974304 0.952773 0.138033
0.957687 0.950179 0.139223
0.934249 0.945769 0.135805
0.898604 0.941344 0.131945
0.894209 0.938079 0.138430
0.920378 0.935882 0.153307
0.948318 0.934081 0.169589
0.974289 0.931716 0.187915
0.987503 0.929763 0.205386
0.992554 0.928328 0.221317
0.996246 0.926375 0.233814
0.021500 0.023621 0.108583
0.040284 0.023484 0.107317
0.108522 0.021210 0.109651
0.179004 0.018051 0.114031
0.215030 0.016327 0.112490
0.229404 0.015274 0.103868
0.230594 0.015900 0.076722
0.229175 0.017502 0.047974
0.243412 0.017807 0.031388
0.261952 0.017548 0.020951
0.281895 0.017105 0.015595
0.310552 0.016312 0.013916
0.357916 0.015198 0.012787
0.461662 0.012772 0.010468
0.617639 0.010178 0.008728
0.708324 0.009277 0.007935
0.759472 0.008972 0.007630
0.015396 0.040269 0.102129
0.020768 0.039551 0.103685
0.093523 0.038773 0.089479
0.194675 0.036790 0.073030
0.263447 0.034211 0.065599
0.292714 0.027924 0.061982
0.289540 0.023224 0.047196
0.268528 0.020401 0.033661
0.258015 0.018677 0.025483
0.274784 0.017472 0.018082
0.310643 0.016342 0.014160
0.359228 0.015213 0.012802
0.413230 0.013901 0.011536
0.493614 0.012024 0.009735
0.611994 0.010254 0.008774
0.709056 0.009308 0.007935
0.770748 0.008927 0.007584
0.012512 0.071077 0.092775
0.016159 0.075486 0.093614
0.063966 0.066926 0.072175
0.166323 0.064027 0.054780
0.278264 0.068009 0.039796
0.375906 0.067597 0.032273
0.434104 0.060472 0.025315
0.428809 0.050813 0.018448
0.392920 0.041123 0.015412
0.379492 0.032822 0.012512
0.405234 0.022431 0.010727
0.445869 0.014450 0.010529
0.489235 0.012100 0.009751
0.541604 0.011261 0.009155
0.622415 0.010193 0.008743
0.740505 0.009369 0.007752
0.820401 0.008896 0.007309
0.015854 0.129900 0.082551
0.017792 0.124620 0.074098
0.055390 0.112581 0.060563
0.140169 0.116670 0.048844
0.239719 0.112230 0.038392
0.355978 0.115572 0.032456
0.494667 0.111101 0.024567
0.561624 0.096849 0.016754
0.544747 0.082292 0.012482
0.521355 0.070451 0.008621
0.530373 0.052522 0.006256
0.572549 0.028580 0.006668
0.603143 0.014801 0.008286
0.631357 0.010513 0.008606
0.680064 0.009827 0.008194
0.796185 0.025971 0.006073
0.869444 0.058335 0.005249
0.034379 0.197818 0.065095
0.033738 0.188663 0.057679
0.065919 0.170565 0.050599
0.121126 0.180011 0.043229
0.207538 0.182635 0.043320
0.327947 0.184375 0.040803
0.474708 0.175677 0.032532
0.564095 0.149065 0.019501
0.596155 0.126833 0.013519
0.616083 0.108980 0.009720
0.627741 0.090898 0.006271
0.646784 0.063096 0.005768
0.688029 0.034516 0.005875
0.707042 0.017441 0.007202
0.736675 0.010773 0.007736
0.802533 0.017456 0.006882
0.851026 0.046113 0.005463
0.075669 0.259037 0.048310
0.070512 0.259144 0.046220
0.085039 0.241733 0.045487
0.133181 0.246387 0.042115
0.175113 0.256687 0.041444
0.275914 0.258228 0.046891
0.436118 0.252354 0.042786
0.567742 0.219745 0.028580
0.630610 0.181308 0.017014
0.660838 0.153353 0.010361
0.687770 0.128191 0.006119
0.725872 0.105394 0.005249
0.756207 0.080598 0.005280
0.762325 0.049332 0.005539
0.784131 0.028687 0.005859
0.819501 0.031540 0.005814
0.881346 0.071427 0.005127
0.139178 0.318929 0.040635
0.129290 0.324575 0.040208
0.126818 0.316289 0.042832
0.168292 0.319493 0.042054
0.199695 0.331365 0.040070
0.237980 0.334295 0.044190
0.356115 0.331579 0.051438
0.518395 0.309667 0.044694
0.649424 0.266377 0.029572
0.720897 0.216312 0.015412
0.746563 0.172641 0.006790
0.774838 0.150286 0.005112
0.811475 0.134051 0.004990
0.824842 0.104112 0.005051
0.829892 0.073869 0.005203
0.855848 0.070314 0.005219
0.915190 0.107469 0.004868
0.234073 0.403708 0.039506
0.217823 0.401831 0.039002
0.204318 0.394720 0.042267
0.231830 0.400885 0.045686
0.259525 0.415671 0.040406
0.274250 0.415427 0.041154
0.319097 0.406744 0.050004
0.453010 0.401282 0.057801
0.611383 0.374304 0.053208
0.746441 0.327993 0.038834
0.829480 0.264317 0.018875
0.862760 0.224674 0.009033
0.895644 0.210376 0.006897
0.903487 0.178988 0.005631
0.902724 0.141878 0.005035
0.911070 0.128634 0.004883
0.933791 0.152270 0.004746
0.346303 0.490822 0.039094
0.331579 0.484581 0.038773
0.311849 0.478157 0.040421
0.320531 0.483345 0.045075
0.343908 0.498619 0.043549
0.338613 0.498726 0.040818
0.346502 0.484718 0.048600
0.401129 0.471519 0.060853
0.560922 0.469413 0.068330
0.716243 0.439597 0.067201
0.841749 0.401572 0.055070
0.926299 0.349981 0.036378
0.950408 0.315068 0.022614
0.955428 0.276219 0.013458
0.951919 0.228275 0.007599
0.948577 0.201465 0.005905
0.954971 0.211795 0.005631
0.447913 0.578729 0.038285
0.445121 0.580148 0.038102
0.436301 0.570748 0.038361
0.434318 0.564446 0.041260
0.436530 0.571344 0.043397
0.417105 0.570459 0.044114
0.393698 0.557290 0.050660
0.425345 0.545449 0.062760
0.508797 0.541360 0.073747
0.690303 0.535302 0.080797
0.834211 0.513054 0.081407
0.920256 0.484092 0.075593
0.962310 0.438361 0.061097
0.979187 0.385687 0.041840
0.978790 0.325246 0.022522
0.977676 0.283833 0.012741
0.984207 0.286107 0.011810
0.567163 0.690242 0.038437
0.551568 0.708736 0.043702
0.564752 0.696452 0.035828
0.562234 0.681605 0.037064
0.549264 0.672145 0.039963
0.510140 0.662287 0.044831
0.466438 0.646983 0.052430
0.481773 0.637064 0.064790
0.563973 0.637049 0.078172
0.677180 0.636896 0.087388
0.834607 0.625681 0.094545
0.921279 0.605234 0.098146
0.961715 0.567086 0.095247
0.978317 0.510155 0.083070
0.988342 0.442084 0.060136
0.991180 0.381415 0.038849
0.993027 0.369604 0.034730
0.729824 0.808682 0.043565
0.639338 0.831464 0.075257
0.702556 0.816693 0.039185
0.699031 0.809003 0.037537
0.688594 0.792935 0.036728
0.647089 0.773892 0.040146
0.580240 0.751797 0.048966
0.561318 0.732525 0.064103
0.628382 0.724743 0.080797
0.729458 0.725048 0.093431
0.837842 0.723308 0.104463
0.931228 0.719387 0.118212
0.967315 0.696559 0.123583
0.984710 0.645670 0.117693
0.989242 0.590036 0.106111
0.991653 0.527138 0.089677
0.994125 0.497520 0.080369
0.862989 0.880095 0.054948
0.783108 0.892882 0.081331
0.833310 0.882399 0.049348
0.821851 0.885420 0.045563
0.800626 0.878355 0.042771
0.769955 0.861860 0.038941
0.701457 0.834119 0.047868
0.650935 0.807538 0.063462
0.676738 0.788922 0.081651
0.752178 0.782620 0.096239
0.850813 0.787671 0.110857
0.925185 0.799634 0.128542
0.975494 0.809125 0.150683
0.987610 0.775158 0.151781
0.989410 0.721950 0.141268
0.992950 0.677394 0.133394
0.994598 0.655482 0.130602
0.916579 0.909682 0.073732
0.908583 0.913359 0.074876
0.908049 0.906233 0.071931
0.900252 0.910277 0.061936
0.880110 0.908110 0.053803
0.857374 0.892164 0.053162
0.799191 0.877028 0.061418
0.734005 0.862760 0.071901
0.709850 0.844160 0.083803
0.747265 0.834531 0.096300
0.829023 0.837781 0.111742
0.901289 0.848997 0.128466
0.951904 0.857877 0.148653
0.985382 0.858595 0.167849
0.988022 0.819486 0.163149
0.991257 0.785748 0.160861
0.994751 0.766445 0.162997
0.945205 0.929671 0.094469
0.944762 0.928618 0.096101
0.943572 0.926040 0.097932
0.941085 0.925185 0.094148
0.931945 0.922911 0.084001
0.912703 0.914458 0.086305
0.885557 0.905165 0.091829
0.846189 0.894942 0.094957
0.786847 0.886198 0.096040
0.767651 0.879469 0.100862
0.809918 0.876707 0.112078
0.873365 0.877714 0.126192
0.922911 0.877531 0.141390
0.955764 0.874662 0.155123
0.983978 0.864836 0.166949
0.990005 0.855436 0.176974
0.994537 0.849699 0.187839
0.964797 0.944060 0.112688
0.964279 0.943496 0.114595
0.964141 0.943069 0.116533
0.963806 0.942550 0.117952
0.961196 0.941176 0.117128
0.954986 0.938689 0.118013
0.942901 0.935531 0.120333
0.918654 0.930159 0.120943
0.878462 0.921294 0.117784
0.840162 0.913344 0.115084
0.843336 0.908339 0.120562
0.876738 0.905272 0.132601
0.916945 0.902144 0.146365
0.949660 0.896880 0.159075
0.976944 0.893843 0.172747
0.989548 0.891203 0.190890
0.994537 0.890684 0.207202
0.982879 0.954971 0.132250
0.982406 0.954452 0.132357
0.982269 0.954360 0.132708
0.982544 0.954498 0.133333
0.982864 0.954589 0.134173
0.981613 0.954131 0.134859
0.974212 0.952255 0.136477
0.958267 0.949157 0.137667
0.935882 0.944686 0.134707
0.898024 0.939834 0.129412
0.882780 0.935851 0.131655
0.900618 0.932662 0.143648
0.933532 0.929839 0.158434
0.958038 0.926299 0.174060
0.983230 0.924056 0.190982
0.989670 0.922087 0.206607
0.994507 0.921798 0.224704
0.019745 0.022034 0.151949
0.034516 0.020844 0.164797
0.081361 0.019364 0.174228
0.153857 0.017090 0.180713
0.201709 0.015137 0.192309
0.224292 0.013657 0.194141
0.236530 0.013214 0.180896
0.249683 0.013092 0.149187
0.269535 0.013367 0.112810
0.284428 0.014115 0.074281
0.290059 0.015259 0.040620
0.298466 0.015900 0.021927
0.326833 0.015717 0.014847
