tools/luts_backup/Kodak Vision3 250D 5207 (NEG)_FPE.cube
# (C) 2014 VisionColor & Patchflyer [www.vision-color.com]
# Generator: VC Patchmatch v.2.1.1 [64/53]
# All work and no play makes Jack a dull boy.
# LUT generated from: Kodak Vision3 250D 5207 (NEG)_FPE
LUT_3D_SIZE 17
0.032898 0.036500 0.036622
0.052247 0.037659 0.033738
0.089662 0.042969 0.034623
0.123186 0.047242 0.036057
0.135988 0.047837 0.036408
0.142733 0.047257 0.036347
0.153597 0.046860 0.036149
0.167224 0.046143 0.035813
0.182025 0.045350 0.035737
0.192782 0.044999 0.035966
0.193484 0.044984 0.035981
0.198825 0.044724 0.036088
0.257694 0.042267 0.038224
0.343008 0.043366 0.042390
0.375265 0.044617 0.044038
0.390204 0.045258 0.044846
0.403357 0.046006 0.045686
0.033951 0.041444 0.038102
0.048020 0.043595 0.035355
0.091783 0.049226 0.034546
0.153735 0.058183 0.035279
0.204440 0.062409 0.036072
0.215763 0.056596 0.036576
0.209842 0.049638 0.036271
0.203540 0.046265 0.036103
0.203800 0.044907 0.036149
0.215045 0.044053 0.036530
0.230289 0.043503 0.037156
0.248127 0.042542 0.037842
0.286778 0.041733 0.039429
0.344747 0.043442 0.042481
0.375631 0.044648 0.044068
0.392309 0.045380 0.044999
0.405966 0.046159 0.045853
0.031968 0.054597 0.039460
0.048310 0.061936 0.039246
0.093599 0.074495 0.038346
0.149081 0.077470 0.036820
0.202945 0.081407 0.036942
0.254459 0.081788 0.037613
0.284276 0.070909 0.038285
0.276173 0.054490 0.038239
0.253956 0.046769 0.037644
0.245533 0.043900 0.037613
0.254643 0.042466 0.038117
0.272816 0.042054 0.038819
0.297185 0.041962 0.039918
0.336187 0.043091 0.041993
0.375204 0.044648 0.044114
0.394430 0.045502 0.045121
0.407568 0.046250 0.045945
0.035370 0.089403 0.044236
0.047333 0.095720 0.043549
0.072297 0.111833 0.043565
0.147616 0.125063 0.042710
0.211460 0.123796 0.040467
0.277897 0.126467 0.041245
0.333532 0.119356 0.041871
0.344717 0.094240 0.040833
0.332830 0.067170 0.040009
0.314153 0.050919 0.039948
0.305608 0.044877 0.040192
0.312078 0.042939 0.040650
0.329763 0.042939 0.041627
0.374823 0.044617 0.044205
0.437415 0.047257 0.047257
0.422385 0.046815 0.046754
0.409415 0.046342 0.046052
0.047303 0.134432 0.049866
0.058808 0.139254 0.048066
0.077424 0.153231 0.049561
0.108568 0.168276 0.050752
0.217350 0.182956 0.052018
0.306828 0.187320 0.047303
0.375433 0.181292 0.045106
0.417762 0.161288 0.046113
0.432074 0.130526 0.045884
0.420569 0.091768 0.044785
0.401053 0.061570 0.043885
0.382712 0.047944 0.043992
0.381460 0.045579 0.044450
0.418402 0.046448 0.046372
0.506706 0.051957 0.050614
0.485267 0.049943 0.049760
0.416999 0.046601 0.046387
0.096025 0.190585 0.060945
0.101122 0.192355 0.058961
0.121309 0.207370 0.059586
0.129809 0.218677 0.060975
0.155489 0.224582 0.061616
0.278294 0.243595 0.061845
0.389731 0.246479 0.054002
0.453208 0.228870 0.049607
0.503670 0.206806 0.050706
0.525414 0.171008 0.050950
0.508003 0.119951 0.050736
0.482139 0.074144 0.048371
0.455161 0.052888 0.047532
0.447547 0.047913 0.047745
0.488273 0.050385 0.049866
0.512535 0.052140 0.051072
0.453712 0.048112 0.048096
0.199084 0.265095 0.069490
0.193713 0.261265 0.067857
0.203479 0.268849 0.068269
0.199496 0.274952 0.068132
0.178515 0.273167 0.066743
0.186526 0.274388 0.064302
0.335027 0.305669 0.066438
0.470710 0.304494 0.058915
0.554177 0.286397 0.056809
0.613153 0.259571 0.058686
0.617838 0.207309 0.056443
0.580056 0.140642 0.054276
0.534646 0.081331 0.051179
0.474022 0.050584 0.048844
0.446845 0.047654 0.047639
0.522637 0.053285 0.051392
0.546075 0.058412 0.052491
0.336324 0.346593 0.073014
0.328161 0.342275 0.073106
0.327260 0.344717 0.074022
0.314397 0.347616 0.074174
0.280491 0.343175 0.072587
0.248615 0.336278 0.069474
0.300511 0.349401 0.067369
0.472984 0.384085 0.073457
0.600061 0.372519 0.069978
0.685695 0.349798 0.071275
0.715618 0.302998 0.068589
0.684047 0.229526 0.060960
0.618143 0.144289 0.056016
0.515419 0.060624 0.050095
0.420859 0.046677 0.046616
0.526665 0.055879 0.051347
0.668559 0.142107 0.058671
0.466773 0.422263 0.073182
0.465156 0.420691 0.074678
0.462272 0.422217 0.075395
0.447303 0.424277 0.076402
0.413108 0.420539 0.074693
0.366491 0.409033 0.072282
0.374762 0.410788 0.070848
0.465110 0.431235 0.073915
0.631464 0.450980 0.085679
0.742702 0.433814 0.088655
0.792920 0.398520 0.086656
0.785153 0.331136 0.076860
0.722972 0.240848 0.064317
0.641535 0.146944 0.057160
0.524804 0.063630 0.050538
0.592309 0.090791 0.054749
0.777356 0.253132 0.069078
0.597299 0.500435 0.086229
0.595987 0.499443 0.084932
0.597147 0.502876 0.084199
0.593927 0.507164 0.086717
0.562951 0.504158 0.085939
0.506264 0.488914 0.081621
0.464210 0.471214 0.078264
0.504952 0.477638 0.080491
0.616938 0.502281 0.093294
0.767895 0.495125 0.103441
0.852415 0.485145 0.109819
0.874205 0.451469 0.104356
0.846403 0.374350 0.089036
0.807050 0.308339 0.076356
0.784878 0.274708 0.071443
0.790051 0.270619 0.071473
0.867948 0.355413 0.088472
0.758144 0.589258 0.117433
0.744106 0.583062 0.112291
0.728527 0.581918 0.108965
0.744213 0.586999 0.112047
0.725155 0.585306 0.110765
0.663157 0.570092 0.103502
0.583398 0.542000 0.093736
0.554528 0.522347 0.089448
0.607736 0.530663 0.095659
0.737911 0.558999 0.114900
0.847288 0.521691 0.117144
0.921187 0.554009 0.133928
0.926452 0.533837 0.129458
0.900755 0.463294 0.110140
0.905135 0.451987 0.108782
0.909468 0.449516 0.109316
0.911681 0.438331 0.107286
0.883558 0.660533 0.147402
0.871412 0.652628 0.142840
0.851759 0.645335 0.137804
0.851804 0.643778 0.137667
0.834669 0.639445 0.134951
0.789624 0.627237 0.127977
0.714748 0.604562 0.116762
0.643427 0.579034 0.105303
0.642313 0.570520 0.104921
0.713176 0.584741 0.115938
0.817578 0.602487 0.131319
0.887312 0.575631 0.133989
0.936370 0.612634 0.152209
0.940597 0.590417 0.147356
0.941985 0.562020 0.140185
0.942000 0.549264 0.137804
0.938628 0.524529 0.131258
0.929717 0.701473 0.164004
0.925917 0.697627 0.162371
0.920729 0.692287 0.159655
0.913481 0.687190 0.157382
0.899413 0.680674 0.154025
0.876890 0.670878 0.149233
0.828183 0.654887 0.140520
0.765591 0.634424 0.129030
0.730831 0.621530 0.123217
0.763897 0.626413 0.128573
0.832166 0.642100 0.140978
0.886595 0.646769 0.149065
0.919371 0.638407 0.154345
0.941375 0.642054 0.161929
0.949386 0.630365 0.163165
0.950134 0.618387 0.162509
0.950881 0.601465 0.158114
0.942397 0.727352 0.173663
0.941649 0.725597 0.173022
0.940520 0.723262 0.172122
0.938659 0.720195 0.170901
0.934722 0.717311 0.169299
0.928069 0.712123 0.166476
0.904555 0.701427 0.160769
0.874464 0.686976 0.152590
0.834470 0.672770 0.144823
0.840375 0.672114 0.146624
0.881590 0.683101 0.156939
0.914549 0.691005 0.166079
0.930495 0.685985 0.168597
0.942718 0.682918 0.175296
0.952667 0.679393 0.182208
0.953674 0.671717 0.184176
0.954192 0.661509 0.183017
0.950011 0.749615 0.182559
0.949813 0.748623 0.182177
0.949615 0.747616 0.181781
0.949248 0.746120 0.181231
0.948333 0.744244 0.180606
0.944518 0.742626 0.179675
0.938109 0.737957 0.176822
0.926772 0.727687 0.171328
0.901473 0.715358 0.164019
0.895857 0.711666 0.163668
0.913832 0.718456 0.171511
0.931731 0.726604 0.180804
0.943877 0.724407 0.186419
0.950561 0.722499 0.191363
0.955413 0.721004 0.201846
0.957015 0.718029 0.210971
0.957610 0.710933 0.213550
0.953826 0.767071 0.190524
0.953582 0.766049 0.190021
0.953429 0.765316 0.189639
0.953338 0.764889 0.189425
0.953109 0.764462 0.189212
0.951919 0.763790 0.188952
0.949401 0.763241 0.188357
0.944244 0.758434 0.185000
0.934386 0.748241 0.179324
0.929198 0.743481 0.177569
0.933104 0.748287 0.184924
0.942367 0.757443 0.197635
0.949599 0.756985 0.203906
0.955398 0.756664 0.214679
0.957443 0.757351 0.226993
0.958511 0.755352 0.238483
0.959472 0.750774 0.242908
0.956359 0.780743 0.198199
0.956329 0.780224 0.197864
0.956237 0.779187 0.197040
0.956176 0.778225 0.196445
0.956161 0.777981 0.196353
0.955840 0.778210 0.196719
0.954421 0.778729 0.197391
0.951446 0.778271 0.196750
0.946990 0.772091 0.192538
0.940612 0.767010 0.190158
0.943282 0.772107 0.199054
0.949523 0.781338 0.212772
0.954971 0.783078 0.227878
0.958450 0.784512 0.242191
0.959930 0.785916 0.258610
0.960906 0.785657 0.269352
0.961456 0.782345 0.274495
0.029709 0.035843 0.045533
0.043305 0.038300 0.045090
0.082734 0.042283 0.042359
0.119615 0.045945 0.041062
0.134585 0.046906 0.040330
0.137957 0.046738 0.039231
0.140795 0.046754 0.037583
0.151827 0.046738 0.036423
0.165835 0.046189 0.035874
0.179644 0.045441 0.035691
0.191714 0.045029 0.035950
0.209125 0.044251 0.036316
0.255283 0.042313 0.038132
0.328069 0.042756 0.041550
0.368353 0.044266 0.043656
0.388205 0.045151 0.044694
0.404517 0.046067 0.045762
0.029587 0.040742 0.047150
0.036347 0.044572 0.045914
0.087617 0.048356 0.038025
0.164935 0.058259 0.037598
0.210208 0.059586 0.037705
0.217334 0.053712 0.037598
0.207279 0.049805 0.036912
0.189899 0.047440 0.036255
0.183841 0.046036 0.035874
0.195514 0.045075 0.036042
0.218265 0.043915 0.036667
0.239750 0.043046 0.037507
0.263264 0.042206 0.038453
0.308629 0.042283 0.040497
0.360754 0.043870 0.043259
0.391913 0.045350 0.044968
0.408072 0.046281 0.045991
0.029053 0.055634 0.049256
0.032319 0.053742 0.042374
0.085191 0.070176 0.041169
0.173953 0.078935 0.037659
0.272953 0.090532 0.038819
0.361212 0.092027 0.041871
0.375814 0.073106 0.042588
0.329870 0.059068 0.040589
0.288411 0.051057 0.038972
0.269688 0.046754 0.038422
0.268788 0.043183 0.038636
0.283253 0.041901 0.039246
0.303243 0.042130 0.040223
0.332937 0.042954 0.041810
0.371542 0.044450 0.043885
0.415167 0.046586 0.046510
0.422141 0.046799 0.046708
0.030014 0.088960 0.052491
0.034974 0.083391 0.045853
0.070848 0.102739 0.044999
0.169406 0.124941 0.042267
0.267628 0.136629 0.041550
0.372534 0.148867 0.044709
0.431006 0.132525 0.045823
0.424643 0.101900 0.045029
0.400595 0.080140 0.043473
0.375372 0.064714 0.042329
0.342016 0.048951 0.041505
0.328740 0.043900 0.041474
0.334737 0.043122 0.041901
0.351629 0.043671 0.042847
0.380102 0.044923 0.044465
0.413825 0.046555 0.046479
0.423590 0.046845 0.046769
0.041810 0.140154 0.054780
0.045106 0.135576 0.051041
0.074205 0.147906 0.048707
0.128939 0.173602 0.048722
0.252918 0.201785 0.050980
0.379690 0.219974 0.049638
0.465614 0.204852 0.049653
0.478477 0.168734 0.048722
0.472114 0.140444 0.048005
0.462333 0.114199 0.047471
0.438071 0.076661 0.045762
0.407828 0.051667 0.045045
0.390112 0.045975 0.044923
0.387884 0.045274 0.045029
0.420706 0.046677 0.046616
0.479194 0.049866 0.049485
0.472007 0.048936 0.048859
0.087297 0.198657 0.058747
0.077089 0.191058 0.057008
0.102586 0.203296 0.054292
0.147051 0.225849 0.054582
0.196719 0.243580 0.058274
0.328206 0.273915 0.061570
0.461982 0.277317 0.055680
0.520745 0.241840 0.053483
0.539467 0.206836 0.052430
0.542077 0.179599 0.051698
0.529900 0.138628 0.051698
0.505714 0.088594 0.050034
0.477440 0.057084 0.048264
0.456336 0.049638 0.048066
0.472770 0.049592 0.049073
0.555611 0.066316 0.052842
0.560357 0.064927 0.053269
0.193545 0.275380 0.060380
0.164309 0.259800 0.061433
0.181689 0.270375 0.056519
0.217395 0.287007 0.056489
0.228824 0.293416 0.059815
0.272786 0.307210 0.064302
0.397452 0.331197 0.070787
0.521187 0.324926 0.062531
0.588388 0.290791 0.059541
0.622522 0.258656 0.059220
0.627298 0.217929 0.057267
0.607919 0.167514 0.055482
0.577249 0.115007 0.054002
0.543725 0.074479 0.051682
0.530709 0.060197 0.051209
0.583337 0.082429 0.054444
0.627222 0.107301 0.056703
0.344152 0.360113 0.062623
0.313924 0.347265 0.063554
0.312398 0.349035 0.058610
0.326619 0.357137 0.056703
0.306889 0.353033 0.062379
0.308431 0.356832 0.066896
0.366369 0.373144 0.070787
0.497673 0.396277 0.077623
0.609598 0.383505 0.072999
0.687205 0.357351 0.072480
0.723857 0.320974 0.071046
0.719661 0.270420 0.065431
0.683177 0.210651 0.060410
0.636255 0.147921 0.056916
0.593194 0.097505 0.054871
0.615946 0.109758 0.056046
0.686244 0.164920 0.059556
0.483787 0.434867 0.071992
0.469306 0.429114 0.070405
0.458747 0.425544 0.069764
0.451850 0.427100 0.069154
0.423407 0.422904 0.070359
0.384756 0.414694 0.070466
0.406378 0.422492 0.072313
0.487541 0.440955 0.077165
0.630838 0.459373 0.088167
0.733272 0.444175 0.090227
0.790433 0.417914 0.090074
0.809216 0.376425 0.085130
0.791104 0.318563 0.075898
0.735912 0.243320 0.065446
0.669245 0.166934 0.058640
0.682353 0.172122 0.059525
0.774594 0.255650 0.068925
0.615839 0.510964 0.089265
0.611933 0.509758 0.086305
0.606317 0.507042 0.086198
0.592630 0.504341 0.086305
0.559335 0.498482 0.084840
0.510414 0.487160 0.080888
0.485695 0.480537 0.080018
0.540963 0.493675 0.085832
0.645457 0.516609 0.099199
0.772885 0.518837 0.109545
0.841154 0.500053 0.112032
0.865171 0.466255 0.106630
0.864927 0.414481 0.096971
0.839353 0.352361 0.085252
0.790982 0.285130 0.072679
0.800473 0.287785 0.073777
0.870100 0.360174 0.089433
0.765957 0.593622 0.118196
0.755840 0.590112 0.114122
0.751583 0.591714 0.113832
0.748425 0.590204 0.113237
0.721828 0.581537 0.109102
0.658778 0.565133 0.101518
0.598871 0.547158 0.094987
0.607401 0.544579 0.097444
0.679438 0.557977 0.108385
0.787884 0.579889 0.124224
0.872816 0.573114 0.132036
0.912779 0.556725 0.133318
0.918273 0.514855 0.123796
0.901900 0.458503 0.109606
0.888518 0.414481 0.100114
0.895613 0.414862 0.100999
0.913756 0.447272 0.109545
0.886397 0.661311 0.146792
0.876814 0.655177 0.143374
0.867262 0.657908 0.142016
0.863523 0.660487 0.141787
0.862181 0.652766 0.140368
0.812070 0.636088 0.130541
0.730404 0.611399 0.117189
0.685405 0.593896 0.112108
0.708263 0.591531 0.116136
0.782101 0.606210 0.128237
0.873640 0.623148 0.142565
0.923888 0.624063 0.152987
0.943236 0.606928 0.153033
0.943145 0.566339 0.141695
0.937942 0.541787 0.133654
0.937163 0.530739 0.131624
0.940932 0.536873 0.135088
0.931014 0.701717 0.163867
0.928450 0.698238 0.162097
0.927321 0.697734 0.160769
0.923796 0.699199 0.159808
0.919478 0.691371 0.157641
0.896895 0.679530 0.151369
0.843961 0.661952 0.141115
0.780423 0.640848 0.130724
0.758724 0.629801 0.127718
0.793362 0.633631 0.133867
0.865049 0.652369 0.147601
0.915358 0.660960 0.158145
0.937484 0.663661 0.167269
0.949767 0.641352 0.165621
0.949416 0.626215 0.162280
0.949966 0.619944 0.162463
0.950988 0.611017 0.161639
0.942428 0.726497 0.173266
0.941756 0.725032 0.172732
0.941802 0.723705 0.171984
0.941756 0.722316 0.170901
0.938186 0.718547 0.169299
0.931243 0.712322 0.166125
0.907500 0.701900 0.160296
0.877729 0.687984 0.152697
0.836378 0.673198 0.144945
0.838865 0.671061 0.145861
0.878935 0.681590 0.155810
0.913176 0.692393 0.166155
0.931243 0.689906 0.169726
0.943862 0.688502 0.177188
0.952407 0.679271 0.181018
0.953353 0.673732 0.183642
0.954147 0.665614 0.184039
0.949676 0.747768 0.181781
0.949599 0.747417 0.181674
0.949447 0.746761 0.181399
0.949142 0.745098 0.180652
0.948211 0.742977 0.179965
0.944289 0.741192 0.179004
0.938109 0.736828 0.176425
0.928359 0.727123 0.171344
0.901534 0.713985 0.163531
0.889967 0.707622 0.160952
0.903761 0.712413 0.167178
0.927245 0.721920 0.176883
0.938460 0.721798 0.182315
0.947768 0.718975 0.187182
0.954391 0.718090 0.194369
0.956374 0.715740 0.205615
0.957382 0.711589 0.211917
0.953414 0.765118 0.189548
0.953277 0.764736 0.189319
0.953246 0.764523 0.189212
0.953231 0.764355 0.189151
0.953002 0.763775 0.188876
0.951904 0.762783 0.188449
0.949538 0.761944 0.187778
0.944884 0.757610 0.184878
0.934997 0.747021 0.179019
0.925475 0.738811 0.174868
0.928405 0.740230 0.178454
0.935912 0.748119 0.189120
0.946090 0.751263 0.198123
0.951263 0.749630 0.202869
0.956344 0.750103 0.214603
0.957565 0.750027 0.228412
0.958907 0.748486 0.237995
0.956222 0.778912 0.196918
0.956176 0.778485 0.196551
0.956161 0.777813 0.196246
0.956146 0.777676 0.196170
0.956161 0.777890 0.196307
0.956024 0.777966 0.196414
0.954772 0.778042 0.196811
0.951980 0.777523 0.196353
0.948257 0.772000 0.192401
0.939773 0.763394 0.186831
0.938415 0.763363 0.190127
0.944457 0.771099 0.201694
0.950393 0.776104 0.212909
0.955840 0.776699 0.226398
0.958389 0.777768 0.238941
0.959701 0.778790 0.254368
0.960784 0.779004 0.267369
0.028870 0.035492 0.062318
0.032761 0.036347 0.063981
0.075959 0.043275 0.077806
0.125475 0.045594 0.081209
0.148913 0.045670 0.080735
0.156985 0.045563 0.075532
0.156054 0.045792 0.059922
0.152712 0.046067 0.045212
0.158618 0.046418 0.039078
0.167132 0.046021 0.036744
0.178592 0.045457 0.035782
0.194797 0.044938 0.036027
0.222309 0.043748 0.036820
0.273884 0.042054 0.038865
0.341833 0.043320 0.042313
0.375738 0.044648 0.044068
0.396201 0.045594 0.045243
0.028580 0.041230 0.067048
0.029313 0.041413 0.067781
0.069795 0.049470 0.071183
0.145281 0.055863 0.063508
0.192782 0.056535 0.058579
0.206317 0.053056 0.054719
0.196246 0.049851 0.045655
0.176761 0.047883 0.039796
0.166857 0.046815 0.037751
0.174136 0.045808 0.036210
0.194797 0.044968 0.036057
0.223102 0.043732 0.036866
0.251408 0.042420 0.037995
0.288304 0.041749 0.039506
0.339651 0.043229 0.042191
0.375982 0.044663 0.044083
0.399878 0.045808 0.045472
0.028595 0.056123 0.078141
0.028824 0.059251 0.080919
0.054002 0.066743 0.070909
0.138064 0.073777 0.057252
0.233616 0.082338 0.047059
0.302998 0.081270 0.043839
0.331136 0.071412 0.042725
0.318486 0.062730 0.041047
0.284596 0.056718 0.039292
0.265034 0.051392 0.038193
0.262226 0.045930 0.038148
0.269062 0.042618 0.038666
0.286381 0.041718 0.039414
0.310323 0.042329 0.040589
0.343587 0.043381 0.042405
0.390051 0.045258 0.044862
0.417166 0.046632 0.046418
0.029755 0.093294 0.089708
0.029572 0.089815 0.082216
0.044282 0.091951 0.070344
0.144747 0.119493 0.062303
0.242725 0.125765 0.050568
0.342260 0.132876 0.047135
0.426581 0.123339 0.046220
0.454963 0.101106 0.046983
0.432654 0.084688 0.045487
0.408392 0.073716 0.043885
0.384985 0.059007 0.043061
0.359411 0.046464 0.042878
0.346014 0.043824 0.042496
0.348074 0.043610 0.042664
0.366476 0.044190 0.043656
0.448127 0.047578 0.047562
0.527428 0.054353 0.051606
0.032776 0.140169 0.087633
0.032624 0.133440 0.079957
0.054688 0.136584 0.071534
0.134203 0.170092 0.063996
0.253269 0.197711 0.059236
0.372793 0.209445 0.052964
0.474067 0.201358 0.050919
0.508690 0.166827 0.049928
0.511330 0.135485 0.050202
0.505425 0.110796 0.050401
0.490043 0.087877 0.049104
0.461265 0.060410 0.047181
0.424491 0.048264 0.046479
0.395529 0.045548 0.045365
0.391333 0.045380 0.045136
0.429755 0.047028 0.046983
0.502586 0.051484 0.050492
0.064393 0.200381 0.073014
0.058137 0.196201 0.071305
0.078065 0.196612 0.069917
0.156069 0.226642 0.063416
0.224384 0.252384 0.060014
0.361517 0.283040 0.060288
0.498482 0.286580 0.055543
0.565072 0.250446 0.055955
0.575448 0.204120 0.053880
0.568429 0.165316 0.053407
0.555200 0.129564 0.053223
0.542580 0.098146 0.052171
0.521508 0.070573 0.050294
0.479332 0.051881 0.048951
0.450278 0.047654 0.047608
0.467063 0.048829 0.048661
0.547433 0.061051 0.052430
0.166064 0.277974 0.059892
0.148562 0.276158 0.060227
0.143130 0.269627 0.063203
0.216358 0.293278 0.059648
0.271122 0.315557 0.056443
0.327520 0.330785 0.057862
0.468086 0.356710 0.065507
0.587777 0.344747 0.063706
0.642069 0.301183 0.063584
0.643626 0.241352 0.059297
0.619501 0.184009 0.056077
0.606332 0.152636 0.055421
0.600229 0.128832 0.055131
0.571694 0.091691 0.053529
0.535927 0.063188 0.051469
0.538903 0.060517 0.051804
0.605020 0.093202 0.055650
0.332662 0.374533 0.054536
0.305211 0.366461 0.054047
0.279149 0.356344 0.056153
0.324773 0.371878 0.058076
0.372000 0.390692 0.056519
0.391638 0.394888 0.057481
0.443107 0.401938 0.064027
0.574365 0.420401 0.075959
0.678004 0.405509 0.077073
0.723964 0.360357 0.075715
0.719753 0.291447 0.067704
0.702815 0.241276 0.062745
0.697673 0.220829 0.061601
0.672480 0.182284 0.059174
0.637354 0.135424 0.056962
0.627253 0.118364 0.056565
0.665156 0.145876 0.058473
0.496727 0.457893 0.067323
0.477272 0.450340 0.065232
0.450965 0.441932 0.063157
0.459785 0.447089 0.065217
0.492271 0.461402 0.068315
0.487495 0.460090 0.067323
0.489754 0.454673 0.068910
0.542641 0.460121 0.079362
0.680476 0.477607 0.092729
0.762264 0.458091 0.094697
0.799863 0.421668 0.091493
0.810849 0.374319 0.085069
0.808576 0.338247 0.080186
0.786328 0.294697 0.073136
0.742489 0.237629 0.065675
0.716945 0.204578 0.062516
0.731838 0.215549 0.063966
0.626169 0.526757 0.087098
0.623652 0.526802 0.086763
0.612604 0.520653 0.084794
0.607630 0.517388 0.084215
0.609827 0.521004 0.085176
0.587823 0.516167 0.082628
0.556298 0.505776 0.080201
0.581720 0.507866 0.086732
0.661723 0.523262 0.102251
0.785657 0.529839 0.113909
0.845548 0.511864 0.115419
0.869902 0.483314 0.110979
0.877317 0.442878 0.103105
0.868177 0.398550 0.095125
0.841276 0.343404 0.084092
0.808057 0.297566 0.075120
0.814588 0.298283 0.075746
0.752880 0.594476 0.114336
0.740108 0.599512 0.113832
0.752590 0.595926 0.114382
0.748302 0.590234 0.112932
0.735500 0.584970 0.110384
0.697063 0.574731 0.103731
0.647135 0.561502 0.096757
0.655085 0.562264 0.100847
0.727031 0.579355 0.116411
0.808896 0.593393 0.130236
0.876799 0.588129 0.136263
0.908293 0.570748 0.136202
0.919707 0.540032 0.130373
0.915343 0.494194 0.118959
0.901045 0.439033 0.105669
0.884413 0.391882 0.095872
0.883635 0.381186 0.093950
0.883330 0.661723 0.145281
0.813138 0.662791 0.137057
0.866728 0.659602 0.141909
0.863737 0.656168 0.140856
0.855192 0.649241 0.138415
0.824918 0.637995 0.131899
0.766598 0.621118 0.121492
0.742184 0.613108 0.118181
0.790814 0.624521 0.130129
0.861219 0.642802 0.145480
0.900832 0.643961 0.152728
0.926253 0.641413 0.158541
0.939696 0.623499 0.156939
0.945006 0.589181 0.148714
0.940383 0.548928 0.136507
0.931380 0.502419 0.123796
0.923003 0.477180 0.117235
0.937865 0.704799 0.164065
0.906981 0.709667 0.159213
0.928847 0.701122 0.160998
0.925032 0.700206 0.159915
0.917327 0.693935 0.157076
0.905715 0.682399 0.152529
0.866804 0.667338 0.143450
0.823468 0.654169 0.135836
0.834089 0.655543 0.139757
0.880171 0.667918 0.151965
0.915465 0.677913 0.163104
0.935485 0.684001 0.170840
0.948943 0.689723 0.181827
0.952056 0.667811 0.178058
0.950622 0.634913 0.166598
0.949371 0.605035 0.157153
0.950149 0.590280 0.152987
0.947051 0.729168 0.173159
0.945632 0.731258 0.173007
0.945449 0.726757 0.172076
0.944640 0.725017 0.171023
0.941711 0.719341 0.168185
0.937758 0.709255 0.164385
0.915312 0.698390 0.157931
0.886839 0.687190 0.150912
0.863310 0.680018 0.147967
0.882002 0.685054 0.153964
0.914092 0.700664 0.167773
0.935424 0.709499 0.176577
0.948089 0.717006 0.187472
0.954604 0.718944 0.195895
0.953750 0.693706 0.188281
0.953262 0.672663 0.183047
0.953872 0.659876 0.181308
0.950988 0.746807 0.179919
0.950744 0.746746 0.179950
0.950332 0.745861 0.179767
0.950240 0.744244 0.178973
0.949493 0.739940 0.176761
0.945281 0.735821 0.174731
0.939422 0.730266 0.171740
0.928954 0.721996 0.167086
0.903181 0.710842 0.160876
0.893355 0.706752 0.159838
0.909010 0.714290 0.167803
0.930251 0.727138 0.179294
0.942519 0.730800 0.187869
0.949401 0.730068 0.193378
0.954635 0.723491 0.196307
0.955856 0.715221 0.201907
0.957015 0.710719 0.209277
0.953384 0.762676 0.187411
0.953292 0.762905 0.187701
0.953262 0.763226 0.188052
0.953201 0.763317 0.188251
0.952804 0.762051 0.187579
0.951797 0.760708 0.186862
0.949569 0.759762 0.186297
0.944945 0.755688 0.183810
0.935775 0.745693 0.178332
0.924086 0.736355 0.173404
0.924025 0.736156 0.175296
0.932464 0.742947 0.184039
0.942000 0.749096 0.194446
0.949050 0.747158 0.199588
0.954452 0.745998 0.206653
0.956802 0.746227 0.219303
0.958251 0.746181 0.231861
0.956161 0.777173 0.195636
0.956085 0.776822 0.195514
0.956069 0.776867 0.195575
0.956100 0.777188 0.195773
0.956161 0.777523 0.196002
0.955962 0.777462 0.195987
0.954696 0.777035 0.195956
0.952010 0.776043 0.195407
0.948562 0.771130 0.191791
0.939834 0.761471 0.185473
0.935683 0.757946 0.184741
0.939712 0.763073 0.193774
0.947295 0.770794 0.205371
0.952102 0.770748 0.214725
0.957336 0.771252 0.226932
0.958358 0.771908 0.237995
0.959869 0.774197 0.256657
0.029068 0.035019 0.077790
0.031922 0.035843 0.086076
0.052888 0.038926 0.100862
0.106218 0.042237 0.116793
0.141131 0.042267 0.126101
0.156069 0.041581 0.127031
0.163897 0.041886 0.120134
0.172045 0.042786 0.103349
0.182284 0.044343 0.080705
0.189380 0.045472 0.057908
0.186694 0.045655 0.041184
0.187152 0.045228 0.036790
0.203250 0.044465 0.036362
