tools/luts_backup/Kodak Gold Gen.6 200_CIN.cube
# (C) 2014 VisionColor & Patchflyer [www.vision-color.com]
# Generator: VC Patchmatch v.2.1.1 [64/53]
# All work and no play makes Jack a dull boy.
# LUT generated from: Kodak Gold Gen.6 200_Cineon
LUT_3D_SIZE 17
0.086275 0.086275 0.086275
0.115206 0.086366 0.086366
0.169924 0.089967 0.089967
0.236454 0.098940 0.098940
0.295048 0.106050 0.105959
0.340887 0.109316 0.107576
0.372107 0.112459 0.109133
0.387915 0.109865 0.107973
0.398138 0.105989 0.105867
0.412116 0.105867 0.105867
0.429969 0.105867 0.105867
0.451728 0.107240 0.109224
0.476844 0.109651 0.118288
0.500938 0.110445 0.128756
0.522240 0.112734 0.139651
0.548424 0.114015 0.146761
0.572534 0.117647 0.160769
0.095369 0.114656 0.086305
0.130526 0.114870 0.086397
0.177035 0.121920 0.090608
0.234257 0.130129 0.094820
0.292119 0.140017 0.100252
0.337987 0.148959 0.103395
0.373449 0.156497 0.106691
0.398108 0.160037 0.107179
0.415351 0.160342 0.105867
0.431281 0.160983 0.107973
0.449104 0.162387 0.112490
0.469154 0.164889 0.118715
0.490608 0.166690 0.126467
0.513115 0.166323 0.133303
0.534112 0.167758 0.141360
0.557671 0.167452 0.151095
0.580346 0.175570 0.167910
0.113069 0.149660 0.087343
0.146151 0.153017 0.087404
0.187655 0.157290 0.090608
0.237644 0.163088 0.094759
0.289067 0.174441 0.097383
0.333043 0.181582 0.098909
0.373053 0.193118 0.103578
0.403967 0.203128 0.106233
0.426184 0.209262 0.106172
0.445472 0.213809 0.110018
0.464454 0.218631 0.117891
0.483742 0.222110 0.125216
0.503471 0.222904 0.131258
0.523980 0.223667 0.136324
0.544091 0.225498 0.142947
0.566857 0.226596 0.152041
0.587304 0.228336 0.167239
0.127993 0.188327 0.090822
0.165347 0.192294 0.090974
0.205478 0.196139 0.092988
0.244633 0.202457 0.094759
0.287327 0.208164 0.097475
0.331334 0.217319 0.098421
0.370977 0.228855 0.102754
0.407935 0.243626 0.105898
0.436957 0.258091 0.107942
0.459785 0.268742 0.112490
0.479591 0.274968 0.121218
0.497627 0.279973 0.129122
0.515343 0.281529 0.132998
0.534539 0.281773 0.135927
0.553094 0.281956 0.140963
0.573327 0.285222 0.146975
0.594507 0.288426 0.157687
0.149966 0.229679 0.093599
0.189761 0.237522 0.094942
0.226017 0.241184 0.095369
0.267369 0.246891 0.097108
0.304356 0.255161 0.097658
0.342138 0.264683 0.101167
0.379889 0.274144 0.103395
0.414435 0.286687 0.105898
0.445258 0.301274 0.107973
0.470344 0.316014 0.112306
0.491402 0.324987 0.119265
0.509361 0.330816 0.127047
0.525078 0.332067 0.131044
0.542718 0.330449 0.133333
0.560967 0.330755 0.137026
0.578973 0.333227 0.141878
0.600671 0.336156 0.147646
0.184939 0.278233 0.096773
0.219944 0.284062 0.097444
0.257939 0.290776 0.097627
0.295171 0.296880 0.097993
0.333288 0.304662 0.100862
0.365545 0.313878 0.103151
0.396857 0.321569 0.104921
0.426246 0.333349 0.106020
0.455482 0.345403 0.107973
0.480873 0.360052 0.113252
0.501091 0.371130 0.119997
0.518364 0.376287 0.125948
0.534264 0.376867 0.128084
0.551812 0.373419 0.129763
0.570062 0.375311 0.132143
0.585504 0.375250 0.135164
0.607599 0.377234 0.140322
0.221073 0.330358 0.100038
0.257847 0.335271 0.101778
0.293156 0.340917 0.101839
0.326665 0.346502 0.101900
0.362921 0.354955 0.103273
0.391119 0.359686 0.104738
0.416999 0.367590 0.105959
0.444190 0.379370 0.107851
0.469032 0.391974 0.108553
0.492592 0.402411 0.113405
0.511070 0.414588 0.120211
0.527031 0.418708 0.126101
0.543755 0.417273 0.127169
0.562310 0.414038 0.126436
0.580652 0.416907 0.127413
0.597589 0.415045 0.128115
0.611749 0.415045 0.130953
0.254368 0.382086 0.103792
0.289555 0.386511 0.104952
0.325933 0.391302 0.105226
0.356451 0.395575 0.105226
0.387793 0.400336 0.105531
0.414710 0.405158 0.106020
0.437690 0.410132 0.107546
0.458839 0.415747 0.108064
0.483680 0.431525 0.111421
0.503899 0.439826 0.114168
0.519799 0.448371 0.120607
0.535363 0.455543 0.124819
0.552666 0.454566 0.126314
0.572168 0.451759 0.124849
0.589746 0.451270 0.123629
0.606256 0.448524 0.123201
0.614130 0.447517 0.121462
0.286534 0.423407 0.105989
0.315892 0.430915 0.106203
0.349432 0.434943 0.107912
0.379492 0.437751 0.108614
0.407233 0.440925 0.109010
0.433417 0.445075 0.109255
0.456519 0.449195 0.109773
0.476478 0.454688 0.109804
0.492134 0.458686 0.110048
0.512993 0.469947 0.116579
0.528344 0.475410 0.119997
0.543053 0.481727 0.123751
0.560601 0.484474 0.124819
0.579187 0.484871 0.124361
0.597864 0.481575 0.121401
0.607660 0.474830 0.119692
0.615534 0.472175 0.117647
0.319524 0.458534 0.107759
0.345739 0.466102 0.109895
0.371771 0.470283 0.112123
0.399908 0.472908 0.115175
0.424048 0.475410 0.115999
0.447425 0.478767 0.115602
0.469978 0.482063 0.114961
0.490486 0.485573 0.114260
0.505577 0.488350 0.112245
0.518425 0.492287 0.113252
0.537804 0.500481 0.120363
0.553338 0.505943 0.121431
0.569451 0.508568 0.121889
0.584833 0.509331 0.122011
0.602136 0.508049 0.119722
0.608179 0.500023 0.117739
0.615656 0.493996 0.117647
0.351293 0.491890 0.111269
0.374548 0.495521 0.116426
0.395422 0.498909 0.118807
0.419257 0.501030 0.122652
0.438666 0.503258 0.122255
0.459449 0.505364 0.121248
0.479072 0.507530 0.118868
0.498146 0.509606 0.117311
0.514946 0.512596 0.115267
0.529259 0.513787 0.114565
0.543633 0.519036 0.117037
0.562219 0.525658 0.119203
0.579156 0.529595 0.119905
0.592004 0.528222 0.118715
0.604028 0.524285 0.117800
0.609613 0.519829 0.117647
0.615656 0.515526 0.117647
0.378637 0.516869 0.114290
0.396002 0.518730 0.119997
0.415503 0.521355 0.125429
0.435187 0.522820 0.129244
0.450721 0.524559 0.127932
0.467689 0.526055 0.126345
0.487251 0.527855 0.121035
0.505943 0.529961 0.117067
0.522362 0.532464 0.115938
0.538323 0.535973 0.114504
0.553094 0.538140 0.115816
0.567864 0.543542 0.117586
0.583795 0.544366 0.117739
0.598413 0.543969 0.117739
0.606561 0.536919 0.117647
0.612421 0.533165 0.117647
0.615656 0.533104 0.117647
0.402594 0.539269 0.115785
0.414557 0.539513 0.118776
0.432776 0.540459 0.125948
0.450324 0.542290 0.130983
0.465095 0.544915 0.130861
0.479194 0.547265 0.129732
0.496956 0.548974 0.124300
0.515557 0.550866 0.117586
0.534020 0.553185 0.115602
0.548333 0.555749 0.116091
0.563256 0.558587 0.116365
0.577020 0.561181 0.117525
0.588861 0.562982 0.117647
0.602228 0.558984 0.117647
0.608423 0.552239 0.117647
0.614954 0.548638 0.117647
0.615656 0.549493 0.117647
0.419318 0.561090 0.116426
0.431434 0.561639 0.116609
0.448310 0.561242 0.120180
0.465583 0.562371 0.125460
0.479866 0.564569 0.127291
0.493080 0.567071 0.125032
0.509361 0.568841 0.121248
0.527123 0.571496 0.118044
0.544640 0.573663 0.117464
0.560479 0.575952 0.117556
0.572106 0.577142 0.117556
0.586267 0.576562 0.117586
0.598718 0.577905 0.117647
0.605524 0.575799 0.117647
0.611414 0.569482 0.117647
0.615442 0.562737 0.117647
0.615656 0.567285 0.117647
0.425879 0.579919 0.117586
0.442573 0.581170 0.117586
0.459815 0.580530 0.117739
0.477516 0.581231 0.119478
0.492409 0.583185 0.121370
0.506035 0.585809 0.120211
0.522148 0.587640 0.118410
0.540551 0.590845 0.117647
0.555932 0.593256 0.117647
0.567803 0.593378 0.117647
0.579004 0.594263 0.117647
0.590356 0.594415 0.117647
0.604395 0.591455 0.117647
0.610101 0.592615 0.117647
0.614374 0.590723 0.117647
0.615564 0.581781 0.117647
0.615656 0.584863 0.117647
0.416510 0.598688 0.117647
0.446113 0.601373 0.117647
0.468086 0.601251 0.117647
0.485023 0.602045 0.117647
0.500084 0.603113 0.117708
0.513207 0.603754 0.117739
0.526299 0.603998 0.117647
0.543450 0.604273 0.117647
0.559380 0.604639 0.117647
0.570336 0.604639 0.117647
0.582483 0.604639 0.117647
0.595575 0.605615 0.117647
0.604822 0.606683 0.117647
0.613550 0.604395 0.117647
0.615137 0.604944 0.117647
0.615290 0.604089 0.117647
0.615320 0.603449 0.117647
0.376471 0.607813 0.117647
0.441474 0.611414 0.117647
0.474434 0.611811 0.117647
0.486519 0.613031 0.117647
0.499001 0.614984 0.117647
0.517784 0.615656 0.117647
0.532464 0.615656 0.117647
0.545708 0.615656 0.117647
0.561028 0.615656 0.117647
0.575036 0.615656 0.117647
0.588739 0.615656 0.117647
0.600549 0.615656 0.117647
0.607202 0.615656 0.117647
0.611475 0.615656 0.117647
0.611749 0.615656 0.117647
0.611749 0.615656 0.117647
0.611749 0.615656 0.117647
0.086305 0.086305 0.111269
0.106569 0.086397 0.116243
0.151339 0.087404 0.121004
0.213443 0.093050 0.131716
0.273747 0.099794 0.144320
0.319829 0.102144 0.149477
0.353979 0.105684 0.151369
0.376074 0.107301 0.151156
0.392279 0.105989 0.146487
0.410254 0.105867 0.146578
0.429969 0.105898 0.150515
0.451148 0.107240 0.153964
0.474464 0.109651 0.161471
0.496864 0.110323 0.169345
0.517479 0.112337 0.177340
0.541161 0.114015 0.189670
0.565240 0.117647 0.204257
0.095155 0.118715 0.114656
0.130434 0.122560 0.123323
0.212192 0.107424 0.107576
0.287327 0.107790 0.107698
0.335882 0.110079 0.108492
0.368811 0.112581 0.108400
0.386603 0.109529 0.106905
0.398535 0.106783 0.106203
0.412390 0.105867 0.105867
0.430274 0.106203 0.106538
0.451728 0.107698 0.110506
0.475959 0.109438 0.118410
0.500237 0.110475 0.128603
0.522637 0.112490 0.140169
0.546868 0.115572 0.151736
0.566613 0.125185 0.169619
0.576654 0.167910 0.208469
0.110597 0.154635 0.115419
0.135225 0.178439 0.099550
0.225895 0.190280 0.105592
0.285191 0.174777 0.099763
0.333928 0.173831 0.100893
0.372961 0.176364 0.104585
0.400183 0.178714 0.105989
0.419104 0.178592 0.106813
0.434150 0.175875 0.108797
0.451698 0.175387 0.114199
0.472236 0.176883 0.120058
0.492683 0.177066 0.125856
0.514733 0.176699 0.134188
0.537865 0.176242 0.143252
0.559045 0.178286 0.153903
0.576989 0.187198 0.171054
0.584039 0.227085 0.212406
0.133425 0.198917 0.120302
0.154269 0.228244 0.095216
0.225284 0.239078 0.096742
0.301854 0.255467 0.100435
0.333043 0.231724 0.100740
0.370916 0.229862 0.103822
0.406073 0.234806 0.105470
0.432624 0.239292 0.107851
0.453162 0.242344 0.113619
0.471504 0.244907 0.121523
0.489784 0.246494 0.128481
0.507530 0.246128 0.132418
0.526421 0.245609 0.136934
0.547784 0.244205 0.142885
0.567773 0.242710 0.151369
0.583246 0.249668 0.165682
0.589014 0.286198 0.209293
0.156680 0.245762 0.124117
0.184268 0.276890 0.097108
0.244602 0.286809 0.097536
0.304967 0.296208 0.098878
0.363928 0.311955 0.103975
0.385809 0.296330 0.104433
0.416114 0.294133 0.105592
0.445289 0.301579 0.108095
0.468727 0.307866 0.112886
0.487739 0.311467 0.119997
0.504356 0.311620 0.127382
0.520836 0.309636 0.132998
0.538262 0.308568 0.135897
0.557794 0.308568 0.139467
0.576318 0.307012 0.145785
0.591821 0.309270 0.158541
0.596490 0.335729 0.204837
0.191409 0.296910 0.128359
0.217502 0.328191 0.098787
0.273777 0.339055 0.101381
0.324895 0.345312 0.101656
0.375463 0.356115 0.103975
0.415381 0.365942 0.105959
0.435279 0.359350 0.107332
0.460121 0.361303 0.108797
0.482704 0.367498 0.112978
0.500511 0.371069 0.120333
0.516014 0.369970 0.125124
0.532982 0.365454 0.129305
0.549767 0.361242 0.132570
0.566857 0.359777 0.134340
0.584222 0.360754 0.138003
0.600122 0.361151 0.151431
0.604059 0.378302 0.199954
0.226902 0.344945 0.130251
0.253361 0.380804 0.103059
0.301854 0.386694 0.104341
0.348577 0.393774 0.104738
0.390570 0.399756 0.105196
0.429175 0.408972 0.107393
0.459602 0.416815 0.108827
0.477241 0.415259 0.109712
0.495277 0.418189 0.112703
0.512169 0.420539 0.119600
0.526970 0.419928 0.126406
0.543725 0.415351 0.126894
0.561975 0.410529 0.127291
0.578332 0.407050 0.128725
0.594537 0.406867 0.130526
0.606806 0.407538 0.141848
0.609430 0.416907 0.193149
0.260746 0.389776 0.134798
0.286320 0.423957 0.105959
0.326604 0.431067 0.107698
0.368780 0.436500 0.109773
0.405402 0.439948 0.109468
0.439704 0.445472 0.110506
0.470069 0.452735 0.111238
0.493812 0.458717 0.111788
0.509941 0.461250 0.115602
0.522942 0.460822 0.119936
0.538445 0.462257 0.124910
0.554314 0.460121 0.126986
0.572686 0.454658 0.124666
0.588708 0.449866 0.123201
0.602441 0.445808 0.123781
0.611994 0.444800 0.133028
0.611475 0.450629 0.185428
0.295720 0.431373 0.140475
0.319249 0.460060 0.108461
0.351324 0.466957 0.111696
0.388037 0.472480 0.115145
0.420539 0.475715 0.116243
0.449744 0.478950 0.115450
0.478218 0.483192 0.113924
0.500572 0.485664 0.112123
0.520775 0.492744 0.115206
0.536370 0.493599 0.119234
0.549554 0.494240 0.123232
0.564904 0.496010 0.123842
0.581323 0.492439 0.122713
0.596643 0.486275 0.120241
0.606134 0.478492 0.119936
0.613916 0.473274 0.128695
0.611872 0.476143 0.179965
0.328496 0.464179 0.142428
0.350439 0.490547 0.111543
0.377752 0.495338 0.115969
0.407416 0.499733 0.120516
0.434302 0.502983 0.123232
0.459358 0.504753 0.120638
0.484077 0.507683 0.117464
0.507805 0.510094 0.115114
0.525658 0.512596 0.112856
0.544823 0.520470 0.116976
0.560510 0.519371 0.118410
0.575311 0.521416 0.120699
0.588342 0.518608 0.119661
0.601862 0.513909 0.118471
0.609247 0.505882 0.119265
0.615320 0.499092 0.127565
0.615076 0.497658 0.177127
0.355779 0.492195 0.143954
0.378393 0.516442 0.114321
0.400580 0.519005 0.119051
0.424170 0.521385 0.125856
0.445594 0.524742 0.128603
0.467720 0.526024 0.126009
0.490639 0.528130 0.120607
0.512901 0.530266 0.117403
0.532280 0.534325 0.115816
0.550408 0.538445 0.115663
0.567956 0.543603 0.117464
0.583093 0.541894 0.117861
0.595605 0.538506 0.118013
0.604791 0.532006 0.117983
0.611566 0.525780 0.118929
0.616449 0.522118 0.127077
0.620478 0.519860 0.174868
0.377386 0.517266 0.143496
0.402014 0.539696 0.115755
0.419348 0.540612 0.119387
0.438849 0.541222 0.126131
0.458442 0.544213 0.131380
0.476326 0.546166 0.127687
0.498726 0.548516 0.122530
0.520287 0.551568 0.118654
0.539483 0.554101 0.116793
0.557061 0.558007 0.116182
0.574304 0.560113 0.117342
0.589197 0.562371 0.117617
0.600458 0.556664 0.117678
0.608057 0.549187 0.117769
0.613245 0.542077 0.119020
0.616815 0.541344 0.127413
0.622827 0.538048 0.174533
0.393744 0.538109 0.138735
0.416876 0.560540 0.116182
0.433997 0.561334 0.117861
0.453162 0.561639 0.121187
0.473518 0.563897 0.127779
0.490425 0.566308 0.126589
0.508965 0.568261 0.121645
0.530266 0.571466 0.118288
0.547967 0.573907 0.117372
0.563806 0.575891 0.117372
0.581384 0.576684 0.117433
0.593561 0.576715 0.117586
0.605005 0.576440 0.117647
0.610376 0.567559 0.117708
0.614832 0.560784 0.118654
0.617182 0.560662 0.127962
0.622919 0.554070 0.178256
0.401862 0.557794 0.131807
0.422797 0.579278 0.117433
0.444495 0.580407 0.117586
0.464302 0.581353 0.119539
0.483833 0.582269 0.122225
0.502129 0.584100 0.122560
0.519524 0.586542 0.120180
0.539971 0.589410 0.118044
0.557488 0.591791 0.117647
0.571252 0.593133 0.117708
0.584161 0.593713 0.117708
0.599390 0.591730 0.117708
0.607141 0.591394 0.117739
0.613031 0.590265 0.117769
0.615259 0.580072 0.118959
0.617273 0.578882 0.125582
0.622889 0.575830 0.176486
0.399329 0.576989 0.120760
0.412604 0.596613 0.117617
0.450141 0.597650 0.117617
0.470832 0.599847 0.117739
0.489052 0.600885 0.118135
0.507866 0.601465 0.118563
0.524620 0.602655 0.118410
0.542931 0.603784 0.118288
0.559991 0.604761 0.118593
0.574701 0.604913 0.118807
0.587884 0.605402 0.118929
0.598749 0.605585 0.119020
0.609461 0.604028 0.119051
0.613733 0.604364 0.119081
0.615106 0.603815 0.118990
0.617060 0.599359 0.127810
0.622889 0.596643 0.164614
0.386481 0.595270 0.117800
0.388373 0.606287 0.117647
0.444953 0.609003 0.117678
0.471870 0.609674 0.117769
0.488716 0.611200 0.118441
0.508721 0.613001 0.120058
0.526238 0.613733 0.121401
0.542718 0.613825 0.122652
0.560052 0.614343 0.124208
0.575952 0.615198 0.126223
0.590967 0.615595 0.127291
0.603418 0.615625 0.127840
0.610956 0.615747 0.128267
0.614191 0.615167 0.128511
0.614588 0.615228 0.128573
0.614649 0.615137 0.128084
0.622919 0.610834 0.176913
0.358984 0.607233 0.117647
0.390845 0.607843 0.117708
0.439765 0.608698 0.117800
0.462806 0.611261 0.118105
0.483803 0.612634 0.121920
0.507836 0.617670 0.131380
0.529290 0.619837 0.139956
0.544610 0.619440 0.147036
0.559442 0.619165 0.154299
0.574823 0.620661 0.163973
0.588861 0.622522 0.172152
0.601984 0.622889 0.175631
0.613031 0.622919 0.177890
0.620691 0.622919 0.179599
0.622522 0.622919 0.181216
0.622583 0.622919 0.181918
0.622583 0.622919 0.181094
0.087343 0.087343 0.153292
0.110292 0.089662 0.163790
0.142641 0.090547 0.172702
0.192782 0.091218 0.176913
0.252232 0.095369 0.190341
0.296788 0.098207 0.196414
0.331823 0.098909 0.198611
0.359228 0.103548 0.201083
0.383978 0.105898 0.200290
0.407324 0.105867 0.199435
0.429145 0.106386 0.203128
0.452430 0.107881 0.208042
0.474922 0.109682 0.215457
0.494179 0.109804 0.220493
0.511681 0.110780 0.223880
0.533806 0.113924 0.235477
0.560174 0.117494 0.249638
0.091524 0.118379 0.152651
0.102815 0.102052 0.179477
0.175235 0.102113 0.206210
0.246525 0.097200 0.188510
0.300969 0.098848 0.180697
0.340978 0.102144 0.175662
0.367773 0.105165 0.170199
0.389532 0.106020 0.166262
0.409918 0.105898 0.163485
0.430152 0.106294 0.160403
0.451942 0.107820 0.164370
0.474372 0.109438 0.172274
0.495857 0.109987 0.177890
0.516869 0.111452 0.187228
0.541131 0.115480 0.199832
0.562036 0.124849 0.214572
0.568933 0.164767 0.253086
0.105928 0.155276 0.150973
0.130922 0.190677 0.185122
0.184512 0.167880 0.177432
0.268925 0.155673 0.158358
0.342565 0.136324 0.135561
0.380224 0.117098 0.115663
0.398779 0.109224 0.108064
0.412512 0.106447 0.106355
0.429084 0.106142 0.106477
0.450874 0.107698 0.110719
0.475959 0.109285 0.118502
0.499886 0.110475 0.128511
0.523552 0.112581 0.140139
0.546990 0.117250 0.152590
0.565728 0.130404 0.172885
0.573999 0.166293 0.210727
0.580072 0.219669 0.260655
0.131167 0.208469 0.158694
0.160128 0.256718 0.165957
0.197757 0.244999 0.143221
0.290990 0.257328 0.152956
0.345708 0.229801 0.129793
0.397009 0.217472 0.114321
0.425361 0.209354 0.109163
0.442451 0.203159 0.110750
0.459754 0.200656 0.116701
0.478065 0.198459 0.123598
0.498054 0.195590 0.129549
0.518212 0.193027 0.134737
0.539178 0.192660 0.143313
0.560754 0.193851 0.156161
0.576318 0.201541 0.177035
0.583429 0.234531 0.213413
0.588739 0.286259 0.268498
0.160586 0.261173 0.164675
0.193576 0.306188 0.154757
0.223819 0.310094 0.117739
0.304143 0.321965 0.124910
0.383459 0.341253 0.131777
0.412879 0.312016 0.113985
0.442908 0.300542 0.110109
0.464515 0.293248 0.112947
0.481788 0.287602 0.120241
0.499184 0.284184 0.128115
0.516289 0.280156 0.133486
0.533196 0.274662 0.137270
0.550774 0.268528 0.141848
0.569482 0.266453 0.150942
0.584405 0.274205 0.170504
0.591333 0.302037 0.210239
0.598535 0.342077 0.269780
0.193759 0.312810 0.169436
0.228458 0.350805 0.151492
0.254917 0.372534 0.108919
0.327550 0.383001 0.111330
0.394354 0.393011 0.113130
0.450721 0.408820 0.119417
0.465736 0.387213 0.111574
0.483803 0.376593 0.113832
0.499763 0.368048 0.118837
0.514519 0.359838 0.125704
0.529320 0.351171 0.130129
0.545525 0.344549 0.133333
0.562799 0.339208 0.137148
0.579034 0.335485 0.144625
0.593103 0.340307 0.162905
0.599054 0.357763 0.205173
0.603723 0.386114 0.267796
0.230350 0.359319 0.172396
0.263859 0.393622 0.152743
0.285252 0.420325 0.107118
0.347204 0.431434 0.110536
0.402991 0.437934 0.111879
0.452705 0.445838 0.112764
0.490913 0.456489 0.115206
0.501396 0.442206 0.115084
0.515343 0.435370 0.121157
0.528923 0.425666 0.124208
0.543969 0.414313 0.126894
0.559167 0.404486 0.127932
0.576104 0.399023 0.130312
0.591119 0.395026 0.136080
0.603113 0.396826 0.153689
0.606989 0.406531 0.199435
0.607141 0.424201 0.265629
0.265385 0.401648 0.175937
0.297337 0.432715 0.155673
0.319036 0.459510 0.108827
0.365698 0.468421 0.114199
0.412451 0.473487 0.115908
0.455207 0.478492 0.115511
0.490364 0.482918 0.113985
0.520470 0.492195 0.115602
0.530022 0.483528 0.118471
0.542840 0.477211 0.124117
0.557244 0.467597 0.125551
0.573724 0.457588 0.125032
0.588678 0.449775 0.124208
0.601617 0.443275 0.127932
0.610162 0.440375 0.144594
0.611353 0.445960 0.190860
0.608515 0.455726 0.261906
0.299840 0.439704 0.184298
0.327367 0.464515 0.154269
0.351415 0.491676 0.112673
0.386664 0.498146 0.118624
0.423621 0.502129 0.122927
0.458289 0.503868 0.120455
0.491432 0.507652 0.117311
0.518578 0.512200 0.114382
0.545434 0.519860 0.116670
0.556909 0.514275 0.120485
0.569055 0.507256 0.122683
0.583368 0.500175 0.122347
0.596551 0.490974 0.120821
0.606775 0.480537 0.123079
0.612818 0.473487 0.138338
0.613153 0.474006 0.184054
0.609064 0.479011 0.257450
0.333867 0.472602 0.190341
0.353216 0.492164 0.151217
0.379614 0.517754 0.115633
0.406958 0.520745 0.122164
0.437110 0.523796 0.127749
0.464057 0.525780 0.125826
0.493416 0.528740 0.120394
0.520928 0.531853 0.116030
0.543603 0.536431 0.115389
0.568322 0.543420 0.117617
0.581292 0.536828 0.118959
0.591394 0.529381 0.119448
0.601740 0.521294 0.118593
0.609125 0.510979 0.120821
0.614832 0.503136 0.134981
0.616205 0.499947 0.179324
0.611231 0.500298 0.249943
0.359411 0.498238 0.190738
0.374273 0.516655 0.149111
0.399725 0.539117 0.115541
0.423560 0.541436 0.120974
0.450385 0.543694 0.127810
0.472694 0.545495 0.128359
0.498604 0.548638 0.122286
0.525139 0.551568 0.117891
0.547509 0.553887 0.116518
0.569024 0.558160 0.117098
0.589349 0.562188 0.117647
0.598474 0.551934 0.117678
0.606287 0.543114 0.118074
0.612146 0.534844 0.121035
0.616938 0.527886 0.134524
0.620569 0.524224 0.176333
0.617945 0.521477 0.241001
0.373327 0.518212 0.186038
0.388922 0.538018 0.143771
0.413916 0.559350 0.116091
0.436988 0.561303 0.118349
0.462043 0.562707 0.124727
0.483528 0.565057 0.126375
0.506310 0.568170 0.122499
0.532494 0.572015 0.118715
0.553246 0.573632 0.117464
0.571099 0.575280 0.117220
0.590784 0.576074 0.117556
0.604456 0.576745 0.117647
0.608759 0.562829 0.117983
0.614466 0.556298 0.120790
0.617884 0.548638 0.136080
0.622644 0.544640 0.178378
0.624750 0.540215 0.236698
0.380987 0.536919 0.174380
0.394476 0.557702 0.133364
0.419898 0.578546 0.117281
0.447700 0.579675 0.117739
0.471351 0.580255 0.120699
0.493538 0.583062 0.122988
0.514244 0.586023 0.120363
0.538201 0.589319 0.118257
0.558953 0.591455 0.117861
0.575189 0.592157 0.117891
0.591028 0.592584 0.117952
0.605646 0.590814 0.117922
0.612146 0.590051 0.118044
0.615076 0.577691 0.120577
0.618311 0.572137 0.133059
0.622736 0.565332 0.179690
0.626886 0.558373 0.241276
0.380316 0.556359 0.158724
0.392187 0.576684 0.123445
0.409705 0.594812 0.117586
0.452338 0.595758 0.117647
0.475929 0.596368 0.118288
0.496925 0.598779 0.120027
0.518700 0.601038 0.119814
0.540520 0.602899 0.119234
0.561486 0.604578 0.119875
0.578515 0.605310 0.120455
0.592889 0.606256 0.121065
0.605768 0.605554 0.120912
0.612818 0.603754 0.121004
0.615167 0.603479 0.121248
0.618189 0.594171 0.134005
0.622644 0.588098 0.170932
0.626581 0.578149 0.243626
0.368841 0.573114 0.136690
0.379309 0.593530 0.118441
0.392645 0.604883 0.117708
0.451698 0.606867 0.117800
0.475898 0.608148 0.118288
0.496315 0.609979 0.120912
0.519341 0.611811 0.124117
0.539208 0.612177 0.126223
0.559625 0.613397 0.129305
0.578851 0.614588 0.132357
0.595789 0.615442 0.134890
0.606928 0.615564 0.136202
0.614832 0.614740 0.136172
0.616205 0.614740 0.136446
0.616541 0.614649 0.136782
0.622675 0.607080 0.176974
0.625727 0.600793 0.228550
0.352941 0.589410 0.122194
0.360571 0.603204 0.117952
0.392645 0.607843 0.118288
0.442664 0.609216 0.119020
0.471382 0.611475 0.120577
0.494118 0.613916 0.128328
0.518303 0.617639 0.139284
0.536461 0.618463 0.148531
0.555200 0.618036 0.157443
0.573480 0.619135 0.167239
0.589776 0.620966 0.175540
0.605554 0.622461 0.180728
0.616510 0.622553 0.182681
0.621607 0.622492 0.183993
0.621851 0.622461 0.184451
0.621851 0.622461 0.183200
0.626581 0.614923 0.240085
0.332311 0.604669 0.118166
0.363470 0.605249 0.118898
0.394690 0.608789 0.120760
0.431952 0.609827 0.125643
0.465675 0.613703 0.133883
0.492927 0.616754 0.150973
0.516197 0.617578 0.169436
0.533532 0.616632 0.184665
0.548638 0.616358 0.199222
0.563836 0.618067 0.215915
0.577874 0.621698 0.232822
0.593713 0.624903 0.242985
0.610132 0.626856 0.246921
0.621118 0.626978 0.248356
0.626795 0.627008 0.252689
0.627008 0.627008 0.252079
0.627008 0.627008 0.250675
0.090944 0.090944 0.195499
0.114961 0.093080 0.207309
0.144167 0.093477 0.218418
0.183658 0.093629 0.225956
0.232944 0.094179 0.230106
0.278111 0.097169 0.239017
0.314549 0.098116 0.242405
0.346319 0.100496 0.246067
0.375372 0.104738 0.248692
0.405127 0.105867 0.248447
0.429816 0.106386 0.251133
0.453162 0.108034 0.257206
0.477089 0.109682 0.264195
0.495857 0.109804 0.269169
