tools/luts_backup/Kodak Vision3 200T 5213 (NEG)_VS.cube
# (C) 2014 VisionColor & Patchflyer [www.vision-color.com]
# Generator: VC Patchmatch v.2.1.1 [64/53]
# All work and no play makes Jack a dull boy.
# LUT generated from: Kodak Vision3 200T 5213 (NEG)_VisionSpace
LUT_3D_SIZE 9
0.035767 0.035767 0.035767
0.046601 0.017182 0.021241
0.069764 0.009552 0.009552
0.098604 0.011170 0.011170
0.136629 0.014252 0.014252
0.148287 0.015229 0.015229
0.198398 0.020264 0.020264
0.306279 0.031312 0.031312
0.344854 0.035279 0.035279
0.063722 0.124361 0.043214
0.090730 0.124758 0.043977
0.139132 0.066651 0.027649
0.149416 0.023743 0.017395
0.169345 0.018036 0.017487
0.193515 0.019806 0.019776
0.229374 0.023499 0.023468
0.311925 0.032197 0.031983
0.351690 0.035981 0.035981
0.093507 0.199680 0.070924
0.111788 0.213626 0.080232
0.167636 0.217929 0.094636
0.300267 0.200992 0.079683
0.338537 0.149874 0.064149
0.332006 0.085023 0.046998
0.326024 0.051453 0.037964
0.477760 0.108248 0.064057
0.375799 0.040009 0.038849
0.207126 0.332555 0.146059
0.206607 0.338262 0.147494
0.186892 0.353002 0.146090
0.279622 0.362158 0.167025
0.464866 0.343725 0.172213
0.539269 0.261707 0.108003
0.474556 0.155596 0.075898
0.434211 0.080049 0.053529
0.528054 0.143969 0.076997
0.360891 0.496544 0.228397
0.358114 0.497856 0.229038
0.331319 0.508247 0.227085
0.311727 0.505531 0.219211
0.491966 0.528191 0.270329
0.624689 0.461357 0.259480
0.640742 0.314473 0.133959
0.528389 0.159503 0.081041
0.676020 0.323842 0.159106
0.549447 0.646204 0.328069
0.528084 0.643946 0.308446
0.520577 0.646204 0.315618
0.440513 0.625971 0.292546
0.457664 0.614221 0.293248
0.649897 0.609186 0.350652
0.715785 0.593484 0.367132
0.704555 0.512306 0.314900
0.721553 0.505043 0.319860
0.684657 0.731289 0.400305
0.673030 0.724483 0.397498
0.652308 0.715602 0.389715
0.598642 0.702022 0.370550
0.538293 0.684962 0.346197
0.604578 0.687037 0.368994
0.710567 0.687831 0.389746
0.767941 0.671962 0.402625
0.781735 0.643336 0.397223
0.742611 0.771572 0.423682
0.740261 0.770169 0.422461
0.733883 0.767239 0.419715
0.703334 0.759579 0.408911
0.654292 0.747463 0.394202
0.665919 0.744595 0.394598
0.729152 0.748104 0.416205
0.788113 0.737484 0.440467
0.807523 0.722347 0.444434
0.782132 0.797482 0.449561
0.779904 0.796109 0.447822
0.778012 0.795254 0.446601
0.767056 0.793057 0.443397
0.728023 0.785061 0.426429
0.718990 0.781338 0.426123
0.766415 0.783810 0.456123
0.807858 0.779812 0.477882
0.815122 0.765438 0.485664
0.006439 0.006775 0.043854
0.080995 0.013397 0.096162
0.107790 0.013733 0.088197
0.111818 0.013001 0.050690
0.116793 0.012543 0.016327
0.136141 0.014191 0.014313
0.170840 0.017426 0.017426
0.266545 0.027253 0.027253
0.332891 0.034058 0.034058
0.050080 0.152895 0.144228
0.104646 0.109560 0.126314
0.175937 0.054780 0.082887
0.192538 0.021668 0.027283
0.190036 0.020478 0.019684
0.200320 0.020661 0.020508
0.217227 0.022217 0.022217
0.271672 0.027771 0.027771
0.372351 0.039185 0.038361
0.092287 0.240055 0.118959
0.127382 0.218753 0.097627
0.200565 0.234897 0.112367
0.331823 0.200351 0.097444
0.405097 0.160433 0.071870
0.398596 0.120699 0.061189
0.366445 0.068116 0.045289
0.343145 0.039887 0.036347
0.485328 0.109285 0.064912
0.200320 0.360708 0.147463
0.211551 0.343542 0.147066
0.248417 0.366583 0.154818
0.331106 0.388037 0.181186
0.510109 0.347448 0.173892
0.539925 0.248188 0.104616
0.523476 0.202014 0.091524
0.503334 0.151492 0.077089
0.558129 0.186618 0.090211
0.373648 0.533333 0.232029
0.361257 0.515175 0.225162
0.379904 0.526986 0.234257
0.372427 0.530007 0.235019
0.519631 0.550927 0.285801
0.627161 0.487724 0.273457
0.649042 0.393240 0.206531
0.657710 0.309163 0.136126
0.667292 0.296010 0.130648
0.542763 0.656245 0.315007
0.539101 0.656153 0.311803
0.529274 0.648585 0.308568
0.479286 0.639490 0.298589
0.531487 0.640375 0.325475
0.668696 0.652888 0.372930
0.713619 0.607477 0.370611
0.705196 0.507195 0.311894
0.701350 0.446403 0.270756
0.688350 0.738155 0.402014
0.678462 0.735378 0.397131
0.666041 0.731197 0.385840
0.620539 0.714229 0.368109
0.601099 0.702541 0.369238
0.676661 0.713924 0.389349
0.761074 0.719387 0.417578
0.775998 0.674128 0.405646
0.775113 0.631678 0.391150
0.742977 0.772427 0.424018
0.741085 0.771206 0.422583
0.731106 0.766598 0.421637
0.703365 0.757229 0.411902
0.657862 0.745174 0.397223
0.663722 0.743526 0.394141
0.726436 0.752590 0.416815
0.776913 0.742855 0.438331
0.804776 0.724666 0.441688
0.778134 0.795529 0.444709
0.777462 0.794919 0.444739
0.777768 0.795163 0.445594
0.769436 0.792630 0.442878
0.732113 0.783352 0.426795
0.699458 0.774289 0.414527
0.729824 0.774258 0.431647
0.781003 0.774319 0.458900
0.813291 0.767605 0.474250
0.003143 0.003113 0.052949
0.048188 0.008576 0.107210
0.088106 0.012726 0.117739
0.114168 0.015534 0.126894
0.135134 0.017243 0.116182
0.156771 0.018128 0.078645
0.161440 0.016968 0.029908
0.241398 0.024720 0.025147
0.311467 0.031830 0.031830
0.021149 0.063539 0.149264
0.060395 0.022858 0.148867
0.151766 0.024659 0.162753
0.183047 0.023285 0.155856
0.199374 0.023713 0.119112
0.214847 0.023346 0.063935
0.200443 0.020539 0.022766
0.233982 0.023957 0.023957
0.304692 0.031128 0.031128
0.083253 0.269841 0.262577
0.117189 0.243778 0.244999
0.210208 0.186221 0.226871
0.362249 0.148440 0.176608
0.404730 0.118929 0.126711
0.451148 0.072877 0.053788
0.349142 0.045258 0.038148
0.296086 0.030488 0.030304
0.326024 0.033356 0.033356
0.164736 0.406607 0.267185
0.170748 0.372076 0.226871
0.236515 0.355444 0.180545
0.363470 0.378882 0.209323
0.518074 0.327977 0.204318
0.575128 0.249958 0.139757
0.568536 0.203800 0.095430
0.520607 0.170962 0.083406
0.495918 0.122011 0.068940
0.281743 0.560281 0.243412
0.297917 0.530129 0.242283
0.342870 0.522896 0.248386
0.420523 0.539040 0.267460
0.547799 0.554345 0.290257
0.646113 0.485191 0.267262
0.661036 0.378561 0.178790
0.669947 0.330037 0.135912
0.661036 0.285359 0.123323
0.472068 0.659266 0.322301
0.478538 0.657069 0.321111
0.488304 0.651057 0.323186
0.526452 0.649531 0.328435
0.571527 0.651148 0.327733
0.678920 0.655787 0.366094
0.723079 0.624109 0.361730
0.720821 0.551675 0.324086
0.707424 0.465751 0.279561
0.652934 0.744228 0.395056
0.641291 0.734096 0.392157
0.644739 0.728969 0.387549
0.644953 0.723262 0.383459
0.638392 0.720821 0.372320
0.697993 0.726528 0.403449
0.757565 0.727657 0.413977
0.780087 0.692317 0.410986
0.765560 0.618067 0.385290
0.743587 0.784237 0.429694
0.740566 0.781735 0.428840
0.730648 0.774533 0.425635
0.711513 0.764614 0.418616
0.697078 0.760769 0.411719
0.719631 0.762051 0.420325
0.769772 0.769650 0.432441
0.790097 0.753750 0.444739
0.802670 0.706966 0.427039
0.782254 0.805020 0.442664
0.783078 0.804471 0.442817
0.781735 0.803342 0.442054
0.771969 0.799008 0.438483
0.742885 0.788357 0.429328
0.729732 0.784237 0.423590
0.749386 0.783658 0.431434
0.772610 0.774380 0.452888
0.806973 0.764248 0.465888
0.003784 0.003784 0.090944
0.014221 0.005371 0.110079
0.055818 0.009827 0.125429
0.092287 0.013672 0.134981
0.115602 0.016052 0.139162
0.142611 0.018738 0.139498
0.174960 0.021668 0.129946
0.265660 0.028901 0.079469
0.327489 0.033631 0.038483
0.005249 0.007263 0.112612
0.013703 0.006348 0.138308
0.094942 0.015595 0.184024
0.141909 0.019867 0.174807
0.169986 0.022492 0.168490
0.197116 0.024750 0.157595
0.211795 0.025116 0.124514
0.234165 0.024506 0.041321
0.293309 0.029969 0.029969
0.066712 0.216098 0.311559
0.089052 0.188998 0.303838
0.130404 0.152987 0.323949
0.267857 0.095277 0.273198
0.344244 0.058473 0.248264
0.370733 0.043427 0.201709
0.346716 0.038483 0.125780
0.305241 0.031556 0.041199
0.298833 0.030549 0.030640
0.170779 0.454185 0.423484
0.196963 0.419181 0.415488
0.216129 0.384237 0.393210
0.345342 0.324376 0.352026
0.561852 0.270695 0.291173
0.563088 0.211170 0.236744
0.555138 0.131945 0.139239
0.525673 0.077943 0.059968
0.414389 0.055665 0.045747
0.278050 0.592645 0.438575
0.268437 0.557168 0.389715
0.255314 0.548714 0.334539
0.371283 0.514412 0.307256
0.539345 0.539864 0.310765
0.658442 0.475914 0.314000
0.653284 0.365194 0.257343
0.651972 0.302876 0.180468
0.656001 0.275868 0.120516
0.305638 0.681758 0.331075
0.312139 0.679744 0.319295
0.354086 0.666316 0.305333
0.449439 0.656428 0.321874
0.581964 0.663752 0.351507
0.687221 0.668360 0.377935
0.730495 0.623468 0.380011
0.718044 0.518074 0.305882
0.701839 0.420081 0.223117
0.541268 0.738857 0.378546
0.536355 0.733730 0.363439
0.555459 0.730861 0.364996
0.582757 0.727077 0.371221
0.632776 0.726711 0.383551
0.702937 0.735348 0.401587
0.764309 0.739956 0.420142
0.781155 0.704005 0.417914
0.767178 0.648325 0.390936
0.701442 0.784054 0.441505
0.690944 0.777188 0.426398
0.693477 0.774014 0.414801
0.695918 0.771420 0.412604
0.706691 0.770809 0.414008
0.727504 0.773190 0.422065
0.777798 0.777737 0.434669
0.802121 0.763607 0.436896
0.806241 0.732998 0.430426
0.762295 0.807797 0.459113
0.768521 0.808896 0.455268
0.767117 0.807767 0.450843
0.753109 0.802579 0.442725
0.751156 0.800198 0.436408
0.754452 0.799649 0.435340
0.791409 0.802579 0.445136
0.808133 0.786679 0.447333
0.813443 0.761257 0.453529
0.004608 0.004608 0.117281
0.005249 0.004578 0.114992
0.039796 0.009247 0.157626
0.079042 0.013519 0.170687
0.094636 0.014740 0.160922
0.117128 0.016754 0.155062
0.166140 0.022126 0.168582
0.277684 0.033082 0.168368
0.383459 0.042390 0.133837
0.005402 0.006012 0.135225
0.008362 0.005737 0.143282
0.062135 0.012299 0.183627
0.107576 0.017121 0.192996
0.131197 0.019135 0.183719
0.161410 0.022278 0.189487
0.181216 0.023804 0.175601
0.233799 0.027314 0.125551
0.293278 0.030152 0.034668
0.052064 0.160281 0.325826
0.043610 0.125643 0.358862
0.081209 0.081514 0.367468
0.195193 0.058839 0.353613
0.263005 0.036408 0.309911
0.273167 0.035401 0.251057
0.266819 0.032990 0.198245
0.293858 0.033936 0.146151
0.318730 0.033295 0.053071
0.144442 0.413535 0.539284
0.169406 0.369345 0.513130
0.195254 0.335821 0.495140
0.238224 0.291081 0.526864
0.427222 0.244968 0.459251
0.481910 0.199634 0.368093
0.500359 0.106096 0.280690
0.500557 0.055085 0.167437
0.446647 0.046967 0.084092
0.307897 0.627985 0.620050
0.322911 0.602594 0.598901
0.324865 0.582528 0.588556
0.347982 0.556222 0.559884
0.498161 0.490227 0.504921
0.643015 0.434379 0.442618
0.707424 0.321004 0.352132
0.649393 0.233875 0.240009
0.632990 0.208972 0.154803
0.359838 0.691737 0.594553
0.353063 0.686275 0.579080
0.343664 0.677028 0.528878
0.377997 0.663081 0.476310
0.522011 0.638117 0.466239
0.661784 0.656107 0.460441
0.740841 0.620737 0.431846
0.751644 0.503548 0.352392
0.702815 0.415396 0.298802
0.440223 0.735592 0.501106
0.429603 0.733211 0.482963
0.448768 0.731075 0.481437
0.471565 0.722774 0.429862
0.571038 0.720668 0.448966
0.680308 0.729946 0.466270
0.756039 0.732601 0.462959
0.791775 0.699458 0.430549
0.777798 0.625849 0.390417
0.634577 0.773037 0.520348
0.627298 0.768521 0.465187
0.622293 0.766018 0.453376
0.626856 0.765743 0.443976
0.655756 0.765499 0.453803
0.706294 0.769711 0.467170
0.766842 0.774075 0.472145
0.806271 0.763058 0.448585
0.807187 0.732784 0.430732
0.716121 0.800168 0.531640
0.727199 0.802976 0.519127
0.728237 0.800626 0.493172
0.724239 0.797482 0.478706
0.725429 0.797208 0.466712
0.737514 0.798154 0.458900
0.766232 0.800351 0.444465
0.810269 0.796323 0.449836
0.818967 0.780880 0.450477
0.005951 0.005951 0.158663
0.005432 0.005432 0.143801
0.008728 0.006134 0.155398
0.050507 0.011505 0.193362
0.077363 0.014099 0.191928
0.082063 0.014282 0.183963
0.134676 0.019623 0.187900
0.325322 0.041382 0.275517
0.428779 0.051331 0.267887
0.006287 0.006500 0.164889
0.006409 0.006165 0.163973
0.032380 0.009949 0.200992
0.086915 0.016236 0.227207
0.121859 0.019989 0.235447
0.125460 0.019806 0.219913
0.142367 0.021027 0.207218
0.201572 0.026215 0.187625
0.369635 0.042145 0.167041
0.047120 0.138888 0.355718
0.026856 0.067765 0.314961
0.017243 0.023926 0.376501
0.135119 0.026673 0.396612
0.198535 0.031495 0.354772
0.197498 0.028901 0.279133
0.213443 0.029511 0.250767
0.275425 0.034852 0.228153
0.350225 0.039612 0.147677
0.112734 0.362173 0.555245
0.103685 0.327169 0.570459
0.131914 0.298146 0.554620
0.190967 0.257465 0.543969
0.314534 0.220539 0.537743
0.378470 0.160510 0.476509
0.440467 0.098680 0.426612
0.467979 0.056733 0.303532
0.469169 0.053315 0.206424
0.279591 0.599039 0.665187
0.281666 0.559243 0.645838
0.301564 0.540352 0.636042
0.313359 0.510567 0.632624
0.389822 0.457053 0.639811
0.550744 0.407767 0.598810
0.622782 0.337240 0.543877
0.602487 0.252308 0.398352
0.621973 0.180713 0.264683
0.392950 0.703639 0.703700
0.389593 0.699947 0.703334
0.389288 0.693660 0.697810
0.413184 0.683345 0.684352
0.502968 0.661204 0.658640
0.629694 0.629419 0.631342
0.686946 0.598367 0.596582
0.721340 0.494224 0.500435
0.766842 0.386801 0.367239
0.429999 0.750088 0.672724
0.422156 0.746487 0.686458
0.424384 0.740322 0.661189
0.444617 0.730861 0.632212
0.509560 0.717067 0.607233
0.641108 0.705379 0.611627
0.729274 0.720455 0.602930
0.775662 0.696986 0.556497
0.786831 0.641871 0.483665
0.585473 0.766049 0.641291
0.551019 0.758907 0.608484
0.538476 0.755642 0.599756
0.546624 0.751705 0.583383
0.581781 0.747005 0.565606
0.653162 0.754147 0.569970
0.736690 0.762783 0.575250
0.794186 0.759243 0.547478
0.807919 0.744503 0.516716
0.670527 0.784054 0.633722
0.677760 0.787503 0.615503
0.665949 0.784176 0.573419
0.662654 0.783505 0.555657
0.667292 0.785733 0.536034
0.691920 0.792599 0.524559
0.729213 0.790616 0.527520
0.778866 0.790249 0.504448
0.817807 0.787991 0.508568
0.007904 0.007904 0.212772
0.007355 0.007355 0.197574
0.007324 0.007294 0.195895
0.018189 0.009125 0.217777
0.051972 0.013275 0.241184
0.069368 0.015076 0.243381
0.150546 0.025055 0.303380
0.316197 0.043519 0.365667
0.444373 0.056794 0.383673
0.007111 0.007111 0.190677
0.007050 0.007050 0.189029
0.008942 0.007538 0.198703
0.066896 0.015381 0.260746
0.113283 0.020691 0.282383
0.121279 0.021363 0.278752
0.109529 0.019348 0.253269
0.194766 0.028626 0.278996
0.446174 0.056275 0.362860
0.032349 0.086717 0.330190
0.026551 0.066407 0.317082
0.013214 0.019562 0.291646
0.086549 0.021759 0.392233
0.174624 0.030701 0.400458
0.194614 0.031464 0.365103
0.178195 0.027955 0.308598
0.249363 0.035004 0.308080
0.381842 0.047669 0.295018
0.099550 0.315389 0.534371
0.091035 0.284504 0.527291
0.084718 0.259693 0.542031
0.108110 0.216144 0.563622
0.232105 0.182452 0.566888
0.309545 0.136614 0.534905
0.332891 0.069047 0.501976
0.424231 0.061921 0.460914
0.483238 0.059632 0.354498
0.233509 0.580880 0.687404
0.236774 0.551919 0.673793
0.251881 0.519631 0.657984
0.271778 0.474083 0.643977
0.317708 0.439292 0.689845
0.449958 0.383627 0.679683
0.525795 0.330251 0.638972
0.563027 0.285573 0.551339
0.593256 0.191516 0.418860
0.366094 0.684260 0.719020
0.381079 0.677119 0.720119
0.382574 0.665675 0.716945
0.387793 0.660304 0.724788
0.441077 0.642008 0.719234
0.572366 0.612238 0.686488
0.630854 0.584665 0.666102
0.682643 0.522957 0.646937
0.722866 0.414176 0.567910
0.421820 0.757076 0.753719
0.433539 0.750057 0.757809
0.437110 0.746975 0.750942
0.459419 0.739651 0.740902
0.525383 0.731319 0.731685
0.633326 0.718837 0.717800
0.705989 0.704921 0.705470
0.732631 0.687587 0.685695
0.741054 0.644404 0.641199
0.532128 0.780880 0.735531
0.501457 0.774777 0.738338
0.485786 0.769680 0.729976
0.500481 0.765255 0.716670
0.537957 0.758968 0.701686
0.618433 0.750423 0.689754
0.706203 0.745205 0.691005
0.767086 0.754391 0.685115
0.787900 0.746212 0.665827
0.633661 0.787625 0.715206
0.642267 0.784024 0.697627
0.593469 0.774411 0.675135
0.596948 0.776577 0.681880
0.616846 0.774014 0.665034
0.644709 0.769772 0.646571
0.687526 0.778073 0.632013
0.759579 0.785000 0.634699
0.804898 0.787991 0.646845
0.008698 0.008698 0.233951
0.008667 0.008667 0.232731
0.008942 0.008911 0.238987
0.018799 0.010925 0.268925
0.037995 0.013550 0.292088
0.057435 0.015900 0.305730
0.146120 0.026307 0.355016
0.264195 0.039734 0.406561
0.405035 0.054932 0.444068
0.008453 0.008453 0.227390
0.008026 0.008026 0.215763
0.008118 0.008087 0.218082
0.037995 0.013001 0.275822
0.107637 0.021759 0.332372
0.125978 0.023987 0.344488
0.155795 0.027283 0.355138
0.203861 0.031739 0.346380
0.439002 0.059388 0.444892
0.019257 0.040772 0.304143
0.019165 0.040650 0.302373
0.014435 0.023407 0.298161
0.027161 0.014984 0.367788
0.132845 0.027375 0.423453
0.180209 0.031647 0.412009
0.187076 0.031312 0.382574
0.216434 0.033509 0.361944
0.412879 0.055390 0.426246
0.090578 0.284016 0.514687
0.087404 0.272236 0.515816
0.078340 0.239124 0.512215
0.061616 0.173724 0.544625
0.150042 0.157519 0.587457
0.245487 0.132097 0.568048
0.300267 0.078965 0.549889
0.360449 0.059052 0.524712
0.476875 0.073793 0.489387
0.198901 0.549661 0.676753
0.204395 0.544167 0.685237
0.193927 0.499626 0.672206
0.194537 0.425650 0.646021
0.278218 0.402762 0.649668
0.366094 0.381399 0.726833
0.470375 0.340444 0.693355
0.509529 0.299886 0.619760
0.553948 0.225666 0.551232
0.333440 0.674372 0.733303
0.376257 0.673426 0.733181
0.375158 0.656550 0.726223
0.384222 0.649821 0.737728
0.416938 0.627817 0.742550
0.536324 0.606897 0.720241
0.598993 0.579538 0.694789
0.628077 0.545510 0.692317
0.689906 0.462150 0.678187
0.419989 0.745724 0.769131
0.435248 0.742733 0.776394
0.433295 0.738125 0.773068
0.466712 0.732692 0.767636
0.538811 0.720363 0.759365
0.618311 0.708156 0.745571
0.685512 0.697658 0.727443
0.706325 0.688777 0.720729
0.728206 0.666407 0.710994
0.491035 0.788144 0.787717
0.493111 0.782467 0.781796
0.504356 0.773526 0.777340
0.522545 0.770321 0.772519
0.580743 0.764065 0.766903
0.649683 0.758328 0.760159
0.709377 0.751888 0.751736
0.748959 0.745632 0.745571
0.761074 0.740841 0.740261
0.590356 0.797909 0.774807
0.599603 0.797055 0.764706
0.554772 0.789334 0.756497
0.553246 0.788235 0.762936
0.608331 0.787991 0.761379
0.639948 0.782315 0.751400
0.674983 0.775937 0.734798
0.746029 0.773342 0.735500
0.784451 0.780606 0.745388
0.009369 0.009369 0.251194
0.009308 0.009308 0.249821
0.009583 0.009552 0.256077
0.020966 0.011780 0.288762
0.051209 0.015778 0.320745
0.060822 0.016876 0.324163
0.117891 0.023529 0.355291
0.204807 0.033631 0.399451
0.319493 0.046448 0.442512
0.009918 0.010132 0.263737
0.009674 0.009674 0.259495
0.010986 0.010376 0.275486
0.107637 0.023438 0.381964
0.127718 0.026032 0.399542
0.109316 0.022889 0.361089
0.187839 0.031861 0.395575
0.282689 0.042329 0.429114
0.373175 0.052094 0.450294
0.047211 0.132052 0.427588
0.011048 0.012848 0.278111
0.010529 0.012512 0.263005
0.011994 0.011902 0.314809
0.119478 0.027222 0.460441
0.142824 0.029725 0.466941
0.186191 0.032959 0.433707
0.277012 0.042206 0.442817
0.400488 0.055848 0.468879
0.102480 0.324971 0.548150
0.068788 0.207782 0.471153
0.064668 0.191974 0.474937
0.063691 0.180774 0.550423
0.119921 0.143236 0.589075
0.224369 0.146075 0.591394
0.280125 0.118883 0.574731
0.342229 0.093400 0.562341
0.470253 0.111437 0.546563
0.188586 0.534890 0.665049
0.182635 0.514229 0.670039
0.175982 0.480827 0.671839
0.171435 0.421561 0.660365
0.237751 0.386435 0.649073
0.357855 0.386892 0.744472
0.445716 0.359213 0.725460
0.505989 0.334401 0.687922
0.543221 0.308461 0.624308
0.327916 0.685939 0.746609
0.385885 0.680629 0.744686
0.377462 0.652674 0.734615
0.378058 0.634684 0.738155
0.379736 0.606394 0.745907
0.519692 0.602029 0.736660
0.587198 0.587137 0.707485
0.623072 0.576028 0.709346
0.651087 0.543679 0.706722
0.417517 0.733272 0.769131
0.421027 0.735927 0.779995
0.490242 0.736873 0.787076
0.528679 0.727504 0.781369
0.574334 0.715328 0.770687
0.636164 0.703395 0.755917
0.686213 0.699031 0.740749
0.706233 0.697932 0.734401
0.716793 0.692927 0.729976
0.452979 0.779263 0.799496
0.465888 0.781125 0.798978
0.554192 0.773190 0.794461
0.566918 0.763760 0.789792
0.634272 0.758480 0.781216
0.670100 0.749355 0.772274
0.715877 0.745418 0.764645
0.746456 0.745052 0.758206
0.757504 0.748440 0.757198
0.541131 0.799405 0.803616
0.554650 0.800778 0.801114
0.593256 0.798428 0.799039
0.628077 0.790036 0.793057
0.624903 0.786435 0.790188
0.641199 0.780056 0.783108
0.694240 0.775814 0.777646
0.756283 0.775387 0.775296
0.776516 0.774075 0.774502
