tools/luts_backup/Kodak Vision3 50D 5203 (DP)_VS.cube
# (C) 2014 VisionColor & Patchflyer [www.vision-color.com]
# Generator: VC Patchmatch v.2.1.1 [64/53]
# All work and no play makes Jack a dull boy.
# LUT generated from: Kodak Vision3 50D 5203 (DP)_VisionSpace
LUT_3D_SIZE 9
0.035767 0.035767 0.035767
0.038178 0.020783 0.022553
0.062898 0.023560 0.021759
0.090059 0.025788 0.022522
0.128054 0.028321 0.023316
0.139925 0.028931 0.023438
0.192111 0.032258 0.024750
0.290867 0.043244 0.033204
0.323827 0.046937 0.036713
0.067597 0.127321 0.048524
0.090272 0.123964 0.047944
0.118135 0.060365 0.030610
0.134920 0.034882 0.024842
0.160922 0.031128 0.024048
0.187747 0.031800 0.024384
0.222263 0.035157 0.026703
0.295659 0.044190 0.033845
0.329564 0.047578 0.037324
0.089815 0.187289 0.073610
0.090547 0.198886 0.077241
0.162966 0.197543 0.094087
0.291264 0.172335 0.071687
0.346197 0.145235 0.063508
0.328664 0.096315 0.049622
0.312718 0.065217 0.040528
0.477546 0.119722 0.066957
0.351080 0.051637 0.040101
0.201114 0.297795 0.133608
0.194980 0.301183 0.132753
0.167178 0.311040 0.126253
0.285237 0.323095 0.151156
0.472190 0.290227 0.141573
0.541711 0.230457 0.100160
0.494804 0.159335 0.078401
0.424689 0.091981 0.055879
0.539284 0.151827 0.079896
0.373709 0.430076 0.201053
0.369711 0.430411 0.201633
0.332937 0.429496 0.198367
0.308736 0.422156 0.190005
0.509285 0.462409 0.238193
0.620935 0.389029 0.212451
0.629541 0.277180 0.122942
0.518837 0.162310 0.080995
0.661524 0.296162 0.142336
0.578347 0.586084 0.294591
0.560220 0.577325 0.274144
0.554086 0.580255 0.282078
0.463737 0.547021 0.259251
0.486229 0.542809 0.260685
0.644617 0.526635 0.303716
0.697566 0.507942 0.315740
0.689632 0.440726 0.263233
0.705470 0.444038 0.271702
0.694667 0.679194 0.378729
0.684321 0.671595 0.366796
0.668330 0.662379 0.359869
0.625208 0.643275 0.340032
0.573754 0.619135 0.315404
0.628382 0.632105 0.339452
0.698177 0.614984 0.367315
0.745174 0.594202 0.372198
0.753536 0.568566 0.367102
0.742519 0.717586 0.412024
0.740627 0.716365 0.410864
0.735805 0.714656 0.408728
0.714534 0.708217 0.401160
0.676143 0.690120 0.382391
0.685176 0.690333 0.387579
0.728328 0.691035 0.397620
0.774777 0.667231 0.402899
0.791714 0.648920 0.403021
0.776303 0.740688 0.423926
0.774350 0.739559 0.423316
0.772793 0.739162 0.422919
0.765560 0.740902 0.421302
0.737911 0.735592 0.413672
0.731807 0.732143 0.409369
0.764797 0.731380 0.418891
0.797086 0.716060 0.429694
0.803616 0.699367 0.437079
0.010407 0.015930 0.040681
0.087098 0.028199 0.098848
0.122805 0.029999 0.089693
0.117861 0.026001 0.056245
0.110658 0.024872 0.026734
0.127504 0.028229 0.023407
0.163180 0.030365 0.023896
0.255589 0.039155 0.029755
0.313146 0.045777 0.035584
0.048371 0.156100 0.146578
0.099367 0.113313 0.135195
0.179995 0.063996 0.080629
0.161715 0.036286 0.033509
0.179904 0.033326 0.024933
0.194369 0.032593 0.024872
0.211154 0.033814 0.025818
0.259800 0.039734 0.030182
0.347570 0.050660 0.039551
0.084688 0.231449 0.114626
0.126833 0.214908 0.096315
0.196994 0.226535 0.110811
0.328405 0.184482 0.088685
0.384375 0.153140 0.068452
0.401526 0.127871 0.063294
0.355001 0.081819 0.047944
0.325963 0.053407 0.038544
0.485145 0.120851 0.067842
0.200931 0.316045 0.133059
0.216648 0.306157 0.136385
0.248142 0.323674 0.143618
0.337789 0.350561 0.167056
0.516533 0.294713 0.140139
0.547356 0.223560 0.098848
0.552087 0.196506 0.092317
0.519753 0.157198 0.079744
0.581537 0.187747 0.092287
0.387686 0.453391 0.200412
0.375479 0.439506 0.196017
0.397360 0.451926 0.203952
0.385611 0.452110 0.204135
0.535195 0.484840 0.252201
0.622797 0.409018 0.225238
0.642725 0.339162 0.167041
0.643214 0.278431 0.126772
0.651423 0.271031 0.123903
0.574472 0.590723 0.279942
0.571633 0.589746 0.276432
0.562112 0.581415 0.273838
0.512810 0.565576 0.264897
0.562860 0.579644 0.293278
0.662562 0.577905 0.335698
0.694942 0.521294 0.322942
0.690303 0.436988 0.259922
0.687709 0.396704 0.225956
0.697597 0.683223 0.363958
0.689326 0.679622 0.355413
0.679866 0.674067 0.344488
0.643610 0.654841 0.329747
0.627070 0.643580 0.337621
0.684413 0.658991 0.374853
0.747402 0.646510 0.387457
0.752132 0.596490 0.374517
0.744350 0.556756 0.361852
0.742306 0.718013 0.409155
0.740871 0.716976 0.408911
0.732815 0.713497 0.402594
0.712337 0.704829 0.395148
0.676905 0.688319 0.379400
0.683101 0.688869 0.384710
0.728115 0.698146 0.399756
0.765652 0.674617 0.402197
0.787869 0.650690 0.401923
0.772366 0.738979 0.423468
0.771908 0.738552 0.423102
0.772366 0.738857 0.423072
0.766537 0.739132 0.421424
0.740078 0.734249 0.414252
0.715633 0.721859 0.405432
0.737514 0.726619 0.408057
0.773770 0.713710 0.416510
0.800687 0.699702 0.427832
0.010193 0.018158 0.056611
0.047303 0.025574 0.104341
0.098543 0.031434 0.119051
0.140078 0.035676 0.125734
0.165866 0.035554 0.113649
0.176883 0.031067 0.078340
0.160708 0.027832 0.036194
0.233066 0.036255 0.028016
0.295171 0.043793 0.033661
0.022065 0.068635 0.132052
0.058991 0.039185 0.136385
0.161440 0.041169 0.151980
0.210361 0.041993 0.140352
0.236576 0.038483 0.109865
0.232670 0.032654 0.061372
0.195346 0.031403 0.026947
0.226322 0.035645 0.027070
0.289677 0.043091 0.033051
0.078035 0.262577 0.254704
0.101991 0.242588 0.242527
0.203861 0.192844 0.229068
0.370184 0.152773 0.166293
0.377172 0.126131 0.118502
0.381079 0.091554 0.060883
0.328573 0.058259 0.040192
0.282170 0.042512 0.032441
0.307225 0.045136 0.034974
0.130465 0.371099 0.260319
0.141360 0.342138 0.216129
0.228519 0.340002 0.166506
0.370779 0.349615 0.198184
0.517082 0.297246 0.183108
0.556390 0.237476 0.126360
0.564355 0.197726 0.093538
0.540917 0.173373 0.085542
0.501717 0.131777 0.071901
0.267460 0.473304 0.214725
0.289677 0.450156 0.210208
0.350637 0.452232 0.230137
0.443839 0.478050 0.238621
0.556130 0.477424 0.250706
0.638972 0.405234 0.214191
0.652583 0.325063 0.149340
0.656031 0.290455 0.128878
0.647700 0.262531 0.119753
0.497795 0.584375 0.291508
0.506508 0.583886 0.289158
0.519326 0.582086 0.293004
0.559777 0.587152 0.296178
0.596613 0.590417 0.292638
0.671687 0.569360 0.309758
0.704433 0.526390 0.296147
0.702388 0.462119 0.259815
0.693263 0.408774 0.230671
0.673487 0.686854 0.378424
0.662623 0.676631 0.367163
0.664179 0.671931 0.354040
0.663355 0.666743 0.346288
0.658381 0.662379 0.332830
0.700893 0.667659 0.367071
0.738888 0.651911 0.389319
0.755062 0.612909 0.381842
0.735592 0.539849 0.347082
0.745663 0.731960 0.413458
0.742855 0.729274 0.410285
0.734127 0.721950 0.402014
0.718929 0.711635 0.388373
0.708339 0.707240 0.371038
0.723659 0.708583 0.389380
0.758236 0.704067 0.410590
0.776577 0.684016 0.407691
0.780392 0.631037 0.392432
0.775051 0.748653 0.428931
0.775265 0.747219 0.428443
0.774227 0.746090 0.427802
0.766781 0.743862 0.424903
0.746303 0.736233 0.416571
0.736233 0.731716 0.412360
0.751400 0.732357 0.416846
0.766629 0.715358 0.414282
0.794583 0.695918 0.421149
0.010925 0.022126 0.087800
0.018433 0.023651 0.102602
0.056336 0.028168 0.120119
0.106569 0.033509 0.134615
0.142336 0.037110 0.138064
0.179385 0.039002 0.134432
0.214633 0.039063 0.121981
0.292149 0.037201 0.072084
0.317327 0.041108 0.037751
0.012390 0.028229 0.104433
0.018311 0.027283 0.119936
0.094179 0.035340 0.162142
0.163241 0.041627 0.159548
0.215030 0.044678 0.156191
0.248264 0.044739 0.144289
0.253483 0.040101 0.114015
0.238712 0.032624 0.041321
0.280308 0.041901 0.032074
0.060273 0.197940 0.254185
0.071656 0.187228 0.262913
0.111727 0.163638 0.264347
0.284306 0.124849 0.234409
0.354742 0.096834 0.195254
0.396735 0.069123 0.161563
0.401404 0.049500 0.108431
0.303334 0.037995 0.039246
0.285100 0.042390 0.032593
0.131807 0.410224 0.383078
0.146120 0.389593 0.385412
0.188937 0.365637 0.373144
0.326085 0.323125 0.344274
0.543572 0.276280 0.278355
0.563790 0.209583 0.212634
0.518456 0.143175 0.130266
0.482216 0.094392 0.062501
0.394430 0.069825 0.047944
0.206516 0.537621 0.422126
0.204257 0.497978 0.373251
0.233341 0.480919 0.337133
0.362280 0.474784 0.276707
0.551675 0.488670 0.289982
0.642481 0.431235 0.296666
0.639216 0.350118 0.238239
0.635981 0.289204 0.162127
0.644831 0.256138 0.117372
0.254215 0.598627 0.286198
0.264836 0.599542 0.269291
0.345418 0.586755 0.268345
0.471717 0.587549 0.299596
0.609277 0.612177 0.344457
0.678737 0.596887 0.357000
0.709743 0.536461 0.330358
0.700954 0.440772 0.246830
0.691035 0.367224 0.181094
0.569039 0.669947 0.350835
0.570535 0.663081 0.346105
0.591012 0.662684 0.352605
0.617548 0.664820 0.360632
0.658839 0.672328 0.375189
0.706966 0.679866 0.388678
0.745724 0.664332 0.392279
0.754086 0.614588 0.365179
0.741115 0.553277 0.325231
0.719326 0.734676 0.408881
0.710048 0.725948 0.401862
0.712184 0.721767 0.401648
0.712459 0.718807 0.403937
0.719417 0.718868 0.407446
0.731929 0.720729 0.406561
0.762722 0.708614 0.411170
0.776913 0.685847 0.411780
0.779995 0.653620 0.399603
0.768307 0.762753 0.428534
0.772000 0.763058 0.428260
0.770382 0.761044 0.427070
0.759823 0.754696 0.423133
0.756924 0.750668 0.423957
0.756466 0.747677 0.423590
0.778653 0.739376 0.426337
0.789242 0.716335 0.421790
0.796170 0.688838 0.414527
0.011688 0.025269 0.108248
0.011963 0.024872 0.106691
0.038117 0.028992 0.141115
0.079255 0.033906 0.160220
0.104372 0.035035 0.156069
0.142123 0.038544 0.151522
0.209995 0.044465 0.156832
0.343908 0.050874 0.146609
0.443366 0.052949 0.113771
0.012512 0.028534 0.121767
0.013581 0.027649 0.129763
0.058839 0.033112 0.164736
0.115938 0.038636 0.179904
0.156741 0.042512 0.174228
0.199649 0.046693 0.175479
0.230106 0.046540 0.160952
0.278752 0.041657 0.113619
0.286717 0.038575 0.035157
0.051270 0.163790 0.262730
0.045411 0.141878 0.261204
0.068330 0.121309 0.268925
0.187594 0.096864 0.273472
0.282933 0.073640 0.232853
0.349035 0.064363 0.206241
0.342535 0.054902 0.171786
0.356634 0.048737 0.127840
0.323293 0.039063 0.048951
0.111299 0.361852 0.432853
0.122744 0.341894 0.427131
0.141909 0.322637 0.414649
0.194522 0.297429 0.417014
0.441871 0.255772 0.379889
0.512795 0.214466 0.299031
0.508171 0.139086 0.221363
0.511284 0.075471 0.138720
0.447959 0.052003 0.073426
0.218692 0.554376 0.550439
0.231144 0.541955 0.542504
0.258183 0.527825 0.537316
0.292241 0.521553 0.531411
0.473930 0.472313 0.484825
0.623026 0.433036 0.429831
0.692897 0.325551 0.329763
0.625834 0.241840 0.228382
0.600977 0.222095 0.153368
0.289555 0.634974 0.570672
0.294316 0.629755 0.561120
0.309026 0.614832 0.522042
0.303197 0.611902 0.451362
0.506432 0.596490 0.419120
0.664805 0.611933 0.413535
0.735836 0.569787 0.400229
0.733974 0.477455 0.337713
0.688380 0.401434 0.279088
0.357397 0.674006 0.440711
0.350530 0.670130 0.422766
0.377035 0.669734 0.417075
0.447349 0.658442 0.373678
0.578515 0.666102 0.403128
0.692760 0.688014 0.415167
0.751980 0.674159 0.414984
0.776486 0.627375 0.392340
0.747860 0.555200 0.362066
0.633951 0.718196 0.467109
0.639414 0.712398 0.418311
0.636698 0.709041 0.406653
0.644450 0.709041 0.400305
0.674983 0.714839 0.409613
0.719844 0.725521 0.421485
0.764248 0.720729 0.421668
0.788724 0.690730 0.412238
0.780880 0.653559 0.399634
0.724575 0.754116 0.474434
0.735897 0.757809 0.463508
0.739010 0.755184 0.442145
0.736568 0.751369 0.432532
0.738430 0.750484 0.424536
0.748287 0.752346 0.421973
0.766934 0.750607 0.424628
0.790433 0.726436 0.427070
0.798123 0.707362 0.419318
0.012970 0.029694 0.139040
0.012451 0.028199 0.128542
0.013916 0.028901 0.139223
0.046113 0.032471 0.169100
0.074922 0.035340 0.174868
0.081086 0.035187 0.170504
0.161379 0.043366 0.177554
0.432395 0.071626 0.221469
0.514641 0.076081 0.208560
0.013275 0.030701 0.144350
0.013184 0.030121 0.143740
0.030182 0.032227 0.173770
0.082155 0.038666 0.200748
0.130037 0.043091 0.213474
0.139559 0.043122 0.202487
0.169894 0.045808 0.191989
0.257511 0.049409 0.169589
0.442588 0.057588 0.140948
0.048035 0.150423 0.274998
0.033021 0.097688 0.245487
0.028199 0.071946 0.250889
0.122881 0.064851 0.281712
0.219806 0.066224 0.274723
0.238987 0.060243 0.241367
0.267994 0.058442 0.218418
0.361608 0.060517 0.193851
0.418860 0.053071 0.126314
0.096681 0.315328 0.431479
0.090028 0.291463 0.423148
0.099245 0.289235 0.433143
0.146044 0.270832 0.425971
0.282704 0.230945 0.481514
0.406271 0.197742 0.360189
0.482795 0.143572 0.287694
0.507774 0.089815 0.219486
0.527764 0.072267 0.166842
0.197482 0.519539 0.578607
0.196307 0.493034 0.564813
0.212940 0.485832 0.561547
0.247700 0.467460 0.555169
0.322957 0.446555 0.587121
0.544762 0.408927 0.523247
0.643915 0.342519 0.445777
0.634653 0.259297 0.331731
0.617548 0.195544 0.230106
0.290776 0.630945 0.637995
0.302617 0.628016 0.637934
0.333654 0.624506 0.635248
0.350774 0.627344 0.637873
0.412253 0.629755 0.639094
0.609735 0.604822 0.606348
0.670130 0.582574 0.575982
0.702174 0.494469 0.485801
0.744656 0.401572 0.363180
0.375921 0.694484 0.649470
0.375769 0.686000 0.654566
0.371313 0.686854 0.640253
0.365393 0.686915 0.616922
0.415152 0.678096 0.573739
0.621637 0.666865 0.561975
0.722499 0.681483 0.550805
0.764950 0.655970 0.521508
0.775509 0.608392 0.458305
0.501366 0.715389 0.586725
0.468910 0.706691 0.555428
0.454383 0.702327 0.544671
0.474296 0.696071 0.520027
0.541695 0.691432 0.501671
0.646357 0.706722 0.513237
0.737331 0.723964 0.508263
0.786007 0.705776 0.495399
0.797879 0.685939 0.469245
0.650385 0.732662 0.577325
0.665125 0.736751 0.556848
0.659419 0.732815 0.512352
0.660395 0.731380 0.497810
0.670802 0.733730 0.480842
0.699550 0.743709 0.468605
0.736202 0.748470 0.469612
0.776730 0.740749 0.445136
0.807797 0.727962 0.454109
0.014893 0.035096 0.179110
0.014343 0.033570 0.167971
0.014282 0.033417 0.166659
0.019196 0.034180 0.187350
0.044404 0.036011 0.202243
0.061585 0.037751 0.206302
0.162173 0.051789 0.259495
0.405158 0.080018 0.274754
0.539605 0.093050 0.267735
0.014069 0.032868 0.162844
0.014008 0.032685 0.161837
0.014649 0.033387 0.170748
0.058564 0.038758 0.217899
0.107942 0.044648 0.243137
0.119905 0.045167 0.242679
0.106966 0.042542 0.223514
0.235599 0.059205 0.241733
0.539422 0.090852 0.258824
0.037385 0.112764 0.255894
0.032807 0.096864 0.246647
0.021363 0.056245 0.229129
0.072816 0.052216 0.285252
0.182742 0.061036 0.311559
0.221256 0.063325 0.294163
0.205936 0.057618 0.263096
0.310948 0.068086 0.252934
0.485634 0.077638 0.228000
0.088655 0.286854 0.420035
0.082490 0.264881 0.407980
0.077546 0.246998 0.403952
0.087114 0.236774 0.426886
0.185138 0.217868 0.477897
0.320134 0.180316 0.415671
0.357321 0.129351 0.344533
0.481209 0.105013 0.295964
0.556146 0.092134 0.250523
0.160052 0.478538 0.576257
0.164721 0.466026 0.571313
0.175738 0.455650 0.566766
0.195666 0.435843 0.559808
0.272633 0.426749 0.574868
0.396368 0.384329 0.601587
0.535943 0.343435 0.543267
0.628458 0.289448 0.437644
0.621332 0.215290 0.317159
0.266087 0.610498 0.647822
0.277287 0.607416 0.651423
0.295262 0.598169 0.646571
0.332372 0.594018 0.646967
0.357519 0.595483 0.668635
0.513771 0.581476 0.653529
0.612543 0.564920 0.624445
0.670100 0.518380 0.589288
0.717281 0.422721 0.498955
0.359991 0.679408 0.686366
0.376440 0.675380 0.691096
0.380163 0.675074 0.688563
0.381353 0.680079 0.693538
0.423255 0.687953 0.702846
0.563073 0.684596 0.692439
0.685328 0.678370 0.677028
0.715175 0.666163 0.660273
0.724880 0.629633 0.620752
0.427558 0.743099 0.714809
0.406256 0.730159 0.711940
0.398199 0.722896 0.702480
0.404273 0.724941 0.694789
0.433265 0.724910 0.683345
0.533715 0.716884 0.659266
0.686183 0.709133 0.646448
0.754696 0.721126 0.642298
0.773922 0.710597 0.630640
0.542229 0.747524 0.680476
0.568139 0.737850 0.651576
0.497047 0.729091 0.632837
0.500435 0.732296 0.641047
0.544167 0.724422 0.615228
0.607141 0.717433 0.590845
0.674739 0.730800 0.578302
0.757870 0.748623 0.566735
0.795346 0.745113 0.585565
0.015717 0.037507 0.192325
0.015686 0.037354 0.191501
0.015930 0.038025 0.195956
0.018891 0.039216 0.224918
0.030335 0.039826 0.234043
0.045960 0.040772 0.243046
0.146059 0.052705 0.290440
0.315770 0.079072 0.311131
0.498329 0.094881 0.301274
0.015473 0.036713 0.188235
0.015015 0.035401 0.180941
0.015106 0.035645 0.182406
0.032471 0.038697 0.225620
0.096193 0.046876 0.270512
0.117159 0.049409 0.282048
0.160311 0.054231 0.291325
0.236179 0.064088 0.282078
0.532891 0.098512 0.296452
0.027253 0.077119 0.238041
0.027131 0.076814 0.237034
0.022736 0.060914 0.232609
0.025483 0.048371 0.276249
0.118685 0.055818 0.321538
0.190127 0.061311 0.323949
0.206607 0.061952 0.305882
0.252689 0.067567 0.290257
0.511925 0.094026 0.289860
0.082063 0.264149 0.399741
0.079774 0.255711 0.398276
0.073182 0.232273 0.388922
0.062440 0.192462 0.389212
0.117876 0.205249 0.443351
0.219425 0.174121 0.468757
0.317723 0.140887 0.399344
0.394934 0.115312 0.355657
0.552239 0.111055 0.315557
0.139040 0.450309 0.568872
0.139178 0.443381 0.570550
0.137163 0.419455 0.559350
0.142412 0.388144 0.545098
0.218097 0.396231 0.561654
0.301396 0.396292 0.640711
0.439033 0.345876 0.612360
0.549828 0.314931 0.547433
0.607736 0.249775 0.410513
0.243656 0.590204 0.650538
0.274418 0.600977 0.659846
0.275181 0.587518 0.652552
0.317937 0.583459 0.653803
0.346258 0.577966 0.671717
0.460472 0.575280 0.681971
0.558572 0.556619 0.647211
0.610529 0.530312 0.636988
0.688533 0.465171 0.594583
0.331640 0.668910 0.696895
0.376806 0.667018 0.702205
0.375586 0.663233 0.699184
0.384253 0.670985 0.712093
0.439155 0.670436 0.720211
0.543130 0.666346 0.710628
0.655665 0.667659 0.692500
0.686793 0.664851 0.688045
0.710292 0.647089 0.673762
0.405554 0.723537 0.736507
0.404395 0.720546 0.733303
0.406561 0.716182 0.733761
0.418921 0.717586 0.734188
0.470832 0.719173 0.735744
0.566552 0.719844 0.731685
0.670130 0.718685 0.722286
0.728450 0.718959 0.716548
0.742397 0.715938 0.712245
0.475715 0.758816 0.749538
0.486275 0.761898 0.741878
0.445441 0.750423 0.732113
0.444099 0.747677 0.736538
0.498817 0.754421 0.738552
0.542443 0.752773 0.730007
0.606439 0.743496 0.704463
0.725948 0.738216 0.695247
0.768795 0.749660 0.708186
0.016327 0.039338 0.204074
0.016266 0.039185 0.203220
0.016541 0.039918 0.206973
0.020172 0.040864 0.237034
0.039185 0.041596 0.250889
0.048005 0.042176 0.253910
0.106722 0.049134 0.284977
0.231357 0.066865 0.313573
0.390600 0.087800 0.321080
0.016968 0.041321 0.211368
0.016663 0.040314 0.208957
0.017395 0.041901 0.219547
0.094667 0.049653 0.297032
0.115572 0.052674 0.310796
0.096101 0.048432 0.285557
0.204929 0.062593 0.313451
0.338262 0.082795 0.321111
0.462379 0.093324 0.312749
0.049104 0.150668 0.313573
0.018494 0.046540 0.220188
0.017945 0.045289 0.211673
0.019043 0.046510 0.239063
0.101442 0.056794 0.343206
0.126680 0.059236 0.354650
0.195407 0.063416 0.338445
0.327428 0.082979 0.330663
0.487800 0.097566 0.319127
0.091249 0.295018 0.433204
0.065522 0.207324 0.354879
0.062715 0.196826 0.354604
0.064027 0.197314 0.398978
0.098375 0.194751 0.447959
0.184848 0.188586 0.515190
0.277104 0.168200 0.458518
0.367041 0.157855 0.418235
0.523064 0.163058 0.384710
0.137881 0.447929 0.568414
0.130022 0.423667 0.558022
0.127977 0.403311 0.554513
0.128649 0.379080 0.551293
0.179767 0.380209 0.557427
0.296300 0.401511 0.646204
0.387640 0.366262 0.647181
0.502556 0.344167 0.609583
0.593805 0.322377 0.552071
0.241794 0.595819 0.660334
0.286198 0.607630 0.670649
0.280400 0.584253 0.659358
0.300649 0.571328 0.655085
0.326940 0.551720 0.650263
0.440848 0.571450 0.694301
0.539376 0.565576 0.670741
0.594049 0.554177 0.656367
0.638148 0.533516 0.647517
0.314580 0.658198 0.697597
0.354437 0.657618 0.700404
0.397131 0.676661 0.733364
0.429206 0.673915 0.735866
0.478462 0.667140 0.730648
0.570809 0.663142 0.718471
0.653254 0.668330 0.703883
0.684352 0.672511 0.699641
0.697932 0.669978 0.695399
0.392950 0.699489 0.725917
0.399359 0.705623 0.731289
0.445563 0.719295 0.753353
0.458686 0.711452 0.750210
0.544152 0.713069 0.747036
0.605890 0.708339 0.738125
0.681208 0.710842 0.729580
0.726589 0.718410 0.727993
0.736171 0.721950 0.726192
0.433509 0.743069 0.761410
0.441871 0.747219 0.761868
0.476081 0.749294 0.764096
0.519890 0.745174 0.761410
0.517174 0.741604 0.758724
0.542779 0.737667 0.753994
0.631495 0.738003 0.747890
0.728725 0.743435 0.744137
0.755062 0.745846 0.744167
