tools/luts_backup/Kodak Vision3 500T 5219 (NEG)_FC.cube
# (C) 2014 VisionColor & Patchflyer [www.vision-color.com]
# Generator: VC Patchmatch v.2.1.1 [64/53]
# All work and no play makes Jack a dull boy.
# LUT generated from: BMD Film to Kodak Vision3 500T 5219 (NEG)_FC01
LUT_3D_SIZE 17
0.027451 0.027451 0.027451
0.066667 0.027451 0.027451
0.109804 0.023529 0.019608
0.137255 0.027451 0.019608
0.211765 0.050980 0.031373
0.278431 0.066667 0.039216
0.368643 0.098039 0.058824
0.458839 0.121569 0.070588
0.572549 0.121569 0.082353
0.627451 0.113725 0.082353
0.674510 0.117647 0.090196
0.682353 0.105882 0.086275
0.690196 0.101961 0.086275
0.694118 0.098039 0.086275
0.690196 0.094118 0.082353
0.686275 0.090196 0.082353
0.690196 0.086275 0.082353
0.039216 0.035294 0.019608
0.054902 0.031373 0.023529
0.105882 0.031373 0.019608
0.129412 0.031373 0.019608
0.219608 0.054902 0.035294
0.290196 0.070588 0.043137
0.376471 0.101961 0.058824
0.462760 0.121569 0.074510
0.580392 0.125490 0.082353
0.647044 0.121569 0.086275
0.678431 0.129412 0.094118
0.690196 0.121569 0.090196
0.694118 0.113725 0.090196
0.698039 0.113725 0.090196
0.694118 0.113725 0.090196
0.698039 0.117647 0.090196
0.701961 0.121569 0.094118
0.058824 0.062745 0.023529
0.066667 0.066667 0.023529
0.098039 0.054902 0.023529
0.133333 0.054902 0.027451
0.215686 0.070588 0.039216
0.294118 0.094118 0.050980
0.360800 0.109804 0.062745
0.470603 0.133333 0.078431
0.568643 0.137255 0.086275
0.647059 0.129412 0.090196
0.682353 0.137255 0.094118
0.698039 0.129412 0.094118
0.694118 0.113725 0.090196
0.698039 0.121569 0.094118
0.701961 0.125490 0.094118
0.698039 0.129412 0.094118
0.701961 0.137255 0.098039
0.062745 0.101961 0.035294
0.078431 0.109804 0.039216
0.109804 0.117647 0.039216
0.133333 0.098039 0.039216
0.215686 0.109804 0.047059
0.294118 0.125490 0.058824
0.364721 0.133333 0.066667
0.478447 0.156863 0.082353
0.588251 0.168627 0.098039
0.662730 0.172549 0.105882
0.690196 0.160784 0.101961
0.701961 0.149020 0.098039
0.701961 0.137255 0.098039
0.701961 0.133333 0.094118
0.701961 0.133333 0.094118
0.701961 0.137255 0.098039
0.701961 0.141176 0.098039
0.062745 0.152941 0.047059
0.078431 0.156863 0.050980
0.109804 0.164706 0.054902
0.168627 0.172549 0.062745
0.219608 0.152941 0.058824
0.305882 0.164706 0.070588
0.380407 0.176471 0.078431
0.501976 0.203922 0.098039
0.611780 0.219608 0.109804
0.690196 0.235294 0.125490
0.705882 0.215686 0.117647
0.713726 0.192157 0.113725
0.717647 0.184314 0.109804
0.717647 0.176471 0.109804
0.709804 0.164706 0.101961
0.713726 0.168627 0.105882
0.709804 0.160784 0.101961
0.066667 0.203922 0.062745
0.074510 0.207843 0.062745
0.113725 0.215686 0.066667
0.176471 0.231373 0.078431
0.286290 0.266682 0.098039
0.313741 0.223529 0.090196
0.403937 0.239231 0.101961
0.513741 0.258839 0.117647
0.643153 0.294118 0.137255
0.717647 0.313726 0.149020
0.741176 0.313726 0.152941
0.737255 0.274525 0.141176
0.737255 0.247074 0.133333
0.729412 0.235294 0.125490
0.721569 0.223529 0.121569
0.725490 0.211765 0.117647
0.725490 0.207843 0.117647
0.090196 0.286290 0.090196
0.098039 0.286290 0.086275
0.133333 0.294133 0.090196
0.203922 0.313741 0.105882
0.309819 0.345113 0.121569
0.419623 0.372564 0.137255
0.447074 0.329427 0.129412
0.545113 0.333349 0.141176
0.674525 0.368643 0.160784
0.741176 0.384314 0.176471
0.764706 0.396078 0.184314
0.764706 0.368643 0.172549
0.756863 0.341192 0.164706
0.752941 0.325505 0.156863
0.749020 0.309819 0.152941
0.749020 0.301961 0.149020
0.745098 0.290196 0.145098
0.145098 0.466682 0.141176
0.152956 0.439231 0.133333
0.192172 0.431388 0.137255
0.254917 0.427466 0.141176
0.341192 0.439231 0.152941
0.435309 0.454917 0.164706
0.564721 0.474525 0.184314
0.596094 0.423545 0.172549
0.698054 0.431388 0.184314
0.768627 0.462760 0.203922
0.784314 0.466682 0.207843
0.796078 0.470603 0.211765
0.788235 0.454917 0.203922
0.784314 0.431388 0.196078
0.780392 0.423545 0.192157
0.772549 0.403937 0.184314
0.768627 0.388251 0.180392
0.211765 0.658839 0.200000
0.227466 0.639231 0.196078
0.262760 0.603937 0.192157
0.345113 0.607858 0.203922
0.419623 0.603952 0.207858
0.501976 0.600031 0.215702
0.525521 0.533364 0.196094
0.737270 0.643168 0.270604
0.764721 0.552956 0.239231
0.796078 0.568643 0.250996
0.815686 0.580407 0.262760
0.823529 0.588251 0.266682
0.811780 0.564736 0.250996
0.807843 0.549035 0.247074
0.815686 0.552956 0.247059
0.807843 0.533349 0.239216
0.800000 0.509819 0.227466
0.266667 0.807828 0.247059
0.278431 0.803906 0.250980
0.325490 0.772534 0.250980
0.435279 0.784298 0.274495
0.537240 0.796063 0.298024
0.619608 0.803906 0.317632
0.748989 0.827405 0.364675
0.749035 0.737270 0.317662
0.909789 0.890150 0.454856
0.854887 0.737240 0.345083
0.858824 0.737240 0.345083
0.866667 0.745083 0.352926
0.862745 0.733318 0.345083
0.862745 0.737240 0.349004
0.850980 0.698024 0.325475
0.854902 0.694102 0.321553
0.839216 0.666651 0.305867
0.282353 0.878431 0.266667
0.298039 0.870588 0.266667
0.349020 0.870588 0.278431
0.462745 0.847059 0.301961
0.588235 0.862745 0.337255
0.686275 0.874510 0.368627
0.811765 0.894118 0.419608
0.894118 0.913710 0.462730
0.921569 0.917647 0.478431
0.929412 0.925490 0.486275
0.917647 0.890181 0.458808
0.909804 0.866651 0.443137
0.905882 0.862730 0.439216
0.909804 0.866651 0.439200
0.901961 0.850965 0.427436
0.898039 0.850965 0.423514
0.890196 0.827436 0.411749
0.294118 0.898039 0.274510
0.309804 0.901961 0.278431
0.364706 0.890196 0.290196
0.494118 0.886275 0.321569
0.631373 0.894118 0.364706
0.741176 0.905882 0.403922
0.835309 0.913725 0.443137
0.905882 0.925490 0.474510
0.929412 0.933333 0.494118
0.933333 0.933333 0.490196
0.937255 0.937255 0.498039
0.933333 0.929412 0.490196
0.933333 0.921569 0.486275
0.925490 0.913725 0.474510
0.929412 0.917647 0.478431
0.925490 0.913725 0.478431
0.929412 0.913725 0.478431
0.305882 0.894118 0.282353
0.321569 0.894118 0.286275
0.384314 0.898039 0.298039
0.505882 0.894118 0.329412
0.647059 0.901961 0.372549
0.764706 0.905882 0.415686
0.870588 0.925490 0.462745
0.921569 0.937255 0.490196
0.937255 0.937255 0.498039
0.941176 0.941176 0.498039
0.937255 0.937255 0.494118
0.937255 0.937255 0.498039
0.937255 0.937255 0.494118
0.937255 0.933333 0.494118
0.937255 0.933333 0.494118
0.937255 0.937255 0.498039
0.933333 0.929412 0.490196
0.317647 0.898039 0.286275
0.329412 0.894118 0.290196
0.396078 0.890196 0.301961
0.513726 0.886275 0.329412
0.654902 0.905882 0.376471
0.784314 0.913725 0.423529
0.890196 0.929412 0.470588
0.925490 0.937255 0.494118
0.937255 0.941176 0.498039
0.941176 0.941176 0.501961
0.933333 0.933333 0.494118
0.933333 0.933333 0.494118
0.937255 0.937255 0.498039
0.941176 0.941176 0.501961
0.941176 0.941176 0.501961
0.933333 0.933333 0.494118
0.933333 0.933333 0.490196
0.329412 0.886275 0.294118
0.345098 0.894118 0.298039
0.407843 0.886275 0.305882
0.537255 0.894118 0.341176
0.670604 0.901961 0.380392
0.796094 0.921569 0.431373
0.894118 0.929412 0.474510
0.921569 0.933333 0.490196
0.941176 0.941176 0.498039
0.937255 0.937255 0.498039
0.937255 0.937255 0.494118
0.937255 0.937255 0.494118
0.941176 0.941176 0.498039
0.933333 0.933333 0.490196
0.937255 0.937255 0.498039
0.941176 0.941176 0.501961
0.937255 0.937255 0.498039
0.337255 0.886275 0.294118
0.352941 0.886275 0.298039
0.419608 0.886275 0.309804
0.545098 0.890196 0.341176
0.678447 0.901961 0.380392
0.807858 0.917647 0.435294
0.898039 0.933333 0.478431
0.933333 0.941176 0.498039
0.937255 0.937255 0.494118
0.937255 0.937255 0.498039
0.941176 0.941176 0.498039
0.945098 0.945098 0.501961
0.941176 0.941176 0.501961
0.933333 0.933333 0.494118
0.937255 0.937255 0.498039
0.937255 0.937255 0.498039
0.941176 0.941176 0.498039
0.349020 0.886275 0.294118
0.364706 0.878431 0.298039
0.423529 0.878431 0.309804
0.556863 0.886275 0.341176
0.694133 0.901961 0.388235
0.831373 0.921569 0.443137
0.901961 0.925490 0.474510
0.929412 0.933333 0.490196
0.941176 0.941176 0.501961
0.937255 0.937255 0.498039
0.937255 0.937255 0.494118
0.933333 0.933333 0.494118
0.933333 0.933333 0.494118
0.929412 0.929412 0.490196
0.941176 0.941176 0.501961
0.933333 0.933333 0.494118
0.933333 0.933333 0.494118
0.035294 0.027451 0.043137
0.047059 0.023529 0.035294
0.105882 0.019608 0.031373
0.160784 0.023529 0.035294
0.286275 0.039216 0.039216
0.384329 0.058824 0.050980
0.490211 0.078431 0.066667
0.584329 0.101961 0.082353
0.686275 0.113725 0.094118
0.717647 0.105882 0.094118
0.694118 0.094118 0.086275
0.694118 0.086275 0.082353
0.678431 0.078431 0.082353
0.682353 0.078431 0.078431
0.682353 0.078431 0.078431
0.682353 0.078431 0.082353
0.686275 0.078431 0.086275
0.035294 0.031373 0.031373
0.047059 0.039216 0.031373
0.121569 0.031373 0.031373
0.172549 0.039216 0.027451
0.243137 0.050980 0.035294
0.305898 0.074510 0.047059
0.419623 0.098039 0.062745
0.545113 0.121569 0.082353
0.654917 0.129412 0.094118
0.698039 0.125490 0.094118
0.682353 0.121569 0.090196
0.690196 0.109804 0.090196
0.686275 0.086275 0.082353
0.682353 0.086275 0.078431
0.682353 0.078431 0.078431
0.694118 0.082353 0.082353
0.686275 0.078431 0.082353
0.054902 0.062745 0.023529
0.062745 0.062745 0.023529
0.101961 0.066667 0.027451
0.133333 0.062745 0.027451
0.207843 0.074510 0.039216
0.294118 0.090196 0.050980
0.368643 0.113725 0.058824
0.466682 0.133333 0.074510
0.572564 0.137255 0.086275
0.643137 0.133333 0.090196
0.682353 0.137255 0.094118
0.694118 0.133333 0.094118
0.698039 0.117647 0.090196
0.698039 0.113725 0.090196
0.694118 0.109804 0.090196
0.698039 0.109804 0.090196
0.694118 0.105882 0.086275
0.062745 0.113725 0.039216
0.074510 0.109804 0.035294
0.098039 0.113725 0.039216
0.137255 0.105882 0.043137
0.215686 0.113725 0.050980
0.298039 0.129412 0.062745
0.368643 0.141176 0.070588
0.478447 0.164706 0.086275
0.592172 0.176471 0.098039
0.662745 0.168627 0.101961
0.698039 0.168627 0.105882
0.705882 0.156863 0.101961
0.709804 0.145098 0.101961
0.701961 0.137255 0.098039
0.701961 0.129412 0.094118
0.705882 0.137255 0.098039
0.705882 0.137255 0.098039
0.058824 0.156863 0.047059
0.070588 0.152941 0.047059
0.101961 0.156863 0.050980
0.156863 0.168627 0.058824
0.223529 0.160784 0.066667
0.294133 0.164706 0.070588
0.392172 0.188235 0.086275
0.490211 0.203922 0.098039
0.615702 0.231373 0.113725
0.694118 0.243137 0.129412
0.717647 0.227451 0.125490
0.717647 0.200015 0.117647
0.717647 0.188235 0.113725
0.713726 0.176471 0.109804
0.709804 0.168627 0.105882
0.705882 0.160784 0.101961
0.709804 0.160784 0.101961
0.066667 0.215686 0.066667
0.074510 0.215686 0.066667
0.109804 0.219608 0.070588
0.164706 0.227451 0.078431
0.282353 0.270588 0.098039
0.317662 0.235309 0.094118
0.411780 0.254902 0.105882
0.517662 0.270604 0.117647
0.635309 0.290211 0.133333
0.717647 0.317647 0.149020
0.745098 0.317647 0.152941
0.741176 0.286290 0.145098
0.737255 0.258824 0.133333
0.733333 0.239231 0.129412
0.729412 0.231373 0.125490
0.721569 0.215686 0.117647
0.721569 0.211765 0.121569
0.090196 0.286290 0.090196
0.098039 0.294133 0.090196
0.125490 0.286290 0.090196
0.188251 0.305898 0.101961
0.294133 0.337270 0.117647
0.400015 0.360800 0.133333
0.443153 0.337270 0.129412
0.552956 0.356863 0.145098
0.662760 0.364721 0.156863
0.737255 0.384329 0.172549
0.764706 0.392157 0.180392
0.768627 0.376486 0.176471
0.764706 0.356878 0.168627
0.756863 0.337270 0.160784
0.749020 0.317662 0.156863
0.752941 0.305898 0.149020
0.749020 0.298039 0.149020
0.137255 0.458854 0.141176
0.156863 0.478447 0.145098
0.176486 0.419623 0.129412
0.250996 0.431388 0.141176
0.341192 0.443153 0.152941
0.431388 0.458839 0.164706
0.541192 0.470603 0.180392
0.592172 0.431388 0.172549
0.713741 0.447074 0.192157
0.772549 0.482368 0.211765
0.788235 0.482368 0.215686
0.792157 0.478447 0.215686
0.792157 0.462760 0.207843
0.780392 0.439231 0.196078
0.776471 0.431388 0.196078
0.772549 0.407858 0.184314
0.772549 0.400015 0.184314
0.211765 0.678447 0.203922
0.215686 0.650996 0.196078
0.250996 0.588266 0.188251
0.337270 0.607858 0.200000
0.427466 0.611780 0.211780
0.498054 0.607874 0.219623
0.537285 0.552972 0.203937
0.686305 0.603952 0.247074
0.772564 0.576486 0.250996
0.807843 0.592172 0.262760
0.823529 0.603937 0.270588
0.819608 0.592187 0.266682
0.823529 0.596094 0.266682
0.819608 0.572580 0.254917
0.815686 0.560800 0.250996
0.807843 0.541192 0.243153
0.800000 0.521584 0.231388
0.254902 0.815671 0.243137
0.270588 0.807828 0.247059
0.321569 0.796063 0.258808
0.423514 0.772534 0.266651
0.529397 0.792142 0.294102
0.600000 0.792142 0.309804
0.717632 0.811734 0.345083
0.752956 0.752941 0.325490
0.894102 0.870542 0.439185
0.862730 0.760769 0.360769
0.870573 0.772519 0.372534
0.862745 0.745083 0.352926
0.866667 0.756848 0.360769
0.866667 0.745083 0.352926
0.854902 0.721553 0.337240
0.850980 0.713710 0.333318
0.847059 0.686259 0.317632
0.274510 0.882353 0.262745
0.286275 0.886275 0.266667
0.337255 0.882353 0.278431
0.454902 0.854902 0.301961
0.580392 0.858824 0.333333
0.686275 0.882353 0.376471
0.803922 0.898039 0.423529
0.886275 0.909789 0.458824
0.917647 0.913725 0.474510
0.929412 0.925490 0.486275
0.913725 0.886275 0.454902
0.913725 0.882338 0.450980
0.909804 0.878416 0.447059
0.909804 0.874495 0.443137
0.909804 0.866651 0.439200
0.905882 0.858808 0.435279
0.901961 0.850965 0.427436
0.290196 0.901961 0.274510
0.294118 0.901961 0.270588
0.352941 0.898039 0.286275
0.470588 0.886275 0.313726
0.607843 0.890196 0.356863
0.717647 0.894118 0.392157
0.835294 0.917647 0.443137
0.901961 0.925490 0.474510
0.933333 0.933333 0.494118
0.933333 0.933333 0.494118
0.941176 0.937255 0.498039
0.929412 0.925490 0.486275
0.929412 0.921569 0.482353
0.933333 0.925490 0.486275
0.929412 0.921569 0.482353
0.929412 0.921569 0.482353
0.929412 0.913725 0.478431
0.301961 0.898039 0.282353
0.305882 0.898039 0.278431
0.368627 0.901961 0.294118
0.490196 0.901961 0.325490
0.631373 0.905882 0.368627
0.756863 0.905882 0.407843
0.866667 0.929412 0.462745
0.917647 0.937255 0.486275
0.929412 0.933333 0.490196
0.937255 0.937255 0.498039
0.937255 0.933333 0.494118
0.937255 0.937255 0.494118
0.937255 0.937255 0.498039
0.933333 0.929412 0.490196
0.937255 0.937255 0.498039
0.941176 0.937255 0.498039
0.937255 0.933333 0.494118
0.309804 0.894118 0.282353
0.321569 0.901961 0.286275
0.384314 0.901961 0.298039
0.505882 0.898039 0.325490
0.639231 0.901961 0.368627
0.760800 0.909804 0.411765
0.874510 0.921569 0.462745
0.921569 0.933333 0.486275
0.929412 0.933333 0.490196
0.937255 0.937255 0.498039
0.933333 0.933333 0.494118
0.933333 0.933333 0.494118
0.937255 0.937255 0.498039
0.937255 0.937255 0.498039
0.933333 0.933333 0.494118
0.933333 0.933333 0.490196
0.937255 0.937255 0.498039
0.321569 0.890196 0.290196
0.329412 0.898039 0.290196
0.392157 0.898039 0.301961
0.513726 0.901961 0.329412
0.654917 0.898039 0.372549
0.784329 0.913725 0.423529
0.886275 0.925490 0.466667
0.929412 0.937255 0.494118
0.933333 0.937255 0.494118
0.941176 0.941176 0.501961
0.937255 0.937255 0.498039
0.941176 0.941176 0.501961
0.937255 0.937255 0.494118
0.937255 0.937255 0.494118
0.941176 0.941176 0.501961
0.937255 0.937255 0.498039
0.937255 0.937255 0.494118
0.337255 0.882353 0.294118
0.337255 0.890196 0.294118
0.403922 0.894118 0.305882
0.521569 0.898039 0.333333
0.666667 0.898039 0.376471
0.792172 0.913725 0.423529
0.882353 0.921569 0.466667
0.933333 0.941176 0.498039
0.941176 0.941176 0.501961
0.933333 0.933333 0.490196
0.933333 0.933333 0.494118
0.941176 0.941176 0.498039
0.933333 0.933333 0.490196
0.941176 0.941176 0.501961
0.937255 0.937255 0.498039
0.941176 0.941176 0.501961
0.941176 0.941176 0.501961
0.349020 0.882353 0.294118
0.349020 0.882353 0.294118
0.415686 0.886275 0.305882
0.541176 0.894118 0.341176
0.678431 0.901961 0.384314
0.800015 0.909804 0.427451
0.898039 0.933333 0.478431
0.929412 0.937255 0.494118
0.933333 0.933333 0.494118
0.937255 0.937255 0.498039
0.929412 0.929412 0.490196
0.933333 0.933333 0.490196
0.937255 0.937255 0.498039
0.937255 0.937255 0.498039
0.941176 0.941176 0.498039
0.937255 0.937255 0.498039
0.933333 0.933333 0.494118
0.031373 0.011765 0.074510
0.039216 0.011765 0.070588
0.066667 0.015686 0.066667
0.105882 0.015686 0.074510
0.184314 0.023529 0.082353
0.294118 0.035294 0.090196
0.407858 0.050980 0.109804
0.556878 0.074510 0.133333
0.674510 0.094118 0.152941
0.717647 0.098039 0.149020
0.682368 0.086275 0.137255
0.658824 0.078431 0.133333
0.666667 0.078431 0.133333
0.678431 0.082353 0.125490
0.682353 0.082353 0.121569
0.682353 0.078431 0.121569
0.682353 0.082353 0.125490
0.035294 0.019608 0.086275
0.047059 0.019608 0.082353
0.086275 0.023529 0.074510
0.137255 0.019608 0.074510
0.262745 0.039216 0.086275
0.372549 0.050980 0.094118
0.466682 0.066667 0.101961
0.572564 0.082353 0.109804
0.690211 0.101961 0.133333
0.741176 0.105882 0.137255
0.717647 0.090196 0.121569
0.690196 0.086275 0.129412
0.670588 0.078431 0.125490
0.682353 0.082353 0.121569
0.686275 0.082353 0.113725
0.690196 0.082353 0.113725
0.686275 0.082353 0.117647
0.031373 0.054902 0.066667
0.047059 0.062745 0.066667
0.074510 0.066667 0.058824
0.160784 0.062745 0.058824
0.282353 0.070588 0.058824
0.376471 0.086275 0.070588
0.466682 0.105882 0.082353
0.568643 0.125490 0.098039
0.694133 0.141176 0.113725
0.764706 0.141176 0.121569
0.776471 0.133333 0.117647
0.776471 0.113725 0.121569
0.729412 0.094118 0.129412
0.690196 0.082353 0.113725
0.690196 0.082353 0.105882
0.686275 0.078431 0.105882
0.686275 0.078431 0.109804
0.035294 0.109804 0.066667
0.035294 0.113725 0.054902
0.078431 0.117647 0.043137
0.137255 0.105882 0.047059
0.243137 0.117647 0.054902
0.329412 0.129412 0.066667
0.411780 0.141176 0.074510
0.490211 0.156863 0.086275
0.607858 0.168627 0.098039
0.678431 0.168627 0.105882
0.698039 0.168627 0.105882
0.709804 0.164706 0.109804
0.705882 0.145098 0.101961
0.701961 0.129412 0.094118
0.701961 0.121569 0.094118
0.698039 0.113725 0.090196
0.694118 0.098039 0.086275
0.047059 0.156863 0.074510
0.050980 0.176471 0.058824
0.078431 0.164706 0.050980
0.141176 0.168627 0.058824
0.219608 0.160784 0.062745
0.313726 0.176471 0.074510
0.392172 0.188235 0.086275
0.490211 0.207843 0.098039
0.592172 0.223529 0.113725
0.690181 0.239216 0.125490
0.709804 0.223529 0.121569
0.717647 0.200000 0.117647
0.713726 0.176471 0.109804
0.713726 0.164706 0.105882
0.709804 0.160784 0.101961
0.705882 0.156863 0.101961
0.701961 0.149020 0.101961
0.066667 0.215686 0.090196
0.066667 0.215686 0.074510
0.086275 0.250980 0.074510
0.149020 0.243137 0.078431
0.262745 0.266667 0.094118
0.317662 0.247059 0.094118
0.403937 0.254902 0.105882
0.517662 0.278431 0.121569
0.615702 0.290211 0.133333
0.713710 0.317647 0.149020
0.737255 0.309804 0.149020
0.745098 0.294118 0.149020
0.729412 0.250996 0.129412
0.733333 0.243137 0.129412
0.721569 0.219608 0.121569
0.721569 0.207843 0.117647
0.721569 0.200000 0.117647
0.082353 0.270604 0.105882
0.086275 0.286290 0.105882
0.109804 0.345113 0.101961
0.176471 0.337270 0.105882
0.286290 0.352956 0.121569
0.392172 0.360800 0.133333
0.439231 0.341176 0.133333
0.533349 0.345113 0.141176
0.654917 0.368643 0.160784
0.733333 0.384314 0.176471
0.764706 0.388235 0.180392
0.764706 0.376471 0.176471
0.756863 0.349035 0.164706
0.760784 0.337270 0.160784
0.752941 0.317662 0.156863
0.749020 0.301976 0.149020
0.741176 0.282368 0.141176
0.125490 0.403952 0.152956
0.133333 0.435325 0.152941
0.145113 0.466682 0.137255
0.211780 0.435309 0.137255
0.325505 0.443153 0.152941
0.427466 0.474525 0.168627
0.545113 0.498054 0.188235
0.584329 0.439231 0.172564
0.694133 0.447074 0.188251
0.756863 0.462760 0.203922
0.784314 0.478447 0.211765
0.796078 0.478447 0.215686
0.788235 0.458839 0.207843
0.788235 0.447074 0.200000
0.780392 0.435309 0.196078
0.776471 0.407858 0.188235
0.768627 0.396094 0.180392
0.203922 0.662760 0.227451
0.196078 0.670604 0.207843
0.211780 0.639246 0.188235
0.298054 0.600015 0.192172
0.400015 0.592172 0.203937
0.478447 0.603937 0.215702
0.576486 0.619623 0.235309
0.686305 0.607874 0.247074
0.768643 0.588251 0.254917
0.803922 0.588251 0.262760
0.815686 0.588251 0.262760
0.819608 0.588251 0.262760
0.815686 0.576501 0.258839
0.819608 0.580407 0.262760
0.819608 0.572564 0.254917
0.807843 0.537270 0.239231
0.803922 0.521584 0.231388
0.239216 0.803906 0.258824
0.235294 0.807828 0.239216
0.270588 0.811749 0.239216
0.384314 0.764691 0.254902
0.494102 0.768612 0.278416
0.568627 0.780377 0.298039
0.690196 0.807813 0.337240
0.741192 0.764706 0.329412
0.878416 0.850935 0.419577
0.866651 0.768612 0.364691
0.858824 0.745083 0.352926
0.870588 0.756848 0.360769
0.870588 0.760769 0.360769
0.866667 0.749004 0.356847
0.862745 0.737240 0.349004
0.847059 0.698024 0.325475
0.847059 0.694102 0.321553
0.262745 0.882353 0.270588
0.262745 0.890196 0.266667
0.290196 0.886275 0.262745
0.407843 0.866667 0.290196
0.545098 0.850980 0.325490
0.647059 0.870588 0.356863
0.756863 0.886275 0.400000
0.870573 0.909789 0.454887
0.909804 0.909804 0.466667
0.933333 0.925490 0.486275
0.917647 0.894102 0.462745
0.913725 0.878416 0.450965
0.909804 0.870573 0.443137
0.909804 0.874495 0.443137
0.905882 0.862730 0.435294
0.901961 0.858808 0.431357
0.898039 0.839200 0.419593
0.270588 0.909804 0.274510
0.266667 0.913725 0.266667
0.305882 0.913725 0.274510
0.431373 0.901961 0.301961
0.568627 0.894118 0.345098
0.694118 0.898039 0.384314
0.811765 0.913725 0.435294
0.894118 0.925490 0.470588
0.921569 0.925490 0.482353
0.933333 0.929412 0.490196
0.933333 0.933333 0.490196
0.937255 0.929412 0.490196
0.929412 0.921569 0.486275
0.929412 0.917647 0.482353
0.929412 0.917647 0.482353
0.933333 0.921569 0.486275
0.925490 0.917647 0.478431
0.266667 0.909804 0.266667
0.274510 0.913725 0.270588
0.321569 0.917647 0.278431
0.450980 0.909804 0.309804
0.576486 0.905882 0.345098
0.709819 0.909804 0.392157
0.843137 0.929412 0.450980
0.913725 0.937255 0.486275
0.933333 0.937255 0.494118
0.941176 0.941176 0.498039
0.933333 0.933333 0.494118
0.937255 0.937255 0.498039
0.937255 0.937255 0.498039
0.933333 0.933333 0.494118
0.937255 0.933333 0.494118
0.937255 0.937255 0.498039
0.933333 0.933333 0.494118
0.274510 0.905882 0.270588
0.282353 0.905882 0.270588
0.329412 0.913725 0.282353
0.470588 0.913725 0.313726
0.600015 0.909804 0.352941
0.749020 0.917647 0.407843
0.866667 0.933333 0.462745
0.917647 0.937255 0.490196
0.933333 0.937255 0.494118
0.941176 0.941176 0.498039
0.937255 0.937255 0.494118
0.929412 0.929412 0.490196
0.941176 0.941176 0.501961
0.941176 0.941176 0.498039
0.933333 0.933333 0.494118
0.937255 0.937255 0.498039
0.937255 0.937255 0.494118
0.282353 0.901961 0.274510
0.290196 0.909804 0.274510
0.345098 0.913725 0.286275
0.478431 0.913725 0.317647
0.623529 0.917647 0.364706
0.749035 0.913725 0.407843
0.882353 0.933333 0.470588
0.921569 0.933333 0.486275
0.937255 0.937255 0.498039
0.937255 0.937255 0.498039
0.937255 0.937255 0.498039
0.937255 0.937255 0.498039
0.941176 0.941176 0.501961
0.941176 0.941176 0.501961
0.937255 0.937255 0.494118
0.933333 0.933333 0.494118
0.933333 0.933333 0.494118
0.301961 0.898039 0.278431
0.298039 0.898039 0.278431
0.349020 0.905882 0.286275
0.490196 0.913725 0.321569
0.631388 0.913725 0.364706
0.776486 0.917647 0.419608
0.886275 0.929412 0.470588
0.921569 0.933333 0.486275
0.937255 0.941176 0.498039
0.941176 0.941176 0.498039
0.933333 0.933333 0.494118
0.941176 0.941176 0.498039
0.933333 0.933333 0.494118
0.941176 0.941176 0.501961
0.941176 0.941176 0.501961
0.941176 0.941176 0.501961
0.941176 0.941176 0.501961
0.317647 0.890196 0.286275
0.321569 0.890196 0.286275
0.368627 0.905882 0.294118
0.509804 0.909804 0.325490
0.647074 0.909804 0.368627
0.800000 0.921569 0.427451
0.894118 0.929412 0.474510
0.921569 0.933333 0.486275
0.933333 0.933333 0.490196
0.937255 0.937255 0.498039
0.937255 0.937255 0.498039
0.941176 0.941176 0.501961
0.937255 0.937255 0.498039
0.933333 0.933333 0.494118
0.937255 0.937255 0.498039
0.933333 0.933333 0.494118
0.933333 0.933333 0.490196
0.011765 0.007843 0.105882
0.011765 0.007843 0.101961
0.023529 0.007843 0.105882
0.066667 0.011765 0.094118
0.141176 0.019608 0.113725
0.215686 0.027451 0.121569
0.301961 0.039216 0.137255
0.388251 0.047059 0.156863
0.588251 0.078431 0.215702
0.733318 0.113725 0.254902
0.729412 0.105882 0.235294
0.631388 0.078431 0.180392
0.639216 0.078431 0.168627
