tools/luts_backup/Kodak Elite Chrome 200_CIN.cube
# (C) 2014 VisionColor & Patchflyer [www.vision-color.com]
# Generator: VC Patchmatch v.2.1.1 [64/53]
# All work and no play makes Jack a dull boy.
# LUT generated from: Kodak Elite Chrome 200_Cineon
LUT_3D_SIZE 17
0.090181 0.090181 0.090181
0.148043 0.084627 0.084749
0.196933 0.089174 0.094209
0.230625 0.090364 0.100191
0.259037 0.093294 0.104860
0.281773 0.099245 0.108553
0.298741 0.102144 0.109804
0.317968 0.106386 0.109865
0.339086 0.113741 0.113741
0.358892 0.118257 0.119661
0.380468 0.127382 0.129183
0.403906 0.141604 0.141695
0.426307 0.148592 0.148592
0.444984 0.154147 0.154147
0.458564 0.156741 0.156741
0.466987 0.156863 0.156863
0.478401 0.156863 0.156863
0.104189 0.151583 0.083162
0.159426 0.159426 0.091096
0.210758 0.164401 0.103182
0.245701 0.163790 0.111391
0.274723 0.159396 0.115999
0.301701 0.160189 0.123568
0.322881 0.162875 0.128328
0.340276 0.165774 0.132692
0.360693 0.168124 0.135958
0.379919 0.171664 0.137392
0.397375 0.177981 0.142489
0.416846 0.182773 0.150362
0.435248 0.185122 0.155123
0.450965 0.191806 0.160739
0.465095 0.196414 0.164553
0.474769 0.203952 0.167330
0.486275 0.203800 0.168856
0.110658 0.199771 0.087037
0.164126 0.209049 0.097597
0.215671 0.215885 0.105959
0.253178 0.218296 0.115908
0.286473 0.219059 0.126558
0.314458 0.214847 0.136477
0.339239 0.215366 0.142702
0.359258 0.217136 0.147555
0.379767 0.218997 0.153933
0.398230 0.219699 0.156985
0.413489 0.221866 0.160342
0.430426 0.225162 0.166079
0.445930 0.225528 0.167330
0.458808 0.226017 0.167575
0.470344 0.228794 0.169680
0.480568 0.236332 0.172732
0.494240 0.246525 0.181125
0.124910 0.242130 0.098543
0.170352 0.250706 0.106538
0.217075 0.256901 0.116304
0.257298 0.261753 0.124941
0.292485 0.266087 0.138125
0.326360 0.271427 0.149752
0.353857 0.271305 0.161013
0.376165 0.270726 0.167025
0.397528 0.270573 0.171756
0.417914 0.270756 0.177340
0.432898 0.270604 0.182010
0.446662 0.271275 0.185580
0.459846 0.271214 0.185855
0.471168 0.269505 0.183597
0.480537 0.268132 0.181888
0.489815 0.271611 0.186221
0.504784 0.285405 0.197452
0.135195 0.276127 0.110811
0.174929 0.282872 0.117372
0.217838 0.291569 0.127016
0.255558 0.296483 0.134005
0.294713 0.304784 0.147341
0.336217 0.312749 0.165743
0.369177 0.318334 0.177981
0.394232 0.317723 0.188357
0.415991 0.313481 0.193271
0.436408 0.311040 0.196292
0.452125 0.309728 0.200931
0.464302 0.310338 0.206332
0.475624 0.311223 0.208499
0.486458 0.310552 0.207187
0.493935 0.306004 0.200778
0.499306 0.302495 0.197910
0.511315 0.311070 0.207340
0.144350 0.303105 0.122805
0.179507 0.310887 0.127413
0.215366 0.320684 0.137240
0.249210 0.326940 0.144594
0.284123 0.334936 0.155856
0.332494 0.346105 0.172000
0.377020 0.355566 0.192081
0.409979 0.358221 0.205173
0.435798 0.358953 0.214939
0.457130 0.357794 0.221958
0.472663 0.354498 0.224796
0.485206 0.353307 0.229496
0.496590 0.355535 0.234806
0.507012 0.355138 0.235752
0.514977 0.350652 0.232395
0.517357 0.342901 0.226261
0.524285 0.339574 0.227207
0.152560 0.330816 0.135317
0.185183 0.340764 0.140810
0.216892 0.349554 0.148653
0.244541 0.356786 0.153750
0.270146 0.361975 0.159060
0.315679 0.372503 0.175509
0.371832 0.388830 0.198215
0.420996 0.401190 0.221775
0.452979 0.403174 0.235080
0.478737 0.407691 0.246830
0.496620 0.409674 0.254673
0.508873 0.405768 0.257511
0.521782 0.406561 0.265476
0.533165 0.407538 0.270481
0.541466 0.404944 0.270390
0.544488 0.396674 0.266758
0.547051 0.384924 0.259861
0.162295 0.358953 0.148989
0.193606 0.372229 0.154421
0.222416 0.381109 0.161898
0.246677 0.390723 0.167147
0.270756 0.393835 0.168887
0.300267 0.398901 0.176699
0.359594 0.415595 0.202731
0.418097 0.435126 0.229770
0.461707 0.445899 0.252293
0.492927 0.449226 0.267643
0.516350 0.454719 0.279576
0.531823 0.455665 0.284764
0.545464 0.454078 0.291997
0.558434 0.455421 0.301823
0.565698 0.453376 0.303899
0.570001 0.446693 0.302708
0.574151 0.441199 0.297887
0.170443 0.388220 0.158694
0.202731 0.403265 0.166690
0.229282 0.412909 0.174594
0.254215 0.424842 0.182681
0.277256 0.429267 0.185977
0.303685 0.431586 0.187961
0.351110 0.440986 0.206241
0.415747 0.460731 0.235508
0.464942 0.476478 0.262882
0.497749 0.480537 0.278660
0.527337 0.486091 0.295659
0.547662 0.490974 0.305913
0.563897 0.492287 0.314092
0.577020 0.494545 0.324742
0.584283 0.492348 0.328588
0.588647 0.486732 0.327611
0.595666 0.485756 0.326940
0.179751 0.419593 0.170962
0.213077 0.434485 0.183536
0.240024 0.443275 0.190494
0.266361 0.452949 0.199191
0.289219 0.458778 0.203769
0.313146 0.461616 0.206699
0.353185 0.467292 0.215457
0.411200 0.480537 0.238132
0.466316 0.497658 0.268345
0.505974 0.508019 0.294102
0.533227 0.509606 0.304845
0.556481 0.516442 0.319982
0.575738 0.520958 0.332006
0.589929 0.524590 0.343175
0.599207 0.524193 0.348821
0.603418 0.520043 0.346990
0.606012 0.513634 0.342809
0.197757 0.450446 0.191714
0.226261 0.462165 0.202487
0.251652 0.470130 0.207645
0.277104 0.476722 0.214054
0.299992 0.480903 0.217624
0.324468 0.485115 0.223117
0.362310 0.489815 0.232273
0.410376 0.498909 0.245853
0.465492 0.513695 0.272862
0.509087 0.527306 0.302861
0.541985 0.533684 0.321324
0.562249 0.535515 0.330602
0.581628 0.542351 0.343969
0.597498 0.547021 0.355535
0.610224 0.549828 0.364202
0.615198 0.547112 0.364263
0.612848 0.536187 0.356481
0.215732 0.478187 0.209506
0.238529 0.485420 0.214878
0.261021 0.491554 0.220584
0.283513 0.497841 0.224826
0.304326 0.500908 0.228489
0.328099 0.504814 0.233219
0.368139 0.509636 0.244663
0.416632 0.516777 0.260075
0.467262 0.529992 0.281315
0.514092 0.543145 0.310399
0.547936 0.552483 0.331212
0.569360 0.554864 0.341588
0.585565 0.556420 0.351843
0.601892 0.564141 0.363684
0.615595 0.568170 0.374334
0.623224 0.570520 0.379980
0.625208 0.560510 0.377234
0.225895 0.501244 0.221073
0.247288 0.506157 0.224338
0.269963 0.510857 0.231754
0.291417 0.515923 0.236149
0.310246 0.518517 0.239963
0.332250 0.521996 0.243961
0.370336 0.526909 0.254368
0.421088 0.533867 0.271550
0.472938 0.545647 0.293187
0.518456 0.558801 0.318181
0.551812 0.566949 0.339208
0.575372 0.572168 0.351202
0.590326 0.572869 0.359228
0.605707 0.576593 0.369970
0.618982 0.581933 0.382422
0.628626 0.583917 0.391608
0.637964 0.585412 0.400000
0.236088 0.520592 0.233005
0.255528 0.523400 0.235904
0.276036 0.528038 0.241184
0.298100 0.531518 0.246647
0.317327 0.533593 0.250523
0.340154 0.536889 0.254093
0.378668 0.541955 0.265202
0.427283 0.549981 0.282872
0.478828 0.560479 0.303502
0.525872 0.572564 0.327123
0.557671 0.580011 0.347112
0.580682 0.585260 0.358953
0.596155 0.588769 0.368475
0.610468 0.590021 0.376379
0.620203 0.592737 0.387701
0.631464 0.596613 0.396612
0.642817 0.600519 0.409979
0.246342 0.534386 0.241672
0.264164 0.537408 0.245975
0.281834 0.542229 0.248600
0.306340 0.544701 0.252537
0.330785 0.547997 0.258152
0.354894 0.553094 0.264714
0.393133 0.557946 0.276951
0.439216 0.564538 0.293797
0.484901 0.572900 0.312596
0.531273 0.583917 0.335302
0.565301 0.593408 0.356085
0.584283 0.598016 0.367590
0.600275 0.603113 0.374609
0.612207 0.605829 0.383825
0.622461 0.606348 0.391485
0.631617 0.608209 0.400000
0.643122 0.611597 0.411688
0.251865 0.549157 0.247593
0.273564 0.549371 0.250919
0.293126 0.554925 0.254124
0.318914 0.558495 0.258457
0.347570 0.561913 0.264378
0.377478 0.566522 0.274022
0.414984 0.570611 0.288609
0.457343 0.576379 0.305730
0.497505 0.584344 0.323400
0.538231 0.595544 0.344182
0.570214 0.606744 0.362371
0.588647 0.612512 0.374426
0.604334 0.616114 0.383825
0.615717 0.618494 0.391882
0.623774 0.620020 0.397436
0.631678 0.620111 0.404364
0.643122 0.620264 0.412787
0.262730 0.560754 0.254917
0.278386 0.560784 0.254978
0.294286 0.561883 0.257023
0.326055 0.567193 0.264866
0.359014 0.571649 0.274174
0.394324 0.576928 0.284245
0.431891 0.581842 0.296300
0.470527 0.586175 0.314488
0.505882 0.592523 0.331487
0.540520 0.604120 0.347021
0.570642 0.616480 0.363561
0.591638 0.623682 0.378119
0.609644 0.628351 0.391760
0.619501 0.631189 0.400641
0.627405 0.631922 0.410132
0.635248 0.634699 0.415747
0.643122 0.635279 0.423499
0.097841 0.089784 0.148623
0.148043 0.084749 0.137850
0.199283 0.092531 0.139651
0.231785 0.094911 0.141939
0.260838 0.101869 0.143801
0.284276 0.105684 0.145510
0.304509 0.109133 0.147738
0.323796 0.114290 0.149325
0.343542 0.117800 0.151400
0.363287 0.121035 0.154086
0.384344 0.130251 0.162203
0.406775 0.142916 0.174929
0.429206 0.152834 0.182315
0.448035 0.159731 0.187839
0.460212 0.159182 0.188357
0.470344 0.163973 0.189059
0.479072 0.164126 0.191775
0.098146 0.148531 0.137972
0.160616 0.156863 0.149905
0.223056 0.117830 0.117433
0.259586 0.100893 0.110658
0.279728 0.098573 0.109651
0.298619 0.105592 0.109743
0.317052 0.109468 0.110170
0.337346 0.113344 0.113924
0.358862 0.118044 0.119661
0.380377 0.127871 0.129458
0.401984 0.139956 0.140200
0.423529 0.149477 0.149081
0.443458 0.156252 0.155612
0.456825 0.158083 0.156588
0.467170 0.162600 0.157748
0.477974 0.164492 0.163912
0.489754 0.199466 0.199405
0.110719 0.202609 0.144778
0.138430 0.229526 0.117952
0.243290 0.244358 0.136751
0.283879 0.216709 0.130190
0.310460 0.197208 0.131838
0.330419 0.190219 0.135195
0.348547 0.188418 0.138949
0.366278 0.185153 0.138674
0.383551 0.184268 0.140291
0.400336 0.184756 0.145754
0.417731 0.188785 0.150546
0.436042 0.193484 0.156100
0.452583 0.196139 0.162356
0.464759 0.199466 0.163363
0.475349 0.206180 0.168460
0.486183 0.213748 0.175631
0.497139 0.243046 0.210025
0.122713 0.242954 0.149813
0.142000 0.274357 0.116670
0.213748 0.286931 0.127077
0.292638 0.301946 0.148898
0.329198 0.281407 0.156161
0.352972 0.267613 0.159396
0.372320 0.259800 0.162783
0.390753 0.251865 0.164218
0.407019 0.245457 0.164981
0.422889 0.245274 0.170199
0.437873 0.245975 0.174655
0.450721 0.244327 0.172946
0.462074 0.242130 0.171939
0.473030 0.241489 0.173281
0.483711 0.246799 0.178744
0.496193 0.258183 0.189822
0.504662 0.278599 0.219394
0.134157 0.280278 0.161013
0.146090 0.303471 0.123323
0.202152 0.316106 0.132509
0.259068 0.329473 0.148348
0.332189 0.346807 0.172030
0.373022 0.334356 0.185092
0.396460 0.323827 0.189578
0.416632 0.314183 0.193332
0.434211 0.306279 0.196384
0.447425 0.300420 0.197482
0.458961 0.298253 0.199680
0.469642 0.295354 0.199924
0.478340 0.290623 0.195407
0.486275 0.287083 0.191928
0.494362 0.287022 0.193423
0.503532 0.292638 0.202976
0.508721 0.300053 0.223636
0.140108 0.310369 0.167788
0.153506 0.330236 0.135378
0.200473 0.344915 0.142550
0.244846 0.357946 0.155337
0.292790 0.367071 0.167575
0.373205 0.390753 0.201114
0.417517 0.384131 0.216892
0.441962 0.374884 0.222507
0.460029 0.366094 0.226047
0.472755 0.356268 0.227268
0.482429 0.349340 0.227787
0.491859 0.346258 0.229679
0.499886 0.340307 0.226871
0.505943 0.333318 0.220310
0.511498 0.327428 0.216983
0.514733 0.322759 0.218479
0.515099 0.324651 0.234897
0.146639 0.336034 0.174044
0.162814 0.359747 0.148959
0.202579 0.374548 0.155642
0.242039 0.389654 0.165103
0.277806 0.395819 0.173831
0.338079 0.409461 0.195468
0.419928 0.436469 0.233127
0.457008 0.428290 0.245975
0.483497 0.422614 0.255070
0.500084 0.417182 0.259251
0.510521 0.409186 0.260868
0.520470 0.405798 0.265171
0.530053 0.401617 0.267613
0.535698 0.392065 0.262425
0.538872 0.381598 0.257115
0.539147 0.372045 0.253910
0.535393 0.370031 0.264836
0.155978 0.362951 0.181369
0.173342 0.391211 0.161929
0.209506 0.406226 0.171115
0.244968 0.420996 0.178988
0.278599 0.428443 0.185702
0.319585 0.434760 0.195834
0.396338 0.453986 0.226871
0.464729 0.475715 0.265324
0.496315 0.469490 0.275425
0.520531 0.468238 0.286503
0.536828 0.465644 0.292973
0.548516 0.461494 0.297032
0.558648 0.458473 0.302586
0.565362 0.452125 0.303685
0.567559 0.442298 0.299992
0.569116 0.434577 0.296269
0.565270 0.428534 0.302403
0.167178 0.392248 0.192325
0.182864 0.420874 0.174899
0.221256 0.436561 0.187594
0.256016 0.449744 0.197635
0.286748 0.457313 0.203250
0.320500 0.461341 0.208652
0.377264 0.473701 0.225254
0.450355 0.492256 0.260899
0.506859 0.508537 0.295079
0.531731 0.504112 0.303685
0.551995 0.504997 0.315129
0.568475 0.505180 0.323766
0.580041 0.502922 0.329320
0.587915 0.499306 0.333349
0.591333 0.491585 0.331762
0.593103 0.485054 0.328862
0.592401 0.478431 0.334752
0.178805 0.423163 0.203311
0.194858 0.450172 0.190066
0.233158 0.462623 0.202365
0.266941 0.474647 0.212161
0.293828 0.480385 0.217716
0.324529 0.484352 0.223331
0.374182 0.493050 0.236881
0.438437 0.506950 0.260441
0.499672 0.523308 0.296513
0.542779 0.535912 0.320287
0.559869 0.531060 0.328557
0.577844 0.533806 0.340032
0.593042 0.535546 0.348974
0.602747 0.533257 0.354223
0.606683 0.525841 0.351843
0.606195 0.517723 0.347631
0.607965 0.510216 0.354772
0.194034 0.452552 0.215610
0.211368 0.477302 0.207004
0.242863 0.486030 0.215183
0.273198 0.495491 0.222629
0.298375 0.500023 0.228031
0.325322 0.503807 0.232975
0.372869 0.510765 0.246586
0.434119 0.521385 0.267369
0.494392 0.537408 0.297612
0.540856 0.550011 0.327489
0.568994 0.555962 0.341009
0.582818 0.554314 0.350347
0.599054 0.557824 0.361273
0.612757 0.559319 0.369146
0.617761 0.554314 0.370459
0.616297 0.545769 0.365209
0.615961 0.535088 0.371252
0.210941 0.478553 0.230686
0.224796 0.499428 0.220706
0.251133 0.506798 0.226078
0.277165 0.513024 0.233585
0.303258 0.517632 0.238987
0.328649 0.520806 0.242374
0.372259 0.526909 0.254643
0.433051 0.536126 0.275486
0.492317 0.550225 0.301671
0.540734 0.564782 0.331426
0.570703 0.571344 0.348882
0.590143 0.572900 0.358831
0.603326 0.573236 0.369726
0.617060 0.577783 0.379339
0.626856 0.579309 0.387640
0.630549 0.574884 0.389075
0.626703 0.561578 0.392798
0.223606 0.500816 0.243107
0.235111 0.518029 0.231632
0.259922 0.524163 0.236271
0.284550 0.528923 0.243992
0.310338 0.533532 0.249119
0.335088 0.537102 0.252079
0.375769 0.542046 0.263462
0.434150 0.550622 0.284031
0.493019 0.562676 0.310430
0.541344 0.576043 0.336614
0.573297 0.584375 0.355444
0.592859 0.588525 0.365881
0.608270 0.590082 0.376379
0.619867 0.590478 0.386236
0.629847 0.594446 0.396246
0.640009 0.593774 0.406561
0.638025 0.585748 0.412604
0.234928 0.519585 0.254124
0.246189 0.534569 0.241733
0.267613 0.537987 0.244633
0.291814 0.542931 0.250675
0.319432 0.547204 0.256504
0.346532 0.551904 0.262272
0.384863 0.557061 0.274205
0.439612 0.564416 0.293339
0.495766 0.575006 0.317266
0.542596 0.587732 0.343450
0.574762 0.596918 0.361944
0.595026 0.601984 0.372534
0.610132 0.604700 0.381964
0.621607 0.605829 0.391821
0.631281 0.605829 0.399298
0.640864 0.607569 0.410895
0.642878 0.601099 0.422980
0.244663 0.534264 0.262394
0.255192 0.548333 0.251072
0.276249 0.549859 0.251621
0.299138 0.554284 0.256168
0.329442 0.559106 0.262791
0.364141 0.563897 0.272679
0.402502 0.569146 0.285740
0.450660 0.575708 0.303990
0.501518 0.586084 0.324590
0.545495 0.598810 0.347387
0.578027 0.609552 0.366979
0.597650 0.614160 0.378607
0.612116 0.616724 0.387976
0.622736 0.618891 0.396857
0.631617 0.620264 0.404791
0.640894 0.618311 0.412604
0.643153 0.613306 0.423743
0.254032 0.549004 0.271519
0.265171 0.559808 0.260685
0.283330 0.560021 0.260929
0.306310 0.562646 0.263981
0.339910 0.567926 0.271885
0.379644 0.572717 0.283116
0.420630 0.577447 0.296941
0.463050 0.583551 0.314916
0.505791 0.594263 0.333593
0.544091 0.607019 0.351781
0.575799 0.617700 0.370947
0.598901 0.624506 0.385870
0.613336 0.628443 0.396674
0.622400 0.629053 0.405707
0.630671 0.629877 0.413764
0.640955 0.632563 0.421363
0.643153 0.620295 0.424384
0.262181 0.563775 0.273625
0.286259 0.564446 0.281346
0.305547 0.565393 0.282414
0.331273 0.569024 0.286442
0.365209 0.573358 0.295323
0.398322 0.577569 0.304173
0.435645 0.581933 0.315984
0.472969 0.588190 0.329931
0.508110 0.597681 0.345403
0.542718 0.608942 0.361242
0.572442 0.619226 0.378485
0.592767 0.625422 0.393530
0.608484 0.628779 0.404425
0.619135 0.631281 0.412909
0.627558 0.631525 0.419165
0.635737 0.632410 0.424536
0.643214 0.634821 0.431373
0.100099 0.092073 0.201389
0.149081 0.091615 0.196567
0.197024 0.093538 0.189517
0.232944 0.097780 0.187137
0.263890 0.106477 0.188388
0.289952 0.114992 0.188357
0.311070 0.118776 0.190433
0.330632 0.121523 0.191196
0.351781 0.126040 0.192538
0.371923 0.129549 0.194888
0.391943 0.137606 0.199832
0.413184 0.148928 0.209110
0.433600 0.156649 0.215915
0.452583 0.164523 0.220371
0.466194 0.166354 0.221164
0.474281 0.168154 0.221958
0.485023 0.168154 0.222507
0.104402 0.146487 0.200778
0.128634 0.121065 0.225589
0.223514 0.119966 0.218265
0.261173 0.108461 0.188998
0.287755 0.111177 0.175143
0.308354 0.115541 0.171176
0.327276 0.117556 0.166720
0.346990 0.120699 0.164797
0.366979 0.124147 0.164523
0.387060 0.132387 0.169619
0.408148 0.144289 0.178378
0.428931 0.151766 0.184970
0.447761 0.158999 0.191257
0.461860 0.163790 0.195132
0.471046 0.165316 0.195773
0.481300 0.170443 0.200717
0.490303 0.200168 0.224521
0.110231 0.198856 0.193637
0.138277 0.224002 0.227146
0.225437 0.215152 0.215000
0.277134 0.175418 0.174197
0.305669 0.141939 0.145388
0.320745 0.122621 0.124666
0.338323 0.118257 0.118196
0.358312 0.119936 0.119936
0.379461 0.127443 0.127535
0.402228 0.137758 0.138247
0.424201 0.149386 0.149447
0.442176 0.156802 0.154849
0.457038 0.160006 0.156741
0.466773 0.159304 0.159030
0.476631 0.170077 0.168887
0.487373 0.198917 0.197818
0.494575 0.232547 0.230320
0.121035 0.243046 0.202731
0.131868 0.274846 0.206241
0.193240 0.278935 0.177829
0.294774 0.293462 0.192294
0.340002 0.266606 0.175937
0.363043 0.239200 0.162142
0.378973 0.220249 0.153872
0.393683 0.208896 0.151461
0.408240 0.206058 0.153506
0.423041 0.205295 0.156802
0.438544 0.203647 0.158724
0.452583 0.204318 0.161135
0.465309 0.207218 0.166201
0.477150 0.213718 0.170687
0.487739 0.224399 0.181521
0.496498 0.243717 0.209476
0.501274 0.267704 0.239689
0.132082 0.279728 0.209537
0.140475 0.310002 0.198428
0.173434 0.322515 0.156893
0.248447 0.339422 0.168551
0.350530 0.361944 0.201236
0.397498 0.338689 0.200626
0.416022 0.312901 0.194247
0.427131 0.293400 0.189120
0.437781 0.281590 0.187106
0.448310 0.275914 0.186831
0.459297 0.270329 0.184604
0.469337 0.264744 0.181552
0.477699 0.260288 0.180850
0.487465 0.262394 0.185458
0.497719 0.271824 0.197482
0.503838 0.282109 0.219516
0.503075 0.288121 0.242832
0.139193 0.310918 0.216373
0.145998 0.337316 0.196353
0.166110 0.355413 0.151888
0.232975 0.380041 0.166873
0.293156 0.392248 0.181491
0.414282 0.428748 0.232486
0.449195 0.400519 0.234104
0.464668 0.378027 0.231968
0.472541 0.355596 0.226291
0.478431 0.340948 0.223117
0.484840 0.330755 0.219394
0.491676 0.323217 0.214511
0.497108 0.314458 0.208652
0.501366 0.306157 0.204013
0.506218 0.306188 0.209628
0.508019 0.308080 0.224918
0.506706 0.307317 0.243381
0.143984 0.338140 0.217197
0.154696 0.364141 0.198337
0.170871 0.387701 0.161593
0.230381 0.412665 0.175509
0.280034 0.425696 0.186954
0.352728 0.440528 0.209720
0.462257 0.474006 0.263890
0.490486 0.450629 0.267796
0.506706 0.434760 0.268711
0.514305 0.416983 0.265263
0.519738 0.402991 0.263432
0.524468 0.392004 0.260471
0.527794 0.381292 0.254582
0.529442 0.366949 0.245335
0.529229 0.355444 0.241917
0.526116 0.350011 0.248447
0.522942 0.348852 0.262730
0.152285 0.366278 0.219974
0.166567 0.393408 0.203922
0.183139 0.421729 0.176608
0.235111 0.441444 0.191775
0.280125 0.454261 0.200778
0.332464 0.462959 0.213321
0.419684 0.482521 0.245365
0.505699 0.508171 0.295537
0.526879 0.491310 0.298070
0.543938 0.482399 0.301915
0.553063 0.471962 0.302708
0.559167 0.460639 0.303197
0.562402 0.449989 0.301152
0.564111 0.438697 0.295781
0.563287 0.424811 0.290623
0.559716 0.415290 0.293370
0.553765 0.407752 0.298039
0.163729 0.396490 0.226688
0.178195 0.422705 0.209384
0.200076 0.451881 0.192782
0.243717 0.467811 0.206668
0.282902 0.478218 0.214389
0.324407 0.484535 0.222568
0.395392 0.496223 0.243229
0.480018 0.517723 0.283482
0.541711 0.533867 0.321294
0.557916 0.523613 0.323278
0.573693 0.519585 0.331182
0.584619 0.512718 0.335149
0.590570 0.503807 0.334569
0.591791 0.494942 0.332128
0.591608 0.483742 0.329320
0.590387 0.475074 0.332586
0.583917 0.464332 0.333471
0.178836 0.427283 0.238163
0.192844 0.451148 0.219821
0.212924 0.476753 0.207401
0.250431 0.488807 0.217197
0.287449 0.498299 0.226261
0.320226 0.503319 0.231815
0.380850 0.511254 0.248234
0.461540 0.528527 0.280125
0.526421 0.545861 0.317357
0.568994 0.554986 0.340551
0.581842 0.548882 0.346624
0.596582 0.547936 0.356909
0.606531 0.542901 0.359136
0.608820 0.534661 0.356115
0.608362 0.521721 0.352178
0.608179 0.513207 0.355962
0.606073 0.507012 0.362799
0.194064 0.455177 0.248234
0.208865 0.477852 0.233585
0.223270 0.499062 0.220890
0.255863 0.507042 0.226688
0.290684 0.515373 0.235874
0.319463 0.519768 0.240818
0.372793 0.527337 0.256077
0.447562 0.540429 0.282841
0.516594 0.557214 0.317266
0.562768 0.568719 0.344305
0.590570 0.573083 0.358770
0.601648 0.570428 0.367803
0.614069 0.570397 0.376562
0.621149 0.566217 0.378912
0.620569 0.553521 0.374701
0.617884 0.542687 0.375341
0.618952 0.536309 0.384771
0.207614 0.479713 0.257145
0.221134 0.500008 0.244755
0.235233 0.518364 0.232242
0.261906 0.524041 0.236942
0.295171 0.530205 0.244724
0.325475 0.534936 0.250523
0.371710 0.541955 0.264164
0.440909 0.553033 0.288914
0.508324 0.567071 0.319097
0.557397 0.580835 0.347295
0.589380 0.587335 0.364202
0.607874 0.588891 0.375525
0.617914 0.588098 0.383886
0.628717 0.588464 0.394080
0.633600 0.583581 0.399481
0.630640 0.572778 0.400397
0.628168 0.561364 0.405158
0.219883 0.502037 0.267124
0.232517 0.519249 0.255039
0.246189 0.534844 0.241398
0.269566 0.538262 0.245548
0.301915 0.543297 0.252293
0.336797 0.548699 0.259464
0.378119 0.554711 0.271153
0.439857 0.564294 0.294560
0.504906 0.576806 0.322637
0.555261 0.590692 0.350195
0.587366 0.599634 0.368109
0.607965 0.603815 0.380407
0.620752 0.605463 0.390570
0.630732 0.603204 0.398383
0.638819 0.602228 0.410010
0.640711 0.594568 0.418372
0.638422 0.584253 0.423682
0.232395 0.519890 0.275853
0.243992 0.535546 0.264469
0.255589 0.547997 0.250858
0.277684 0.549798 0.253117
0.310002 0.555261 0.259007
0.348791 0.560906 0.268162
0.390509 0.566369 0.280797
0.445411 0.574151 0.301640
0.503777 0.585870 0.325963
0.552026 0.599542 0.351904
0.585565 0.611017 0.373175
0.606378 0.616297 0.385473
0.620203 0.618280 0.396124
0.631189 0.619989 0.404974
0.639338 0.614893 0.411627
0.642908 0.609949 0.423804
0.643763 0.601007 0.433417
0.242802 0.535210 0.282750
0.253788 0.548516 0.272557
0.267491 0.558923 0.261265
0.289006 0.559686 0.264042
0.321324 0.564019 0.269413
0.361608 0.569482 0.278599
0.405676 0.575372 0.292943
0.454383 0.581872 0.311284
0.505821 0.593347 0.333165
0.550713 0.607019 0.355932
0.583581 0.618616 0.376623
0.603937 0.624964 0.391058
0.618524 0.627070 0.402869
0.629267 0.628504 0.411261
0.639429 0.630579 0.418097
0.643000 0.620050 0.424689
0.644099 0.614649 0.435645
0.252476 0.549340 0.290471
0.263676 0.560235 0.280613
0.286748 0.564385 0.280583
0.308843 0.565667 0.283268
0.340032 0.569360 0.288945
0.378851 0.574090 0.298344
0.420386 0.579644 0.310857
0.462257 0.585443 0.324987
0.506249 0.596033 0.344579
0.547448 0.609613 0.365484
0.577966 0.619928 0.383825
0.598932 0.626581 0.399084
0.613703 0.631037 0.410132
0.624109 0.631617 0.418189
0.632807 0.632471 0.424475
0.643275 0.634180 0.431220
0.644404 0.621271 0.436164
0.259709 0.561517 0.288579
0.289097 0.565240 0.299168
0.309941 0.568109 0.299077
0.335027 0.569635 0.303899
0.366918 0.573632 0.311955
0.403784 0.578576 0.321080
0.436377 0.582818 0.329595
0.473152 0.588495 0.342229
0.510979 0.598230 0.359106
0.546868 0.610040 0.377997
0.577020 0.620844 0.394965
0.596033 0.627497 0.408423
0.608667 0.630304 0.417884
0.620020 0.633539 0.424994
0.630365 0.634638 0.431250
0.637140 0.634791 0.436011
0.646540 0.635340 0.440345
0.104646 0.096956 0.239872
0.148928 0.097078 0.235813
0.193271 0.097322 0.229221
0.232395 0.100343 0.226108
0.262760 0.108370 0.224399
0.292485 0.119112 0.225162
0.314794 0.124483 0.224979
0.335424 0.128817 0.224674
0.357336 0.133150 0.226505
0.378973 0.138857 0.229770
0.399329 0.146517 0.234287
0.419745 0.155886 0.240848
0.438666 0.161135 0.244572
