tools/luts_backup/Kodak Gold Gen.6 200_FPE.cube
# (C) 2014 VisionColor & Patchflyer [www.vision-color.com]
# Generator: VC Patchmatch v.2.1.1 [64/53]
# All work and no play makes Jack a dull boy.
# LUT generated from: Kodak Gold Gen.6 200_FPE
LUT_3D_SIZE 17
0.033173 0.035966 0.036301
0.036652 0.036393 0.036194
0.051499 0.038010 0.035080
0.086793 0.043702 0.036698
0.135607 0.049744 0.039200
0.182910 0.051270 0.038712
0.221180 0.050858 0.038865
0.240955 0.049622 0.039231
0.253727 0.047929 0.039292
0.272618 0.047044 0.040009
0.297276 0.045563 0.040833
0.327794 0.044968 0.042084
0.364050 0.044877 0.043427
0.398398 0.045319 0.044785
0.427222 0.046326 0.046738
0.457725 0.047715 0.048493
0.484016 0.049348 0.050126
0.033066 0.039948 0.037369
0.039033 0.040925 0.036439
0.055711 0.043549 0.035599
0.088838 0.049073 0.036408
0.140169 0.056809 0.038010
0.193011 0.062501 0.038636
0.240574 0.064729 0.039338
0.276295 0.064118 0.040009
0.301732 0.062165 0.040818
0.324514 0.060258 0.041764
0.349645 0.058656 0.043168
0.378164 0.057191 0.044572
0.407675 0.055283 0.046220
0.438453 0.053849 0.048005
0.464652 0.053193 0.049271
0.490089 0.052491 0.050340
0.516335 0.053559 0.051911
0.034089 0.046311 0.037095
0.044480 0.049897 0.036667
0.061799 0.054063 0.036805
0.096757 0.060487 0.037140
0.145388 0.069078 0.037705
0.197177 0.074861 0.038148
0.253880 0.080613 0.039368
0.303502 0.085313 0.040711
0.340093 0.086641 0.041917
0.372015 0.086763 0.043427
0.402350 0.086336 0.045228
0.432227 0.084810 0.047013
0.460426 0.081147 0.048905
0.488472 0.077363 0.050431
0.513939 0.074022 0.051606
0.538613 0.070451 0.052232
0.559350 0.067994 0.053117
0.034913 0.057069 0.038254
0.051698 0.063386 0.038682
0.077348 0.070832 0.038697
0.109316 0.078630 0.038392
0.152438 0.086183 0.038056
0.207126 0.094499 0.038453
0.266575 0.103349 0.040131
0.330098 0.114382 0.042161
0.384039 0.123903 0.044175
0.426917 0.131838 0.045899
0.460578 0.134615 0.047578
0.490440 0.135851 0.049256
0.518349 0.133211 0.051087
0.544854 0.127749 0.052766
0.568536 0.122377 0.054047
0.594553 0.119295 0.055161
0.619013 0.116167 0.056168
0.041444 0.077119 0.040604
0.062852 0.089158 0.041016
0.094926 0.098451 0.040208
0.139467 0.109377 0.039582
0.184894 0.119844 0.039063
0.238773 0.131563 0.039872
0.301244 0.142718 0.041703
0.365103 0.155612 0.044282
0.425116 0.170123 0.046632
0.476020 0.185290 0.048936
0.515816 0.193866 0.050919
0.548150 0.199329 0.052506
0.573098 0.198260 0.053635
0.596826 0.191211 0.055009
0.621683 0.186389 0.056580
0.646632 0.184283 0.058457
0.674647 0.181827 0.060365
0.054765 0.111986 0.042145
0.084779 0.125887 0.041444
0.127657 0.140093 0.040497
0.184115 0.156435 0.040101
0.239841 0.169833 0.040330
0.294682 0.183215 0.041047
0.351644 0.193759 0.042649
0.410163 0.210101 0.045411
0.470588 0.226123 0.048936
0.526055 0.246372 0.052766
0.570321 0.262974 0.056504
0.602350 0.269184 0.058564
0.627695 0.267552 0.060029
0.650599 0.258198 0.060700
0.677760 0.256718 0.062348
0.697688 0.251957 0.063676
0.726726 0.249348 0.065766
0.075593 0.159701 0.041016
0.119966 0.178103 0.039857
0.174975 0.196414 0.039216
0.236896 0.213809 0.040162
0.311391 0.235248 0.042390
0.363241 0.245106 0.043839
0.414603 0.259007 0.046174
0.473335 0.278218 0.049546
0.529992 0.299367 0.054170
0.582269 0.317006 0.059312
0.625589 0.337224 0.064118
0.655863 0.342809 0.067094
0.683268 0.338720 0.069505
0.707744 0.329152 0.070588
0.737301 0.330526 0.072923
0.756634 0.323140 0.073823
0.774273 0.319631 0.074952
0.102937 0.220874 0.039536
0.158373 0.241794 0.039261
0.229206 0.264576 0.039887
0.295918 0.283345 0.042267
0.375906 0.306493 0.046311
0.438758 0.322972 0.050431
0.484703 0.331914 0.053071
0.529610 0.342031 0.056474
0.590661 0.371313 0.063966
0.638331 0.386450 0.069627
0.673686 0.401007 0.073976
0.707683 0.413626 0.078874
0.736278 0.410208 0.081453
0.764889 0.402640 0.083680
0.789380 0.398825 0.085878
0.807492 0.389975 0.086732
0.815702 0.386465 0.087037
0.144152 0.282582 0.040711
0.200305 0.307530 0.041550
0.273548 0.329625 0.043336
0.348791 0.349355 0.046601
0.422019 0.369253 0.051514
0.493400 0.390295 0.057908
0.549996 0.405188 0.063554
0.594156 0.415610 0.068345
0.629480 0.423072 0.072648
0.679545 0.442786 0.080018
0.713512 0.452293 0.084749
0.746654 0.463569 0.089708
0.779034 0.467094 0.093843
0.810086 0.466163 0.097383
0.830854 0.457099 0.098863
0.836286 0.442649 0.097673
0.842634 0.435767 0.097337
0.201907 0.344167 0.043137
0.261372 0.368765 0.045472
0.325429 0.388205 0.048432
0.398611 0.406699 0.052918
0.463813 0.423804 0.058198
0.528283 0.442100 0.064988
0.591760 0.459617 0.073487
0.645365 0.473243 0.081178
0.679118 0.477928 0.085313
0.707790 0.484169 0.089342
0.751949 0.498878 0.096910
0.785245 0.507713 0.102190
0.816892 0.511681 0.106508
0.841749 0.511666 0.109560
0.862593 0.506996 0.111604
0.861616 0.490562 0.108705
0.863935 0.477989 0.106996
0.269718 0.404700 0.048264
0.330800 0.423362 0.052094
0.385626 0.439200 0.055848
0.448753 0.454780 0.060761
0.502861 0.468330 0.066316
0.561028 0.483482 0.073243
0.617060 0.497826 0.081102
0.672007 0.511284 0.090288
0.717968 0.522255 0.097841
0.747234 0.523766 0.101167
0.778546 0.532174 0.106188
0.817670 0.542855 0.112840
0.851041 0.549157 0.117937
0.865202 0.545464 0.119310
0.878050 0.536904 0.119341
0.882261 0.528206 0.118151
0.886076 0.519615 0.117067
0.338491 0.452384 0.055604
0.385824 0.465187 0.059205
0.437568 0.479103 0.063447
0.491417 0.491661 0.068788
0.534859 0.502113 0.073228
0.584756 0.514260 0.079942
0.641825 0.527947 0.088212
0.696895 0.541131 0.097719
0.741634 0.552300 0.105638
0.781598 0.562768 0.113085
0.810529 0.565209 0.116732
0.841871 0.574136 0.122164
0.868620 0.574914 0.125460
0.884581 0.572854 0.127596
0.888548 0.559503 0.125628
0.893507 0.552071 0.124804
0.896544 0.551598 0.125261
0.401450 0.491981 0.063401
0.435431 0.499931 0.066224
0.484932 0.511330 0.071122
0.532998 0.523369 0.076295
0.576516 0.535637 0.082292
0.618540 0.547250 0.088136
0.672038 0.559518 0.096727
0.727108 0.571481 0.105837
0.775738 0.583185 0.115053
0.811521 0.592569 0.121920
0.844068 0.600275 0.128374
0.870420 0.604349 0.132311
0.886900 0.606592 0.135149
0.899031 0.598520 0.135332
0.901274 0.586542 0.133028
0.905425 0.579828 0.132265
0.906188 0.581186 0.132753
0.443381 0.523934 0.069871
0.480323 0.532555 0.074067
0.528542 0.542184 0.078965
0.579248 0.554788 0.085618
0.621149 0.566201 0.091508
0.662409 0.577890 0.098146
0.712932 0.590417 0.106523
0.761273 0.602106 0.115282
0.806073 0.612772 0.123857
0.843183 0.622370 0.131899
0.869657 0.628840 0.137667
0.892683 0.629480 0.141131
0.907012 0.630533 0.143694
0.912840 0.626566 0.143771
0.915282 0.615869 0.141772
0.913664 0.603861 0.139071
0.916625 0.611627 0.141283
0.458137 0.545388 0.074113
0.508919 0.557687 0.079942
0.561227 0.568780 0.086137
0.614710 0.581369 0.093355
0.660609 0.593866 0.100526
0.703288 0.605997 0.107698
0.750774 0.617853 0.116091
0.798825 0.630350 0.125414
0.835828 0.639765 0.133089
0.862867 0.645121 0.138903
0.887861 0.650980 0.144030
0.903548 0.655329 0.148302
0.918227 0.651316 0.150149
0.924422 0.652735 0.151476
0.927230 0.649378 0.151324
0.924788 0.635325 0.147890
0.925780 0.640101 0.149126
0.424750 0.554116 0.073335
0.515953 0.577508 0.083787
0.585702 0.593683 0.092653
0.638422 0.606302 0.099916
0.686091 0.618479 0.107637
0.726909 0.628153 0.114382
0.763180 0.636423 0.120928
0.808286 0.646250 0.129335
0.845579 0.653651 0.137011
0.870420 0.658473 0.142306
0.895445 0.663630 0.147463
0.911803 0.669322 0.152438
0.923186 0.673747 0.155886
0.931304 0.670512 0.156634
0.932082 0.671077 0.157031
0.931899 0.669795 0.156725
0.931731 0.668849 0.156481
0.298848 0.529702 0.065019
0.500191 0.582101 0.083528
0.604318 0.607187 0.096712
0.642267 0.617441 0.102129
0.682216 0.628534 0.108766
0.740887 0.642344 0.118547
0.780377 0.651240 0.125856
0.815320 0.658656 0.132525
0.850889 0.665751 0.140063
0.882338 0.671916 0.146609
0.904723 0.677272 0.152010
0.919356 0.681468 0.156313
0.927245 0.683833 0.158480
0.932265 0.685359 0.159838
0.932586 0.685450 0.159930
0.932586 0.685450 0.159930
0.932586 0.685450 0.159930
0.031693 0.035904 0.039796
0.034577 0.036133 0.039994
0.045136 0.036790 0.039246
0.072374 0.040940 0.041489
0.117830 0.046494 0.046036
0.162219 0.050065 0.047532
0.201358 0.051087 0.047150
0.229526 0.050645 0.046265
0.249104 0.049592 0.044770
0.272404 0.048539 0.044297
0.299519 0.047059 0.044877
0.329900 0.045930 0.045243
0.364385 0.045502 0.046632
0.397284 0.045655 0.048447
0.425803 0.046571 0.050431
0.454994 0.047807 0.052171
0.482292 0.049363 0.055177
0.032441 0.040803 0.042420
0.038331 0.043671 0.044404
0.071763 0.043076 0.037675
0.128435 0.049470 0.039460
0.177554 0.051545 0.038865
0.217044 0.051041 0.038727
0.239322 0.049622 0.039109
0.254505 0.048066 0.039338
0.272984 0.047028 0.040024
0.297765 0.045594 0.040864
0.327901 0.045014 0.042115
0.362814 0.044816 0.043351
0.397467 0.045289 0.044739
0.427695 0.046326 0.046769
0.457099 0.047669 0.048661
0.481529 0.049317 0.050858
0.513420 0.053529 0.057847
0.032715 0.047974 0.042679
0.037827 0.055009 0.039033
0.089555 0.069947 0.040116
0.141451 0.068925 0.038117
0.195666 0.071580 0.038346
0.248005 0.073350 0.039368
0.287831 0.072511 0.040284
0.315206 0.070268 0.041291
0.336675 0.066392 0.042390
0.360250 0.064042 0.043809
0.389441 0.061433 0.045228
0.416968 0.058824 0.046738
0.446876 0.056825 0.048585
0.474189 0.054810 0.049851
0.497902 0.054368 0.050828
0.520104 0.055283 0.052323
0.552605 0.070207 0.059709
0.034546 0.060761 0.042771
0.043259 0.077302 0.040803
0.094163 0.096986 0.040314
0.181277 0.119585 0.039384
0.214099 0.104250 0.038880
0.266789 0.104128 0.040253
0.322118 0.106920 0.041566
0.365820 0.108186 0.042878
0.399161 0.107546 0.044434
0.428153 0.106203 0.046098
0.455833 0.103410 0.047913
0.481834 0.098680 0.049760
0.507027 0.093614 0.051164
0.532448 0.087312 0.052399
0.552529 0.080674 0.052781
0.572610 0.082216 0.053712
0.604730 0.114870 0.060258
0.041154 0.085344 0.046052
0.054520 0.110979 0.042191
0.112245 0.133806 0.040803
0.197345 0.157290 0.040177
0.290929 0.180941 0.040986
0.320745 0.165331 0.042069
0.371695 0.163561 0.044373
0.425330 0.170489 0.046647
0.467872 0.175525 0.048463
0.499657 0.176822 0.049821
0.525154 0.174121 0.050782
0.548012 0.167468 0.052232
0.571694 0.161334 0.053758
0.597345 0.155123 0.055375
0.617975 0.146777 0.056641
0.636423 0.144533 0.057786
0.661189 0.179889 0.063340
0.051667 0.124514 0.047852
0.072847 0.156741 0.040970
0.145144 0.188495 0.039414
0.233280 0.211887 0.040070
0.333700 0.238209 0.042985
0.410498 0.256229 0.045914
0.442115 0.245914 0.047150
0.489509 0.249012 0.050156
0.535058 0.258183 0.053452
0.569177 0.262913 0.056428
0.593011 0.259052 0.057481
0.614694 0.248432 0.058152
0.635493 0.237858 0.058549
0.657145 0.230503 0.059754
0.680751 0.226947 0.061433
0.699306 0.222339 0.062913
0.716976 0.250416 0.067552
0.073610 0.173098 0.046098
0.102129 0.219226 0.039490
0.182391 0.248020 0.039277
0.278508 0.277562 0.041550
0.383474 0.307347 0.046799
0.467842 0.329839 0.051972
0.531701 0.343832 0.056703
0.565209 0.340795 0.059312
0.601556 0.345403 0.062699
0.633005 0.347982 0.065476
0.656886 0.345098 0.067369
0.681544 0.335332 0.069184
0.703548 0.322759 0.069703
0.723171 0.312444 0.070161
0.743603 0.308202 0.071382
0.758663 0.305547 0.072404
0.767285 0.320912 0.075181
0.103319 0.229023 0.043870
0.143648 0.283116 0.040726
0.222309 0.312993 0.041886
0.320775 0.341695 0.045258
0.416999 0.366827 0.051102
0.510048 0.394446 0.059693
0.579416 0.411780 0.066468
0.632563 0.422919 0.072892
0.666590 0.426535 0.076524
0.691127 0.424720 0.078676
0.719799 0.426398 0.081880
0.744595 0.420890 0.083818
0.768734 0.408255 0.084871
0.786435 0.396246 0.085283
0.799527 0.385382 0.085389
0.809995 0.380636 0.085817
0.808438 0.387274 0.086671
0.149508 0.293233 0.043778
0.200702 0.345815 0.043244
0.273518 0.372595 0.045914
0.366735 0.399680 0.050690
0.453971 0.422095 0.057282
0.534630 0.443748 0.065675
0.614588 0.465934 0.076844
0.666987 0.473396 0.083238
0.712673 0.484962 0.090013
0.743557 0.486000 0.093492
0.768750 0.486198 0.096208
0.797574 0.488518 0.099947
0.820569 0.480095 0.101183
0.833844 0.466072 0.100572
0.838056 0.449958 0.098955
0.843397 0.438773 0.097932
0.837369 0.440848 0.097627
0.209903 0.353384 0.045930
0.267872 0.402457 0.048081
0.339361 0.424887 0.052461
0.417533 0.446769 0.058274
0.490410 0.465537 0.065110
0.560922 0.482673 0.073106
0.631205 0.500969 0.083146
0.699794 0.516976 0.094896
0.739361 0.521630 0.099901
0.781826 0.534569 0.107057
0.809781 0.531594 0.109545
0.838117 0.534722 0.113436
0.854765 0.528572 0.114290
0.868330 0.518166 0.114199
0.869032 0.501854 0.111681
0.870497 0.489113 0.109758
0.865644 0.486183 0.108690
0.269108 0.405783 0.049760
0.337911 0.451774 0.055512
0.398444 0.468025 0.060105
0.461570 0.483925 0.065553
0.520455 0.499565 0.071885
0.584955 0.514244 0.079957
0.651774 0.530236 0.089921
0.716136 0.544961 0.100847
0.767468 0.559487 0.110719
0.805829 0.565896 0.116335
0.842100 0.574212 0.122210
0.865858 0.570611 0.124224
0.877058 0.563455 0.124636
0.883543 0.550835 0.123064
0.888289 0.538918 0.121294
0.891936 0.532540 0.120699
0.893156 0.529702 0.120272
0.325048 0.451759 0.055467
0.399588 0.492027 0.063310
0.448280 0.503822 0.067369
0.501991 0.515618 0.072938
0.556695 0.530648 0.079606
0.610636 0.544106 0.086854
0.677607 0.559930 0.097551
0.739391 0.574777 0.108217
0.789380 0.586877 0.117739
0.831891 0.599145 0.126604
0.864927 0.602564 0.131273
0.886870 0.605509 0.134905
0.895644 0.594690 0.133944
0.898970 0.581338 0.131502
0.899962 0.568276 0.129107
0.903578 0.567376 0.129717
0.906432 0.564218 0.129580
0.369909 0.485725 0.061326
0.436408 0.521798 0.069215
0.487724 0.533898 0.074815
0.542702 0.545632 0.080629
0.602228 0.561532 0.088930
0.653696 0.575235 0.096651
0.711635 0.589563 0.106249
0.769390 0.603677 0.116777
0.814282 0.614466 0.125368
0.850752 0.623713 0.133501
0.887465 0.630106 0.140414
0.900694 0.629053 0.142336
0.912703 0.627649 0.143999
0.912993 0.612680 0.140703
0.912245 0.600702 0.138109
0.913863 0.601053 0.138857
0.913542 0.594583 0.137667
0.390600 0.510674 0.065446
0.448875 0.542733 0.072984
0.514900 0.558358 0.080491
0.574578 0.572732 0.088075
0.633692 0.586908 0.096132
0.690639 0.601755 0.105486
0.743420 0.615442 0.114580
0.797131 0.628595 0.124895
0.839109 0.638834 0.133562
0.870542 0.646372 0.140444
0.895750 0.652354 0.145922
0.913085 0.652155 0.149493
0.921019 0.651057 0.150546
0.926558 0.648890 0.150988
0.924147 0.632914 0.147250
0.925139 0.631907 0.147478
0.925978 0.632258 0.148013
0.378027 0.524880 0.066438
0.413626 0.549737 0.072099
0.528847 0.577081 0.084642
0.594797 0.594568 0.093645
0.651148 0.608255 0.101778
0.710460 0.622614 0.111330
0.758648 0.634287 0.119905
0.806958 0.645685 0.129000
0.847013 0.654292 0.137331
0.880201 0.660975 0.144335
0.902373 0.666697 0.149660
0.915877 0.670787 0.153658
0.927672 0.670665 0.156039
0.931609 0.670817 0.156786
0.931975 0.669779 0.156725
0.932403 0.664256 0.155901
0.934569 0.664637 0.156466
0.333211 0.528832 0.065248
0.335576 0.538003 0.067033
0.511193 0.582834 0.084382
0.596536 0.603479 0.095354
0.649302 0.617517 0.103014
0.712489 0.634180 0.113420
0.763058 0.646372 0.122454
0.807248 0.656611 0.130678
0.848676 0.665736 0.139361
0.885054 0.674098 0.147295
0.908476 0.680507 0.153338
0.923964 0.685115 0.157916
0.933379 0.688045 0.160708
0.936049 0.688579 0.161624
0.936172 0.688762 0.161746
0.936095 0.688563 0.161700
0.939483 0.688853 0.162341
0.244602 0.514641 0.061921
0.342885 0.541054 0.067857
0.495369 0.578775 0.082597
0.567041 0.597971 0.091691
0.633371 0.615656 0.100847
0.708965 0.639200 0.114031
0.770031 0.656825 0.125216
0.810178 0.666728 0.132876
0.846082 0.675746 0.140291
0.881880 0.685878 0.148119
0.906416 0.694820 0.154452
0.923445 0.700298 0.159518
0.937407 0.704479 0.163729
0.939956 0.706752 0.165820
0.940581 0.707424 0.166339
0.940597 0.707530 0.166369
0.940597 0.707439 0.166354
0.029282 0.035340 0.047837
0.032303 0.035950 0.050233
0.040162 0.037278 0.053361
0.060700 0.040818 0.057435
0.099916 0.044923 0.061921
0.140215 0.048554 0.064912
0.177646 0.049912 0.065797
0.211261 0.050813 0.065995
0.244923 0.050584 0.063676
0.276158 0.049378 0.061112
0.305684 0.048096 0.060853
0.337774 0.047227 0.061204
0.370245 0.046845 0.062364
0.398260 0.046754 0.063371
0.422858 0.047242 0.063523
0.452201 0.047822 0.067460
0.482795 0.049088 0.071733
0.029694 0.039750 0.049760
0.030457 0.037705 0.055711
0.051682 0.041657 0.068742
0.095674 0.044846 0.061372
0.144228 0.048631 0.058625
0.187976 0.050584 0.055985
0.221241 0.050843 0.052644
0.248417 0.050233 0.050278
0.274220 0.048997 0.048310
0.300801 0.047440 0.046723
0.332021 0.046372 0.046937
0.365225 0.045914 0.048615
0.396628 0.045884 0.049897
0.425879 0.046830 0.051957
0.456565 0.048005 0.054612
0.482612 0.049409 0.058183
0.509850 0.053819 0.074723
0.030701 0.048829 0.052781
0.030701 0.060655 0.066499
0.056977 0.060258 0.063844
0.115618 0.059968 0.051652
0.189197 0.058198 0.043244
0.231968 0.051621 0.039643
0.255314 0.048539 0.039445
0.273259 0.047135 0.040055
0.296101 0.045624 0.040803
0.326726 0.045045 0.042069
0.362814 0.044800 0.043351
0.397009 0.045274 0.044724
0.428779 0.046357 0.046799
0.457816 0.047745 0.048768
0.482734 0.049500 0.051255
0.510430 0.053437 0.058427
0.547967 0.070344 0.080354
0.031708 0.065354 0.055283
0.036759 0.090562 0.060731
0.062272 0.093477 0.051881
0.158099 0.117815 0.052888
0.225635 0.102785 0.042542
0.298268 0.095232 0.041444
0.338354 0.086900 0.042069
0.361471 0.079927 0.043198
0.385580 0.075059 0.044739
0.409522 0.070542 0.046189
0.435142 0.065461 0.047852
0.461112 0.061250 0.049424
0.485710 0.058808 0.050584
0.508980 0.057359 0.051545
0.528740 0.059480 0.053178
0.557595 0.074830 0.060136
0.598337 0.119615 0.086976
0.036545 0.092988 0.060410
0.047974 0.130541 0.057862
0.080308 0.144747 0.044724
0.191836 0.179721 0.043290
0.332525 0.217197 0.044327
0.373144 0.183154 0.044144
0.420111 0.169299 0.046479
0.450568 0.157733 0.047456
0.473014 0.148165 0.048173
0.496010 0.140169 0.049500
0.518700 0.131395 0.051179
0.537591 0.120058 0.052552
0.554940 0.108293 0.053422
0.573495 0.100359 0.053910
0.594263 0.103914 0.055375
0.622126 0.133745 0.061616
0.660471 0.189731 0.088304
0.044800 0.134707 0.064302
0.070344 0.178088 0.054490
0.105150 0.210849 0.039979
0.232517 0.254902 0.040452
0.390585 0.299290 0.047501
0.503807 0.327596 0.053758
0.518700 0.290608 0.052781
0.543832 0.272786 0.054292
0.565576 0.258045 0.055970
0.581323 0.242313 0.055924
0.595621 0.225635 0.055818
0.613687 0.212177 0.056397
0.632059 0.198947 0.057435
0.648630 0.187732 0.058686
0.668391 0.190021 0.060533
0.686671 0.214557 0.065324
0.711742 0.262303 0.089097
0.066804 0.185992 0.063645
0.103517 0.234195 0.050309
0.142596 0.278065 0.040604
0.268284 0.323705 0.043091
0.409842 0.362463 0.050553
0.539071 0.398352 0.062242
0.623758 0.418296 0.071366
0.634913 0.391119 0.069688
0.653040 0.376287 0.069810
0.666636 0.356252 0.069383
0.680934 0.333425 0.069001
0.693126 0.312200 0.067964
0.711025 0.297780 0.067842
0.725658 0.286076 0.067887
0.741329 0.285542 0.069337
0.751781 0.301961 0.073198
0.758190 0.334051 0.094270
0.098924 0.242847 0.060212
0.147616 0.294484 0.047395
0.200305 0.344976 0.043229
0.309026 0.382177 0.047578
0.432166 0.414420 0.055360
0.549874 0.446403 0.067521
0.643091 0.468284 0.080079
0.711589 0.483955 0.089708
0.722942 0.467369 0.087709
0.742535 0.455055 0.088151
0.756863 0.435019 0.087068
0.773449 0.413886 0.086168
0.786358 0.396139 0.085267
0.795483 0.380270 0.084413
0.800793 0.370367 0.083574
0.802045 0.377478 0.084932
0.796277 0.397498 0.101259
0.141772 0.302770 0.057176
0.202335 0.351736 0.047395
0.269642 0.404395 0.048295
0.361929 0.433356 0.054078
0.460838 0.458625 0.062104
0.557916 0.480903 0.072557
0.652461 0.505058 0.086702
0.724926 0.521248 0.098344
0.782528 0.533364 0.106859
0.799023 0.522866 0.106584
0.815122 0.509346 0.105867
0.830823 0.494514 0.105089
0.838468 0.475181 0.102800
0.841428 0.454185 0.099916
0.841749 0.438987 0.097704
0.835920 0.435630 0.096727
0.822751 0.445670 0.107393
0.201099 0.363043 0.055756
0.259342 0.403586 0.049912
0.340749 0.454002 0.055879
0.415045 0.473640 0.061662
0.497093 0.493843 0.069459
0.574594 0.511818 0.078538
0.659968 0.532586 0.091386
0.737835 0.550835 0.104845
0.791669 0.563043 0.114214
0.842618 0.573892 0.122210
0.859846 0.561898 0.121645
0.865446 0.547677 0.119783
0.873549 0.531807 0.117617
0.874434 0.511940 0.114107
0.874296 0.497322 0.111620
0.868925 0.490562 0.109941
0.850263 0.489998 0.114824
0.257191 0.412863 0.056306
0.313680 0.448875 0.054826
0.393042 0.489906 0.062669
0.459861 0.507210 0.068681
0.533883 0.524926 0.076524
0.599680 0.541009 0.085328
0.677348 0.560006 0.097520
0.752056 0.577081 0.110536
0.809049 0.590021 0.121218
0.854322 0.599313 0.129320
0.886915 0.605188 0.134844
0.890455 0.586770 0.131350
0.892378 0.570764 0.128435
0.894560 0.555489 0.125704
0.895964 0.543465 0.123552
0.895705 0.538399 0.122545
0.881590 0.533898 0.124025
0.293446 0.448722 0.057496
0.353460 0.482399 0.060105
0.428092 0.518746 0.068376
0.496117 0.535576 0.075654
0.568689 0.552773 0.084291
0.632395 0.569039 0.093065
0.703685 0.587976 0.104936
0.775174 0.605493 0.117952
0.826337 0.616464 0.127871
0.867094 0.626154 0.136797
0.897292 0.628260 0.141604
0.912337 0.628183 0.144045
0.908324 0.604700 0.138186
0.909422 0.593271 0.136019
0.908888 0.581064 0.133379
0.909972 0.577111 0.132921
0.903120 0.571344 0.133288
0.316564 0.475654 0.059159
0.368170 0.505730 0.063600
0.440208 0.540139 0.071916
0.524788 0.559930 0.081483
0.595834 0.576440 0.090730
0.663844 0.594690 0.101076
0.728466 0.611658 0.111864
0.792721 0.627756 0.124086
0.842374 0.639155 0.134218
0.879072 0.647044 0.141985
0.904067 0.653605 0.148226
0.919326 0.650294 0.150103
0.925704 0.648692 0.150790
0.922896 0.629374 0.146258
0.921752 0.621225 0.144701
0.918959 0.614649 0.143099
0.912795 0.607553 0.143236
0.316320 0.494896 0.060487
0.355749 0.519860 0.064515
0.405432 0.546273 0.071153
0.535988 0.577020 0.085191
0.610239 0.594705 0.095155
0.675792 0.612268 0.105394
0.742473 0.629313 0.116686
0.800885 0.643931 0.127749
0.850431 0.655100 0.138033
0.888853 0.663493 0.146166
0.908919 0.669932 0.151781
0.924666 0.673655 0.156237
0.931304 0.670451 0.156603
0.932219 0.669734 0.156802
0.931456 0.657160 0.154208
0.931579 0.651850 0.153109
0.924590 0.644129 0.152499
0.283131 0.500191 0.059815
0.312184 0.522240 0.063828
0.349371 0.540475 0.067964
0.531991 0.585901 0.086366
0.609476 0.605402 0.096864
0.673350 0.622400 0.106767
0.744244 0.640894 0.118761
0.797528 0.653651 0.128710
0.847715 0.665919 0.138994
0.891569 0.676158 0.148638
0.914702 0.683665 0.155291
0.928557 0.687968 0.159411
0.936446 0.689738 0.161944
0.937011 0.689601 0.162112
0.937148 0.689479 0.162142
0.938109 0.682887 0.160800
0.934936 0.679866 0.160220
0.232700 0.498527 0.058930
0.250889 0.513466 0.061784
0.348379 0.542580 0.068330
0.503990 0.581506 0.083665
0.594278 0.605020 0.095445
0.665827 0.625406 0.106462
0.738827 0.647227 0.119341
0.787976 0.661112 0.128710
0.835309 0.673030 0.138109
0.878004 0.684153 0.147250
0.907195 0.693797 0.154589
0.927962 0.701656 0.160845
0.938537 0.705547 0.164660
0.940230 0.707012 0.166049
0.940307 0.707103 0.166110
0.940307 0.706966 0.166094
0.939162 0.704524 0.166629
0.175097 0.490455 0.057481
0.258885 0.517311 0.062516
0.353826 0.545235 0.068986
0.468742 0.575265 0.079957
0.572763 0.604089 0.093538
0.654902 0.628290 0.106523
0.722957 0.647257 0.118639
0.770062 0.660075 0.127901
0.810651 0.672038 0.136080
0.846601 0.684047 0.144106
0.879454 0.697643 0.152163
0.904906 0.709773 0.159564
0.928695 0.719005 0.166171
0.936126 0.722774 0.169604
0.937972 0.725231 0.171511
0.938155 0.725185 0.171527
0.938384 0.724926 0.171420
0.029313 0.035874 0.059693
0.031937 0.036698 0.065278
0.038483 0.038132 0.071489
0.054490 0.041169 0.078340
0.086641 0.044572 0.084779
0.123339 0.047395 0.089555
0.159136 0.049104 0.090791
0.195514 0.049668 0.092500
0.233829 0.049805 0.093004
0.275212 0.048722 0.090089
0.310048 0.047303 0.088838
0.343328 0.046708 0.089769
0.377981 0.046418 0.092058
0.405356 0.046464 0.093278
