tools/luts_backup/Kodak Vision3 50D 5203 (NEG)_FPE.cube
# (C) 2014 VisionColor & Patchflyer [www.vision-color.com]
# Generator: VC Patchmatch v.2.1.1 [64/53]
# All work and no play makes Jack a dull boy.
# LUT generated from: Kodak Vision3 50D 5203 (NEG)_FPE
LUT_3D_SIZE 5
0.032364 0.034257 0.034455
0.128313 0.047440 0.038148
0.304952 0.046876 0.041459
0.446708 0.049302 0.047745
0.509255 0.051545 0.051347
0.031327 0.124895 0.060426
0.204898 0.196918 0.042588
0.462379 0.227832 0.048493
0.659190 0.270771 0.062379
0.812680 0.380087 0.087221
0.038911 0.262272 0.071962
0.103807 0.351141 0.051194
0.526040 0.466178 0.068620
0.801068 0.519081 0.106844
0.904158 0.558511 0.130571
0.042222 0.359594 0.116762
0.047333 0.401175 0.111315
0.391974 0.553094 0.095933
0.791852 0.632349 0.130205
0.929808 0.661997 0.159594
0.045609 0.416220 0.186923
0.139025 0.541024 0.214160
0.698405 0.723491 0.264759
0.887373 0.773022 0.296788
0.944396 0.779171 0.262592
0.030213 0.033021 0.082399
0.101595 0.042741 0.090135
0.294514 0.047791 0.093126
0.444739 0.048417 0.074571
0.522347 0.052049 0.068070
0.033143 0.104982 0.159991
0.165179 0.169223 0.176135
0.405921 0.081727 0.055421
0.522972 0.074601 0.057984
0.566262 0.068132 0.059312
0.039475 0.295598 0.227787
0.059205 0.372229 0.138369
0.621759 0.547219 0.134844
0.833631 0.527810 0.129000
0.816999 0.407095 0.100053
0.045823 0.405768 0.271809
0.069078 0.469123 0.275257
0.587228 0.648173 0.260441
0.885298 0.733379 0.355077
0.916121 0.645869 0.178088
0.062760 0.505730 0.384771
0.094408 0.544808 0.367987
0.631556 0.738094 0.456703
0.861860 0.803723 0.507881
0.938216 0.821988 0.520592
0.033188 0.034272 0.187839
0.094240 0.037491 0.209293
0.318105 0.042481 0.224353
0.465690 0.049393 0.210727
0.533394 0.051392 0.165972
0.037598 0.067155 0.257771
0.037034 0.043580 0.245548
0.436088 0.058747 0.295705
0.516548 0.060197 0.174090
0.571038 0.065629 0.144396
0.044739 0.271260 0.386053
0.052430 0.388540 0.472770
0.546777 0.521477 0.497932
0.628214 0.214084 0.146960
0.791608 0.388083 0.266865
0.055711 0.468681 0.492149
0.128634 0.568261 0.499153
0.639323 0.718685 0.592584
0.855283 0.765682 0.607874
0.912795 0.718639 0.501625
0.163058 0.641749 0.573297
0.264439 0.677028 0.575174
0.605798 0.762173 0.632059
0.845258 0.832151 0.691478
0.927840 0.851530 0.707820
0.037934 0.038102 0.273365
0.076265 0.040467 0.306279
0.354025 0.042603 0.350301
0.496910 0.051148 0.345785
0.558053 0.053803 0.335332
0.041138 0.048707 0.313558
0.039796 0.043214 0.302388
0.328161 0.051347 0.391638
0.570977 0.068757 0.425727
0.605264 0.073823 0.350759
0.046494 0.201022 0.432349
0.044419 0.118914 0.391882
0.073655 0.081422 0.363256
0.685069 0.315877 0.544549
0.785306 0.425254 0.557031
0.054597 0.417334 0.560235
0.089799 0.544167 0.626596
0.399252 0.671366 0.669215
0.782269 0.744274 0.721004
0.887175 0.733959 0.714549
0.082795 0.569940 0.623590
0.357015 0.723491 0.683207
0.653361 0.794324 0.731929
0.825071 0.836454 0.762905
0.918257 0.861982 0.790265
0.040986 0.041047 0.311101
0.050065 0.041276 0.333684
0.295460 0.045548 0.407614
0.511467 0.051896 0.440848
0.585229 0.056168 0.451743
0.041703 0.046647 0.345876
0.041581 0.046036 0.344808
0.247944 0.053544 0.422644
0.556100 0.072221 0.482521
0.677317 0.135927 0.528252
0.046189 0.121309 0.423972
0.045548 0.077317 0.392767
0.223667 0.103349 0.450584
0.667430 0.369985 0.624445
0.809979 0.538323 0.702449
0.053986 0.355657 0.570626
0.053758 0.339010 0.564691
0.362997 0.544274 0.665156
0.739666 0.679820 0.753948
0.874754 0.754589 0.802747
0.069505 0.521645 0.661418
0.138369 0.636484 0.699718
0.564019 0.782284 0.778744
0.800351 0.842481 0.834501
0.909606 0.869886 0.861738
