tools/luts_backup/LAPARDIN-WEDLUTS-5.cube
#Created by: Adobe Photoshop Export Color Lookup Plugin
#Copyright: (C) 2017 Andrey Lapardin. vk.com-3dluts
TITLE "Andrey Lapardin. vk.com-3dluts"
#LUT size
LUT_3D_SIZE 32
#data domain
DOMAIN_MIN 0.0 0.0 0.0
DOMAIN_MAX 1.0 1.0 1.0
#LUT data points
0.079559 0.080261 0.081116
0.079559 0.080261 0.081116
0.079559 0.080261 0.081116
0.079559 0.080261 0.081116
0.084045 0.080627 0.082001
0.101257 0.081299 0.084473
0.134430 0.079498 0.086212
0.175934 0.075226 0.087189
0.223236 0.067780 0.087616
0.272858 0.062744 0.087494
0.323364 0.062744 0.087311
0.374512 0.062744 0.087372
0.426697 0.062744 0.088379
0.484985 0.062744 0.089783
0.544861 0.062744 0.091370
0.602875 0.062744 0.093323
0.657135 0.062744 0.095520
0.707153 0.062744 0.098297
0.753265 0.062744 0.101501
0.795715 0.062744 0.105408
0.834473 0.062744 0.110046
0.870117 0.062744 0.115509
0.902649 0.062744 0.122009
0.921570 0.062744 0.129852
0.921570 0.062744 0.139282
0.921570 0.062744 0.149719
0.921570 0.062744 0.161285
0.921570 0.062744 0.174286
0.921570 0.062744 0.187683
0.921570 0.062744 0.201996
0.921570 0.062744 0.217499
0.921570 0.062744 0.234375
0.079559 0.080261 0.081116
0.079559 0.080261 0.081116
0.079559 0.080261 0.081116
0.079559 0.080261 0.081116
0.090576 0.081116 0.083069
0.114319 0.080963 0.085449
0.148315 0.078430 0.086731
0.188538 0.073486 0.087372
0.233154 0.066162 0.087585
0.279907 0.062744 0.087433
0.328064 0.062744 0.087250
0.378174 0.062744 0.087433
0.431641 0.062744 0.088379
0.490082 0.062744 0.089844
0.548523 0.062744 0.091339
0.605591 0.062744 0.093262
0.659363 0.062744 0.095490
0.708923 0.062744 0.098175
0.754639 0.062744 0.101471
0.796600 0.062744 0.105286
0.834564 0.062744 0.109894
0.869324 0.062744 0.115265
0.901978 0.062744 0.121887
0.921570 0.062744 0.129852
0.921570 0.062744 0.139435
0.921570 0.062744 0.149780
0.921570 0.062744 0.161194
0.921570 0.062744 0.174164
0.921570 0.062744 0.187744
0.921570 0.062744 0.202179
0.921570 0.062744 0.218018
0.921570 0.062744 0.235168
0.079590 0.080322 0.081146
0.079620 0.080536 0.081238
0.079651 0.080719 0.081299
0.081909 0.081787 0.081940
0.097076 0.083710 0.084351
0.120972 0.083984 0.086029
0.154236 0.082306 0.087006
0.193512 0.078156 0.087494
0.235229 0.073486 0.087524
0.279999 0.067444 0.087128
0.327545 0.065430 0.086670
0.379242 0.062744 0.086700
0.434509 0.062744 0.087585
0.491028 0.062744 0.088654
0.548035 0.062744 0.089996
0.603851 0.062744 0.091553
0.656647 0.062744 0.093719
0.705505 0.062744 0.096283
0.751099 0.062744 0.099579
0.792633 0.062744 0.103577
0.829376 0.062744 0.108032
0.863434 0.062744 0.113556
0.895905 0.062744 0.120300
0.921417 0.062744 0.128632
0.921570 0.062744 0.138733
0.921570 0.062744 0.149506
0.921570 0.062744 0.161377
0.921570 0.062744 0.174835
0.921570 0.062744 0.188995
0.921570 0.062744 0.203918
0.921570 0.062744 0.220093
0.921570 0.062744 0.238068
0.081146 0.088196 0.084229
0.081268 0.090820 0.084839
0.081573 0.092102 0.085205
0.085815 0.091675 0.085876
0.097656 0.094147 0.086151
0.115723 0.097076 0.087128
0.145294 0.099518 0.087952
0.182892 0.100006 0.088013
0.225952 0.097900 0.087463
0.273193 0.093048 0.086609
0.323425 0.085236 0.085785
0.376587 0.075562 0.085541
0.431274 0.064301 0.086121
0.486786 0.062744 0.086884
0.542450 0.062744 0.088013
0.598206 0.062744 0.089417
0.651001 0.062744 0.091492
0.699707 0.062744 0.094055
0.744843 0.062744 0.097321
0.786224 0.062744 0.101471
0.823700 0.062744 0.106384
0.858276 0.062744 0.112244
0.890442 0.062744 0.119324
0.919006 0.062744 0.127869
0.921570 0.062744 0.138245
0.921570 0.062744 0.149323
0.921570 0.062744 0.161194
0.921570 0.062744 0.175171
0.921570 0.062744 0.190308
0.921570 0.062744 0.205811
0.921570 0.062744 0.222626
0.921570 0.062744 0.241089
0.081055 0.110870 0.088287
0.080780 0.113953 0.088715
0.084473 0.113434 0.089264
0.094208 0.110565 0.090759
0.104156 0.109497 0.089905
0.119843 0.112427 0.088562
0.147522 0.116180 0.088562
0.184937 0.121399 0.088654
0.229797 0.124725 0.087799
0.281647 0.124390 0.086090
0.336029 0.120209 0.084595
0.391846 0.112366 0.084473
0.448029 0.100769 0.084747
0.503937 0.085236 0.085388
0.558899 0.070709 0.086426
0.611664 0.064301 0.087921
0.660950 0.062744 0.090027
0.706421 0.062744 0.092712
0.748413 0.062744 0.096283
0.786835 0.062744 0.100372
0.822815 0.062744 0.105591
0.857147 0.062744 0.111877
0.889496 0.062744 0.119568
0.918793 0.062744 0.128815
0.921570 0.062744 0.140045
0.921570 0.062744 0.152008
0.921570 0.062744 0.164917
0.921570 0.062744 0.178894
0.921570 0.062744 0.194641
0.921570 0.062744 0.210785
0.921570 0.062744 0.227386
0.921570 0.062744 0.245636
0.077148 0.141632 0.090637
0.076874 0.144012 0.090668
0.086121 0.141113 0.091858
0.103607 0.135406 0.094238
0.116730 0.133331 0.094116
0.129822 0.132965 0.091553
0.153046 0.135162 0.089294
0.188721 0.141541 0.088226
0.230652 0.148254 0.087433
0.276978 0.152588 0.086212
0.330139 0.153351 0.084534
0.385803 0.150543 0.083862
0.441925 0.143250 0.083710
0.497803 0.131439 0.083984
0.552582 0.114929 0.084747
0.605103 0.095886 0.086060
0.654053 0.079102 0.088165
0.699249 0.064636 0.090912
0.741180 0.062744 0.094482
0.780029 0.062744 0.098846
0.816071 0.062744 0.104218
0.850403 0.062744 0.110870
0.882874 0.062744 0.118774
0.913452 0.062744 0.128265
0.921570 0.062744 0.139587
0.921570 0.062744 0.151611
0.921570 0.062744 0.164764
0.921570 0.062744 0.178955
0.921570 0.062744 0.194366
0.921570 0.062744 0.211609
0.921570 0.062744 0.229919
0.921570 0.062744 0.248993
0.068237 0.178009 0.090698
0.068268 0.180145 0.090820
0.092834 0.175873 0.093658
0.115570 0.170044 0.096893
0.132568 0.165466 0.098114
0.148834 0.165375 0.094757
0.165863 0.162720 0.091187
0.189484 0.161530 0.088318
0.233032 0.170959 0.086426
0.277496 0.178040 0.085144
0.323273 0.182831 0.084534
0.376251 0.184845 0.083862
0.432648 0.182556 0.083221
0.489227 0.176636 0.082977
0.544617 0.166931 0.083435
0.597656 0.153564 0.084564
0.646698 0.136719 0.086578
0.692322 0.117584 0.089417
0.734894 0.096161 0.093170
0.774078 0.075348 0.097839
0.810089 0.067230 0.103516
0.844116 0.063690 0.110321
0.876282 0.062744 0.118469
0.906647 0.062744 0.128174
0.921570 0.062744 0.139557
0.921570 0.062744 0.151672
0.921570 0.062744 0.164856
0.921570 0.062744 0.179169
0.921570 0.062744 0.194794
0.921570 0.062744 0.211700
0.921570 0.062744 0.229889
0.921570 0.062744 0.250061
0.062744 0.223206 0.089142
0.065582 0.224213 0.090454
0.101074 0.217865 0.094604
0.129242 0.210938 0.098389
0.149597 0.203522 0.101471
0.166260 0.201050 0.098816
0.186798 0.200714 0.094055
0.206512 0.196136 0.089264
0.230377 0.192200 0.086182
0.277191 0.202576 0.083588
0.322845 0.209412 0.082703
0.370209 0.214508 0.083160
0.420471 0.216919 0.083740
0.477814 0.216217 0.082855
0.533936 0.212494 0.082764
0.587860 0.205811 0.083649
0.638062 0.196136 0.085480
0.684601 0.183380 0.088440
0.727936 0.166840 0.092529
0.767731 0.148132 0.097595
0.803955 0.126648 0.103607
0.837708 0.103119 0.110687
0.869507 0.083160 0.119080
0.899689 0.069946 0.128876
0.921570 0.062744 0.140411
0.921570 0.062744 0.152679
0.921570 0.062744 0.165833
0.921570 0.062744 0.180023
0.921570 0.062744 0.195526
0.921570 0.062744 0.212280
0.921570 0.062744 0.230316
0.921570 0.062744 0.250732
0.062744 0.271667 0.087738
0.069855 0.269684 0.091675
0.112335 0.263062 0.096283
0.145020 0.255493 0.100586
0.166779 0.247467 0.104279
0.184357 0.241364 0.104614
0.204224 0.239197 0.098969
0.227783 0.237732 0.092529
0.248535 0.231720 0.086517
0.275818 0.228058 0.082947
0.321625 0.235992 0.080811
0.368286 0.242584 0.080902
0.416016 0.247375 0.081940
0.465942 0.250549 0.083282
0.520660 0.251221 0.083588
0.575867 0.248962 0.083923
0.627045 0.243774 0.085663
0.674438 0.235535 0.088531
0.717957 0.224823 0.092682
0.758209 0.211670 0.097931
0.794861 0.196075 0.104095
0.829346 0.178345 0.111603
0.861481 0.159027 0.120209
0.891968 0.137390 0.130524
0.918060 0.115143 0.142181
0.921570 0.093842 0.154510
0.921570 0.074249 0.167816
0.921570 0.063019 0.182098
0.921570 0.062744 0.197388
0.921570 0.062744 0.213867
0.921570 0.062744 0.231476
0.921570 0.062744 0.251495
0.062744 0.345642 0.100433
0.082794 0.340729 0.102997
0.140594 0.332977 0.106201
0.176758 0.323120 0.112488
0.199615 0.313538 0.115112
0.216675 0.300995 0.118988
0.232941 0.292908 0.114929
0.253448 0.287506 0.107666
0.278870 0.284637 0.098419
0.297058 0.274048 0.088196
0.326996 0.270050 0.082367
0.377960 0.279724 0.078583
0.427704 0.286804 0.079102
0.476929 0.291351 0.080963
0.524261 0.293549 0.084106
0.572449 0.293274 0.086731
0.622589 0.289917 0.088135
0.669098 0.283875 0.091003
0.712280 0.275452 0.095245
0.752411 0.265259 0.100739
0.789703 0.253326 0.107391
0.825531 0.239899 0.115509
0.858551 0.225037 0.125183
0.889404 0.209808 0.136353
0.916718 0.193939 0.148224
0.921570 0.177429 0.160553
0.921570 0.160034 0.173615
0.921570 0.142395 0.187225
0.921570 0.125885 0.201813
0.921570 0.112396 0.217438
0.921570 0.104248 0.234497
0.921570 0.112030 0.254822
0.064148 0.391968 0.114777
0.104645 0.393463 0.120178
0.165985 0.387054 0.123108
0.201477 0.376312 0.127991
0.221130 0.363647 0.138367
0.237396 0.350189 0.147156
0.255127 0.338043 0.150177
0.274139 0.332458 0.139343
0.297699 0.328888 0.127228
0.324188 0.326416 0.114075
0.347046 0.318787 0.096832
0.373077 0.309784 0.090515
0.422913 0.316864 0.086304
0.472565 0.322784 0.084045
0.521393 0.326630 0.081818
0.566833 0.327759 0.086029
0.610474 0.327057 0.091431
0.656769 0.324280 0.095276
0.701447 0.319153 0.099457
0.743011 0.311707 0.105255
0.781555 0.302551 0.112305
0.818329 0.291870 0.121185
0.852234 0.279785 0.131531
0.883789 0.266907 0.143036
0.913025 0.254089 0.154938
0.921570 0.241638 0.167542
0.921570 0.229797 0.180725
0.921570 0.218140 0.194550
0.921570 0.207275 0.209381
0.921570 0.198212 0.225281
0.921570 0.192169 0.242584
0.921570 0.194000 0.261810
0.066650 0.435974 0.146606
0.133606 0.439117 0.154449
0.190216 0.433258 0.158722
0.223755 0.423615 0.162598
0.243683 0.410767 0.170868
0.259094 0.396851 0.180054
0.274933 0.383453 0.186737
0.292786 0.373230 0.186218
0.313202 0.369171 0.172485
0.337219 0.366547 0.156921
0.364227 0.364288 0.139801
0.388031 0.356354 0.115784
0.412598 0.345032 0.104889
0.465515 0.353241 0.099426
0.515350 0.358765 0.096222
0.563782 0.361969 0.093567
0.608856 0.362915 0.093475
0.649963 0.362213 0.099121
0.691101 0.359619 0.106750
0.733459 0.354523 0.112762
0.772858 0.347687 0.120270
0.810089 0.338928 0.129456
0.844238 0.328735 0.139984
0.876007 0.317535 0.151062
0.905457 0.306213 0.162720
0.921570 0.295288 0.175140
0.921570 0.285553 0.188293
0.921570 0.276855 0.202332
0.921570 0.269318 0.217560
0.921570 0.263062 0.233795
0.921570 0.258759 0.251526
0.921570 0.259369 0.270874
0.103180 0.475616 0.185394
0.170410 0.480316 0.193542
0.217743 0.475861 0.197601
0.248718 0.466583 0.202393
0.267487 0.455475 0.208344
0.281921 0.443451 0.214630
0.296783 0.430847 0.220947
0.314423 0.419403 0.224213
0.333282 0.411804 0.219757
0.354523 0.409088 0.205414
0.379395 0.407043 0.189606
0.407471 0.405334 0.172058
0.430695 0.395905 0.145599
0.452759 0.381622 0.130005
0.509857 0.392120 0.123810
0.559296 0.396820 0.119415
0.605499 0.398560 0.116394
0.648529 0.398376 0.113831
0.687592 0.396667 0.114624
0.722870 0.393585 0.124023
0.761719 0.388550 0.130768
0.799316 0.381805 0.140106
0.833954 0.373566 0.150116
0.866302 0.364288 0.160858
0.896393 0.354309 0.172333
0.920288 0.344666 0.184662
0.921570 0.335968 0.197906
0.921570 0.328674 0.212311
0.921570 0.322845 0.227875
0.921570 0.318420 0.244507
0.921570 0.315460 0.262604
0.921570 0.315613 0.282104
0.165680 0.526337 0.236053
0.211365 0.522858 0.238556
0.249084 0.517517 0.240448
0.277008 0.510345 0.242981
0.294830 0.500183 0.247101
0.307495 0.489258 0.250732
0.320313 0.477753 0.255188
0.335907 0.466858 0.257538
0.355499 0.456848 0.260254
0.375336 0.452545 0.251923
0.397888 0.450684 0.237244
0.423615 0.449219 0.221466
0.452271 0.447510 0.203430
0.474213 0.436188 0.175995
0.496399 0.421478 0.159302
0.551453 0.429871 0.153717
0.597443 0.432220 0.149963
0.640594 0.432159 0.146820
0.680298 0.430450 0.144989
0.717529 0.428070 0.144287
0.752197 0.425415 0.146851
0.787018 0.421722 0.155792
0.822998 0.415771 0.162781
0.855957 0.408569 0.173462
0.886475 0.400055 0.184448
0.915039 0.391449 0.196381
0.921570 0.383179 0.209290
0.921570 0.376129 0.223419
0.921570 0.370728 0.239014
0.921570 0.366882 0.255829
0.921570 0.365204 0.275024
0.921570 0.366486 0.295624
0.208832 0.553558 0.271240
0.251312 0.559814 0.281281
0.283295 0.556732 0.283875
0.307373 0.551239 0.284271
0.324097 0.543671 0.285675
0.336090 0.533905 0.288269
0.346985 0.523834 0.291107
0.360077 0.513550 0.292908
0.377991 0.504456 0.294983
0.399414 0.496490 0.297211
0.419495 0.494324 0.285095
0.442352 0.492828 0.270203
0.467773 0.490906 0.253815
0.496277 0.488861 0.235016
0.518951 0.478149 0.207977
0.542328 0.464355 0.190826
0.591553 0.467499 0.184570
0.634674 0.468018 0.181824
0.675201 0.466705 0.179749
0.713623 0.464844 0.179138
0.749725 0.462738 0.179504
0.784088 0.460419 0.180847
0.815643 0.457458 0.185089
0.848511 0.452759 0.191223
0.879852 0.446625 0.202759
0.908966 0.439697 0.214935
0.921570 0.432220 0.227783
0.921570 0.425354 0.241547
0.921570 0.419556 0.256683
0.921570 0.415497 0.273376
0.921570 0.413086 0.291718
0.921570 0.413635 0.311676
0.254852 0.588074 0.311188
0.290558 0.594635 0.321777
0.317352 0.592621 0.324402
0.338074 0.587860 0.324524
0.354858 0.583618 0.325226
0.366486 0.575592 0.326447
0.375549 0.566498 0.327820
0.385742 0.556732 0.328888
0.400421 0.547546 0.329651
0.419769 0.539368 0.331299
0.440460 0.532990 0.330139
0.459930 0.531403 0.316406
0.482269 0.529785 0.301239
0.507446 0.528076 0.284698
0.535950 0.526398 0.266205
0.558655 0.515991 0.239288
0.582275 0.502533 0.222565
0.627441 0.503052 0.216797
0.669281 0.502899 0.214722
0.708313 0.501495 0.213837
0.744781 0.499481 0.213867
0.779022 0.497131 0.214874
0.810486 0.494324 0.215790
0.839935 0.491119 0.216492
0.867706 0.487396 0.221893
0.897186 0.482025 0.231415
0.921234 0.475952 0.244232
0.921570 0.469910 0.258179
0.921570 0.464386 0.273407
0.921570 0.460175 0.290344
0.921570 0.457794 0.309357
0.921570 0.458405 0.329956
0.300079 0.621399 0.350983
0.331085 0.628021 0.361908
0.353455 0.626770 0.364777
0.370850 0.622559 0.364441
0.385803 0.618958 0.364624
0.398773 0.614594 0.365570
0.406708 0.606232 0.366028
0.414429 0.597137 0.366241
0.425262 0.588013 0.365753
0.441833 0.580017 0.366516
0.461884 0.572845 0.368256
0.481201 0.568939 0.363251
0.500427 0.568024 0.349579
0.522552 0.566864 0.334839
0.547455 0.565613 0.318604
0.575714 0.564178 0.300446
0.598328 0.553986 0.273193
0.620453 0.540039 0.256256
0.661865 0.538208 0.250458
0.702301 0.537872 0.249084
0.738678 0.535583 0.248108
0.772827 0.532990 0.247986
0.804077 0.530212 0.248627
0.833374 0.527374 0.249756
0.861237 0.524261 0.250763
0.887543 0.520996 0.253662
0.913483 0.517334 0.262909
0.921570 0.512939 0.277527
0.921570 0.508209 0.292999
0.921570 0.504059 0.310059
0.921570 0.501770 0.329742
0.921570 0.501770 0.351379
0.334015 0.644409 0.380768
0.352936 0.644287 0.384003
0.371399 0.642914 0.386200
0.388550 0.641113 0.387939
0.404053 0.639679 0.389954
0.419220 0.638580 0.392578
0.429138 0.633759 0.394318
0.437012 0.627045 0.395721
0.447632 0.620880 0.397583
0.462402 0.614685 0.399048
0.481049 0.608887 0.401031
0.501617 0.603607 0.403870
0.519257 0.602051 0.395264
0.538055 0.601440 0.382080
0.559418 0.600433 0.367401
0.583527 0.599030 0.351166
0.610748 0.597321 0.332672
0.632538 0.587250 0.305145
0.652100 0.571930 0.286865
0.690918 0.569336 0.281372
0.729919 0.569214 0.280762
0.764862 0.567383 0.280609
0.797089 0.565369 0.281677
0.827209 0.563599 0.283752
0.855530 0.561768 0.286346
0.882477 0.559540 0.288452
0.908081 0.556488 0.290161
0.921570 0.553711 0.298492
0.921570 0.550903 0.315857
0.921570 0.547546 0.333130
0.921570 0.545166 0.352814
0.921570 0.544922 0.374176
0.374176 0.672150 0.416351
0.395477 0.676331 0.424377
0.411346 0.675842 0.426971
0.424683 0.673431 0.427490
0.437317 0.671509 0.428406
0.450836 0.670288 0.430420
0.462219 0.668304 0.432495
0.467834 0.661346 0.432220
0.474121 0.653900 0.431641
0.485260 0.647552 0.431946
0.501617 0.642639 0.433807
0.520752 0.638367 0.436432
0.540192 0.634491 0.438171
0.556488 0.634125 0.427643
0.574707 0.633667 0.414886
0.595520 0.632813 0.400726
0.619110 0.631744 0.384918
0.645752 0.630646 0.367615
0.667725 0.621735 0.340485
0.687988 0.608826 0.324280
0.723083 0.605011 0.318939
0.761841 0.606079 0.320526
0.794373 0.604584 0.321533
0.824249 0.602661 0.323242
0.851837 0.600525 0.325134
0.877747 0.598206 0.326935
0.902435 0.595459 0.328369
0.921570 0.592041 0.328613
0.921570 0.588989 0.335175
0.921570 0.588531 0.356873
0.921570 0.587555 0.377991
0.921570 0.587219 0.399048
0.418152 0.702240 0.455383
0.436584 0.706085 0.463013
0.450043 0.705902 0.465637
0.461273 0.704071 0.466248
0.472046 0.702423 0.466980
0.484100 0.701202 0.468597
0.495361 0.700287 0.470581
0.500946 0.694885 0.470123
0.504669 0.687469 0.468384
0.512238 0.680786 0.467163
0.525208 0.675720 0.467865
0.542023 0.671783 0.469940
0.560638 0.668121 0.472778
0.578003 0.665741 0.471893
0.593506 0.665863 0.461060
0.611359 0.665741 0.449005
0.631683 0.665283 0.435760
0.654480 0.664551 0.421112
0.680176 0.663849 0.404907
0.701691 0.656036 0.378693
0.721283 0.644623 0.363190
0.750366 0.637695 0.356049
0.786774 0.638763 0.357697
0.816345 0.636871 0.358795
0.843933 0.634735 0.359924
0.869781 0.632813 0.361969
0.894440 0.630829 0.363953
0.917175 0.628754 0.365875
0.921570 0.626160 0.367004
0.921570 0.624512 0.376190
0.921570 0.626038 0.400909
0.921570 0.628052 0.425079
0.461304 0.730682 0.493958
0.477509 0.734344 0.501312
0.488892 0.734283 0.503723
0.497955 0.732635 0.504028
0.506744 0.730927 0.504242
0.516876 0.729523 0.505219
0.526947 0.728516 0.506653
0.533966 0.725739 0.507233
0.536591 0.719177 0.505188
0.541443 0.712616 0.503174
0.551392 0.707520 0.502899
0.565826 0.703979 0.504456
0.582855 0.701080 0.507172
0.600769 0.698242 0.510590
0.615875 0.697327 0.506256
0.630768 0.697571 0.496033
0.647552 0.697266 0.484314
0.666473 0.696533 0.471222
0.687714 0.695526 0.456726
0.711426 0.694458 0.440887
0.731689 0.687561 0.416809
0.750580 0.677521 0.401642
0.772736 0.667480 0.391479
0.807983 0.669189 0.394104
0.835663 0.667511 0.395203
0.861816 0.666016 0.397125
0.886719 0.664978 0.400024
0.910767 0.664337 0.403809
0.921570 0.663239 0.406952
0.921570 0.661102 0.408722
0.921570 0.660126 0.420074
0.921570 0.662170 0.444733
0.491699 0.750244 0.521240
0.502228 0.751221 0.524597
0.511993 0.751160 0.526794
0.521393 0.750793 0.528534
0.530853 0.750519 0.530548
0.541260 0.750214 0.532745
0.551788 0.750153 0.535339
0.560822 0.749786 0.537720
0.564392 0.745148 0.536896
0.568512 0.739777 0.535522
0.577148 0.735840 0.535919
0.589691 0.732910 0.537506
0.605072 0.730621 0.540161
0.621582 0.728485 0.543488
0.638153 0.726166 0.546539
0.651215 0.726349 0.539490
0.665253 0.726471 0.529449
0.681091 0.726166 0.518219
0.699005 0.725555 0.505829
0.718933 0.724854 0.492493
0.740967 0.724121 0.478363
0.757904 0.715973 0.453033
0.777374 0.709045 0.440125
0.795166 0.697968 0.429413
0.829315 0.700775 0.433960
0.856873 0.700897 0.437531
0.881866 0.700439 0.440796
0.905060 0.699646 0.443909
0.921570 0.697937 0.445618
0.921570 0.696350 0.447723
0.921570 0.694244 0.449432
0.921570 0.693756 0.463898
0.531708 0.774933 0.557281
0.541412 0.776215 0.561096
0.549286 0.776001 0.562714
0.556519 0.775330 0.563690
0.564056 0.774750 0.564880
0.573059 0.774384 0.566772
0.582458 0.774231 0.569000
0.591278 0.774261 0.571411
0.596191 0.771698 0.571808
0.598419 0.766418 0.569611
0.604034 0.762177 0.568604
0.614075 0.759308 0.569550
0.627289 0.757233 0.571777
0.641998 0.755341 0.574615
0.657318 0.753448 0.577820
0.671875 0.752045 0.578827
0.683990 0.752808 0.571167
0.697632 0.753296 0.562134
0.712982 0.753448 0.551971
0.730011 0.753357 0.540955
0.748596 0.753082 0.529175
0.768890 0.752625 0.516510
0.786774 0.747864 0.497192
0.805908 0.743103 0.484863
0.820160 0.731079 0.472260
0.848328 0.730377 0.472809
0.874420 0.730072 0.474915
0.897034 0.729004 0.476837
0.918243 0.728729 0.480469
0.921570 0.728394 0.484100
0.921570 0.727356 0.487091
0.921570 0.724304 0.488556
0.570496 0.797791 0.592499
0.578369 0.798676 0.595520
0.585052 0.798553 0.596954
0.591278 0.798065 0.597992
0.597748 0.797638 0.599121
0.605225 0.797119 0.600464
0.613312 0.796722 0.602173
0.621155 0.796539 0.604095
0.627136 0.795563 0.605286
0.628265 0.790863 0.602753
0.631470 0.786469 0.600739
0.638794 0.783325 0.600677
0.649658 0.781281 0.602234
0.662598 0.779663 0.604706
0.676544 0.778198 0.607788
0.690979 0.776733 0.611206
0.703522 0.776581 0.609589
0.715027 0.777496 0.602234
0.727844 0.777893 0.593475
0.741882 0.777924 0.583649
0.757080 0.777588 0.573029
0.773529 0.776917 0.561615
0.791168 0.776093 0.549438
0.807709 0.772156 0.532074
0.827026 0.769257 0.519806
0.840393 0.758545 0.508057
0.863953 0.755890 0.506500
0.890411 0.757416 0.511047
0.912201 0.757416 0.514557
0.921570 0.757446 0.518341
0.921570 0.756897 0.521515
0.921570 0.754333 0.522797
0.607971 0.819061 0.626801
0.614075 0.819489 0.628876
0.619720 0.819397 0.630188
0.624908 0.819000 0.631012
0.630219 0.818542 0.631866
0.636688 0.818115 0.633087
0.643799 0.817657 0.634460
0.650879 0.817413 0.636108
0.657318 0.817352 0.637909
0.658051 0.813446 0.635223
0.659363 0.809082 0.632599
0.664459 0.806000 0.631836
0.673279 0.804077 0.632935
0.684631 0.802765 0.635193
0.697052 0.801544 0.637970
0.709991 0.800262 0.640961
0.722870 0.798737 0.643799
0.732819 0.799103 0.638580
0.743225 0.799561 0.630829
0.754730 0.799591 0.621948
0.767273 0.799408 0.612579
0.781128 0.799255 0.603058
0.795685 0.798798 0.593109
0.811646 0.798279 0.582397
0.827484 0.795502 0.567352
0.847443 0.794800 0.556824
0.861053 0.786591 0.546814
0.879974 0.781860 0.542389
0.904907 0.783386 0.547089
0.921448 0.783783 0.550812
0.921570 0.783508 0.554108
0.921570 0.781311 0.555420
0.645142 0.839325 0.660980
0.650848 0.840027 0.663452
0.655304 0.839813 0.664307
0.659363 0.839294 0.664764
0.663574 0.838837 0.665253
0.668854 0.838348 0.666077
0.674957 0.837830 0.667175
0.681274 0.837585 0.668640
0.687134 0.837555 0.670319
0.690247 0.835968 0.670044
0.690247 0.831909 0.666962
0.693542 0.828888 0.665680
0.700470 0.827057 0.666351
0.709930 0.825897 0.668182
0.720764 0.824921 0.670593
0.732147 0.823853 0.673248
0.743805 0.822632 0.675934
0.754761 0.821777 0.676788
0.763763 0.822693 0.671082
0.773834 0.823486 0.664520
0.784637 0.824066 0.657349
0.795959 0.824219 0.649506
0.807251 0.823639 0.640686
0.819427 0.822876 0.631104
0.833344 0.822113 0.620667
0.848114 0.819885 0.606323
0.867249 0.819977 0.595978
0.880341 0.813171 0.585754
0.895111 0.806152 0.577423
0.917175 0.807251 0.581238
0.921570 0.807404 0.584717
0.921570 0.805542 0.586151
0.677734 0.856720 0.691345
0.681580 0.856781 0.692474
0.685516 0.856720 0.693420
0.689575 0.856628 0.694427
0.693695 0.856445 0.695374
0.698334 0.856110 0.696228
0.703674 0.855713 0.697296
0.709198 0.855377 0.698456
0.714386 0.855255 0.699799
0.718658 0.854950 0.700836
0.717224 0.850922 0.696716
0.718170 0.847504 0.693970
0.722809 0.845367 0.693512
0.730408 0.844086 0.694641
0.739624 0.843170 0.696625
0.749756 0.842255 0.698944
0.760376 0.841339 0.701569
0.771149 0.840302 0.704285
0.780151 0.840454 0.702545
0.788544 0.841370 0.696991
0.797577 0.842041 0.690887
0.806763 0.842285 0.684052
0.816071 0.842072 0.676727
0.825806 0.841583 0.668854
0.836792 0.841003 0.660187
0.849792 0.840607 0.650574
0.864899 0.839996 0.639160
0.883179 0.840851 0.629639
0.896606 0.836151 0.620605
0.909241 0.829315 0.612152
0.921570 0.828613 0.613434
0.921570 0.827332 0.615265
0.709625 0.872833 0.721100
0.712769 0.872925 0.722107
0.716125 0.872864 0.722992
0.719513 0.872803 0.723846
0.722931 0.872650 0.724609
0.726929 0.872345 0.725403
0.731384 0.871979 0.726196
0.736176 0.871674 0.727203
0.740845 0.871460 0.728333
0.745270 0.871490 0.729767
0.745941 0.869354 0.727783
0.745392 0.865967 0.724335
0.747894 0.863647 0.722809
0.753235 0.862061 0.722900
0.760590 0.861023 0.724091
