tools/luts_backup/LAPARDIN-WEDLUTS-18.cube
#Created by: Adobe Photoshop Export Color Lookup Plugin
#Copyright: (C) 2017 Andrey Lapardin. vk.com-3dluts
TITLE "Andrey Lapardin. vk.com-3dluts"
#LUT size
LUT_3D_SIZE 8
#data domain
#LUT data points
DOMAIN_MIN 0.000000 0.000000 0.000000
DOMAIN_MAX 0.903226 0.903226 0.903226
0.011871 0.022003 0.020477
0.090729 0.028961 0.025238
0.178589 0.040894 0.029175
0.280945 0.046906 0.033447
0.406982 0.038544 0.036285
0.559937 0.026581 0.035614
0.721039 0.020264 0.032959
0.859741 0.011414 0.033478
0.018585 0.097687 0.028778
0.087860 0.098175 0.030670
0.178741 0.106201 0.032715
0.281036 0.109924 0.036438
0.405548 0.106628 0.042175
0.556580 0.081573 0.043579
0.716431 0.082825 0.038666
0.855713 0.080963 0.033905
0.023926 0.184235 0.041962
0.105316 0.179077 0.051086
0.175232 0.176971 0.051086
0.283508 0.184204 0.049530
0.411102 0.181580 0.047485
0.558990 0.161774 0.049866
0.710236 0.134308 0.050781
0.840576 0.131683 0.051453
0.035492 0.285706 0.056396
0.130157 0.280365 0.065186
0.198547 0.272644 0.079437
0.287659 0.274719 0.071289
0.421478 0.279755 0.063965
0.568817 0.271729 0.056641
0.713501 0.264038 0.049500
0.836761 0.261139 0.049896
0.027496 0.419922 0.075348
0.153839 0.417053 0.081329
0.228455 0.395874 0.105042
0.318634 0.396057 0.106110
0.423157 0.400970 0.088440
0.572510 0.410217 0.070068
0.713318 0.412170 0.050812
0.834015 0.410431 0.041351
0.012329 0.573792 0.102783
0.168427 0.574280 0.110809
0.260559 0.554718 0.126373
0.365082 0.540283 0.156891
0.461395 0.551880 0.138428
0.573730 0.554535 0.108459
0.710754 0.567261 0.085815
0.827118 0.569855 0.069611
0.138489 0.707977 0.161072
0.246368 0.708160 0.167664
0.345764 0.706360 0.178497
0.413269 0.686493 0.204651
0.516327 0.685333 0.215912
0.612183 0.691559 0.194824
0.706940 0.690826 0.170807
0.818481 0.699280 0.159149
0.229553 0.811371 0.232666
0.324860 0.811951 0.236816
0.418488 0.811127 0.244568
0.475189 0.802155 0.261139
0.564087 0.797150 0.280273
0.653198 0.799896 0.276703
0.725555 0.799866 0.272247
0.808197 0.802124 0.260010
0.017639 0.023071 0.095520
0.087891 0.028076 0.095764
0.179596 0.036469 0.103271
0.279480 0.046448 0.105804
0.397705 0.046295 0.106323
0.540344 0.025787 0.104218
0.700623 0.020660 0.100281
0.846619 0.011566 0.095947
0.016022 0.096832 0.091614
0.096771 0.108307 0.102570
0.185760 0.114044 0.107239
0.292023 0.117065 0.108124
0.416931 0.117920 0.107880
0.560699 0.091003 0.104279
0.713531 0.088745 0.103882
0.839691 0.089722 0.107880
0.020874 0.181122 0.104156
0.115204 0.188995 0.118561
0.189148 0.194061 0.117828
0.300659 0.198608 0.113098
0.430969 0.191467 0.111542
0.577087 0.171692 0.108704
0.719482 0.149017 0.108154
0.834015 0.150543 0.114258
0.029633 0.280548 0.123138
0.135925 0.285614 0.134796
0.217590 0.285431 0.146637
0.311096 0.292084 0.136017
0.445862 0.298950 0.129578
0.593018 0.288635 0.119324
0.732117 0.281952 0.107269
0.837738 0.290466 0.117706
0.011108 0.415344 0.145935
0.148407 0.421387 0.152100
0.253693 0.419861 0.168549
0.346008 0.421326 0.173340
0.453522 0.425354 0.156860
0.598175 0.434845 0.141937
0.731415 0.431519 0.123291
0.833527 0.426666 0.115997
0.009613 0.566864 0.167175
0.161163 0.578918 0.176056
0.297729 0.575928 0.192078
0.391449 0.564423 0.223236
0.487823 0.571960 0.207916
0.600159 0.574860 0.183258
0.728180 0.583618 0.166931
0.826996 0.573975 0.161163
0.128540 0.701385 0.216644
0.255951 0.718323 0.232697
0.376312 0.715607 0.244659
0.451660 0.704102 0.272186
0.533020 0.695892 0.290466
0.628448 0.700958 0.272125
0.723053 0.698364 0.242676
0.820068 0.701477 0.238861
0.223785 0.803375 0.280334
0.336731 0.813416 0.298706
0.437195 0.812531 0.305115
0.519348 0.806549 0.323517
0.572144 0.793610 0.354980
0.653595 0.793732 0.353851
0.735840 0.797424 0.342285
0.813843 0.802887 0.329926
0.013824 0.022034 0.183777
0.083923 0.027771 0.188995
0.164398 0.033112 0.192474
0.288879 0.031708 0.210907
0.415375 0.020111 0.206421
0.560272 0.019775 0.200104
0.710632 0.016998 0.191772
0.846741 0.009460 0.173706
0.016632 0.105560 0.175110
0.095093 0.113586 0.189087
0.183258 0.115723 0.194397
0.295471 0.121948 0.203857
0.422211 0.120728 0.204620
0.567474 0.094604 0.203552
0.711945 0.090332 0.193359
0.831085 0.093140 0.179291
0.018921 0.181549 0.171600
0.101563 0.194397 0.185486
0.202423 0.210846 0.201935
0.316772 0.204437 0.197693
0.450562 0.199188 0.196899
0.597046 0.188660 0.198090
0.718048 0.187897 0.202332
0.813568 0.214630 0.217529
0.022827 0.278900 0.179993
0.120819 0.288727 0.190277
0.229431 0.310974 0.217896
0.328064 0.316528 0.213867
0.467194 0.312500 0.200958
0.612366 0.305420 0.199188
0.737762 0.307617 0.201660
0.832062 0.319458 0.213928
0.024506 0.405151 0.192322
0.117462 0.419739 0.211700
0.263062 0.442688 0.241455
0.364838 0.444855 0.258606
0.478851 0.454987 0.230591
0.617889 0.457794 0.213135
0.734375 0.449554 0.214294
0.830231 0.449097 0.225555
0.022308 0.561615 0.222107
0.124084 0.569550 0.244202
0.304779 0.587921 0.269440
0.410889 0.585449 0.302887
0.513336 0.591278 0.292633
0.617798 0.587097 0.264984
0.725739 0.594879 0.268860
0.825623 0.592651 0.268677
0.123016 0.697235 0.280060
0.229492 0.698303 0.296356
0.377594 0.709534 0.324951
0.475250 0.706818 0.350006
0.555450 0.704224 0.369507
0.644165 0.707733 0.347809
0.731354 0.704987 0.335022
0.822968 0.710876 0.341217
0.224152 0.801331 0.350403
0.315399 0.789520 0.354370
0.443085 0.788757 0.388611
0.537872 0.786896 0.401611
0.598511 0.798370 0.425049
0.666748 0.798035 0.422333
0.743927 0.800598 0.419037
0.823151 0.804749 0.409546
0.010254 0.027344 0.287140
0.077881 0.028015 0.297607
0.141998 0.037964 0.309692
0.249969 0.035004 0.312988
0.425629 0.013397 0.353729
0.587433 0.013336 0.353180
0.728149 0.013855 0.321564
0.851654 0.010193 0.306580
0.010834 0.110870 0.279572
0.084015 0.112732 0.297363
0.163422 0.119110 0.307709
0.267517 0.121002 0.313080
0.426636 0.107300 0.344543
0.583374 0.094208 0.347137
0.725739 0.092621 0.324249
0.835236 0.096283 0.315552
0.019104 0.191742 0.274994
0.095734 0.201843 0.292206
0.195129 0.213806 0.312439
0.316956 0.208374 0.313904
0.466980 0.199066 0.320343
0.610809 0.186554 0.319519
0.727875 0.222931 0.329254
0.822571 0.239197 0.329071
0.025055 0.282928 0.268311
0.091614 0.300140 0.288025
0.194702 0.324524 0.310394
0.343658 0.338745 0.321960
0.486053 0.325989 0.310669
0.623108 0.325867 0.311188
0.735901 0.349304 0.328857
0.837189 0.363068 0.336212
0.028961 0.414124 0.276154
0.096130 0.433014 0.289734
0.215973 0.451416 0.308502
0.375305 0.472076 0.349152
0.489716 0.477783 0.340637
0.624054 0.467438 0.322510
0.737671 0.472260 0.333435
0.845093 0.470581 0.334167
0.032349 0.562073 0.293518
0.102936 0.575500 0.311035
0.268524 0.585938 0.334656
0.423584 0.599365 0.384735
0.524200 0.603027 0.403870
0.625824 0.604218 0.371216
0.731689 0.609161 0.366119
0.827118 0.609497 0.374023
0.075287 0.691345 0.334595
0.207306 0.696198 0.356964
0.343994 0.690765 0.379272
0.494629 0.698639 0.434113
0.570892 0.706207 0.466949
0.653717 0.711151 0.452454
0.740509 0.710571 0.425446
0.821320 0.718933 0.441833
0.219696 0.795898 0.402069
0.306274 0.787964 0.417053
0.414856 0.784332 0.432159
0.547943 0.790314 0.478394
0.615326 0.798065 0.500580
0.679657 0.803528 0.511292
0.754639 0.804688 0.496155
0.828125 0.806976 0.496796
0.007111 0.034637 0.416260
0.085205 0.034515 0.422638
0.111298 0.042297 0.452606
0.224518 0.041779 0.454529
0.360535 0.023224 0.453857
0.583466 0.011261 0.518890
0.742126 0.009705 0.514191
0.858734 0.008392 0.471771
0.006256 0.114319 0.411896
0.084534 0.113068 0.429016
0.128571 0.118927 0.448151
0.236328 0.128204 0.454895
0.371368 0.116913 0.456329
0.580292 0.091248 0.509216
0.736023 0.089661 0.511139
0.842255 0.095490 0.473755
0.015289 0.198883 0.405853
0.083191 0.206543 0.425476
0.152161 0.215607 0.453552
0.290344 0.215546 0.448395
0.430023 0.210052 0.451141
0.602386 0.190369 0.487122
0.728912 0.191620 0.481415
0.826233 0.214905 0.466919
0.025177 0.297211 0.400085
0.091003 0.312805 0.423981
0.174500 0.336121 0.453186
0.335297 0.347473 0.462097
0.493439 0.337708 0.461884
0.636963 0.333862 0.456573
0.740906 0.364502 0.454712
0.835907 0.396454 0.454498
0.032318 0.419067 0.390625
0.100006 0.440887 0.412689
0.164185 0.470764 0.444794
0.328918 0.490631 0.460938
0.504456 0.502502 0.466949
0.634949 0.492462 0.456665
0.745361 0.493622 0.456421
0.843658 0.503387 0.468475
0.036591 0.565430 0.396881
0.106232 0.579254 0.410797
0.173950 0.595703 0.430817
0.379852 0.608429 0.462646
0.535950 0.619476 0.505585
0.632751 0.622467 0.495911
0.739838 0.618866 0.481598
0.832977 0.617615 0.488861
0.039520 0.693268 0.421204
0.117218 0.695160 0.429352
0.281250 0.701355 0.456421
0.461365 0.701324 0.487030
0.581268 0.716888 0.542633
0.656677 0.721619 0.554749
0.741608 0.723389 0.531342
0.825653 0.725342 0.533691
0.167175 0.795563 0.465729
0.280457 0.793732 0.476166
0.397125 0.791718 0.499847
0.515961 0.788025 0.520569
0.635651 0.796722 0.568939
0.689941 0.803864 0.595917
0.761841 0.808044 0.590942
0.834106 0.809326 0.579071
0.002991 0.041962 0.563934
0.087555 0.040558 0.564819
0.123932 0.040314 0.596313
0.170380 0.048615 0.605530
0.349274 0.027069 0.599060
0.510620 0.016266 0.599426
0.730530 0.009308 0.670624
0.857086 0.007538 0.646698
0.001587 0.115601 0.564789
0.086395 0.113739 0.576355
0.139130 0.115173 0.593048
0.178131 0.134399 0.606110
0.353729 0.125458 0.600952
0.514832 0.091888 0.599152
0.725372 0.089539 0.660339
0.840240 0.096008 0.634094
0.006683 0.212585 0.565338
0.081146 0.214203 0.573761
0.141174 0.218903 0.599335
0.257629 0.221832 0.596558
0.398193 0.228180 0.590363
0.546539 0.209564 0.592957
0.720795 0.177185 0.635345
0.820679 0.188171 0.616089
0.020813 0.314331 0.555420
0.090240 0.328033 0.568176
0.150726 0.348816 0.598785
0.309814 0.363495 0.605255
0.456238 0.354004 0.591095
0.605103 0.353333 0.589478
0.728729 0.387939 0.605194
0.833496 0.405304 0.584442
0.032074 0.441742 0.545898
0.100616 0.457336 0.562683
0.161743 0.484009 0.591888
0.337891 0.501190 0.598816
0.498749 0.513062 0.599792
0.637238 0.504944 0.598633
0.747955 0.508392 0.596008
0.839783 0.528503 0.588837
0.041077 0.568359 0.533844
0.110199 0.581360 0.543915
0.175568 0.605469 0.577057
0.331726 0.616333 0.590942
0.503845 0.630493 0.602966
0.643524 0.638458 0.609802
0.745361 0.634674 0.606293
0.834076 0.637024 0.608734
0.043640 0.694550 0.538849
0.119904 0.698639 0.542450
0.189240 0.707001 0.561188
0.371613 0.711060 0.572937
0.547272 0.723785 0.606567
0.666718 0.733582 0.644073
0.743347 0.734436 0.639221
0.826355 0.736420 0.635773
0.044006 0.799377 0.552399
0.131561 0.799774 0.558624
0.309753 0.800903 0.573853
0.469971 0.801117 0.596222
0.605591 0.797729 0.619354
0.706696 0.812408 0.661072
0.764130 0.817352 0.677429
0.835205 0.817047 0.667877
0.000244 0.050476 0.704315
0.083008 0.048706 0.704529
0.144867 0.045532 0.716187
0.172791 0.055969 0.734375
0.331024 0.040253 0.729706
0.498566 0.022705 0.719604
0.655609 0.020996 0.720551
0.843414 0.012238 0.777283
0.000214 0.118744 0.705566
0.082184 0.118683 0.715546
0.155487 0.115906 0.719360
0.182983 0.137238 0.731995
0.335114 0.138153 0.728760
0.502441 0.101929 0.719055
0.660522 0.097900 0.718750
0.830933 0.099548 0.764893
0.000214 0.228180 0.708130
0.077942 0.227386 0.707886
0.154663 0.231781 0.712402
0.240234 0.235016 0.719940
0.375793 0.248840 0.722321
0.518646 0.239838 0.717163
0.668488 0.194214 0.714905
0.810486 0.189575 0.737946
0.013519 0.337830 0.701660
0.085266 0.351593 0.703400
0.155121 0.373169 0.713776
0.318207 0.394836 0.714203
0.444336 0.381531 0.706451
0.567993 0.385498 0.700500
0.695618 0.384033 0.702942
0.813965 0.400238 0.724335
0.028473 0.462921 0.689392
0.099182 0.475800 0.694183
0.166718 0.498260 0.706879
0.357971 0.519684 0.712769
0.493195 0.535797 0.713562
0.604034 0.520630 0.705109
0.728394 0.521484 0.705536
0.825867 0.548126 0.706238
0.039612 0.583923 0.677917
0.111359 0.592133 0.681610
0.178955 0.609131 0.699585
0.363800 0.625183 0.707275
0.511841 0.635345 0.712128
0.640045 0.644806 0.716492
0.742920 0.642548 0.716125
0.831940 0.650391 0.715881
0.044403 0.693207 0.671844
0.120270 0.696777 0.671661
0.191620 0.706757 0.686615
0.372070 0.716125 0.699127
0.524200 0.725800 0.710297
0.646667 0.735474 0.718445
0.750061 0.743347 0.727264
0.831329 0.747650 0.732819
0.044525 0.801117 0.669220
0.122131 0.803070 0.672638
0.196991 0.805969 0.679657
0.346039 0.808380 0.688385
0.548981 0.808105 0.699158
0.680176 0.815216 0.718933
0.774536 0.827850 0.749146
0.834900 0.829376 0.754059
0.000214 0.062286 0.815063
0.078430 0.061127 0.815216
0.155518 0.056580 0.816223
0.194305 0.058044 0.833282
0.323944 0.064606 0.833191
0.485291 0.028503 0.825500
0.634247 0.028625 0.815186
0.782410 0.026581 0.815216
0.000214 0.129211 0.814697
0.082642 0.137268 0.814484
0.162476 0.134583 0.812042
0.208588 0.143890 0.821136
0.323578 0.152374 0.835693
0.486847 0.129883 0.827026
0.639893 0.102875 0.816742
0.783112 0.105072 0.812775
0.000214 0.242767 0.813782
0.080444 0.249146 0.806580
0.174835 0.269806 0.786255
0.290924 0.261444 0.802979
0.373749 0.266571 0.823517
0.497803 0.265442 0.820984
0.644318 0.242737 0.809845
0.783936 0.203949 0.806976
0.000977 0.371704 0.814423
0.082336 0.383301 0.803467
0.177856 0.406525 0.789459
0.339752 0.411804 0.801239
0.443695 0.398071 0.806519
0.542267 0.405151 0.804840
0.657013 0.400574 0.797974
0.785736 0.388458 0.800629
0.020569 0.481781 0.804810
0.099091 0.494812 0.797485
0.219757 0.521149 0.786499
0.372192 0.542816 0.798431
0.496857 0.556305 0.804626
0.589752 0.538910 0.796661
0.688171 0.540253 0.790985
0.804840 0.545410 0.795258
0.035095 0.590942 0.791473
0.112366 0.598663 0.785858
0.206360 0.612610 0.786041
0.383820 0.632172 0.798767
0.527771 0.650391 0.804138
0.638824 0.664612 0.804321
0.720428 0.656036 0.800110
0.821838 0.660309 0.801544
0.040161 0.699158 0.787262
0.120697 0.699890 0.782379
0.221558 0.706696 0.785492
0.404541 0.719360 0.794861
0.540710 0.733490 0.801636
0.655762 0.744598 0.812103
0.751221 0.752808 0.816895
0.830017 0.753326 0.816315
0.041992 0.796661 0.783997
0.119293 0.798401 0.785645
0.229462 0.802277 0.787689
0.411743 0.807465 0.792023
0.545898 0.813446 0.803131
0.659515 0.820496 0.813599
0.757050 0.828064 0.817535
0.841675 0.838226 0.828918
