tools/luts_backup/LAPARDIN-WEDLUTS-13.cube
#Created by: Adobe Photoshop Export Color Lookup Plugin
#Copyright: (C) 2017 Andrey Lapardin. vk.com-3dluts
TITLE "Andrey Lapardin. vk.com-3dluts"
#LUT size
LUT_3D_SIZE 8
#data domain
#LUT data points
DOMAIN_MIN 0.000000 0.000000 0.000000
DOMAIN_MAX 0.903226 0.903226 0.903226
0.026825 0.027863 0.028015
0.058197 0.028717 0.029633
0.199951 0.029053 0.031494
0.382965 0.029541 0.030273
0.577179 0.037964 0.026154
0.759094 0.098267 0.025757
0.869080 0.191742 0.025818
0.890686 0.267212 0.056885
0.025726 0.062378 0.033051
0.077271 0.073822 0.027435
0.203644 0.089264 0.028107
0.363007 0.104431 0.028992
0.546844 0.135193 0.031067
0.728271 0.199493 0.030731
0.868866 0.276581 0.029022
0.890137 0.332916 0.074280
0.026093 0.171417 0.028168
0.074554 0.186859 0.028198
0.226013 0.191772 0.028992
0.371826 0.207977 0.029724
0.529968 0.240112 0.038452
0.707336 0.294952 0.051758
0.853302 0.350250 0.088837
0.890259 0.398346 0.132446
0.026062 0.324097 0.038269
0.054626 0.331390 0.030121
0.215271 0.338013 0.032349
0.396362 0.336182 0.030579
0.547729 0.361115 0.032013
0.686890 0.400818 0.089935
0.827515 0.440826 0.139374
0.890411 0.481415 0.198608
0.026184 0.483826 0.108307
0.092468 0.493500 0.090332
0.235138 0.489777 0.080719
0.400085 0.492218 0.042908
0.562225 0.481689 0.032349
0.702728 0.514008 0.047760
0.815826 0.543243 0.148224
0.890625 0.572662 0.231354
0.088196 0.632416 0.185486
0.177216 0.645844 0.179047
0.281281 0.636322 0.165771
0.421478 0.633942 0.151764
0.580200 0.636230 0.084869
0.712219 0.622375 0.033722
0.821411 0.643311 0.079987
0.889984 0.663147 0.195068
0.225769 0.766724 0.290894
0.283325 0.781006 0.293457
0.354523 0.774628 0.277802
0.461060 0.760132 0.263489
0.588135 0.755554 0.219055
0.725677 0.757446 0.156952
0.833740 0.749481 0.065186
0.892334 0.760223 0.125763
0.362762 0.870453 0.434265
0.410797 0.880432 0.445160
0.453186 0.874420 0.432953
0.517670 0.862213 0.406555
0.612610 0.860504 0.371399
0.720764 0.861237 0.324005
0.828522 0.858551 0.264954
0.894775 0.859375 0.163757
0.031921 0.032501 0.060089
0.064026 0.028595 0.066254
0.159424 0.027863 0.066498
0.358734 0.032928 0.080292
0.544434 0.069824 0.119293
0.719086 0.159149 0.143982
0.864044 0.237427 0.167542
0.890320 0.303162 0.207642
0.030975 0.059418 0.060181
0.091034 0.084167 0.081024
0.215881 0.104645 0.094818
0.377747 0.135620 0.109161
0.550842 0.186554 0.126740
0.719910 0.253723 0.157227
0.860291 0.315002 0.192993
0.888763 0.370300 0.245575
0.038849 0.164124 0.096313
0.103149 0.198181 0.102936
0.232391 0.214905 0.081543
0.375946 0.235413 0.107574
0.547363 0.275482 0.141968
0.719025 0.328339 0.176239
0.851440 0.384644 0.223145
0.887756 0.430328 0.274994
0.032654 0.312866 0.131836
0.108521 0.336517 0.140900
0.236755 0.353821 0.127411
0.410461 0.363403 0.076965
0.563324 0.392883 0.135345
0.707916 0.434631 0.203308
0.847748 0.477234 0.254242
0.889984 0.503204 0.302368
0.060730 0.478119 0.194550
0.148163 0.499634 0.199127
0.260956 0.510712 0.186737
0.417023 0.518951 0.157959
0.585846 0.512756 0.097595
0.707458 0.534485 0.179016
0.820282 0.563507 0.245941
0.893982 0.589386 0.315735
0.142517 0.631378 0.258270
0.214661 0.651825 0.265045
0.307770 0.661377 0.252289
0.436859 0.660980 0.242462
0.595795 0.659515 0.190826
0.713196 0.635895 0.138397
0.824951 0.658112 0.204498
0.895508 0.683228 0.283112
0.252563 0.767578 0.353424
0.304413 0.781525 0.355377
0.372009 0.787048 0.342804
0.477997 0.784393 0.330566
0.595612 0.771881 0.294922
0.728271 0.768677 0.259583
0.848816 0.769592 0.181763
0.898163 0.778595 0.208984
0.381317 0.871063 0.482910
0.427826 0.879272 0.491547
0.477325 0.884033 0.488129
0.547211 0.885834 0.475586
0.630707 0.886108 0.461914
0.739471 0.886597 0.416107
0.850098 0.885071 0.348541
0.900055 0.882080 0.250214
0.030121 0.038239 0.130157
0.059204 0.035034 0.144226
0.187225 0.027130 0.177063
0.283630 0.027405 0.154633
0.485413 0.028564 0.186890
0.720062 0.126465 0.242920
0.864777 0.267914 0.314728
0.890320 0.337067 0.346771
0.032166 0.074921 0.126099
0.099609 0.098907 0.165741
0.211426 0.092896 0.187378
0.332825 0.121704 0.191650
0.543945 0.189819 0.239471
0.722076 0.272369 0.279999
0.857513 0.337921 0.317230
0.888153 0.394623 0.360992
0.057892 0.154755 0.147980
0.139618 0.186951 0.177979
0.232117 0.229095 0.205078
0.383148 0.253845 0.223785
0.562805 0.301575 0.253082
0.723938 0.359619 0.289001
0.842010 0.409393 0.334229
0.886780 0.463715 0.401031
0.122070 0.299103 0.213226
0.162567 0.327637 0.216248
0.246552 0.369476 0.232330
0.404175 0.380219 0.205170
0.557373 0.405487 0.245728
0.711670 0.453430 0.303101
0.831848 0.493500 0.354980
0.890167 0.520416 0.419128
0.122772 0.458038 0.244904
0.189362 0.485657 0.263184
0.278992 0.523590 0.279694
0.416290 0.532013 0.264740
0.586975 0.531464 0.212860
0.714264 0.551910 0.269836
0.819397 0.580383 0.347351
0.894531 0.602905 0.423615
0.171844 0.614746 0.299957
0.240112 0.636902 0.326263
0.321320 0.666962 0.340851
0.439697 0.666656 0.328461
0.590393 0.668457 0.298035
0.733307 0.659393 0.243774
0.840881 0.681732 0.318054
0.896088 0.695343 0.398987
0.276703 0.760254 0.404633
0.326904 0.770599 0.419342
0.394836 0.785065 0.428802
0.488495 0.788177 0.406372
0.600250 0.789215 0.390015
0.742004 0.791107 0.337738
0.866241 0.790344 0.297943
0.898010 0.784821 0.348969
0.400055 0.868256 0.528290
0.443451 0.878632 0.540070
0.497498 0.884003 0.548340
0.565582 0.886902 0.535522
0.641602 0.887177 0.518646
0.732178 0.886658 0.492371
0.842957 0.885437 0.442688
0.899750 0.882202 0.349762
0.026550 0.045532 0.227020
0.049347 0.041687 0.243774
0.134918 0.029266 0.269409
0.307007 0.026855 0.314087
0.418945 0.026428 0.295044
0.551422 0.043182 0.291046
0.806305 0.157532 0.372742
0.890686 0.295868 0.449707
0.033051 0.095917 0.221069
0.107513 0.114563 0.259308
0.188690 0.114838 0.284332
0.337921 0.102081 0.327118
0.431366 0.138458 0.312683
0.597961 0.181824 0.339539
0.821625 0.280121 0.412811
0.888306 0.395691 0.499878
0.071289 0.184448 0.240723
0.147156 0.205078 0.261719
0.225250 0.233307 0.303192
0.360016 0.230164 0.330597
0.483124 0.256897 0.331665
0.700867 0.342194 0.411072
0.835175 0.444061 0.503235
0.887482 0.517731 0.570923
0.141418 0.289215 0.268860
0.209076 0.311127 0.292328
0.283112 0.348969 0.332642
0.387054 0.390106 0.359100
0.557770 0.424805 0.390137
0.708862 0.476624 0.442078
0.820587 0.532257 0.511566
0.890869 0.571045 0.565155
0.223389 0.453064 0.358795
0.272461 0.473419 0.374573
0.313507 0.500244 0.382477
0.403015 0.533112 0.396057
0.564362 0.533203 0.361725
0.695587 0.561401 0.418304
0.811340 0.606567 0.493652
0.894684 0.627808 0.552460
0.258850 0.615753 0.420013
0.291962 0.627533 0.420044
0.339813 0.641052 0.426331
0.444946 0.667755 0.447266
0.580231 0.677063 0.434845
0.727661 0.673096 0.376221
0.831207 0.693695 0.441650
0.895844 0.707764 0.533752
0.319550 0.753357 0.490509
0.356873 0.758301 0.494812
0.407166 0.770691 0.501099
0.503662 0.789520 0.517334
0.604584 0.791412 0.505341
0.732239 0.793945 0.467804
0.860626 0.791168 0.407410
0.896912 0.787903 0.487183
0.417328 0.861023 0.581787
0.456177 0.868622 0.591705
0.502808 0.876801 0.597168
0.580994 0.884857 0.613220
0.653442 0.885345 0.594910
0.732666 0.886597 0.582367
0.834076 0.885712 0.541168
0.899750 0.882111 0.480347
0.026581 0.059601 0.322876
0.056061 0.052032 0.342743
0.114594 0.047028 0.374420
0.250702 0.035217 0.410980
0.440063 0.026428 0.464905
0.586273 0.025177 0.478912
0.671265 0.053955 0.433441
0.844421 0.142609 0.484467
0.038269 0.118744 0.324005
0.119263 0.131714 0.355072
0.176758 0.138733 0.380920
0.278839 0.140503 0.415314
0.453217 0.111420 0.472351
0.581879 0.135529 0.484894
0.675812 0.161133 0.453613
0.836945 0.232971 0.504578
0.084320 0.195770 0.323486
0.145538 0.213013 0.355469
0.223663 0.244110 0.399139
0.323456 0.243561 0.430634
0.500427 0.247955 0.492828
0.578888 0.282501 0.471741
0.688049 0.289703 0.480103
0.848724 0.366486 0.553619
0.145508 0.303894 0.360718
0.200592 0.320068 0.376892
0.267273 0.348755 0.410461
0.368713 0.387451 0.465179
0.517731 0.389771 0.503418
0.630646 0.405945 0.495911
0.787598 0.492767 0.579163
0.890808 0.567444 0.652344
0.228638 0.433777 0.415894
0.279175 0.449982 0.435364
0.341522 0.473724 0.463623
0.426971 0.509277 0.507019
0.540588 0.548615 0.534637
0.690582 0.587311 0.577515
0.812042 0.630859 0.627594
0.891479 0.669983 0.680420
0.317871 0.597168 0.519684
0.363617 0.610260 0.536652
0.417053 0.628143 0.559174
0.471924 0.648865 0.568634
0.554779 0.671417 0.570313
0.698730 0.672882 0.534027
0.808990 0.699097 0.591064
0.889526 0.725586 0.655273
0.400055 0.741089 0.608643
0.437683 0.747955 0.617645
0.467224 0.758972 0.618286
0.508240 0.773315 0.611450
0.601807 0.788269 0.614685
0.711853 0.793793 0.597778
0.836060 0.791748 0.544403
0.896912 0.796173 0.608246
0.466888 0.854645 0.666870
0.496307 0.861145 0.671326
0.532074 0.864960 0.672668
0.580505 0.872620 0.670227
0.660767 0.880371 0.677765
0.737610 0.882904 0.670868
0.829315 0.885223 0.642456
0.899658 0.880096 0.603607
0.026672 0.090485 0.431915
0.076965 0.079834 0.450134
0.138397 0.088257 0.487244
0.246460 0.087250 0.520050
0.395660 0.057098 0.562531
0.607941 0.025940 0.634003
0.759705 0.025940 0.665649
0.817657 0.081421 0.611969
0.064667 0.152771 0.435059
0.143951 0.158142 0.466370
0.191986 0.164642 0.493958
0.268555 0.175690 0.525757
0.405701 0.163300 0.568695
0.612061 0.109680 0.639954
0.755859 0.123840 0.668304
0.804016 0.179108 0.612793
0.089203 0.215790 0.437317
0.157776 0.233673 0.463989
0.227081 0.260559 0.510590
0.308441 0.262054 0.531647
0.441772 0.266815 0.578827
0.629425 0.257721 0.647949
0.727142 0.272339 0.647369
0.797729 0.284760 0.618103
0.145508 0.311279 0.449524
0.192688 0.323334 0.461945
0.248016 0.348480 0.505310
0.344635 0.383301 0.554443
0.474976 0.385376 0.596405
0.653046 0.400208 0.651306
0.715302 0.417297 0.619537
0.809052 0.397156 0.615417
0.206970 0.438538 0.507233
0.249146 0.449280 0.520111
0.304840 0.467499 0.536682
0.383240 0.489136 0.565186
0.505219 0.528564 0.619324
0.644135 0.530304 0.645721
0.745056 0.537781 0.639954
0.877045 0.638824 0.720978
0.293274 0.572418 0.570496
0.334564 0.582703 0.585266
0.390289 0.596649 0.602020
0.470367 0.617706 0.626984
0.570038 0.652527 0.665039
0.682526 0.689819 0.687927
0.804657 0.725769 0.726715
0.886841 0.756317 0.759918
0.421661 0.722626 0.671967
0.456238 0.724915 0.678650
0.501892 0.735596 0.691986
0.560150 0.752045 0.705841
0.621613 0.774323 0.713745
0.700378 0.795990 0.717560
0.812195 0.796051 0.688599
0.891876 0.806671 0.725250
0.518158 0.841797 0.742523
0.554565 0.848480 0.750519
0.592682 0.851288 0.753967
0.638275 0.857513 0.756287
0.667267 0.869629 0.745453
0.744263 0.879028 0.751038
0.820618 0.883728 0.737549
0.898529 0.879578 0.703064
0.044434 0.143463 0.580261
0.146942 0.132141 0.600189
0.218628 0.140442 0.644379
0.293365 0.152771 0.669159
0.418976 0.134583 0.694794
0.579620 0.085724 0.726959
0.777222 0.026154 0.777039
0.892731 0.030670 0.805115
0.108856 0.195099 0.585358
0.183868 0.198547 0.613770
0.246460 0.206238 0.644196
0.304138 0.217590 0.668304
0.421478 0.208649 0.693634
0.583893 0.181488 0.727356
0.778717 0.109436 0.777924
0.879547 0.152252 0.788910
0.101959 0.257538 0.592896
0.183685 0.273804 0.612305
0.259857 0.293182 0.641113
0.328979 0.294983 0.659943
0.431671 0.294708 0.696716
0.589813 0.280762 0.732025
0.777435 0.239532 0.777527
0.864471 0.266052 0.771698
0.130035 0.339996 0.586975
0.177094 0.348602 0.600403
0.240051 0.367676 0.628571
0.346313 0.404327 0.665192
0.454895 0.400085 0.690521
0.608429 0.403809 0.730835
0.776215 0.393280 0.776276
0.842377 0.398438 0.756317
0.180786 0.454590 0.617126
0.224152 0.461975 0.623199
0.278595 0.469604 0.629120
0.348907 0.485657 0.654419
0.473114 0.519257 0.698303
0.622559 0.527222 0.737000
0.774139 0.542603 0.768219
0.834076 0.542725 0.741425
0.259674 0.585175 0.665375
0.300659 0.591949 0.672546
0.347504 0.595520 0.678802
0.423248 0.607941 0.685913
0.505981 0.619324 0.702972
0.637573 0.658447 0.748016
0.764771 0.663818 0.765320
0.854462 0.670502 0.761780
0.372559 0.702942 0.708862
0.404785 0.705811 0.714386
0.449371 0.716583 0.729218
0.514832 0.724426 0.737091
0.604462 0.741913 0.753387
0.707611 0.775330 0.783264
0.800690 0.804260 0.796539
0.882446 0.826904 0.822388
0.534576 0.830170 0.787170
0.572052 0.839966 0.797516
0.610077 0.839630 0.800720
0.654358 0.843140 0.805206
0.707458 0.854553 0.811523
0.759674 0.870239 0.815765
0.820251 0.883606 0.819519
0.893860 0.882629 0.800293
0.184479 0.233917 0.755646
0.256165 0.226715 0.768341
0.326569 0.231415 0.793640
0.388794 0.251740 0.817139
0.481262 0.236664 0.825928
0.606537 0.196655 0.833588
0.760376 0.131653 0.849548
0.888977 0.028168 0.875854
0.199921 0.266632 0.754150
0.258972 0.267120 0.760315
0.322571 0.269104 0.773224
0.380768 0.285431 0.802399
0.478302 0.285614 0.827026
0.609985 0.253571 0.838257
0.768707 0.205017 0.856750
0.890137 0.119568 0.878326
0.184357 0.325348 0.756378
0.242371 0.327881 0.746887
0.317078 0.342773 0.759552
0.386047 0.347656 0.789917
0.476044 0.352142 0.820313
0.604279 0.331635 0.834534
0.764099 0.298584 0.852173
0.890594 0.243378 0.875092
0.150208 0.396423 0.753326
0.185760 0.388031 0.737396
0.264771 0.406555 0.749847
0.388977 0.446533 0.784363
0.481598 0.437500 0.807037
0.599213 0.434998 0.829498
0.755127 0.417297 0.847443
0.891083 0.375854 0.871216
0.198334 0.502991 0.756195
0.235138 0.503876 0.750031
0.285706 0.508392 0.745209
0.366364 0.525024 0.776978
0.490692 0.550079 0.805023
0.604584 0.540710 0.819611
0.748535 0.544525 0.841553
0.888031 0.532227 0.865845
0.273285 0.622437 0.780334
0.316284 0.631714 0.788055
0.357727 0.628937 0.783630
0.415466 0.628876 0.786072
0.485504 0.628052 0.795563
0.608246 0.650208 0.819153
0.749847 0.660065 0.843201
0.882996 0.676575 0.861145
0.382507 0.742493 0.808380
0.426849 0.755066 0.819214
0.464355 0.753448 0.819519
0.510529 0.748383 0.818878
0.576935 0.751160 0.821289
0.659149 0.761505 0.832642
0.765686 0.780090 0.851746
0.872681 0.785095 0.858978
0.484802 0.825378 0.821686
0.543701 0.852325 0.844604
0.574585 0.848663 0.844452
0.614227 0.843414 0.844299
0.674072 0.846069 0.848114
0.748779 0.856049 0.856110
0.824463 0.872528 0.869598
0.885071 0.884796 0.874756
