tools/luts_backup/LAPARDIN-WEDLUTS-11.cube
#Created by: Adobe Photoshop Export Color Lookup Plugin
#Copyright: (C) 2017 Andrey Lapardin. vk.com-3dluts
TITLE "Andrey Lapardin. vk.com-3dluts"
#LUT size
LUT_3D_SIZE 8
#data domain
#LUT data points
DOMAIN_MIN 0.000000 0.000000 0.000000
DOMAIN_MAX 0.903226 0.903226 0.903226
0.075714 0.079163 0.082153
0.103607 0.080811 0.083710
0.188202 0.082733 0.085297
0.340485 0.078461 0.085815
0.516998 0.076782 0.083893
0.667816 0.076508 0.081055
0.745972 0.074829 0.079163
0.809418 0.081329 0.081024
0.074615 0.114563 0.083984
0.105927 0.115234 0.083313
0.193542 0.122345 0.084442
0.342377 0.122864 0.084778
0.512451 0.112549 0.083069
0.659698 0.114258 0.080078
0.745422 0.141296 0.077209
0.809265 0.172302 0.077881
0.072510 0.208832 0.083466
0.102783 0.198151 0.083008
0.197327 0.201996 0.083191
0.356171 0.216370 0.081787
0.513458 0.220947 0.079315
0.654449 0.232208 0.077057
0.744141 0.245331 0.077148
0.803833 0.261505 0.079285
0.072357 0.359314 0.075653
0.099487 0.344543 0.080383
0.174133 0.341492 0.084564
0.370026 0.355865 0.077087
0.531372 0.368378 0.076965
0.653900 0.361359 0.077545
0.747498 0.362457 0.077393
0.804016 0.369995 0.077332
0.072083 0.513245 0.079285
0.103363 0.506378 0.080811
0.135315 0.483459 0.097168
0.354736 0.488983 0.083191
0.517273 0.494141 0.077942
0.653412 0.493958 0.078094
0.749451 0.488159 0.078827
0.807648 0.480652 0.077820
0.072052 0.632202 0.135406
0.104248 0.630005 0.137756
0.148773 0.615234 0.140411
0.345001 0.605988 0.149689
0.500458 0.611237 0.119751
0.634033 0.609039 0.083008
0.748138 0.611755 0.079132
0.809998 0.608276 0.079102
0.129547 0.726868 0.238464
0.241638 0.726013 0.238983
0.336151 0.724182 0.237946
0.397461 0.708527 0.248749
0.507874 0.708801 0.236603
0.625214 0.709808 0.208435
0.725403 0.706573 0.170410
0.811340 0.712799 0.134216
0.284363 0.806488 0.321808
0.360870 0.806671 0.322693
0.431976 0.805908 0.323639
0.473999 0.798645 0.330231
0.548737 0.794739 0.335022
0.639618 0.796295 0.323730
0.716217 0.794312 0.312561
0.800171 0.794403 0.287323
0.077423 0.079834 0.115234
0.102936 0.081024 0.116455
0.182922 0.081299 0.122498
0.336182 0.077454 0.120758
0.496552 0.076599 0.117432
0.643951 0.079041 0.109100
0.740021 0.086151 0.103699
0.805023 0.103333 0.104095
0.075592 0.111084 0.116241
0.112793 0.120941 0.124695
0.203339 0.126984 0.127197
0.353302 0.130951 0.124207
0.516937 0.139801 0.114990
0.656311 0.163574 0.102661
0.745148 0.183502 0.099548
0.802277 0.208374 0.104828
0.073425 0.204376 0.133545
0.111450 0.209930 0.135437
0.214661 0.221497 0.129974
0.374847 0.234406 0.121277
0.529816 0.238861 0.111206
0.664978 0.252869 0.100067
0.748352 0.274963 0.099609
0.800079 0.300781 0.102936
0.073120 0.353271 0.153931
0.102142 0.354614 0.143341
0.205994 0.355743 0.147247
0.402405 0.377441 0.118286
0.548187 0.384735 0.105988
0.667633 0.375641 0.100677
0.754395 0.378418 0.099609
0.803223 0.389862 0.106201
0.072266 0.506409 0.189972
0.103882 0.508881 0.163208
0.172974 0.504333 0.171539
0.388733 0.507629 0.160126
0.543396 0.510406 0.121765
0.666595 0.508728 0.110565
0.756897 0.500885 0.104279
0.806549 0.493347 0.108398
0.072174 0.624298 0.234436
0.104919 0.632019 0.223694
0.260986 0.627960 0.225098
0.382568 0.619843 0.237427
0.524445 0.622284 0.214386
0.651337 0.620453 0.177002
0.755768 0.621674 0.156128
0.809875 0.610748 0.153900
0.151398 0.720337 0.303101
0.272186 0.732666 0.308655
0.375275 0.730103 0.305634
0.440186 0.720276 0.316101
0.525787 0.714508 0.316772
0.638763 0.715302 0.298706
0.737091 0.711273 0.261993
0.812469 0.713623 0.243042
0.282135 0.799652 0.362213
0.374054 0.807434 0.373291
0.449280 0.806671 0.372101
0.513275 0.801453 0.378296
0.557983 0.790955 0.394470
0.641052 0.790497 0.386871
0.726715 0.791656 0.372620
0.804382 0.794739 0.352997
0.076508 0.081146 0.185577
0.105499 0.081818 0.195496
0.177887 0.080566 0.207184
0.323212 0.079681 0.230133
0.507843 0.074371 0.228241
0.655548 0.074677 0.205780
0.741089 0.083435 0.185089
0.805389 0.117035 0.153351
0.077393 0.119293 0.178864
0.119019 0.131805 0.202789
0.203705 0.134827 0.217621
0.348755 0.140533 0.232727
0.516327 0.121674 0.223053
0.654358 0.149017 0.213287
0.742310 0.184845 0.189453
0.797729 0.220856 0.157410
0.074463 0.192627 0.195129
0.110840 0.212891 0.212646
0.226379 0.237183 0.230682
0.387268 0.233154 0.220123
0.543182 0.243164 0.210388
0.672516 0.267822 0.202820
0.745819 0.299744 0.201965
0.791046 0.331604 0.219330
0.075470 0.352356 0.232452
0.102142 0.359192 0.233521
0.219849 0.381195 0.247742
0.410370 0.395203 0.229828
0.556335 0.389496 0.209534
0.674927 0.385529 0.206177
0.755554 0.395264 0.206726
0.802246 0.408630 0.220398
0.075928 0.495636 0.257721
0.102966 0.501831 0.272125
0.236267 0.516663 0.279877
0.399872 0.518188 0.284363
0.557678 0.528229 0.245880
0.673950 0.522400 0.228119
0.757843 0.512909 0.239746
0.805511 0.509216 0.257721
0.079926 0.616272 0.314850
0.139313 0.618774 0.321808
0.304901 0.631134 0.323181
0.413269 0.626556 0.339325
0.544067 0.631348 0.324005
0.660919 0.626343 0.297760
0.747681 0.628540 0.308258
0.809540 0.625000 0.312195
0.198364 0.713989 0.372345
0.277191 0.714233 0.374847
0.389252 0.722748 0.381592
0.468933 0.719666 0.387970
0.548828 0.718201 0.392181
0.651520 0.718750 0.375946
0.740021 0.714874 0.367401
0.815430 0.719879 0.368256
0.299438 0.796173 0.423340
0.359680 0.787018 0.419006
0.454865 0.785980 0.436066
0.529694 0.784180 0.436157
0.584015 0.793884 0.449890
0.653442 0.792938 0.443573
0.733124 0.793365 0.438477
0.811340 0.795532 0.424866
0.072479 0.087036 0.299500
0.111053 0.085388 0.322174
0.177032 0.086365 0.346466
0.338318 0.076996 0.376740
0.494324 0.076874 0.403778
0.646149 0.092957 0.413361
0.742432 0.079956 0.366913
0.804688 0.117249 0.344360
0.076843 0.137329 0.291107
0.130859 0.145752 0.327118
0.212830 0.155640 0.350830
0.357178 0.158234 0.379150
0.496735 0.182129 0.403442
0.639557 0.200714 0.412323
0.741241 0.179932 0.375702
0.796234 0.236908 0.362854
0.076752 0.208649 0.294769
0.139679 0.228516 0.314301
0.246094 0.259094 0.354034
0.393280 0.265198 0.377594
0.533752 0.283966 0.386627
0.663025 0.289276 0.376556
0.743958 0.335114 0.386169
0.792114 0.356720 0.381134
0.076050 0.329285 0.325287
0.102325 0.352692 0.348907
0.224762 0.383209 0.376648
0.407776 0.397217 0.383026
0.549377 0.391541 0.368774
0.665558 0.401306 0.367126
0.750000 0.428619 0.386566
0.803589 0.444672 0.390930
0.077179 0.504547 0.372375
0.104706 0.513580 0.381409
0.274200 0.517944 0.390869
0.412140 0.524536 0.404633
0.550049 0.533264 0.396423
0.661346 0.522522 0.382874
0.746216 0.526306 0.398193
0.812836 0.527222 0.394012
0.082733 0.615234 0.393982
0.216339 0.620148 0.408356
0.337708 0.622559 0.414215
0.442566 0.629486 0.432770
0.544159 0.631866 0.439667
0.656738 0.634064 0.419861
0.742615 0.636597 0.419861
0.810974 0.637817 0.430481
0.230835 0.707550 0.432465
0.320831 0.709503 0.446777
0.386566 0.704468 0.442993
0.496368 0.708862 0.466888
0.562286 0.715027 0.481293
0.656616 0.718262 0.473755
0.743988 0.717651 0.456299
0.814148 0.724792 0.469543
0.323059 0.789703 0.476135
0.382141 0.783142 0.483337
0.441528 0.781067 0.477905
0.544342 0.785278 0.502502
0.602295 0.791504 0.513916
0.665344 0.796051 0.519409
0.742096 0.795807 0.506134
0.813782 0.796600 0.504944
0.071625 0.098877 0.434845
0.140503 0.095978 0.453796
0.200775 0.103668 0.485596
0.338135 0.102081 0.503693
0.491180 0.096161 0.528412
0.643036 0.127594 0.565887
0.741028 0.199554 0.556946
0.805786 0.212891 0.534851
0.076019 0.165741 0.430878
0.167175 0.171844 0.458893
0.247986 0.186157 0.483002
0.351044 0.205505 0.501617
0.491852 0.216705 0.527222
0.626404 0.247406 0.554626
0.726746 0.304932 0.559814
0.796692 0.312866 0.540436
0.088196 0.242645 0.413452
0.174500 0.266205 0.445862
0.279816 0.292480 0.482117
0.394257 0.307831 0.497223
0.522888 0.330322 0.520111
0.621918 0.371918 0.536621
0.714905 0.404480 0.544617
0.790039 0.405792 0.535217
0.079681 0.335693 0.425598
0.174683 0.355652 0.445038
0.294830 0.383789 0.468628
0.421295 0.419037 0.498810
0.542358 0.434967 0.519958
0.642792 0.447601 0.520996
0.733917 0.457764 0.517517
0.803192 0.473755 0.513000
0.078125 0.470398 0.459564
0.116974 0.486511 0.477234
0.295746 0.507843 0.501648
0.422424 0.524109 0.515137
0.541718 0.533295 0.515564
0.649353 0.531036 0.509827
0.740234 0.537994 0.511047
0.813232 0.550812 0.521057
0.079407 0.619415 0.494446
0.153442 0.625153 0.503265
0.327789 0.631073 0.514313
0.454193 0.632294 0.527710
0.547974 0.634827 0.534882
0.651215 0.641052 0.531952
0.738251 0.639709 0.526428
0.812317 0.642181 0.536163
0.195709 0.710297 0.509705
0.302094 0.709595 0.512604
0.395935 0.711578 0.527985
0.491974 0.707977 0.530426
0.577698 0.719116 0.557068
0.652618 0.723389 0.562561
0.740234 0.725891 0.549683
0.812836 0.727997 0.554413
0.303772 0.789673 0.534119
0.382935 0.787354 0.539093
0.459778 0.784607 0.550415
0.525421 0.782104 0.545441
0.623718 0.788452 0.574005
0.674530 0.794464 0.593445
0.747620 0.797180 0.590424
0.817596 0.797546 0.580597
0.087830 0.127563 0.565796
0.204681 0.124084 0.574066
0.281738 0.137054 0.602386
0.363983 0.165131 0.614563
0.481659 0.175385 0.623138
0.614899 0.195190 0.640656
0.741150 0.238708 0.680817
0.807190 0.278473 0.662720
0.118256 0.210510 0.563843
0.235870 0.218262 0.579926
0.319183 0.233551 0.598175
0.377747 0.266876 0.611877
0.481506 0.282745 0.621002
0.608124 0.302979 0.637695
0.727112 0.327911 0.670929
0.794006 0.362213 0.655029
0.139557 0.302032 0.555237
0.241241 0.315552 0.569824
0.332214 0.336151 0.595978
0.412872 0.350922 0.603088
0.503906 0.375458 0.611664
0.612946 0.398407 0.629059
0.705963 0.418213 0.647827
0.771515 0.451385 0.645538
0.150146 0.369568 0.533508
0.247406 0.388977 0.548828
0.343445 0.420624 0.582703
0.437439 0.449493 0.601318
0.532654 0.463501 0.609680
0.631470 0.479675 0.620728
0.702393 0.511749 0.631195
0.789001 0.522461 0.630463
0.150330 0.467590 0.552399
0.255737 0.481964 0.564606
0.348450 0.504944 0.585876
0.443054 0.520660 0.590424
0.547272 0.548309 0.608490
0.642853 0.561249 0.622711
0.723511 0.570862 0.629578
0.809052 0.573914 0.623627
0.136169 0.585480 0.572815
0.247742 0.596222 0.580688
0.356720 0.613922 0.603394
0.457336 0.622528 0.612854
0.551971 0.636658 0.623230
0.648682 0.643524 0.623840
0.734467 0.644745 0.624847
0.810669 0.651123 0.628967
0.167786 0.710938 0.603302
0.282013 0.712402 0.605194
0.382019 0.716888 0.617737
0.486115 0.716736 0.620239
0.578308 0.724182 0.633423
0.658295 0.729004 0.642731
0.737915 0.732086 0.642944
0.809113 0.734802 0.643646
0.275146 0.792511 0.611511
0.356781 0.792175 0.614471
0.438690 0.792358 0.621796
0.524170 0.791779 0.629547
0.609131 0.787933 0.628967
0.690918 0.799713 0.652893
0.747589 0.803680 0.666840
0.817078 0.803162 0.660767
0.196564 0.199799 0.680115
0.294678 0.205475 0.682648
0.373535 0.221771 0.694427
0.414581 0.253418 0.709564
0.499084 0.263702 0.711304
0.599457 0.274323 0.712494
0.702087 0.286377 0.720886
0.805511 0.305389 0.755341
0.221283 0.284027 0.677887
0.315033 0.294037 0.688446
0.393066 0.301544 0.694946
0.427246 0.328857 0.705994
0.498505 0.343567 0.708405
0.596436 0.355377 0.710083
0.697937 0.366486 0.718262
0.793213 0.386353 0.744720
0.236511 0.372742 0.675079
0.314850 0.376526 0.677521
0.393555 0.387604 0.685028
0.451904 0.399994 0.694916
0.512451 0.419830 0.701324
0.598175 0.434387 0.706238
0.693665 0.444611 0.713623
0.770538 0.459015 0.723389
0.241974 0.431671 0.661774
0.316986 0.444672 0.666077
0.393860 0.467133 0.679352
0.469604 0.489258 0.686188
0.540375 0.493561 0.688751
0.620209 0.511780 0.694794
0.700195 0.523254 0.703430
0.769440 0.538605 0.716949
0.245789 0.499237 0.650909
0.319794 0.509888 0.655060
0.391693 0.528259 0.666199
0.471252 0.548706 0.676819
0.556488 0.573242 0.690918
0.639496 0.582458 0.698456
0.718201 0.591461 0.704865
0.784180 0.614227 0.712433
0.248322 0.589752 0.661804
0.324524 0.597076 0.664978
0.401794 0.612762 0.679260
0.478577 0.626343 0.685669
0.557892 0.633392 0.687592
0.653351 0.653900 0.703369
0.729980 0.663330 0.712585
0.800934 0.671448 0.718719
0.250458 0.687347 0.674988
0.329834 0.690674 0.675446
0.413635 0.699219 0.686523
0.494202 0.707886 0.696442
0.576172 0.717133 0.705566
0.658478 0.727875 0.713562
0.738708 0.734711 0.716797
0.809875 0.740784 0.723816
0.261932 0.790710 0.695099
0.345367 0.791870 0.697906
0.429626 0.793793 0.703247
0.512787 0.796204 0.709625
0.601532 0.796295 0.712555
0.683472 0.801239 0.717163
0.756195 0.811005 0.730896
0.814758 0.812164 0.736877
0.296082 0.297668 0.770905
0.363861 0.299591 0.771729
0.430573 0.301575 0.773865
0.472443 0.317047 0.788635
0.525269 0.333984 0.789948
0.602234 0.335052 0.787262
0.690948 0.336670 0.784973
0.779572 0.338135 0.787903
0.300415 0.353241 0.769043
0.369690 0.360626 0.769623
0.436340 0.361877 0.769196
0.481354 0.376373 0.777893
0.523254 0.392853 0.791168
0.601105 0.394928 0.787994
0.691010 0.402405 0.785492
0.775299 0.406921 0.785370
0.304382 0.426453 0.766449
0.366821 0.429047 0.761078
0.440460 0.438477 0.745880
0.494995 0.443817 0.762238
0.535461 0.456390 0.780548
0.600464 0.464752 0.782013
0.687927 0.471985 0.779510
0.771027 0.474762 0.780762
0.304871 0.493347 0.764862
0.364563 0.496552 0.755493
0.436310 0.507874 0.745850
0.502411 0.520050 0.759491
0.560089 0.521027 0.767548
0.618103 0.532135 0.770233
0.690948 0.542450 0.771027
0.769379 0.546082 0.776825
0.310516 0.547394 0.752472
0.371460 0.553009 0.746765
0.432098 0.565430 0.738464
0.500488 0.585358 0.754059
0.574615 0.600861 0.766296
0.640472 0.599945 0.765503
0.708954 0.612244 0.768097
0.781891 0.620209 0.774689
0.309418 0.613647 0.749207
0.371796 0.617859 0.744843
0.435364 0.627319 0.745361
0.501587 0.642944 0.756378
0.578430 0.656036 0.761871
0.659668 0.674011 0.771484
0.728027 0.679688 0.776825
0.796448 0.687378 0.780945
0.311676 0.696533 0.757904
0.376892 0.696289 0.753876
0.444000 0.701904 0.756622
0.513947 0.712616 0.764740
0.590088 0.724182 0.771057
0.666565 0.733154 0.779083
0.744293 0.745605 0.788574
0.806915 0.752441 0.793701
0.314606 0.777832 0.765686
0.381592 0.779510 0.767151
0.450806 0.783173 0.769104
0.523468 0.788300 0.773071
0.600555 0.794495 0.782379
0.677246 0.801514 0.791229
0.751038 0.809631 0.795837
0.819366 0.817932 0.801910
