tools/luts_backup/LAPARDIN-WEDLUTS-20.cube
#Created by: Adobe Photoshop Export Color Lookup Plugin
#Copyright: (C) 2017 Andrey Lapardin. vk.com-3dluts
TITLE "Andrey Lapardin. vk.com-3dluts"
#LUT size
LUT_3D_SIZE 5
#data domain
#LUT data points
DOMAIN_MIN 0.000000 0.000000 0.000000
DOMAIN_MAX 0.903226 0.903226 0.903226
0.002228 0.004120 0.004547
0.142090 0.018982 0.013336
0.360779 0.045258 0.018860
0.643311 0.077454 0.015808
0.931183 0.108185 0.011047
0.000000 0.139008 0.057648
0.142975 0.151337 0.028778
0.369507 0.180511 0.034973
0.643829 0.211273 0.035553
0.918427 0.235474 0.031921
0.000000 0.409729 0.199860
0.000000 0.399994 0.173950
0.420166 0.434143 0.080017
0.686554 0.430725 0.056458
0.917267 0.433655 0.066376
0.000000 0.743927 0.396118
0.000000 0.744263 0.399872
0.236816 0.741150 0.324982
0.715088 0.751495 0.205536
0.964569 0.739960 0.204285
0.387817 0.938141 0.666718
0.456726 0.937042 0.678833
0.487885 0.931335 0.656860
0.662354 0.942230 0.614563
0.870270 0.943237 0.550262
0.000000 0.005066 0.175262
0.173157 0.000000 0.174866
0.309174 0.062988 0.197906
0.608459 0.000000 0.187958
0.909424 0.000000 0.174988
0.000000 0.143677 0.134125
0.170135 0.172485 0.165131
0.385620 0.177277 0.169128
0.649963 0.204834 0.183136
0.868683 0.243683 0.218353
0.000000 0.380646 0.248383
0.151947 0.414856 0.277466
0.462830 0.467377 0.222260
0.702393 0.442169 0.199707
0.904877 0.445343 0.237396
0.000000 0.725830 0.437073
0.042358 0.749847 0.465698
0.371155 0.763519 0.439301
0.759247 0.766876 0.353699
0.955353 0.744568 0.357758
0.421021 0.929169 0.678955
0.493683 0.916534 0.685577
0.576050 0.925568 0.684540
0.704041 0.935577 0.665192
0.899017 0.942017 0.623566
0.000000 0.003876 0.503296
0.135162 0.000000 0.543060
0.473450 0.000000 0.535217
0.614899 0.025726 0.501709
0.826294 0.063538 0.510437
0.000000 0.222992 0.426666
0.074158 0.199463 0.479401
0.477112 0.165344 0.477753
0.564423 0.254089 0.457428
0.809296 0.238403 0.487427
0.000000 0.384094 0.356354
0.081787 0.422821 0.404510
0.437561 0.432922 0.418854
0.680542 0.415558 0.405518
0.910309 0.435394 0.435577
0.125519 0.698303 0.521667
0.325958 0.717957 0.552521
0.524780 0.734802 0.603241
0.761353 0.765625 0.557648
0.930206 0.742401 0.539307
0.506195 0.917023 0.720734
0.559418 0.909821 0.728760
0.685913 0.915985 0.765472
0.776398 0.933899 0.771820
0.924347 0.941193 0.741150
0.000000 0.022858 0.831421
0.065613 0.000000 0.841248
0.416473 0.000000 0.853821
0.787720 0.000000 0.836639
0.944977 0.000000 0.812592
0.000000 0.259521 0.808044
0.000000 0.229492 0.826111
0.409607 0.240204 0.823944
0.770966 0.179993 0.809174
0.877319 0.279358 0.758606
0.000000 0.509552 0.744843
0.000000 0.533569 0.775269
0.436829 0.516663 0.761139
0.769592 0.478088 0.739868
0.822876 0.516602 0.693085
0.000000 0.692322 0.661438
0.000000 0.718719 0.693115
0.450531 0.727661 0.711456
0.731476 0.718964 0.703888
0.909027 0.703766 0.691833
0.422302 0.919159 0.768402
0.552094 0.917236 0.788086
0.729492 0.913361 0.824097
0.837250 0.934113 0.861176
0.940674 0.945709 0.854950
0.000000 0.126099 0.988007
0.000000 0.107635 0.986450
0.320099 0.111328 0.995331
0.680389 0.004639 0.983276
0.995819 0.000000 0.969086
0.000000 0.283752 0.982056
0.000000 0.313019 0.957550
0.373291 0.304230 0.977417
0.668671 0.305328 0.971802
0.977661 0.274109 0.954498
0.000000 0.536377 0.959412
0.000000 0.576569 0.936615
0.482819 0.602997 0.945587
0.725555 0.585632 0.936432
0.953156 0.574615 0.926910
0.000000 0.736206 0.920563
0.013824 0.748291 0.911377
0.518127 0.787140 0.924957
0.762299 0.790527 0.918274
0.931213 0.770691 0.903168
0.000000 0.916260 0.889648
0.235474 0.919312 0.892456
0.568756 0.923950 0.900940
0.781311 0.923859 0.910645
0.930054 0.928223 0.917358
