tools/luts_backup/LAPARDIN-WEDLUTS-7.cube
#Created by: Adobe Photoshop Export Color Lookup Plugin
#Copyright: (C) 2017 Andrey Lapardin. vk.com-3dluts
TITLE "Andrey Lapardin. vk.com-3dluts"
#LUT size
LUT_3D_SIZE 5
#data domain
#LUT data points
DOMAIN_MIN 0.000000 0.000000 0.000000
DOMAIN_MAX 0.903226 0.903226 0.903226
0.007782 0.013336 0.014191
0.209076 0.059784 0.055023
0.443329 0.111908 0.104004
0.702606 0.186951 0.180023
0.932159 0.284027 0.281860
0.053406 0.222473 0.052032
0.218140 0.211182 0.104767
0.478699 0.278046 0.169525
0.722992 0.315948 0.232941
0.931793 0.376007 0.320526
0.113617 0.458954 0.110596
0.264709 0.451874 0.134338
0.450836 0.434235 0.226440
0.747498 0.531342 0.339294
0.950867 0.583252 0.443146
0.218933 0.693207 0.217346
0.340149 0.698822 0.230164
0.506134 0.680969 0.279175
0.683624 0.665649 0.377258
0.896271 0.745819 0.529816
0.411316 0.903137 0.410400
0.487366 0.906158 0.424988
0.582031 0.896667 0.435333
0.766968 0.892426 0.532593
0.889191 0.887848 0.618958
0.000000 0.011688 0.138092
0.149628 0.001190 0.169891
0.398376 0.020996 0.224579
0.645233 0.131958 0.266052
0.899139 0.258362 0.334564
0.016205 0.181732 0.170959
0.218872 0.219849 0.210724
0.454468 0.254395 0.250854
0.704712 0.316956 0.311554
0.877350 0.394806 0.392670
0.031982 0.428528 0.191528
0.266815 0.461029 0.228729
0.475983 0.458466 0.296448
0.767853 0.560303 0.418915
0.926636 0.600494 0.508026
0.182098 0.677490 0.267395
0.345276 0.702240 0.292847
0.532349 0.702942 0.347595
0.705292 0.679230 0.438232
0.898346 0.758606 0.579773
0.389923 0.890350 0.425232
0.479675 0.878510 0.437897
0.628387 0.887177 0.481842
0.770233 0.885742 0.558075
0.898438 0.888397 0.648560
0.000000 0.033783 0.298615
0.003448 0.011047 0.329681
0.287689 0.000000 0.368011
0.593018 0.000000 0.460022
0.851715 0.030426 0.479523
0.000000 0.121124 0.317200
0.116760 0.126099 0.362244
0.366547 0.125824 0.404022
0.621460 0.207794 0.456787
0.824799 0.298126 0.491974
0.000000 0.387421 0.360748
0.178192 0.421204 0.404938
0.455292 0.449005 0.435547
0.696747 0.499481 0.495667
0.892792 0.567749 0.573242
0.000000 0.652832 0.378937
0.258087 0.673248 0.405884
0.508850 0.693237 0.466064
0.704529 0.686340 0.532440
0.907166 0.784058 0.674622
0.342682 0.873993 0.481964
0.431763 0.867462 0.497894
0.637268 0.881531 0.554535
0.777954 0.890656 0.627960
0.905304 0.889832 0.701141
0.000000 0.063416 0.481567
0.000000 0.039032 0.502594
0.134613 0.000000 0.537903
0.478638 0.000000 0.579010
0.806152 0.000000 0.683746
0.000000 0.032776 0.493042
0.004425 0.005249 0.520630
0.251862 0.003326 0.553711
0.513428 0.000000 0.600739
0.786072 0.006134 0.664307
0.000000 0.311218 0.521851
0.024231 0.336426 0.565491
0.351501 0.372223 0.600830
0.631866 0.372894 0.633972
0.849670 0.464569 0.655853
0.000000 0.601288 0.577942
0.102478 0.629669 0.610260
0.431396 0.656342 0.643158
0.696411 0.683319 0.667694
0.904449 0.755737 0.749817
0.104675 0.859650 0.613190
0.319031 0.865295 0.627869
0.545441 0.874420 0.653351
0.774567 0.901184 0.714905
0.909760 0.897614 0.780548
0.000000 0.120361 0.722656
0.000000 0.120148 0.724457
0.000000 0.089783 0.760864
0.376526 0.000000 0.768982
0.716034 0.000000 0.797821
0.000000 0.121185 0.725159
0.000000 0.055878 0.695557
0.014832 0.009949 0.751556
0.426300 0.000000 0.774567
0.736359 0.000000 0.797760
0.000000 0.195557 0.739685
0.000000 0.270355 0.726624
0.192993 0.272888 0.768280
0.506714 0.263184 0.783051
0.782654 0.260315 0.814789
0.000000 0.535889 0.757690
0.000000 0.555084 0.759430
0.297607 0.589600 0.792480
0.607788 0.617157 0.819122
0.866486 0.631866 0.844208
0.000000 0.826904 0.804077
0.000000 0.835968 0.810547
0.406555 0.853394 0.827667
0.687927 0.875183 0.857971
0.911499 0.906647 0.889160
