tools/luts_backup/LAPARDIN-WEDLUTS-22.cube
#Created by: Adobe Photoshop Export Color Lookup Plugin
#Copyright: (C) 2017 Andrey Lapardin. vk.com-3dluts
TITLE "Andrey Lapardin. vk.com-3dluts"
#LUT size
LUT_3D_SIZE 8
#data domain
#LUT data points
DOMAIN_MIN 0.000000 0.000000 0.000000
DOMAIN_MAX 0.903226 0.903226 0.903226
0.003448 0.023010 0.025970
0.056213 0.029602 0.030731
0.140350 0.039063 0.034698
0.256653 0.038849 0.037018
0.409912 0.021698 0.034790
0.587708 0.020844 0.023285
0.780518 0.015900 0.008514
0.933014 0.008972 0.004395
0.007324 0.081848 0.033997
0.055176 0.084015 0.035919
0.144714 0.092133 0.037354
0.264008 0.091339 0.040070
0.414032 0.069336 0.040588
0.588226 0.063965 0.029846
0.774078 0.064972 0.012878
0.927002 0.065735 0.005402
0.008606 0.154144 0.045776
0.066223 0.154022 0.050934
0.133636 0.151215 0.053131
0.268768 0.162567 0.050018
0.433502 0.153931 0.043243
0.606140 0.127319 0.030365
0.772980 0.117859 0.022461
0.910431 0.157928 0.020782
0.032227 0.254303 0.064056
0.111389 0.255096 0.069977
0.175385 0.251099 0.078278
0.261505 0.248016 0.072906
0.435242 0.272705 0.056732
0.635681 0.287720 0.023712
0.788116 0.299530 0.023376
0.914001 0.319244 0.023193
0.082855 0.417542 0.106384
0.173798 0.426483 0.112213
0.232635 0.407288 0.125122
0.320190 0.404114 0.115540
0.414001 0.390106 0.096497
0.593475 0.429565 0.051147
0.782837 0.463257 0.027191
0.917389 0.467560 0.024506
0.152588 0.604919 0.198029
0.250885 0.614960 0.212128
0.299469 0.592682 0.202759
0.396362 0.599274 0.226837
0.491699 0.592194 0.194977
0.585236 0.570984 0.152435
0.747345 0.598236 0.129089
0.895782 0.620941 0.114563
0.299042 0.749420 0.326660
0.380310 0.752380 0.332581
0.455811 0.755188 0.340088
0.502014 0.740387 0.350708
0.586365 0.740631 0.342316
0.670654 0.734253 0.312927
0.749817 0.721588 0.279663
0.868378 0.736115 0.274475
0.404846 0.857483 0.419098
0.479431 0.859406 0.422211
0.554138 0.861908 0.428528
0.595947 0.854492 0.437317
0.670593 0.855743 0.450867
0.742737 0.854340 0.436798
0.803864 0.849487 0.426727
0.872925 0.845825 0.408813
0.008301 0.026520 0.083771
0.052856 0.032013 0.085327
0.129944 0.040192 0.094421
0.249695 0.041229 0.098938
0.394257 0.022705 0.100616
0.562500 0.020233 0.096649
0.746368 0.016205 0.074188
0.913666 0.009064 0.054504
0.009735 0.080841 0.081512
0.059723 0.091980 0.092560
0.148560 0.098114 0.097382
0.270782 0.099030 0.099640
0.421722 0.084717 0.100098
0.593964 0.070099 0.093811
0.769775 0.069580 0.072235
0.906616 0.086578 0.064514
0.011627 0.150391 0.096100
0.080475 0.161469 0.107666
0.152039 0.167755 0.107269
0.290588 0.177155 0.101715
0.450897 0.167328 0.098907
0.623383 0.146790 0.091034
0.784515 0.161804 0.069611
0.909790 0.222992 0.071289
0.039001 0.246490 0.119141
0.123779 0.257507 0.128937
0.199554 0.266479 0.136780
0.291321 0.269165 0.129028
0.469940 0.303619 0.114014
0.664063 0.315796 0.072327
0.811157 0.326416 0.067688
0.921570 0.355774 0.077484
0.085175 0.401855 0.163818
0.177155 0.421936 0.173035
0.265320 0.441620 0.190460
0.356110 0.443268 0.185394
0.451538 0.425781 0.164307
0.632629 0.468414 0.132446
0.805847 0.487976 0.078735
0.920227 0.489502 0.078369
0.138672 0.585266 0.239410
0.241333 0.606598 0.256683
0.346161 0.618195 0.275482
0.427734 0.620331 0.295868
0.521057 0.611511 0.267517
0.617218 0.595001 0.232330
0.772247 0.619659 0.219208
0.895294 0.625366 0.207245
0.287933 0.739197 0.364532
0.391693 0.760681 0.387512
0.483734 0.763977 0.395752
0.543152 0.758270 0.413513
0.608154 0.751587 0.412384
0.689636 0.744141 0.384613
0.765564 0.728607 0.343231
0.871216 0.739655 0.344116
0.394714 0.846466 0.451294
0.487762 0.859589 0.469788
0.567841 0.862457 0.474884
0.636230 0.861847 0.490326
0.678131 0.852814 0.511139
0.742950 0.848602 0.498718
0.811981 0.846191 0.481750
0.877380 0.846039 0.464478
0.009186 0.029175 0.151611
0.054871 0.034882 0.156769
0.118408 0.041077 0.161133
0.232239 0.052277 0.180847
0.388000 0.028900 0.187500
0.572235 0.015503 0.186890
0.757813 0.013336 0.182556
0.913544 0.007416 0.157410
0.010712 0.092285 0.148438
0.064972 0.100769 0.161346
0.141815 0.104828 0.166962
0.253296 0.116730 0.181183
0.410614 0.101746 0.186768
0.586639 0.072479 0.189880
0.761810 0.070862 0.182343
0.899506 0.106781 0.166870
0.014832 0.151733 0.146942
0.081848 0.165497 0.161072
0.172211 0.185791 0.179657
0.304535 0.183228 0.177887
0.463013 0.181335 0.180237
0.636169 0.185028 0.182953
0.774231 0.219269 0.187592
0.876312 0.267395 0.206970
0.048920 0.242432 0.165802
0.129547 0.257690 0.178741
0.223633 0.293671 0.208282
0.316284 0.299683 0.201904
0.495117 0.320374 0.183441
0.671387 0.332703 0.176788
0.806915 0.352844 0.182526
0.902893 0.375366 0.203888
0.101563 0.384430 0.203918
0.176849 0.409515 0.227539
0.284943 0.459961 0.268494
0.376953 0.473877 0.278564
0.477753 0.459778 0.240906
0.653290 0.492706 0.214844
0.804504 0.502960 0.208496
0.908295 0.507324 0.230316
0.153839 0.577820 0.290802
0.237549 0.589600 0.316071
0.364563 0.625061 0.353760
0.458069 0.636597 0.386047
0.546051 0.628204 0.353973
0.627380 0.601135 0.306885
0.764465 0.627350 0.318909
0.892792 0.645050 0.331329
0.286713 0.729980 0.412079
0.368866 0.735443 0.431213
0.484985 0.754700 0.460510
0.565735 0.759430 0.480011
0.627441 0.756317 0.479340
0.702118 0.748230 0.448700
0.771606 0.733459 0.422516
0.873993 0.748688 0.433960
0.396606 0.842773 0.507172
0.464325 0.831757 0.507446
0.567078 0.836792 0.536438
0.647339 0.842133 0.548584
0.699829 0.856415 0.566711
0.754089 0.851990 0.555115
0.818298 0.848572 0.544617
0.884277 0.846527 0.527679
0.008057 0.038849 0.238678
0.064240 0.041077 0.248016
0.122620 0.050568 0.259186
0.216431 0.051666 0.262177
0.367004 0.061707 0.303314
0.538635 0.067932 0.331757
0.738861 0.010864 0.322662
0.903442 0.007996 0.319305
0.008484 0.103760 0.237946
0.080780 0.108582 0.254211
0.150665 0.115723 0.263855
0.239594 0.120300 0.268463
0.375092 0.142242 0.303131
0.545166 0.146606 0.332855
0.742126 0.078461 0.328583
0.887268 0.135345 0.333252
0.021820 0.174011 0.241241
0.100922 0.185791 0.258636
0.188782 0.199646 0.278381
0.290283 0.198822 0.280121
0.435425 0.219238 0.303986
0.619598 0.217438 0.319305
0.765533 0.265778 0.343689
0.876312 0.304840 0.354523
0.045349 0.247284 0.234589
0.127106 0.267578 0.256683
0.217682 0.298065 0.286133
0.334351 0.325287 0.309540
0.500854 0.329865 0.305145
0.657715 0.349182 0.314941
0.785004 0.391937 0.347656
0.898743 0.423553 0.371490
0.101135 0.384918 0.275177
0.180420 0.413879 0.299377
0.276184 0.446411 0.330444
0.388855 0.492035 0.380524
0.487671 0.484955 0.356476
0.662415 0.502747 0.338837
0.804321 0.523773 0.367035
0.916656 0.531250 0.381958
0.166504 0.571014 0.358093
0.261658 0.594666 0.390198
0.352722 0.610443 0.412842
0.469910 0.635315 0.460907
0.560486 0.642059 0.469666
0.637604 0.619904 0.416443
0.775238 0.645172 0.424164
0.895386 0.664124 0.448792
0.292419 0.719330 0.459930
0.368958 0.726929 0.480835
0.448822 0.724518 0.492554
0.579041 0.746521 0.547333
0.646851 0.759613 0.571289
0.714020 0.753204 0.545471
0.783142 0.740845 0.506500
0.874969 0.758423 0.526215
0.401672 0.834778 0.551636
0.461365 0.825592 0.557709
0.543396 0.827728 0.569702
0.657898 0.843933 0.613342
0.716583 0.856110 0.632263
0.767426 0.858582 0.632843
0.828949 0.853790 0.611969
0.888672 0.849060 0.601227
0.005585 0.054932 0.359467
0.093048 0.056946 0.367249
0.137146 0.066650 0.396576
0.233459 0.069122 0.395844
0.339020 0.065369 0.390625
0.528198 0.081177 0.471527
0.690826 0.126404 0.500275
0.861420 0.138794 0.508728
0.006409 0.119904 0.360840
0.105164 0.121735 0.378113
0.169342 0.130188 0.397705
0.249207 0.141205 0.403473
0.354462 0.139984 0.401123
0.522430 0.163788 0.463531
0.685272 0.210083 0.502106
0.843994 0.232605 0.513306
0.028656 0.194641 0.367706
0.117188 0.206665 0.391296
0.205536 0.222900 0.421600
0.301208 0.224213 0.413177
0.407959 0.228149 0.412506
0.550323 0.283112 0.464905
0.698975 0.335815 0.501984
0.841980 0.350555 0.516724
0.056641 0.284943 0.369843
0.138885 0.307800 0.400970
0.232330 0.345337 0.445007
0.351227 0.363190 0.459259
0.472961 0.361267 0.455688
0.612183 0.392670 0.475525
0.755219 0.413879 0.490143
0.880920 0.449585 0.506531
0.085175 0.391266 0.369568
0.166077 0.419708 0.399109
0.259552 0.461212 0.444000
0.372223 0.489563 0.471558
0.501099 0.511078 0.487793
0.660400 0.517090 0.488647
0.790253 0.531494 0.502167
0.902771 0.556763 0.533051
0.138550 0.553192 0.427429
0.226166 0.572205 0.449707
0.331207 0.599060 0.483978
0.457458 0.627075 0.529907
0.570740 0.651550 0.568451
0.650482 0.642365 0.541626
0.792694 0.659271 0.542023
0.904968 0.672577 0.565155
0.265747 0.708191 0.519867
0.349152 0.713013 0.530579
0.439819 0.724884 0.559998
0.549377 0.736237 0.586517
0.657410 0.763031 0.640137
0.720154 0.765747 0.640320
0.786285 0.754211 0.601593
0.884155 0.767761 0.610748
0.389984 0.826477 0.604889
0.465302 0.827393 0.613037
0.545990 0.831665 0.632660
0.630585 0.835693 0.645844
0.732391 0.852417 0.687469
0.777863 0.860474 0.706573
0.835724 0.858124 0.693909
0.894501 0.852234 0.672089
0.002350 0.078217 0.516998
0.101624 0.078705 0.517456
0.171265 0.086212 0.554321
0.252502 0.099335 0.566101
0.370209 0.096405 0.553314
0.488342 0.087463 0.542358
0.690338 0.127838 0.639709
0.822510 0.200165 0.650146
0.001251 0.142242 0.524567
0.114746 0.143494 0.535980
0.203613 0.150604 0.554535
0.266968 0.174103 0.570984
0.375916 0.174377 0.558929
0.492645 0.165588 0.545258
0.681763 0.208801 0.630005
0.804169 0.280548 0.639221
0.009583 0.235291 0.544159
0.124634 0.242859 0.553497
0.223450 0.257233 0.581329
0.316895 0.261993 0.574799
0.414154 0.271149 0.561798
0.522980 0.270416 0.554321
0.672760 0.327393 0.613281
0.786469 0.393127 0.633301
0.030823 0.339691 0.549255
0.139893 0.357452 0.564758
0.244781 0.388000 0.601166
0.362213 0.410278 0.610321
0.467377 0.394379 0.583557
0.583160 0.403168 0.581512
0.700104 0.473053 0.620300
0.838104 0.505310 0.643005
0.068207 0.457947 0.549011
0.169556 0.478485 0.570221
0.272949 0.511627 0.605652
0.395691 0.532654 0.619720
0.515442 0.539398 0.619537
0.625946 0.536438 0.614746
0.751984 0.563812 0.641693
0.884033 0.580170 0.654541
0.122620 0.565247 0.544464
0.215271 0.580231 0.558105
0.321533 0.611481 0.598877
0.435425 0.627869 0.619690
0.549957 0.646362 0.639435
0.669952 0.662201 0.654633
0.799530 0.670441 0.664032
0.899048 0.683228 0.678802
0.228302 0.695343 0.592316
0.314087 0.702179 0.601288
0.404388 0.713989 0.624023
0.519928 0.729309 0.648621
0.633118 0.755463 0.689392
0.735504 0.779388 0.727356
0.793457 0.768890 0.704315
0.891693 0.782440 0.709198
0.360992 0.819733 0.666046
0.435486 0.822266 0.672668
0.518707 0.828461 0.688202
0.610931 0.837524 0.709320
0.704895 0.844879 0.725922
0.794647 0.868652 0.764648
0.839935 0.869751 0.771362
0.895813 0.860413 0.749878
0.019867 0.124176 0.692108
0.139679 0.124969 0.691925
0.244507 0.131622 0.705627
0.295349 0.150970 0.726379
0.407990 0.150452 0.715240
0.523529 0.141663 0.692383
0.640259 0.131744 0.681610
0.822021 0.203339 0.764618
0.041779 0.188568 0.699066
0.155823 0.194183 0.709991
0.266235 0.195953 0.710815
0.313263 0.223145 0.725037
0.409698 0.230682 0.716034
0.526886 0.224182 0.694855
0.645905 0.215179 0.684204
0.812042 0.295319 0.758148
0.075928 0.304993 0.715363
0.166260 0.305573 0.713318
0.275848 0.311462 0.714203
0.356171 0.318787 0.719055
0.439056 0.336609 0.719147
0.542725 0.332489 0.703339
0.654633 0.321503 0.688995
0.777863 0.383301 0.725342
0.095398 0.407745 0.716278
0.184937 0.422089 0.719177
0.293488 0.446350 0.731934
0.404022 0.467682 0.731323
0.491272 0.451569 0.714447
0.585266 0.450745 0.699554
0.687103 0.454956 0.698730
0.793976 0.504059 0.733276
0.144501 0.523529 0.716064
0.234253 0.537079 0.723053
0.334961 0.559296 0.738770
0.442749 0.575867 0.746368
0.543823 0.583282 0.744507
0.628662 0.561096 0.721649
0.731995 0.567841 0.722870
0.834839 0.618317 0.750671
0.194214 0.620209 0.707855
0.280731 0.630005 0.714600
0.380951 0.650848 0.737732
0.478729 0.666229 0.748230
0.573792 0.672791 0.753540
0.679016 0.676971 0.757507
0.768829 0.678192 0.756226
0.872803 0.700348 0.778656
0.244415 0.709625 0.707428
0.323151 0.713257 0.708649
0.421600 0.728149 0.729492
0.516510 0.740021 0.745300
0.611298 0.751556 0.759399
0.707825 0.764709 0.773499
0.802399 0.778564 0.787170
0.898804 0.792358 0.801544
0.317108 0.809601 0.732086
0.397522 0.814301 0.739807
0.488495 0.822388 0.753967
0.578888 0.830444 0.768463
0.677582 0.840668 0.785431
0.770721 0.860107 0.808350
0.852509 0.882721 0.836395
0.898834 0.876617 0.830414
0.139313 0.202332 0.831268
0.220978 0.204346 0.831390
0.318268 0.204651 0.830261
0.383514 0.222961 0.849609
0.464722 0.240875 0.849182
0.567139 0.229553 0.832367
0.671570 0.207062 0.806610
0.789734 0.212708 0.805389
0.144806 0.261658 0.831818
0.229248 0.270691 0.831207
0.326447 0.269073 0.825592
0.395782 0.286774 0.834473
0.460419 0.308228 0.849945
0.564362 0.297150 0.832123
0.677155 0.286407 0.810883
0.791351 0.296112 0.806702
0.166534 0.370850 0.836182
0.236237 0.372437 0.826843
0.343719 0.383179 0.802429
0.423462 0.384369 0.818115
0.486023 0.401184 0.840698
0.572510 0.400909 0.832214
0.678680 0.385040 0.808228
0.789459 0.387573 0.803497
0.193237 0.481018 0.845673
0.256775 0.484619 0.832367
0.358734 0.497803 0.817352
0.453796 0.506104 0.826385
0.531586 0.497498 0.828674
0.604797 0.499603 0.821625
0.688385 0.488342 0.802917
0.794159 0.490204 0.805084
0.231171 0.572632 0.843323
0.306671 0.581085 0.836609
0.394684 0.598053 0.826355
0.486206 0.614166 0.839050
0.579987 0.621033 0.843872
0.649506 0.599457 0.825867
0.724091 0.591400 0.809662
0.825287 0.605225 0.818695
0.265625 0.657227 0.832825
0.339478 0.662231 0.827759
0.422821 0.673065 0.829071
0.512787 0.691193 0.844604
0.615417 0.706390 0.855011
0.704620 0.712219 0.854095
0.769562 0.695160 0.839081
0.857605 0.706665 0.843475
0.309387 0.745422 0.833649
0.380859 0.744843 0.828888
0.463409 0.751984 0.834015
0.551331 0.765259 0.846313
0.644226 0.779633 0.857086
0.735443 0.792969 0.872314
0.814026 0.796844 0.875519
0.881226 0.797485 0.873077
0.341370 0.823090 0.833588
0.413849 0.825684 0.836395
0.496460 0.831909 0.841766
0.583008 0.840179 0.849976
0.670532 0.850342 0.864349
0.754333 0.861023 0.877533
0.832703 0.871338 0.884705
0.906281 0.886780 0.897278
