tools/luts_backup/LAPARDIN-WEDLUTS-8.cube
#Created by: Adobe Photoshop Export Color Lookup Plugin
#Copyright: (C) 2017 Andrey Lapardin. vk.com-3dluts
TITLE "Andrey Lapardin. vk.com-3dluts"
#LUT size
LUT_3D_SIZE 8
#data domain
#LUT data points
DOMAIN_MIN 0.000000 0.000000 0.000000
DOMAIN_MAX 0.903226 0.903226 0.903226
0.032196 0.038361 0.039825
0.100708 0.043243 0.044189
0.195190 0.049164 0.048279
0.322784 0.051300 0.050964
0.475647 0.052734 0.050781
0.630890 0.051697 0.046906
0.772095 0.045380 0.042480
0.883453 0.036530 0.039856
0.034790 0.107422 0.043640
0.103058 0.107819 0.044403
0.198059 0.112396 0.047424
0.323029 0.107056 0.050964
0.470398 0.105103 0.053497
0.622589 0.106659 0.051605
0.764008 0.107941 0.043945
0.883270 0.106049 0.036072
0.036072 0.204102 0.046356
0.104828 0.201782 0.046661
0.200592 0.189178 0.053497
0.324768 0.192810 0.053680
0.468872 0.185364 0.052368
0.615753 0.170593 0.052399
0.753143 0.160858 0.053741
0.873291 0.156769 0.051605
0.035400 0.339996 0.046478
0.111237 0.338837 0.046143
0.199860 0.329529 0.062744
0.339935 0.315521 0.065979
0.480286 0.315338 0.057404
0.614136 0.314331 0.055359
0.746826 0.316559 0.054901
0.863922 0.315674 0.054657
0.034180 0.497650 0.075897
0.118744 0.500732 0.058777
0.170898 0.484558 0.082428
0.354675 0.477936 0.085114
0.492249 0.460388 0.085175
0.624115 0.456299 0.065399
0.743011 0.458435 0.059753
0.854645 0.458710 0.056366
0.034088 0.633179 0.130402
0.120392 0.636993 0.116364
0.179077 0.625763 0.121613
0.348999 0.619598 0.135773
0.512512 0.614380 0.134277
0.635101 0.599731 0.132294
0.749054 0.596405 0.118561
0.856201 0.600067 0.084991
0.096252 0.749786 0.196655
0.189484 0.752441 0.186798
0.300415 0.753540 0.185333
0.381012 0.738129 0.201599
0.517212 0.737915 0.200836
0.648834 0.733246 0.200928
0.750732 0.724182 0.205322
0.855103 0.725739 0.205780
0.208282 0.858154 0.258209
0.297882 0.860352 0.254272
0.390503 0.861511 0.252869
0.449890 0.853088 0.263397
0.549561 0.850708 0.270508
0.667084 0.850677 0.269867
0.759796 0.846008 0.276337
0.854462 0.844574 0.280487
0.037231 0.038727 0.106842
0.096924 0.043945 0.106293
0.190826 0.047394 0.114624
0.322296 0.047058 0.117371
0.463806 0.050385 0.117065
0.607849 0.050873 0.113770
0.750336 0.045776 0.106873
0.878052 0.036682 0.099792
0.037506 0.103455 0.104126
0.113190 0.115723 0.115540
0.212341 0.118805 0.119446
0.339569 0.115143 0.119141
0.482422 0.111481 0.117157
0.623230 0.114502 0.111725
0.757904 0.113831 0.106720
0.872253 0.114807 0.107361
0.039917 0.196899 0.119812
0.122498 0.211029 0.129486
0.221710 0.213715 0.128693
0.348175 0.215393 0.120270
0.492584 0.203705 0.116058
0.634552 0.191101 0.111877
0.760193 0.198486 0.111420
0.864868 0.216400 0.115997
0.038666 0.328400 0.144348
0.116394 0.341614 0.143890
0.225952 0.347412 0.148590
0.368958 0.338959 0.147644
0.504639 0.341400 0.132050
0.637939 0.336121 0.113892
0.765381 0.334045 0.111420
0.864563 0.342010 0.123901
0.035065 0.486267 0.179016
0.119659 0.499146 0.166687
0.200714 0.505615 0.168427
0.388855 0.500610 0.174377
0.520386 0.480743 0.178223
0.644775 0.478821 0.157257
0.758270 0.475525 0.122955
0.855865 0.472076 0.125031
0.034698 0.623444 0.216400
0.121613 0.637604 0.207733
0.250702 0.640778 0.202148
0.382813 0.636261 0.217621
0.536957 0.628235 0.219849
0.655212 0.614563 0.223480
0.763214 0.610931 0.209686
0.855255 0.603577 0.186340
0.114777 0.741425 0.265778
0.230103 0.760132 0.266022
0.342743 0.761688 0.257751
0.427734 0.753479 0.272919
0.534851 0.745819 0.283783
0.663666 0.740814 0.286133
0.765045 0.730560 0.283447
0.855927 0.728058 0.286987
0.210632 0.847992 0.313629
0.317139 0.861023 0.321808
0.412598 0.862793 0.315857
0.500183 0.858307 0.324554
0.560913 0.846161 0.349487
0.668365 0.843353 0.351227
0.772125 0.842468 0.351227
0.860413 0.845276 0.353271
0.036804 0.036957 0.193481
0.096558 0.042877 0.196960
0.166382 0.048218 0.196381
0.314545 0.048584 0.226166
0.475586 0.043640 0.233368
0.629150 0.044861 0.224091
0.762909 0.042084 0.203705
0.878479 0.034546 0.179047
0.038727 0.109253 0.188507
0.115814 0.122650 0.205566
0.202728 0.132416 0.211487
0.337891 0.139160 0.230591
0.491516 0.117371 0.232330
0.634247 0.117493 0.223175
0.761200 0.115448 0.207306
0.867218 0.118225 0.187134
0.044006 0.193542 0.191223
0.125763 0.211639 0.208344
0.236694 0.235748 0.228394
0.371826 0.223236 0.220062
0.516998 0.214325 0.215759
0.654205 0.215271 0.213715
0.760986 0.234161 0.215729
0.847717 0.260864 0.231720
0.047943 0.321625 0.212982
0.118561 0.337769 0.222870
0.238922 0.372314 0.243317
0.386566 0.369476 0.241638
0.521942 0.357452 0.217804
0.656525 0.353271 0.210846
0.771179 0.356232 0.212677
0.860962 0.364166 0.225372
0.049622 0.471954 0.236694
0.117950 0.486511 0.255219
0.241211 0.515106 0.267578
0.398926 0.518829 0.277496
0.541046 0.506104 0.268433
0.659668 0.499115 0.243408
0.759705 0.491180 0.230103
0.853790 0.489502 0.239685
0.047424 0.614380 0.280975
0.133606 0.620422 0.299652
0.282349 0.642914 0.298523
0.408173 0.645264 0.316986
0.556793 0.640991 0.316010
0.666321 0.621918 0.314392
0.758911 0.621490 0.317200
0.853668 0.620544 0.302185
0.122864 0.734619 0.334320
0.239868 0.735992 0.347839
0.357300 0.752014 0.349731
0.460327 0.753174 0.358917
0.560059 0.751251 0.370483
0.678406 0.745758 0.366730
0.771057 0.735840 0.377258
0.858582 0.737762 0.386383
0.213989 0.844330 0.387115
0.310364 0.831787 0.390198
0.423920 0.834686 0.406006
0.524109 0.836090 0.406128
0.592804 0.850311 0.423065
0.683105 0.847046 0.423279
0.780334 0.845184 0.430145
0.870209 0.846588 0.434357
0.035339 0.039612 0.301941
0.099792 0.041687 0.313629
0.152100 0.053009 0.326691
0.265533 0.066467 0.332642
0.467987 0.067352 0.394348
0.629486 0.065582 0.405945
0.767059 0.038940 0.386047
0.877594 0.035309 0.362854
0.035919 0.115540 0.299042
0.116333 0.127380 0.321686
0.194153 0.144562 0.335785
0.302490 0.168793 0.345856
0.473572 0.188690 0.392731
0.627899 0.186615 0.408325
0.763458 0.147034 0.393341
0.866577 0.125092 0.371033
0.044220 0.200012 0.300323
0.122498 0.213745 0.320404
0.233643 0.243408 0.347504
0.359924 0.262573 0.355560
0.518311 0.273376 0.376923
0.657684 0.269501 0.382172
0.766846 0.277954 0.385376
0.856812 0.280945 0.377228
0.050140 0.315765 0.304382
0.119965 0.339539 0.329132
0.243683 0.370361 0.357697
0.397369 0.391022 0.372986
0.539764 0.374268 0.357361
0.666321 0.373108 0.356140
0.768097 0.393311 0.375061
0.866852 0.400299 0.379456
0.054077 0.471069 0.336853
0.121216 0.489441 0.353149
0.266846 0.506958 0.370270
0.403625 0.529938 0.393433
0.543427 0.523041 0.393219
0.658752 0.506561 0.364899
0.762238 0.508667 0.371796
0.871552 0.503967 0.369843
0.057465 0.608551 0.366028
0.168030 0.619385 0.381439
0.307098 0.628601 0.394928
0.434113 0.645721 0.421417
0.556030 0.647186 0.434509
0.667755 0.635223 0.423553
0.761780 0.634460 0.414825
0.854980 0.635437 0.408844
0.135040 0.725952 0.399963
0.245819 0.730682 0.417969
0.362183 0.726532 0.429413
0.491943 0.739594 0.456543
0.574097 0.749664 0.476044
0.685181 0.747192 0.474274
0.777649 0.739563 0.466278
0.857666 0.746185 0.481110
0.218842 0.836517 0.446777
0.309174 0.827637 0.460510
0.413727 0.825928 0.465546
0.539856 0.837189 0.492096
0.614532 0.847931 0.506653
0.696045 0.852661 0.517639
0.792175 0.849579 0.510773
0.875977 0.848999 0.522858
0.032227 0.045044 0.428192
0.110321 0.049255 0.438446
0.139618 0.062408 0.469299
0.259949 0.083649 0.479431
0.399445 0.118347 0.489624
0.615692 0.131866 0.567444
0.750275 0.164307 0.571381
0.869446 0.147339 0.552979
0.031372 0.127411 0.429749
0.117249 0.137024 0.450928
0.189667 0.153717 0.472961
0.289032 0.184448 0.486542
0.420654 0.224518 0.499359
0.611847 0.240265 0.561951
0.741028 0.269379 0.572906
0.849762 0.260590 0.557251
0.040375 0.204254 0.423370
0.122925 0.226685 0.448425
0.227325 0.254120 0.480896
0.347778 0.284912 0.487030
0.475647 0.319031 0.500671
0.623077 0.356140 0.545380
0.735748 0.378540 0.555084
0.835266 0.375458 0.553101
0.050262 0.315613 0.427307
0.118439 0.332764 0.450836
0.235443 0.357452 0.479828
0.391663 0.399963 0.501831
0.528900 0.427399 0.516388
0.655914 0.436371 0.527405
0.758728 0.444611 0.531433
0.863007 0.439484 0.521576
0.057404 0.457184 0.437469
0.128937 0.477539 0.460449
0.268921 0.504395 0.492706
0.407074 0.525024 0.512817
0.548615 0.539764 0.521729
0.666534 0.527771 0.511444
0.771606 0.526031 0.511261
0.872986 0.531555 0.521515
0.061676 0.603210 0.470398
0.167542 0.614838 0.483856
0.305939 0.628448 0.501648
0.441925 0.639648 0.524872
0.558868 0.654724 0.543579
0.668579 0.649567 0.542725
0.766418 0.642242 0.523224
0.861511 0.641632 0.522797
0.121735 0.722717 0.495331
0.239594 0.724884 0.500031
0.351257 0.731262 0.519989
0.481720 0.733765 0.531342
0.589569 0.753815 0.566467
0.681458 0.757568 0.575836
0.777771 0.752289 0.565765
0.863190 0.752533 0.566467
0.201355 0.832611 0.525177
0.304504 0.831512 0.530762
0.408600 0.830902 0.544556
0.518707 0.830017 0.549713
0.640259 0.843933 0.583069
0.705414 0.852356 0.608643
0.799133 0.852997 0.609894
0.882141 0.850769 0.606903
0.028107 0.057312 0.565033
0.112671 0.063812 0.571167
0.162933 0.075653 0.603668
0.266632 0.109619 0.618011
0.410461 0.149933 0.622650
0.549286 0.188110 0.632965
0.735565 0.204224 0.702911
0.846832 0.223328 0.697876
0.026703 0.141052 0.569122
0.118866 0.152222 0.585114
0.218750 0.169373 0.604919
0.292084 0.205780 0.620789
0.421692 0.245667 0.626038
0.556183 0.284546 0.635132
0.729523 0.298004 0.695435
0.828949 0.322083 0.688019
0.031769 0.232422 0.568481
0.122528 0.248718 0.581879
0.235504 0.271118 0.609863
0.346039 0.299713 0.614929
0.461426 0.347015 0.619507
0.581207 0.381195 0.631744
0.721832 0.401581 0.675751
0.809967 0.430511 0.675659
0.045898 0.313873 0.555573
0.115356 0.332214 0.570618
0.238373 0.367188 0.604767
0.382782 0.412994 0.621033
0.512054 0.449402 0.622833
0.626526 0.472321 0.631714
0.730957 0.508179 0.657684
0.837128 0.514343 0.658539
0.057190 0.453217 0.562683
0.126068 0.467743 0.578583
0.242249 0.490845 0.605286
0.386353 0.507599 0.614594
0.543762 0.547729 0.629761
0.659821 0.568146 0.643677
0.761505 0.576111 0.656158
0.863556 0.576294 0.653900
0.066162 0.586243 0.570770
0.177460 0.598938 0.581207
0.300812 0.620361 0.610596
0.433350 0.632629 0.625031
0.557037 0.651062 0.641022
0.675659 0.663116 0.648560
0.775330 0.657471 0.645081
0.870697 0.658905 0.647552
0.125275 0.716980 0.599884
0.240967 0.721222 0.604004
0.351257 0.729614 0.621124
0.472626 0.736115 0.629822
0.583038 0.752899 0.651764
0.686981 0.767975 0.670380
0.779144 0.764038 0.670715
0.865906 0.763184 0.662567
0.188812 0.831085 0.621796
0.286957 0.832550 0.625793
0.390167 0.835999 0.635376
0.499176 0.839752 0.645752
0.618713 0.839783 0.650726
0.724335 0.860168 0.681427
0.798401 0.864227 0.700684
0.883423 0.859436 0.697693
0.025330 0.085510 0.701477
0.123718 0.098175 0.704773
0.245422 0.117920 0.719757
0.305481 0.149445 0.739899
0.430573 0.186584 0.739899
0.557312 0.233948 0.736420
0.676849 0.248108 0.743256
0.837006 0.255219 0.802704
0.025360 0.167877 0.703674
0.152496 0.182770 0.716370
0.277588 0.201569 0.723633
0.329651 0.237793 0.738464
0.436646 0.276337 0.739624
0.563354 0.320618 0.736633
0.681458 0.335999 0.742767
0.822601 0.349731 0.789978
0.025421 0.269958 0.704865
0.151825 0.280823 0.707306
0.281158 0.304382 0.715637
0.372192 0.330475 0.726654
0.463745 0.370483 0.733368
0.577545 0.410736 0.735748
0.688538 0.426849 0.740814
0.804718 0.445099 0.768585
0.038635 0.344055 0.694611
0.125092 0.364838 0.699188
0.268799 0.399780 0.713959
0.401733 0.442871 0.720459
0.512299 0.467224 0.720612
0.616608 0.505615 0.724640
0.711487 0.519073 0.733185
0.814301 0.539185 0.763367
0.053558 0.451569 0.684509
0.124268 0.463074 0.690216
0.224670 0.482605 0.704712
0.381561 0.509674 0.715057
0.536011 0.560699 0.727448
0.650391 0.588837 0.732910
0.746826 0.600769 0.740723
0.840729 0.628235 0.757843
0.064697 0.585022 0.686951
0.143188 0.593384 0.691376
0.277161 0.610077 0.709900
0.408173 0.627380 0.719421
0.533417 0.638519 0.726807
0.674133 0.671265 0.743317
0.772491 0.687897 0.755280
0.864746 0.696838 0.765503
0.109833 0.703064 0.695282
0.228790 0.707550 0.696136
0.345123 0.718964 0.710999
0.459595 0.731018 0.724884
0.572479 0.745056 0.738739
0.682129 0.761078 0.751495
0.786285 0.773956 0.760803
0.875977 0.776154 0.764160
0.175781 0.827332 0.720581
0.276978 0.830109 0.724487
0.384064 0.834869 0.731995
0.491699 0.840729 0.741364
0.602295 0.845612 0.747986
0.707397 0.858429 0.757507
0.808472 0.876648 0.779938
0.884430 0.875702 0.788727
0.092316 0.146820 0.823151
0.203735 0.158356 0.823761
0.315521 0.175171 0.825989
0.384521 0.201660 0.845520
0.468109 0.237366 0.845764
0.577820 0.266449 0.839600
0.686096 0.295563 0.832916
0.793457 0.290558 0.836670
0.103302 0.218781 0.822479
0.215912 0.238007 0.822845
0.328278 0.254639 0.821503
0.403198 0.284912 0.832581
0.469879 0.315826 0.849640
0.581726 0.344147 0.842896
0.692505 0.375336 0.835632
0.794037 0.375122 0.834839
0.104034 0.315826 0.820984
0.208557 0.328674 0.813721
0.338348 0.358917 0.793182
0.428406 0.378479 0.813446
0.491089 0.402588 0.836853
0.585968 0.431519 0.837097
0.696320 0.461517 0.830627
0.796082 0.461884 0.831390
0.058563 0.397675 0.821777
0.176697 0.412323 0.809784
0.319244 0.443024 0.796326
0.438110 0.474487 0.813019
0.530670 0.490295 0.821503
0.614807 0.518951 0.823761
0.708435 0.547729 0.822968
0.802887 0.550293 0.829285
0.045685 0.461761 0.809601
0.124207 0.476593 0.802155
0.236053 0.501221 0.791199
0.399170 0.540527 0.809174
0.545197 0.583801 0.822113
0.648529 0.602051 0.819580
0.737854 0.631012 0.821594
0.828552 0.639160 0.829956
0.060211 0.588318 0.802185
0.137451 0.595093 0.796448
0.254456 0.608185 0.797821
0.385132 0.626129 0.813568
0.519989 0.640717 0.820557
0.669586 0.686127 0.828766
0.767426 0.710297 0.834717
0.856689 0.721161 0.842133
0.073151 0.711731 0.807556
0.195435 0.711884 0.802338
0.320496 0.718994 0.806335
0.436676 0.732635 0.817657
0.554321 0.747528 0.826630
0.663940 0.757385 0.838379
0.788330 0.786163 0.850891
0.874359 0.803284 0.859589
0.171387 0.820465 0.814911
0.267853 0.822968 0.816925
0.371307 0.828217 0.819366
0.477936 0.835938 0.824768
0.585083 0.846130 0.838287
0.691528 0.858063 0.851563
0.796997 0.872223 0.859467
0.893677 0.887726 0.871857
