tools/luts_backup/LAPARDIN-WEDLUTS-22.cube
#Created by: Adobe Photoshop Export Color Lookup Plugin
#Copyright: (C) 2017 Andrey Lapardin. vk.com-3dluts
TITLE "Andrey Lapardin. vk.com-3dluts"
#LUT size
LUT_3D_SIZE 32
#data domain
DOMAIN_MIN 0.0 0.0 0.0
DOMAIN_MAX 1.0 1.0 1.0
#LUT data points
0.003448 0.023010 0.025970
0.015350 0.025848 0.028534
0.028381 0.027252 0.029480
0.041626 0.028442 0.030243
0.056213 0.029602 0.030731
0.074249 0.031311 0.031555
0.094482 0.033752 0.032562
0.116333 0.036652 0.033600
0.140350 0.039063 0.034698
0.166229 0.040833 0.035461
0.194244 0.041504 0.036163
0.224274 0.040894 0.036743
0.256653 0.038849 0.037018
0.291656 0.035187 0.037018
0.329163 0.029144 0.036743
0.368652 0.023163 0.035919
0.409912 0.021698 0.034790
0.452667 0.021759 0.032928
0.496674 0.021698 0.030396
0.541656 0.021454 0.027191
0.587708 0.020844 0.023285
0.635101 0.019958 0.018311
0.682831 0.018799 0.012207
0.732758 0.017395 0.009552
0.780518 0.015900 0.008514
0.825043 0.014252 0.007355
0.865997 0.012512 0.006104
0.903687 0.010742 0.004791
0.933014 0.008972 0.004395
0.947876 0.007141 0.004333
0.962555 0.005646 0.004333
0.976868 0.011780 0.004822
0.005310 0.036041 0.028809
0.015381 0.036774 0.029175
0.028473 0.039825 0.030212
0.041626 0.041809 0.030731
0.056305 0.043060 0.031006
0.074341 0.044861 0.031799
0.094727 0.047028 0.032867
0.116882 0.049561 0.033875
0.141357 0.051819 0.034851
0.167511 0.053406 0.035797
0.195404 0.054138 0.036591
0.225525 0.053772 0.037170
0.257874 0.052032 0.037598
0.292969 0.048584 0.037689
0.330505 0.042877 0.037415
0.370148 0.036041 0.036713
0.411438 0.033112 0.035492
0.454071 0.033295 0.033661
0.497925 0.033356 0.030975
0.542664 0.033234 0.027740
0.588226 0.032806 0.023560
0.635010 0.032104 0.018433
0.681976 0.031097 0.012329
0.729950 0.029846 0.009857
0.776306 0.028381 0.008728
0.819977 0.026825 0.007568
0.860565 0.025116 0.006287
0.898346 0.023346 0.004944
0.928986 0.021545 0.004425
0.947937 0.019745 0.004333
0.962585 0.018158 0.004333
0.976898 0.023254 0.004822
0.006104 0.051453 0.030304
0.017517 0.051941 0.030731
0.028534 0.052490 0.030975
0.041779 0.055573 0.031677
0.055756 0.057556 0.032074
0.073883 0.059235 0.032532
0.095184 0.060913 0.033203
0.118011 0.062744 0.033997
0.142822 0.064453 0.034912
0.168976 0.065674 0.035950
0.196716 0.066345 0.036957
0.226379 0.066193 0.037781
0.258209 0.064911 0.038361
0.292938 0.061951 0.038696
0.330139 0.056854 0.038666
0.369568 0.049133 0.038116
0.410797 0.044250 0.037048
0.453400 0.043976 0.035370
0.497253 0.044312 0.032715
0.542053 0.044464 0.029327
0.587799 0.044464 0.025024
0.635406 0.044220 0.019470
0.683563 0.043701 0.013153
0.731506 0.042908 0.010559
0.777557 0.041840 0.009338
0.820831 0.040558 0.007996
0.860962 0.039093 0.006592
0.898010 0.037506 0.005188
0.929260 0.035858 0.004425
0.947968 0.034027 0.004333
0.962616 0.032410 0.004333
0.976929 0.042267 0.004822
0.006683 0.066772 0.031830
0.019043 0.067291 0.032288
0.030762 0.067566 0.032684
0.042023 0.068420 0.033081
0.054932 0.071442 0.033661
0.071869 0.073669 0.034332
0.093872 0.075317 0.034668
0.118774 0.076569 0.034882
0.144287 0.077637 0.035553
0.170990 0.078400 0.036407
0.198914 0.078827 0.037354
0.228577 0.078613 0.038391
0.260468 0.077484 0.039276
0.295044 0.074951 0.039825
0.332031 0.070374 0.040070
0.371124 0.063263 0.039825
0.412109 0.054199 0.038940
0.454224 0.053558 0.037506
0.497772 0.053955 0.035065
0.542206 0.054382 0.031677
0.587494 0.054718 0.027283
0.635162 0.054993 0.021484
0.682739 0.055054 0.015259
0.729431 0.054840 0.012085
0.774506 0.054382 0.010620
0.817291 0.053680 0.009033
0.857483 0.052734 0.007385
0.894958 0.051636 0.005737
0.927795 0.050385 0.004456
0.947968 0.048859 0.004364
0.962616 0.049438 0.004333
0.976898 0.069489 0.004822
0.007324 0.081848 0.033997
0.020508 0.082489 0.034515
0.032928 0.082977 0.034943
0.044434 0.083618 0.035400
0.055176 0.084015 0.035919
0.070282 0.087097 0.036926
0.090942 0.089478 0.037415
0.116211 0.091125 0.037445
0.144714 0.092133 0.037354
0.173126 0.092560 0.037537
0.201660 0.092957 0.038239
0.231812 0.092560 0.039124
0.264008 0.091339 0.040070
0.298553 0.088867 0.040741
0.335266 0.084595 0.041168
0.373779 0.077972 0.041138
0.414032 0.069336 0.040588
0.455719 0.063110 0.039368
0.498596 0.063263 0.037262
0.542725 0.063599 0.034149
0.588226 0.063965 0.029846
0.635559 0.064392 0.024048
0.683319 0.064667 0.018066
0.729370 0.064911 0.014465
0.774078 0.064972 0.012878
0.816681 0.064850 0.011108
0.856812 0.064575 0.009216
0.894104 0.064117 0.007294
0.927002 0.065735 0.005402
0.948029 0.068359 0.004425
0.962646 0.077637 0.004333
0.976929 0.111420 0.004822
0.007996 0.097290 0.036255
0.021790 0.097900 0.036835
0.034882 0.098419 0.037445
0.046753 0.098969 0.038116
0.057739 0.099396 0.038879
0.069489 0.098907 0.039642
0.087646 0.102112 0.040649
0.111847 0.104767 0.040833
0.140839 0.106873 0.040558
0.171051 0.108185 0.040283
0.203278 0.108276 0.040161
0.234375 0.107971 0.040466
0.266998 0.106964 0.041199
0.301758 0.104706 0.041718
0.338531 0.101013 0.041931
0.376831 0.095276 0.041901
0.416656 0.086609 0.041473
0.457794 0.076355 0.040466
0.500488 0.072998 0.038666
0.544220 0.073029 0.035919
0.590027 0.073181 0.031952
0.637573 0.073334 0.026367
0.684753 0.073578 0.020264
0.730713 0.073792 0.017395
0.775635 0.074005 0.015991
0.818573 0.074188 0.014313
0.860962 0.074341 0.012421
0.901093 0.076141 0.010345
0.930267 0.095856 0.008301
0.947510 0.128357 0.006104
0.962769 0.146820 0.004761
0.977173 0.170898 0.004822
0.008453 0.114227 0.039001
0.022705 0.114899 0.039520
0.036346 0.115356 0.040314
0.048767 0.115692 0.041290
0.059875 0.115753 0.042328
0.072906 0.115662 0.043549
0.086487 0.114471 0.043945
0.108154 0.117981 0.044739
0.137085 0.121246 0.044556
0.168182 0.123871 0.044159
0.201508 0.125061 0.043579
0.235748 0.125061 0.043030
0.271515 0.123657 0.042755
0.306793 0.121918 0.042938
0.343872 0.118958 0.042847
0.382263 0.114410 0.042572
0.421967 0.107574 0.041962
0.462646 0.097748 0.040894
0.504761 0.086456 0.039124
0.548523 0.083496 0.036316
0.593903 0.083344 0.032532
0.640472 0.083221 0.027283
0.686157 0.083160 0.021881
0.730438 0.083130 0.020050
0.773804 0.083130 0.019135
0.815369 0.083221 0.017883
0.854675 0.083282 0.016327
0.892395 0.095734 0.014557
0.925598 0.115692 0.012665
0.945831 0.142242 0.010590
0.961243 0.169312 0.008789
0.976318 0.192566 0.007477
0.008606 0.133881 0.042542
0.023224 0.134583 0.042999
0.037476 0.134857 0.043945
0.050446 0.134918 0.045349
0.062286 0.134399 0.046631
0.075958 0.133850 0.048035
0.091705 0.133636 0.048828
0.107941 0.132111 0.048615
0.133728 0.135712 0.049072
0.164886 0.139618 0.048645
0.198303 0.142212 0.047882
0.234344 0.143219 0.046844
0.272797 0.142334 0.045654
0.311218 0.140717 0.044769
0.349640 0.138336 0.044128
0.388489 0.135010 0.043457
0.428436 0.129883 0.042511
0.469177 0.122437 0.040985
0.511200 0.112274 0.039001
0.554810 0.102997 0.035950
0.599762 0.098633 0.031860
0.645599 0.096436 0.026581
0.689392 0.095123 0.021790
0.731689 0.095245 0.021698
0.772949 0.096283 0.021393
0.812561 0.098114 0.020752
0.850372 0.099579 0.019806
0.886200 0.105927 0.018616
0.919342 0.132202 0.017273
0.944000 0.154144 0.015717
0.959137 0.174713 0.014343
0.974152 0.196289 0.013000
0.008606 0.154144 0.045776
0.023621 0.154846 0.046234
0.038788 0.155060 0.047180
0.052826 0.154816 0.048950
0.066223 0.154022 0.050934
0.079865 0.153259 0.052429
0.096069 0.152771 0.053436
0.115234 0.152985 0.053802
0.133636 0.151215 0.053131
0.160858 0.154755 0.053436
0.194153 0.159027 0.052612
0.229950 0.161560 0.051575
0.268768 0.162567 0.050018
0.310455 0.161713 0.047974
0.352539 0.159546 0.046021
0.393127 0.157135 0.044556
0.433502 0.153931 0.043243
0.474640 0.149536 0.041351
0.516937 0.143707 0.038666
0.561127 0.136108 0.034882
0.606140 0.127319 0.030365
0.650299 0.118774 0.025055
0.692444 0.112854 0.022125
0.733124 0.112549 0.022400
0.772980 0.117859 0.022461
0.811188 0.128723 0.022339
0.847839 0.140717 0.022003
0.882721 0.151672 0.021484
0.910431 0.157928 0.020782
0.938446 0.173645 0.019897
0.957336 0.188812 0.019073
0.972198 0.205872 0.018127
0.008545 0.176086 0.049530
0.024872 0.176819 0.049896
0.042603 0.177063 0.050812
0.059052 0.176636 0.052795
0.072937 0.175720 0.055298
0.086670 0.174591 0.057220
0.103119 0.173950 0.058350
0.122223 0.173859 0.058777
0.143219 0.174194 0.058685
0.161682 0.171997 0.057800
0.189941 0.175323 0.057800
0.225098 0.179810 0.056610
0.263458 0.182770 0.054810
0.304657 0.183960 0.052460
0.348328 0.183411 0.049744
0.393402 0.181061 0.046631
0.435822 0.178711 0.044281
0.477570 0.176422 0.041748
0.520355 0.173767 0.038574
0.563538 0.170685 0.034332
0.606873 0.167114 0.029236
0.649536 0.163513 0.023865
0.690674 0.161072 0.022186
0.730865 0.161011 0.022461
0.770050 0.164490 0.022705
0.807678 0.171326 0.022888
0.843719 0.180481 0.022980
0.878143 0.190521 0.022949
0.906189 0.193207 0.022736
0.935638 0.203949 0.022400
0.956207 0.215668 0.022003
0.970856 0.230682 0.021606
0.012604 0.199768 0.053650
0.030396 0.200653 0.054047
0.050049 0.200897 0.054901
0.068176 0.200562 0.056976
0.083130 0.199463 0.059814
0.097382 0.198242 0.062683
0.113007 0.197296 0.063995
0.131592 0.197052 0.064484
0.152191 0.197235 0.064301
0.173950 0.197693 0.063812
0.192352 0.194916 0.062714
0.222321 0.198578 0.062347
0.260040 0.203491 0.060486
0.301453 0.207092 0.057922
0.345276 0.209045 0.054688
0.391327 0.209381 0.050873
0.439697 0.208801 0.046326
0.488037 0.207245 0.040741
0.531647 0.207123 0.036316
0.574921 0.207214 0.031128
0.617157 0.207001 0.025940
0.658020 0.206512 0.023407
0.697052 0.206299 0.022430
0.734924 0.206940 0.022491
0.771851 0.209137 0.022644
0.807434 0.213562 0.022888
0.841522 0.219391 0.023132
0.873993 0.225891 0.023346
0.905365 0.233398 0.023468
0.934448 0.241455 0.023468
0.955688 0.250458 0.023376
0.970184 0.262390 0.023376
0.020447 0.225830 0.058502
0.039734 0.226654 0.058807
0.061096 0.227203 0.059570
0.081024 0.227112 0.061584
0.097046 0.226044 0.064728
0.110962 0.224457 0.068146
0.125763 0.223328 0.070465
0.143372 0.222900 0.071075
0.163239 0.222931 0.070801
0.184723 0.223267 0.070129
0.207184 0.223633 0.069336
0.226044 0.220367 0.067780
0.257996 0.224304 0.066742
0.297791 0.229767 0.064270
0.342224 0.234680 0.060730
0.389313 0.238220 0.056274
0.438507 0.240631 0.050751
0.489166 0.242096 0.043427
0.539276 0.243256 0.034790
0.586731 0.244812 0.026367
0.629395 0.247437 0.023743
0.670746 0.249878 0.023102
0.710327 0.252319 0.023010
0.748260 0.255035 0.022888
0.784576 0.258606 0.022797
0.819092 0.262817 0.022797
0.851654 0.268097 0.022949
0.882751 0.274048 0.023224
0.912537 0.280609 0.023468
0.939362 0.287598 0.023651
0.955658 0.294983 0.023712
0.969971 0.304260 0.023956
0.032227 0.254303 0.064056
0.051910 0.255371 0.064362
0.073853 0.256134 0.065033
0.094849 0.256287 0.066895
0.111389 0.255096 0.069977
0.125092 0.253265 0.073792
0.140015 0.252014 0.077301
0.156342 0.251343 0.078583
0.175385 0.251099 0.078278
0.196411 0.251373 0.077301
0.218781 0.251648 0.076172
0.242218 0.252167 0.075073
0.261505 0.248016 0.072906
0.295502 0.252747 0.071350
0.338013 0.259796 0.068115
0.385498 0.266815 0.063171
0.435242 0.272705 0.056732
0.486084 0.277618 0.048370
0.537720 0.281677 0.037170
0.588562 0.285004 0.024933
0.635681 0.287720 0.023712
0.677612 0.290619 0.023956
0.716156 0.293793 0.023926
0.752991 0.296600 0.023682
0.788116 0.299530 0.023376
0.821655 0.302856 0.023071
0.853882 0.307312 0.022949
0.884827 0.312866 0.023010
0.914001 0.319244 0.023193
0.939880 0.326050 0.023438
0.956085 0.333191 0.023590
0.970215 0.341339 0.023987
0.047760 0.290100 0.072205
0.067535 0.291473 0.072632
0.089905 0.292389 0.073242
0.111908 0.292725 0.074768
0.128998 0.290985 0.077423
0.141968 0.287689 0.080963
0.155396 0.285248 0.084930
0.171448 0.283997 0.087585
0.189301 0.283447 0.087433
0.210175 0.283783 0.086365
0.232910 0.284363 0.084869
0.256470 0.284973 0.083344
0.281433 0.285583 0.081757
0.301453 0.280518 0.078918
0.337708 0.286469 0.076599
0.382111 0.295410 0.071991
0.431580 0.304749 0.064697
0.482544 0.312927 0.055115
0.534210 0.319977 0.042267
0.585327 0.325867 0.028442
0.634705 0.330078 0.024231
0.680786 0.333618 0.024658
0.723297 0.336639 0.024902
0.760162 0.340302 0.024780
0.795166 0.343811 0.024414
0.828430 0.347076 0.023865
0.860107 0.350677 0.023346
0.890198 0.354889 0.023010
0.918976 0.359894 0.022949
0.942627 0.365631 0.023041
0.956909 0.371857 0.023193
0.970856 0.378815 0.023712
0.060394 0.326416 0.080688
0.079865 0.327698 0.081360
0.102478 0.328979 0.082184
0.126373 0.331146 0.083496
0.145844 0.331268 0.085968
0.159821 0.327972 0.089691
0.172028 0.323975 0.093750
0.187744 0.322479 0.097961
0.205200 0.321442 0.098969
0.225281 0.321075 0.097656
0.247986 0.321716 0.095673
0.271729 0.322205 0.093475
0.296021 0.322540 0.091278
0.321289 0.322571 0.088806
0.341278 0.316132 0.085052
0.377472 0.322296 0.081635
0.422302 0.332306 0.075195
0.471924 0.343201 0.065613
0.522980 0.352661 0.052643
0.574341 0.360870 0.035614
0.623779 0.367310 0.024597
0.671783 0.372528 0.025146
0.717346 0.376465 0.025635
0.758301 0.379913 0.025818
0.795593 0.382751 0.025635
0.828522 0.385773 0.025055
0.859894 0.388550 0.024292
0.889740 0.391449 0.023529
0.918488 0.395020 0.022980
0.942932 0.399567 0.022766
0.958038 0.404968 0.022705
0.971863 0.410980 0.023254
0.071686 0.367920 0.091461
0.090942 0.369293 0.092163
0.113434 0.370514 0.093018
0.137756 0.372406 0.094208
0.159454 0.374451 0.095856
0.173981 0.369598 0.098083
0.185150 0.362518 0.101379
0.199982 0.360443 0.106598
0.219604 0.361847 0.111267
0.239258 0.361847 0.110565
0.261475 0.362091 0.108124
0.285034 0.362488 0.105286
0.309174 0.362488 0.102234
0.333862 0.362122 0.099152
0.359314 0.361389 0.095703
0.379578 0.353882 0.090942
0.415680 0.360016 0.086517
0.455719 0.366394 0.078461
0.504669 0.377502 0.067108
0.555420 0.387970 0.051880
0.605774 0.396942 0.032349
0.654999 0.404724 0.025391
0.701813 0.411285 0.026001
0.745911 0.416290 0.026489
0.786865 0.419495 0.026611
0.823792 0.421417 0.026337
0.855957 0.423096 0.025574
0.885498 0.424835 0.024536
0.914154 0.426910 0.023529
0.938690 0.429871 0.022736
0.959259 0.434052 0.022308
0.973083 0.439331 0.022736
0.082855 0.417542 0.106384
0.102203 0.419647 0.107483
0.125061 0.421234 0.108582
0.150116 0.423370 0.110168
0.173798 0.426483 0.112213
0.192871 0.427582 0.114868
0.205383 0.420471 0.118164
0.215607 0.409973 0.120392
0.232635 0.407288 0.125122
0.252411 0.406067 0.126221
0.273254 0.404785 0.123199
0.296265 0.404480 0.119476
0.320190 0.404114 0.115540
0.344604 0.403442 0.111542
0.369507 0.402283 0.107391
0.395111 0.400604 0.102936
0.414001 0.390106 0.096497
0.449066 0.395416 0.091522
0.493591 0.406342 0.082642
0.543304 0.418884 0.069305
0.593475 0.429565 0.051147
0.648651 0.443909 0.035004
0.696259 0.451935 0.026123
0.740997 0.458466 0.026733
0.782837 0.463257 0.027191
0.821564 0.466034 0.027283
0.856934 0.467010 0.026794
0.889038 0.466766 0.025818
0.917389 0.467560 0.024506
0.939972 0.469116 0.023132
0.960480 0.472076 0.022095
0.974945 0.476379 0.022095
0.091797 0.464935 0.122528
0.111023 0.466766 0.123657
0.134003 0.468323 0.124878
0.159485 0.470367 0.126678
0.184296 0.473297 0.128967
0.206116 0.476898 0.131653
0.220764 0.472076 0.134338
0.232025 0.463165 0.137421
0.248810 0.460968 0.143768
0.271667 0.463318 0.150391
0.293304 0.463226 0.149017
0.316254 0.462677 0.144562
0.340820 0.462341 0.139526
0.365784 0.461487 0.134216
0.390991 0.459778 0.128601
0.416260 0.457062 0.122498
0.442108 0.453796 0.116089
0.459259 0.439972 0.106567
0.494080 0.444183 0.100830
0.539459 0.455811 0.090393
0.589874 0.468811 0.075745
0.645660 0.484436 0.058105
0.693329 0.492676 0.041138
0.737610 0.499298 0.033203
0.779083 0.504639 0.027344
0.817719 0.508545 0.027740
0.853851 0.510803 0.027649
0.887665 0.511414 0.026947
0.919800 0.510498 0.025696
0.944336 0.510010 0.023956
0.961517 0.511230 0.022369
0.975983 0.513885 0.022095
0.104218 0.514099 0.143372
0.126221 0.519867 0.148041
0.155518 0.529907 0.156860
0.182220 0.532410 0.159485
0.208771 0.535492 0.162781
0.233154 0.539398 0.166687
0.250732 0.538696 0.168579
0.254120 0.521301 0.162903
0.266052 0.511902 0.165497
0.285522 0.509644 0.170624
0.308746 0.510162 0.173218
0.331207 0.509705 0.169312
0.355133 0.509247 0.163696
0.380096 0.508484 0.157623
0.405579 0.507141 0.151215
0.431396 0.505066 0.144348
0.457489 0.502411 0.137238
0.483978 0.499268 0.129700
0.502655 0.487122 0.118622
0.536560 0.490204 0.112732
0.581726 0.501160 0.102722
0.631927 0.513336 0.089783
0.680237 0.523041 0.075073
0.725800 0.530853 0.058868
0.768311 0.537445 0.049042
0.807922 0.542877 0.044617
0.845001 0.547119 0.035889
0.879761 0.549805 0.027710
0.912598 0.550934 0.026733
0.942261 0.550201 0.025055
0.962219 0.548676 0.023224
0.976715 0.549805 0.022766
0.127533 0.564209 0.172028
0.148102 0.566986 0.174805
0.174133 0.572021 0.179871
0.201141 0.574738 0.183350
0.227844 0.577148 0.186707
0.252594 0.579742 0.190216
0.273804 0.582123 0.193573
0.281982 0.573456 0.192444
0.287201 0.560425 0.190033
0.304688 0.557678 0.195770
0.328857 0.558380 0.201782
0.352142 0.558594 0.200775
0.375122 0.557892 0.194977
0.399353 0.556976 0.188171
0.424408 0.555573 0.180847
0.449554 0.553284 0.172974
0.475037 0.550262 0.164673
0.500671 0.546692 0.156006
0.526764 0.542999 0.147003
0.545166 0.531372 0.133942
0.577209 0.532806 0.128754
0.621704 0.542633 0.120300
0.669922 0.553772 0.110748
0.716156 0.562775 0.101288
0.759521 0.570068 0.092560
0.799652 0.576324 0.084869
0.837158 0.581573 0.076385
0.872162 0.585754 0.070557
0.905365 0.588501 0.065063
0.937225 0.589722 0.059326
0.961823 0.589508 0.050049
0.977020 0.588928 0.042664
0.152588 0.604919 0.198029
0.173096 0.607330 0.200989
0.197479 0.609924 0.204468
0.224365 0.612640 0.208374
0.250885 0.614960 0.212128
0.270660 0.612671 0.210419
0.292816 0.615204 0.214081
0.302460 0.609467 0.211700
0.299469 0.592682 0.202759
0.319611 0.593079 0.213623
0.346649 0.596863 0.225006
0.374115 0.599670 0.231293
0.396362 0.599274 0.226837
0.419312 0.598480 0.220093
0.443054 0.597168 0.212524
0.467255 0.595093 0.204041
0.491699 0.592194 0.194977
0.516388 0.588745 0.185577
0.541565 0.585114 0.175964
0.567200 0.581604 0.166382
0.585236 0.570984 0.152435
0.615967 0.571594 0.147491
0.657654 0.579834 0.141296
0.703156 0.589691 0.134918
0.747345 0.598236 0.129089
0.788544 0.605347 0.124298
0.826813 0.611511 0.120819
0.862305 0.616791 0.117981
0.895782 0.620941 0.114563
0.927521 0.623840 0.109009
0.956818 0.625183 0.100830
0.976746 0.625580 0.093018
0.178009 0.639587 0.221954
0.198120 0.641724 0.224823
0.221802 0.643921 0.228119
0.247681 0.645996 0.231659
0.273163 0.647705 0.234772
0.297333 0.649292 0.237823
0.319794 0.651337 0.241455
0.335602 0.651062 0.242889
0.328613 0.634644 0.230774
0.334412 0.624298 0.229004
0.359039 0.626373 0.240173
0.387024 0.629456 0.249054
0.412262 0.631012 0.250610
0.434235 0.630554 0.245117
0.456818 0.629639 0.238068
0.480316 0.628296 0.230438
0.504578 0.626526 0.222260
0.529572 0.624542 0.214142
0.555298 0.622467 0.206116
0.581299 0.620331 0.197968
0.607483 0.618378 0.189941
0.625061 0.608551 0.175140
0.655212 0.609711 0.171173
0.693909 0.616516 0.167999
0.736938 0.625519 0.164856
0.779236 0.634003 0.162292
0.818604 0.641357 0.160980
0.854858 0.647797 0.161072
0.888458 0.653229 0.161255
0.919891 0.657654 0.160950
0.950439 0.661377 0.161560
0.974579 0.662567 0.159210
0.226257 0.683899 0.264587
0.245239 0.685394 0.266785
0.267090 0.686646 0.268982
0.290924 0.687897 0.271393
0.314667 0.688904 0.273712
0.337860 0.689972 0.276276
0.359558 0.691315 0.279266
0.378418 0.692932 0.282471
0.383545 0.686554 0.280396
0.378113 0.671844 0.270325
0.396362 0.669830 0.277924
0.420013 0.670410 0.284912
0.446716 0.672302 0.290924
0.468292 0.672302 0.287781
0.489136 0.671722 0.281525
0.510986 0.670776 0.274384
0.533630 0.669495 0.266602
0.557068 0.667786 0.258392
0.581238 0.665894 0.250153
0.605896 0.664001 0.242157
0.630646 0.662079 0.234253
0.655609 0.660126 0.226257
0.672760 0.651611 0.211395
0.700989 0.652283 0.207397
0.735382 0.656677 0.205017
0.774323 0.663910 0.203735
0.813873 0.671936 0.203827
0.850342 0.679047 0.205231
0.883942 0.685425 0.207855
0.915039 0.691193 0.211365
0.944275 0.695862 0.214691
0.971130 0.698456 0.216888
0.258972 0.716064 0.292694
0.277130 0.717194 0.294403
0.298370 0.718170 0.296265
0.321503 0.719299 0.298553
0.344604 0.720215 0.300903
0.367371 0.721130 0.303375
0.389191 0.722290 0.306335
0.408539 0.723846 0.309631
0.420685 0.722565 0.310852
0.420166 0.713074 0.307037
0.431732 0.708649 0.311157
0.453369 0.708771 0.319183
0.478668 0.710236 0.325958
0.502594 0.711273 0.328094
0.522186 0.710754 0.322906
0.542236 0.709930 0.316406
0.563110 0.708740 0.308990
0.584717 0.707214 0.301056
0.606873 0.705170 0.292664
0.629395 0.702881 0.284241
0.651978 0.700623 0.276215
0.674500 0.698242 0.268341
0.696777 0.695801 0.260345
0.714050 0.688721 0.247040
0.739990 0.688599 0.241669
0.770416 0.691223 0.238983
0.805481 0.697144 0.238678
0.842407 0.705017 0.240601
0.876465 0.712219 0.243866
0.907684 0.718842 0.248413
0.937103 0.724792 0.253937
0.965149 0.728363 0.257996
0.299042 0.749420 0.326660
0.317200 0.750641 0.328613
0.337616 0.751404 0.330109
0.359100 0.751984 0.331360
0.380310 0.752380 0.332581
0.401398 0.752686 0.333923
0.421814 0.753235 0.335663
0.440247 0.754059 0.337769
0.455811 0.755188 0.340088
0.459381 0.748871 0.339478
0.463043 0.741516 0.338776
0.480011 0.739990 0.344940
0.502014 0.740387 0.350708
0.527039 0.741821 0.356201
0.547455 0.741974 0.354065
0.566498 0.741425 0.348541
0.586365 0.740631 0.342316
0.606995 0.739563 0.335480
0.628174 0.738098 0.327972
0.649597 0.736298 0.320496
0.670654 0.734253 0.312927
0.691650 0.732147 0.305969
0.712067 0.729858 0.299225
0.732513 0.727417 0.291809
0.749817 0.721588 0.279663
0.774506 0.721405 0.273682
0.802246 0.723297 0.270966
0.833710 0.728210 0.271149
0.868378 0.736115 0.274475
0.899994 0.743347 0.278870
0.929504 0.749725 0.283997
0.957520 0.753967 0.288574
0.325195 0.776276 0.348938
0.342529 0.777191 0.350311
0.362335 0.777832 0.351471
0.383484 0.778381 0.352692
0.404480 0.778809 0.353943
0.425507 0.779297 0.355530
0.446228 0.779877 0.357483
0.464996 0.780762 0.359711
0.480774 0.781830 0.361908
0.489746 0.779449 0.363342
0.490997 0.771545 0.362091
0.505920 0.769684 0.368988
0.526337 0.769836 0.375366
0.549561 0.770996 0.380615
0.572357 0.772034 0.383209
0.590790 0.771606 0.378906
0.609528 0.770905 0.373352
0.628937 0.769989 0.367218
0.649109 0.768860 0.360657
0.669556 0.767517 0.353973
0.689758 0.765991 0.347595
0.709320 0.764252 0.341797
0.728027 0.762238 0.336334
0.746552 0.760040 0.330566
0.765747 0.757690 0.323517
0.783630 0.753326 0.312561
0.807129 0.753113 0.305756
0.832520 0.754486 0.302582
0.860382 0.758209 0.302551
0.892670 0.766266 0.307343
0.922302 0.773010 0.311768
0.950470 0.777924 0.316589
0.348572 0.801819 0.368988
0.365417 0.802612 0.370117
0.384979 0.803253 0.371216
0.405945 0.803802 0.372406
0.426788 0.804382 0.373871
0.447632 0.804871 0.375427
0.468323 0.805542 0.377472
0.487549 0.806458 0.379883
0.503845 0.807587 0.382233
0.516510 0.808075 0.384338
0.512115 0.798065 0.377930
0.523376 0.794739 0.383301
0.544037 0.795532 0.392273
0.566193 0.796692 0.398224
0.589600 0.798126 0.403076
0.609528 0.798370 0.402008
0.627747 0.797852 0.397400
0.646484 0.797119 0.392090
0.665833 0.796295 0.386414
0.685516 0.795288 0.380524
0.705017 0.794159 0.375000
0.723969 0.792969 0.370453
0.741913 0.791718 0.367188
0.759186 0.790009 0.363464
0.776886 0.788147 0.358887
0.795624 0.786377 0.352692
0.814514 0.783600 0.343353
0.837128 0.783691 0.336548
0.860535 0.784668 0.332855
0.885559 0.787598 0.332550
0.914673 0.793915 0.335052
0.943420 0.799866 0.340759
0.371796 0.827393 0.389343
0.388794 0.828308 0.390686
0.408508 0.829041 0.392029
0.429779 0.829834 0.393677
0.450897 0.830658 0.395599
0.472626 0.831787 0.398376
0.494202 0.832977 0.401459
0.514435 0.834290 0.404724
0.531677 0.835693 0.407684
0.546814 0.837494 0.411041
0.552612 0.833374 0.411285
0.554810 0.826141 0.409546
0.569305 0.824707 0.415344
0.588104 0.824829 0.420502
0.609772 0.826019 0.425293
