tools/luts_backup/LAPARDIN-WEDLUTS-6.cube
#Created by: Adobe Photoshop Export Color Lookup Plugin
#Copyright: (C) 2017 Andrey Lapardin. vk.com-3dluts
TITLE "Andrey Lapardin. vk.com-3dluts"
#LUT size
LUT_3D_SIZE 5
#data domain
#LUT data points
DOMAIN_MIN 0.000000 0.000000 0.000000
DOMAIN_MAX 0.903226 0.903226 0.903226
0.079559 0.080261 0.081116
0.178619 0.074860 0.087250
0.562042 0.062744 0.091919
0.889648 0.062744 0.119232
0.921570 0.062744 0.192444
0.062744 0.216919 0.089447
0.206787 0.191223 0.088440
0.545654 0.210999 0.082855
0.855621 0.091980 0.115173
0.921570 0.062744 0.208496
0.220764 0.549500 0.293732
0.378052 0.517822 0.306335
0.526917 0.460724 0.201233
0.803101 0.465485 0.198578
0.921570 0.431763 0.272858
0.509979 0.759766 0.539978
0.580902 0.762329 0.559967
0.663849 0.733551 0.554199
0.777161 0.711090 0.450653
0.921143 0.711761 0.477966
0.755737 0.893555 0.765228
0.780151 0.894806 0.775116
0.797150 0.877228 0.759125
0.842346 0.876129 0.749603
0.910736 0.879730 0.707947
0.065308 0.093323 0.144684
0.128906 0.081451 0.130005
0.486267 0.062744 0.184631
0.836700 0.062744 0.185852
0.921570 0.062744 0.186584
0.062744 0.170502 0.150116
0.172913 0.173004 0.170013
0.505554 0.183197 0.195557
0.834137 0.148285 0.203857
0.921570 0.126251 0.247101
0.066925 0.497589 0.277527
0.363495 0.504517 0.365448
0.518799 0.480347 0.322632
0.787292 0.493134 0.346924
0.921570 0.446533 0.356476
0.489716 0.749512 0.548096
0.598145 0.769073 0.604156
0.685699 0.749878 0.619507
0.783325 0.733582 0.549500
0.921570 0.740509 0.569244
0.760315 0.894897 0.777771
0.793396 0.899536 0.795319
0.828888 0.896332 0.803192
0.864899 0.894012 0.800476
0.917786 0.894623 0.760742
0.062744 0.165771 0.398682
0.062744 0.165283 0.419891
0.367035 0.062744 0.394379
0.754395 0.062744 0.438995
0.921570 0.062744 0.427887
0.062744 0.230743 0.398041
0.079376 0.159729 0.416016
0.415283 0.114349 0.384888
0.747650 0.184845 0.460083
0.921570 0.110138 0.479706
0.062744 0.459442 0.387451
0.143433 0.438354 0.393250
0.440399 0.430878 0.419617
0.752319 0.472198 0.474060
0.921570 0.495026 0.535828
0.335571 0.747559 0.541443
0.475861 0.747162 0.578339
0.671936 0.746246 0.655762
0.770508 0.738281 0.628296
0.919037 0.755920 0.662689
0.672974 0.900269 0.739227
0.751404 0.899963 0.783112
0.832001 0.898651 0.823822
0.869293 0.895233 0.830811
0.914825 0.896545 0.803345
0.062744 0.278931 0.670227
0.062744 0.289673 0.693573
0.065521 0.089783 0.704468
0.663330 0.062744 0.674713
0.921570 0.103485 0.668793
0.062744 0.273041 0.678406
0.062744 0.140137 0.712433
0.310516 0.062744 0.707092
0.706757 0.062744 0.685181
0.921570 0.084198 0.671997
0.062744 0.528015 0.697632
0.062744 0.524139 0.696716
0.422668 0.470428 0.669098
0.715210 0.419098 0.640839
0.921570 0.525635 0.692322
0.062744 0.744781 0.655701
0.095184 0.744080 0.675598
0.497803 0.714447 0.672241
0.718597 0.701874 0.683807
0.921570 0.751343 0.744415
0.397308 0.916290 0.713745
0.542114 0.913513 0.745422
0.736328 0.903687 0.798279
0.871948 0.898926 0.861816
0.911530 0.899414 0.850952
0.062744 0.399139 0.872803
0.062744 0.405579 0.879608
0.062744 0.333527 0.894318
0.505463 0.194824 0.879883
0.915253 0.119965 0.868011
0.062744 0.403870 0.877747
0.062744 0.358612 0.868774
0.062744 0.294464 0.899017
0.544464 0.213440 0.889984
0.921051 0.156128 0.875244
0.062744 0.430206 0.893768
0.062744 0.463013 0.881744
0.062744 0.299835 0.898773
0.598663 0.204224 0.889648
0.921570 0.184052 0.879211
0.062744 0.760590 0.890625
0.062744 0.759857 0.892395
0.366577 0.763184 0.884430
0.723969 0.743469 0.875366
0.921143 0.710114 0.861664
0.062744 0.921570 0.811340
0.062744 0.921570 0.828613
0.383759 0.921509 0.857910
0.777771 0.905212 0.876526
0.907288 0.904175 0.898621
