tools/luts_backup/LAPARDIN-WEDLUTS-7.cube
#Created by: Adobe Photoshop Export Color Lookup Plugin
#Copyright: (C) 2017 Andrey Lapardin. vk.com-3dluts
TITLE "Andrey Lapardin. vk.com-3dluts"
#LUT size
LUT_3D_SIZE 8
#data domain
#LUT data points
DOMAIN_MIN 0.000000 0.000000 0.000000
DOMAIN_MAX 0.903226 0.903226 0.903226
0.007782 0.013336 0.014191
0.117889 0.036011 0.036011
0.240936 0.067627 0.061157
0.373413 0.096100 0.087830
0.515381 0.131042 0.122986
0.665009 0.175140 0.167755
0.805878 0.223969 0.219452
0.932159 0.284027 0.281860
0.037811 0.130737 0.040039
0.130646 0.131226 0.063995
0.255493 0.161713 0.089142
0.388672 0.182159 0.115204
0.527191 0.207611 0.150604
0.675140 0.242615 0.193604
0.811798 0.283844 0.241730
0.936432 0.334198 0.301178
0.058258 0.254974 0.057220
0.161896 0.253357 0.075897
0.249207 0.240265 0.119720
0.391296 0.280304 0.157623
0.558960 0.320526 0.201630
0.698456 0.340210 0.236115
0.819244 0.361176 0.277039
0.931335 0.394440 0.329407
0.089264 0.389587 0.085449
0.187378 0.389862 0.095245
0.283234 0.378479 0.133575
0.381927 0.367828 0.187561
0.538116 0.412872 0.236450
0.729919 0.477051 0.307343
0.846008 0.491089 0.346741
0.942780 0.511261 0.393707
0.139496 0.528992 0.137299
0.226410 0.533051 0.143707
0.301880 0.521667 0.159302
0.423218 0.514282 0.210144
0.520691 0.502411 0.265442
0.668793 0.543304 0.322357
0.834381 0.610504 0.413300
0.957245 0.662384 0.506439
0.200409 0.661285 0.198730
0.266205 0.664398 0.204559
0.338318 0.659515 0.211517
0.438446 0.649902 0.240631
0.559875 0.645264 0.296448
0.652130 0.632996 0.351501
0.765472 0.661499 0.426605
0.909454 0.734131 0.530853
0.285492 0.786316 0.284302
0.332184 0.789063 0.290253
0.405273 0.792358 0.300354
0.466492 0.778046 0.303986
0.586731 0.775513 0.354767
0.696594 0.770782 0.415131
0.773468 0.761810 0.468048
0.852448 0.775696 0.550049
0.411316 0.903137 0.410400
0.443237 0.905121 0.417236
0.502563 0.906738 0.428223
0.545563 0.899536 0.429016
0.635864 0.895233 0.460144
0.743958 0.893250 0.518799
0.819489 0.888031 0.565338
0.889191 0.887848 0.618958
0.002930 0.006104 0.083130
0.092072 0.010071 0.098297
0.216614 0.031921 0.126892
0.347900 0.066223 0.148621
0.482513 0.110046 0.175354
0.628052 0.159119 0.211548
0.777496 0.212250 0.251526
0.914551 0.276398 0.302216
0.023468 0.105621 0.101227
0.126678 0.125916 0.122894
0.242249 0.147614 0.145294
0.376465 0.171906 0.169281
0.519379 0.208099 0.201324
0.664459 0.245667 0.237122
0.797363 0.283569 0.277100
0.912994 0.332153 0.326477
0.026154 0.234192 0.122345
0.154816 0.249908 0.139221
0.257782 0.253113 0.167664
0.403931 0.295166 0.207489
0.560394 0.323212 0.243164
0.699463 0.341309 0.273773
0.816711 0.370667 0.314026
0.917084 0.414703 0.364136
0.045624 0.371704 0.140411
0.176971 0.382874 0.153625
0.291107 0.385559 0.180786
0.395569 0.378204 0.226501
0.553986 0.429932 0.276459
0.739838 0.490234 0.346405
0.849487 0.498230 0.379395
0.932343 0.520569 0.425751
0.106903 0.516296 0.177704
0.212219 0.527954 0.184479
0.318909 0.536194 0.199402
0.440826 0.527893 0.247101
0.536011 0.511810 0.299072
0.683777 0.558044 0.355469
0.844391 0.626678 0.451538
0.947601 0.669006 0.531464
0.181976 0.653107 0.223602
0.260132 0.667633 0.233643
0.364349 0.673279 0.244965
0.456696 0.666321 0.276062
0.577972 0.656921 0.328979
0.667725 0.643890 0.382965
0.780884 0.676483 0.457336
0.908966 0.738312 0.553192
0.273834 0.778137 0.295197
0.338043 0.798431 0.314667
0.429993 0.801880 0.326080
0.500946 0.794434 0.341461
0.597626 0.782623 0.382172
0.708618 0.777130 0.442444
0.785461 0.767395 0.494171
0.855560 0.778656 0.565125
0.397797 0.893616 0.408508
0.450104 0.906525 0.431610
0.518311 0.908630 0.443665
0.587189 0.904846 0.454559
0.639862 0.889648 0.473389
0.740112 0.884766 0.524170
0.827118 0.883728 0.579010
0.893188 0.888000 0.631592
0.000000 0.013977 0.158844
0.041351 0.003052 0.172424
0.169220 0.000000 0.196686
0.319702 0.000000 0.240265
0.461304 0.012970 0.260742
0.604187 0.094635 0.282349
0.746552 0.161804 0.307953
0.891022 0.245422 0.347504
0.009003 0.088257 0.170410
0.096497 0.096771 0.196594
0.212524 0.100372 0.220367
0.343872 0.127838 0.244659
0.478058 0.163391 0.267853
0.618652 0.200653 0.293335
0.758240 0.245605 0.322968
0.881897 0.305847 0.363037
0.005524 0.209869 0.196167
0.126984 0.228577 0.216400
0.250763 0.251953 0.241577
0.385529 0.268433 0.263367
0.529694 0.293152 0.290192
0.674561 0.327637 0.325562
0.786407 0.370087 0.366547
0.876221 0.417297 0.417664
0.000000 0.352966 0.205353
0.135193 0.365814 0.214813
0.271271 0.395325 0.242676
0.400146 0.391052 0.280792
0.571899 0.443634 0.336670
0.727875 0.482635 0.390472
0.830841 0.500031 0.426819
0.912292 0.529480 0.474854
0.057190 0.497406 0.219421
0.170319 0.508331 0.238373
0.308319 0.535065 0.263641
0.435730 0.536591 0.298889
0.549255 0.527313 0.343903
0.698608 0.575012 0.401855
0.841156 0.640594 0.503540
0.932159 0.676239 0.571289
0.151367 0.639221 0.260223
0.222046 0.644836 0.277557
0.355469 0.669922 0.297913
0.458527 0.672546 0.327087
0.590973 0.666565 0.377258
0.677155 0.649017 0.424988
0.778137 0.682526 0.494720
0.905243 0.749512 0.592255
0.253357 0.769257 0.327026
0.302246 0.770477 0.337280
0.419373 0.788940 0.362213
0.515259 0.792175 0.383911
0.614746 0.787384 0.428436
0.720642 0.781128 0.480438
0.791046 0.771057 0.529510
0.864960 0.790619 0.599457
0.385803 0.888489 0.431641
0.407135 0.875793 0.425385
0.500305 0.878143 0.451721
0.592651 0.880463 0.469116
0.666229 0.893463 0.513947
0.751709 0.888336 0.554565
0.833740 0.886139 0.605286
0.900177 0.888977 0.655823
0.000000 0.026398 0.250000
0.000000 0.014893 0.265289
0.098999 0.000000 0.285187
0.246216 0.000000 0.310516
0.422882 0.000000 0.373657
0.572693 0.000000 0.395752
0.722107 0.012421 0.406311
0.864441 0.147186 0.427582
0.000000 0.048889 0.257416
0.055420 0.042603 0.280212
0.152100 0.041840 0.301941
0.277649 0.026581 0.330231
0.441132 0.027527 0.378723
0.579346 0.093109 0.397522
0.724670 0.159515 0.413513
0.848541 0.227722 0.433807
0.000000 0.177917 0.275238
0.076202 0.188538 0.298370
0.194153 0.200928 0.330750
0.348572 0.198853 0.354584
0.489655 0.232147 0.370941
0.622406 0.275452 0.396088
0.740540 0.322662 0.428101
0.843018 0.367035 0.458405
0.000000 0.326904 0.303802
0.079620 0.343719 0.325500
0.224426 0.368103 0.351471
0.385315 0.381592 0.368805
0.535645 0.404236 0.397125
0.671021 0.430603 0.428223
0.779755 0.473877 0.475800
0.884247 0.517303 0.523224
0.000000 0.480591 0.311615
0.091858 0.496521 0.323944
0.256378 0.513062 0.339508
0.405029 0.536224 0.371124
0.540375 0.526611 0.411682
0.702240 0.583282 0.483459
0.827881 0.642609 0.567749
0.923340 0.664124 0.604645
0.041321 0.625519 0.324158
0.179291 0.634674 0.338562
0.308746 0.646301 0.356445
0.448212 0.666504 0.397461
0.575684 0.663666 0.438690
0.675476 0.653625 0.479218
0.787720 0.694946 0.543854
0.909149 0.765625 0.647400
0.215393 0.756409 0.369873
0.276978 0.761414 0.386841
0.376160 0.758514 0.401245
0.518250 0.772522 0.444641
0.608856 0.781067 0.484558
0.719482 0.777008 0.530182
0.794769 0.770660 0.569305
0.871063 0.799652 0.637878
0.361969 0.878174 0.459106
0.388885 0.869476 0.465912
0.464691 0.867981 0.474487
0.591644 0.878998 0.516846
0.672729 0.889465 0.552643
0.756744 0.892426 0.596313
0.841309 0.888611 0.638031
0.903625 0.889252 0.684937
0.000000 0.041473 0.348480
0.000000 0.026672 0.358124
0.000000 0.014740 0.383698
0.172028 0.000000 0.400726
0.332458 0.000000 0.425232
0.530060 0.000000 0.506073
0.691559 0.000000 0.530487
0.836975 0.000000 0.535492
0.000000 0.023926 0.351105
0.012360 0.006409 0.368927
0.106598 0.000000 0.389343
0.213196 0.000000 0.411285
0.350342 0.000000 0.440948
0.539215 0.000000 0.508606
0.694061 0.000000 0.533081
0.821930 0.044037 0.535309
0.000000 0.129974 0.369476
0.000000 0.133240 0.389771
0.123230 0.140076 0.419403
0.268677 0.146210 0.434784
0.421478 0.148285 0.464355
0.583191 0.183990 0.510498
0.706726 0.245270 0.522980
0.820221 0.293182 0.538666
0.000000 0.281342 0.389648
0.030518 0.294556 0.411621
0.182678 0.313782 0.440125
0.324493 0.327850 0.464050
0.493835 0.328888 0.489929
0.628967 0.360840 0.499878
0.742004 0.412354 0.525970
0.856995 0.462494 0.555908
0.000000 0.448242 0.420197
0.010406 0.464935 0.441132
0.207550 0.486664 0.470947
0.362061 0.504395 0.490082
0.526306 0.518005 0.503876
0.668640 0.550568 0.543976
0.786285 0.580963 0.578888
0.893188 0.617096 0.622040
0.000000 0.607056 0.431213
0.054199 0.619507 0.444305
0.244965 0.633667 0.461121
0.400238 0.643707 0.484558
0.550079 0.663025 0.515686
0.667938 0.654022 0.552460
0.810486 0.716248 0.629578
0.925293 0.786041 0.724823
0.083954 0.746246 0.452118
0.215088 0.749512 0.459137
0.329163 0.756683 0.481934
0.470459 0.760651 0.498413
0.599304 0.782623 0.547668
0.706909 0.783234 0.586700
0.796051 0.779022 0.622040
0.889618 0.814941 0.689911
0.309937 0.870667 0.511993
0.361633 0.869995 0.518005
0.437988 0.869476 0.531433
0.544006 0.869446 0.544006
0.680206 0.884247 0.596985
0.750916 0.890015 0.639587
0.842743 0.889404 0.682037
0.907593 0.888672 0.719666
0.000000 0.058289 0.452606
0.000000 0.049194 0.457062
0.000000 0.035126 0.485901
0.008911 0.001312 0.502075
0.272797 0.000000 0.517456
0.446228 0.000000 0.546661
0.656891 0.000000 0.639557
0.814209 0.000000 0.656769
0.000000 0.051361 0.455841
0.000000 0.032471 0.470062
0.000000 0.004059 0.490448
0.127533 0.000000 0.508972
0.305359 0.000000 0.524414
0.460022 0.000000 0.557159
0.659637 0.000000 0.637512
0.802063 0.000000 0.647339
0.000000 0.078186 0.470154
0.000000 0.078003 0.481995
0.043182 0.067200 0.510101
0.213104 0.072052 0.524109
0.348724 0.095947 0.544220
0.502075 0.073700 0.575623
0.674530 0.052399 0.631195
0.799225 0.163544 0.639801
0.000000 0.238922 0.485779
0.000000 0.250854 0.503571
0.045288 0.260925 0.538696
0.253571 0.281158 0.559387
0.414093 0.285767 0.570740
0.578064 0.296600 0.595978
0.717133 0.347351 0.625732
0.838470 0.397522 0.628418
0.000000 0.400299 0.512543
0.000000 0.414032 0.530823
0.151947 0.436829 0.561798
0.320618 0.455811 0.578308
0.472961 0.470795 0.597931
0.636841 0.472473 0.619171
0.755188 0.499359 0.628815
0.870544 0.548462 0.650665
0.000000 0.570374 0.545319
0.000000 0.585266 0.557373
0.176147 0.606232 0.588196
0.355682 0.618622 0.604675
0.511292 0.637115 0.621155
0.663696 0.651367 0.635681
0.798370 0.694336 0.686798
0.901184 0.728241 0.723816
0.000000 0.727020 0.560547
0.031158 0.732910 0.565552
0.244080 0.743195 0.585999
0.413116 0.751648 0.597168
0.551666 0.770447 0.623444
0.689270 0.787628 0.654022
0.791534 0.780548 0.688843
0.909088 0.837555 0.764557
0.179413 0.862518 0.589844
0.265778 0.864838 0.595856
0.373657 0.869293 0.608948
0.493713 0.874359 0.624664
0.626648 0.876221 0.638245
0.755737 0.897217 0.690399
0.836121 0.898163 0.732849
0.909485 0.893951 0.766693
0.000000 0.081757 0.579376
0.000000 0.081818 0.581024
0.000000 0.061066 0.599609
0.000000 0.046539 0.625366
0.166138 0.000000 0.634460
0.398621 0.000000 0.645325
0.576233 0.000000 0.673737
0.783813 0.000000 0.758698
0.000000 0.082306 0.581573
0.000000 0.078705 0.595093
0.000000 0.039764 0.607819
0.000000 0.011475 0.628998
0.217407 0.000000 0.638763
0.422150 0.000000 0.648834
0.591309 0.000000 0.676666
0.772156 0.000000 0.744202
0.000000 0.059998 0.590363
0.000000 0.041931 0.593689
0.000092 0.000122 0.607941
0.178467 0.000000 0.625519
0.297729 0.000000 0.644989
0.446716 0.000000 0.663208
0.610352 0.000000 0.689789
0.769379 0.000000 0.732819
0.000000 0.178772 0.607147
0.000000 0.194611 0.615448
0.000000 0.214691 0.636230
0.191559 0.245636 0.652466
0.359741 0.239258 0.659271
0.507782 0.254486 0.674591
0.659607 0.254639 0.699127
0.806030 0.271515 0.739563
0.000000 0.366028 0.617096
0.000000 0.378540 0.627014
0.000671 0.397308 0.650818
0.226196 0.411560 0.671295
0.399841 0.427582 0.688873
0.560944 0.422668 0.699371
0.723969 0.435638 0.719849
0.854675 0.493866 0.736694
0.000000 0.530029 0.644714
0.000000 0.540100 0.651947
0.049896 0.557281 0.674744
0.293335 0.579102 0.691223
0.468079 0.596832 0.705902
0.618896 0.607849 0.724487
0.766815 0.614014 0.741547
0.877319 0.646362 0.751587
0.000000 0.696228 0.675446
0.000000 0.703552 0.678131
0.129181 0.715759 0.694977
0.347870 0.730072 0.712769
0.509369 0.746704 0.730774
0.655365 0.763489 0.744904
0.791748 0.780090 0.763855
0.914154 0.835358 0.826996
0.000000 0.849548 0.691132
0.011597 0.852783 0.695862
0.239960 0.858124 0.705078
0.412476 0.865448 0.718414
0.568054 0.872406 0.731476
0.706024 0.888397 0.750153
0.832458 0.907104 0.789246
0.909119 0.903625 0.824127
0.000000 0.120361 0.722656
0.000000 0.120544 0.723206
0.000000 0.115387 0.727814
0.000000 0.107330 0.756836
0.000000 0.045105 0.763031
0.313965 0.000000 0.767395
0.532684 0.000000 0.774872
0.716034 0.000000 0.797821
0.000000 0.120697 0.723602
0.000000 0.120850 0.724274
0.000000 0.101318 0.725830
0.000000 0.074310 0.745087
0.000000 0.038605 0.772247
0.334503 0.000000 0.775360
0.550079 0.000000 0.780182
0.724701 0.000000 0.795654
0.000000 0.121490 0.725952
0.000000 0.109833 0.718353
0.000000 0.028503 0.700623
0.060822 0.003174 0.729736
0.164917 0.000000 0.763153
0.385681 0.000000 0.772949
0.576569 0.000000 0.779816
0.739716 0.000000 0.799561
0.000000 0.114960 0.736176
0.000000 0.129944 0.727814
0.000000 0.178131 0.723022
0.077118 0.167999 0.748657
0.302185 0.120087 0.762360
0.440735 0.135193 0.775208
0.596954 0.138275 0.786957
0.760010 0.068756 0.808990
0.000000 0.310333 0.742523
0.000000 0.330444 0.738983
0.000000 0.367554 0.737579
0.000000 0.368774 0.763641
0.303040 0.369598 0.784027
0.491882 0.359680 0.787872
0.647644 0.377899 0.799072
0.812286 0.391571 0.820831
0.000000 0.493530 0.751465
0.000000 0.505035 0.749481
0.000000 0.522491 0.757141
0.136902 0.540222 0.779785
0.371765 0.552277 0.796387
0.552185 0.570465 0.811218
0.699585 0.568298 0.821655
0.859528 0.589630 0.838806
0.000000 0.662750 0.778137
0.000000 0.666168 0.775299
0.000000 0.676208 0.783020
0.242188 0.694092 0.799255
0.451874 0.715424 0.813660
0.612396 0.730316 0.829895
0.753387 0.745514 0.847809
0.883850 0.757538 0.861542
0.000000 0.826904 0.804077
0.000000 0.830536 0.807312
0.000824 0.838440 0.812012
0.310364 0.848724 0.820343
0.493042 0.858765 0.836914
0.650452 0.871399 0.854340
0.792450 0.887787 0.865906
0.911499 0.906647 0.889160
