tools/luts_backup/LAPARDIN-WEDLUTS-22.cube
#Created by: Adobe Photoshop Export Color Lookup Plugin
#Copyright: (C) 2017 Andrey Lapardin. vk.com-3dluts
TITLE "Andrey Lapardin. vk.com-3dluts"
#LUT size
LUT_3D_SIZE 5
#data domain
#LUT data points
DOMAIN_MIN 0.000000 0.000000 0.000000
DOMAIN_MAX 0.903226 0.903226 0.903226
0.003448 0.023010 0.025970
0.116333 0.036652 0.033600
0.329163 0.029144 0.036743
0.635101 0.019958 0.018311
0.933014 0.008972 0.004395
0.008606 0.133881 0.042542
0.107941 0.132111 0.048615
0.349640 0.138336 0.044128
0.645599 0.096436 0.026581
0.919342 0.132202 0.017273
0.060394 0.326416 0.080688
0.187744 0.322479 0.097961
0.341278 0.316132 0.085052
0.671783 0.372528 0.025146
0.918488 0.395020 0.022980
0.178009 0.639587 0.221954
0.335602 0.651062 0.242889
0.456818 0.629639 0.238068
0.625061 0.608551 0.175140
0.888458 0.653229 0.161255
0.404846 0.857483 0.419098
0.537384 0.861023 0.426666
0.630737 0.854248 0.447144
0.759979 0.853607 0.433472
0.872925 0.845825 0.408813
0.009369 0.028137 0.133698
0.098755 0.038727 0.140076
0.310028 0.039429 0.159485
0.613495 0.016296 0.159607
0.914001 0.007721 0.116760
0.013794 0.132538 0.129547
0.137817 0.159576 0.155029
0.371155 0.156555 0.156128
0.662201 0.146393 0.156067
0.878540 0.232544 0.171356
0.077820 0.308960 0.169586
0.226868 0.352264 0.206177
0.385773 0.361481 0.192841
0.704071 0.409088 0.145477
0.907654 0.434601 0.175781
0.170929 0.618286 0.304047
0.354675 0.652191 0.346466
0.522949 0.671234 0.387146
0.669067 0.639282 0.320648
0.891846 0.672180 0.334259
0.392944 0.842804 0.491577
0.549042 0.838074 0.522339
0.673553 0.850494 0.545074
0.766083 0.849060 0.536865
0.882751 0.846100 0.510223
0.007019 0.045685 0.291901
0.109131 0.055573 0.319458
0.275116 0.057922 0.323120
0.570740 0.087036 0.407684
0.889404 0.038879 0.410492
0.019958 0.162994 0.295624
0.167328 0.183136 0.336121
0.335144 0.187836 0.337982
0.599243 0.256927 0.412018
0.858093 0.277527 0.428680
0.070465 0.312744 0.295410
0.217163 0.367889 0.353729
0.416901 0.417938 0.395691
0.690216 0.440552 0.403809
0.905792 0.489014 0.449677
0.178711 0.601196 0.411865
0.345337 0.639130 0.464539
0.546875 0.674469 0.540344
0.684906 0.665741 0.501862
0.891998 0.696289 0.519806
0.395081 0.828094 0.573395
0.524994 0.828522 0.597382
0.696625 0.847534 0.649475
0.786285 0.858307 0.667389
0.890625 0.850891 0.636230
0.001587 0.087219 0.562622
0.180267 0.092590 0.583466
0.317902 0.107910 0.601624
0.521667 0.092590 0.573181
0.819855 0.202820 0.680389
0.009827 0.228851 0.589874
0.212311 0.237976 0.613342
0.358032 0.259247 0.613556
0.544250 0.251373 0.587006
0.779053 0.364868 0.654907
0.049957 0.417694 0.596100
0.243225 0.466827 0.643433
0.445557 0.490967 0.644257
0.632721 0.477203 0.625854
0.846893 0.556458 0.673920
0.148224 0.602844 0.585846
0.315094 0.636169 0.625214
0.509003 0.667328 0.664856
0.706085 0.692291 0.689453
0.898254 0.710205 0.709259
0.350555 0.816986 0.681335
0.492920 0.825836 0.701447
0.652679 0.840149 0.733246
0.809784 0.873627 0.783783
0.896545 0.865601 0.771759
0.139313 0.202332 0.831268
0.294312 0.203430 0.829132
0.419586 0.237152 0.852264
0.593536 0.224487 0.826508
0.789734 0.212708 0.805389
0.165588 0.345612 0.837036
0.315613 0.354034 0.800507
0.447266 0.370300 0.836334
0.598602 0.372650 0.828064
0.788269 0.361053 0.802643
0.201202 0.519897 0.841858
0.347687 0.544250 0.819275
0.522156 0.570953 0.839355
0.650238 0.550781 0.820190
0.809143 0.549683 0.812866
0.270294 0.677399 0.830383
0.408752 0.687714 0.826477
0.582764 0.723816 0.855896
0.733612 0.733337 0.858032
0.863739 0.729309 0.850739
0.341370 0.823090 0.833588
0.475098 0.829956 0.840088
0.626831 0.844971 0.856720
0.774963 0.863708 0.880096
0.906281 0.886780 0.897278
