tools/luts_backup/LAPARDIN-WEDLUTS-20.cube
#Created by: Adobe Photoshop Export Color Lookup Plugin
#Copyright: (C) 2017 Andrey Lapardin. vk.com-3dluts
TITLE "Andrey Lapardin. vk.com-3dluts"
#LUT size
LUT_3D_SIZE 32
#data domain
DOMAIN_MIN 0.0 0.0 0.0
DOMAIN_MAX 1.0 1.0 1.0
#LUT data points
0.002228 0.004120 0.004547
0.009430 0.005676 0.006134
0.020081 0.007599 0.007629
0.039490 0.008942 0.008911
0.063202 0.010651 0.010132
0.088898 0.012787 0.011200
0.115112 0.015564 0.012268
0.142090 0.018982 0.013336
0.169952 0.022888 0.014313
0.198486 0.026672 0.015320
0.228424 0.030182 0.016144
0.259308 0.033234 0.016907
0.291656 0.036835 0.017639
0.325470 0.040863 0.018280
0.360779 0.045258 0.018860
0.397369 0.049500 0.019470
0.435303 0.054260 0.019928
0.474304 0.059174 0.019775
0.514618 0.064087 0.019165
0.556305 0.068665 0.018463
0.599426 0.073059 0.017181
0.643311 0.077454 0.015808
0.686066 0.081085 0.014404
0.728394 0.085022 0.012787
0.771301 0.088837 0.011414
0.814178 0.093231 0.009979
0.855621 0.097565 0.009003
0.894989 0.102692 0.008240
0.931183 0.108185 0.011047
0.965271 0.114227 0.017426
0.990875 0.121338 0.026642
1.000000 0.130157 0.038696
0.003693 0.010651 0.007599
0.008850 0.011353 0.007355
0.019989 0.015106 0.008331
0.040955 0.018524 0.009460
0.064056 0.021667 0.010681
0.089478 0.025604 0.011810
0.115631 0.029724 0.012787
0.142548 0.034210 0.013855
0.170593 0.038361 0.014709
0.199036 0.043152 0.015442
0.228729 0.046692 0.016571
0.259491 0.050507 0.017273
0.291656 0.054688 0.018127
0.325470 0.059113 0.019012
0.360718 0.063660 0.019836
0.397400 0.068451 0.020447
0.435364 0.073120 0.020813
0.474487 0.077911 0.020874
0.514862 0.082764 0.020203
0.556580 0.087280 0.019226
0.599670 0.091644 0.017853
0.643555 0.095581 0.016266
0.686249 0.098877 0.014771
0.728577 0.102051 0.013367
0.771606 0.105957 0.011536
0.814514 0.109589 0.010284
0.855865 0.113464 0.009186
0.895203 0.118042 0.008698
0.931458 0.122803 0.011444
0.965546 0.127991 0.018158
0.990936 0.133911 0.027435
1.000000 0.141663 0.039795
0.004242 0.021088 0.011444
0.009521 0.022095 0.010681
0.018341 0.024078 0.009399
0.040527 0.030701 0.010254
0.067139 0.037384 0.010834
0.091003 0.041290 0.012238
0.116486 0.046021 0.013458
0.143616 0.050873 0.014282
0.171692 0.055542 0.014984
0.200134 0.060028 0.016022
0.229492 0.064178 0.016907
0.260193 0.068085 0.017914
0.292053 0.072235 0.019226
0.325745 0.076996 0.020416
0.361023 0.081543 0.021637
0.397675 0.086487 0.022614
0.435638 0.091461 0.023010
0.474762 0.096436 0.023010
0.515228 0.101532 0.022522
0.557068 0.106506 0.021698
0.600098 0.111420 0.020172
0.643677 0.115845 0.018066
0.686157 0.119934 0.015930
0.728333 0.123383 0.014069
0.771423 0.126587 0.012390
0.814362 0.129822 0.010803
0.855621 0.133118 0.009705
0.894958 0.137024 0.009125
0.931427 0.140503 0.011475
0.965485 0.144531 0.018280
0.990936 0.149231 0.027740
1.000000 0.155945 0.040497
0.003540 0.040009 0.016846
0.007019 0.040985 0.015320
0.015594 0.043121 0.013947
0.036163 0.046661 0.012177
0.066254 0.055908 0.011841
0.095184 0.062897 0.012115
0.119446 0.065857 0.013672
0.144470 0.068665 0.015259
0.172607 0.073059 0.015778
0.200989 0.077057 0.016846
0.230408 0.081085 0.017792
0.260956 0.085114 0.018860
0.292786 0.089508 0.020477
0.326294 0.094086 0.022369
0.361420 0.098877 0.023773
0.398010 0.103607 0.025146
0.435822 0.108826 0.026031
0.474976 0.113861 0.026184
0.515472 0.119110 0.025879
0.557251 0.124420 0.025177
0.600159 0.129944 0.023438
0.643463 0.135010 0.021027
0.685638 0.139740 0.018738
0.727814 0.144135 0.016418
0.770844 0.148010 0.014435
0.813721 0.152069 0.011841
0.855133 0.155396 0.011017
0.894348 0.159027 0.010071
0.931305 0.162567 0.011963
0.965149 0.165527 0.018951
0.990784 0.169220 0.028442
1.000000 0.175323 0.041016
0.000824 0.061615 0.024017
0.002991 0.062164 0.022156
0.012238 0.064789 0.020020
0.031464 0.068268 0.017944
0.059387 0.071503 0.015045
0.094635 0.083099 0.013885
0.124054 0.089233 0.014221
0.148407 0.090790 0.015869
0.173492 0.091888 0.017517
0.201202 0.095551 0.018433
0.231171 0.099579 0.019440
0.261902 0.103699 0.020447
0.293884 0.108154 0.022003
0.327515 0.112610 0.024048
0.362610 0.117096 0.025940
0.398926 0.121796 0.027405
0.436523 0.126678 0.028595
0.475494 0.131561 0.029266
0.515808 0.136414 0.029327
0.557434 0.141571 0.028961
0.599884 0.146973 0.027679
0.642883 0.152344 0.025269
0.684631 0.157074 0.022797
0.726318 0.162170 0.019806
0.769135 0.166962 0.017456
0.811859 0.171722 0.014740
0.853210 0.175964 0.013519
0.892456 0.180145 0.012665
0.930084 0.184204 0.013519
0.964874 0.187653 0.019562
0.990692 0.191071 0.029327
1.000000 0.196747 0.042084
0.000183 0.085144 0.032928
0.001099 0.084564 0.032654
0.006073 0.087555 0.028107
0.025238 0.090942 0.025269
0.054626 0.094177 0.022125
0.085052 0.096497 0.018585
0.124817 0.109558 0.016083
0.153778 0.114532 0.016510
0.178864 0.115784 0.018555
0.205109 0.117676 0.020355
0.231873 0.118805 0.022736
0.263062 0.123505 0.023499
0.295502 0.127991 0.024689
0.329407 0.132538 0.026276
0.364777 0.137024 0.028076
0.401031 0.141602 0.029663
0.438416 0.146118 0.030823
0.476929 0.150604 0.031677
0.517029 0.155029 0.032288
0.558167 0.159607 0.032440
0.600006 0.164276 0.031494
0.642334 0.169159 0.029755
0.683411 0.173645 0.027954
0.724579 0.178436 0.025330
0.766754 0.183533 0.021820
0.808960 0.188507 0.019012
0.849792 0.193298 0.017517
0.888794 0.197876 0.017303
0.926147 0.202606 0.017853
0.962250 0.206970 0.021851
0.990204 0.211182 0.030334
1.000000 0.217285 0.042999
0.000000 0.110962 0.043823
0.000458 0.110199 0.043152
0.002350 0.111969 0.037872
0.014923 0.115082 0.034821
0.045105 0.117706 0.031982
0.078918 0.120239 0.028290
0.112915 0.122711 0.022980
0.158081 0.137939 0.018036
0.184998 0.140930 0.019745
0.210907 0.142609 0.022186
0.237305 0.143585 0.024872
0.265900 0.145355 0.026886
0.296997 0.148529 0.028687
0.331482 0.153412 0.029755
0.367126 0.158234 0.030945
0.403717 0.162964 0.032135
0.441132 0.167603 0.033203
0.479553 0.171997 0.033936
0.519196 0.176270 0.034668
0.559784 0.180481 0.034698
0.601044 0.184387 0.034363
0.642456 0.188690 0.033264
0.683075 0.192413 0.031952
0.723480 0.196320 0.030518
0.764923 0.200745 0.027527
0.806366 0.205200 0.025269
0.846680 0.209686 0.023224
0.885284 0.214172 0.023102
0.922302 0.218689 0.024780
0.958008 0.223328 0.028961
0.987671 0.227692 0.036499
1.000000 0.234894 0.047241
0.000000 0.139008 0.057648
0.000000 0.138428 0.056915
0.000000 0.138458 0.053802
0.006317 0.140930 0.047974
0.029694 0.142853 0.045532
0.067169 0.144958 0.041901
0.105530 0.147766 0.036499
0.142975 0.151337 0.028778
0.191742 0.168121 0.021210
0.218140 0.170135 0.024567
0.245209 0.171661 0.027069
0.272552 0.171906 0.029846
0.301483 0.172760 0.032593
0.333649 0.175446 0.034271
0.369507 0.180511 0.034973
0.406494 0.185760 0.035553
0.444275 0.190735 0.036194
0.482819 0.195404 0.036621
0.522278 0.199738 0.036957
0.562592 0.203827 0.036865
0.603241 0.207581 0.036316
0.643829 0.211273 0.035553
0.683716 0.214355 0.034851
0.723572 0.217712 0.033661
0.764130 0.221222 0.032135
0.804688 0.224731 0.030670
0.844086 0.228424 0.029327
0.881958 0.231781 0.030243
0.918427 0.235474 0.031921
0.953766 0.239197 0.036926
0.984436 0.243011 0.045227
1.000000 0.250183 0.055542
0.000000 0.169617 0.074127
0.000000 0.169098 0.073395
0.000000 0.168091 0.072021
0.003021 0.169434 0.065216
0.011444 0.170807 0.061615
0.051758 0.172424 0.058533
0.093140 0.175018 0.053589
0.134613 0.178589 0.046448
0.175140 0.183167 0.036438
0.225189 0.199585 0.026886
0.254761 0.202576 0.028748
0.282745 0.203247 0.031769
0.311127 0.202972 0.035095
0.339630 0.201904 0.038513
0.372894 0.204559 0.039886
0.409302 0.209229 0.040375
0.447632 0.214722 0.040436
0.486603 0.219910 0.040344
0.526093 0.224701 0.039917
0.566071 0.228973 0.039246
0.606293 0.232849 0.038391
0.646576 0.236145 0.037384
0.685699 0.238983 0.036743
0.724792 0.242157 0.035706
0.764679 0.245300 0.034851
0.804321 0.248352 0.034058
0.842651 0.250916 0.034363
0.879578 0.253296 0.035858
0.915619 0.255920 0.038544
0.950165 0.258392 0.043854
0.981812 0.261200 0.051910
1.000000 0.267303 0.062714
0.000000 0.202728 0.091583
0.000000 0.202148 0.090973
0.000000 0.200806 0.090332
0.000000 0.200897 0.084900
0.003937 0.201782 0.079315
0.026306 0.202820 0.076813
0.075714 0.204987 0.072357
0.121643 0.208374 0.065643
0.165802 0.212585 0.057068
0.209778 0.218109 0.043579
0.261871 0.234711 0.032745
0.294830 0.238708 0.033447
0.324219 0.238495 0.036560
0.353638 0.237457 0.039856
0.382996 0.235809 0.043182
0.413452 0.235046 0.046204
0.451263 0.240143 0.046051
0.490448 0.245697 0.045013
0.530243 0.250916 0.043915
0.570465 0.255707 0.042450
0.610596 0.259918 0.040863
0.650360 0.263306 0.039459
0.689056 0.266144 0.038177
0.727753 0.268890 0.037109
0.766876 0.271912 0.036407
0.805420 0.274811 0.035980
0.842712 0.277161 0.037140
0.878662 0.279053 0.039368
0.913788 0.280884 0.043365
0.947632 0.282501 0.049408
0.979584 0.284485 0.057587
1.000000 0.289093 0.068268
0.000000 0.238586 0.110901
0.000000 0.238464 0.110474
0.000000 0.237091 0.109680
0.000000 0.235809 0.106445
0.000000 0.236023 0.100220
0.004395 0.236542 0.096130
0.050751 0.238037 0.091980
0.104187 0.241028 0.085724
0.152740 0.245087 0.077667
0.199219 0.249847 0.067719
0.247284 0.256592 0.050812
0.301086 0.272827 0.039185
0.338776 0.278351 0.037445
0.369171 0.277222 0.040527
0.399200 0.275055 0.043823
0.428772 0.272400 0.047180
0.458710 0.270111 0.050018
0.493622 0.272278 0.050720
0.533813 0.278107 0.048920
0.574341 0.283478 0.046967
0.614532 0.288177 0.044312
0.654022 0.291687 0.042694
0.692627 0.294525 0.040955
0.731171 0.297302 0.038940
0.769684 0.299988 0.037506
0.807495 0.302826 0.037476
0.843903 0.305328 0.039001
0.879028 0.307434 0.041809
0.913086 0.309113 0.046814
0.946228 0.310760 0.053345
0.978088 0.312469 0.061737
1.000000 0.315979 0.072632
0.000000 0.277435 0.131500
0.000000 0.277344 0.131134
0.000000 0.276306 0.130341
0.000000 0.274109 0.129791
0.000000 0.273590 0.122223
0.000000 0.273438 0.115967
0.011230 0.274017 0.112396
0.078339 0.276428 0.106750
0.135437 0.280365 0.099091
0.186310 0.285217 0.089844
0.235779 0.290375 0.078430
0.286865 0.297333 0.058533
0.343903 0.314087 0.045074
0.385956 0.321045 0.039886
0.416718 0.318390 0.043030
0.447174 0.315155 0.046204
0.476959 0.311554 0.049561
0.507019 0.308746 0.052155
0.538940 0.307434 0.053711
0.578247 0.312103 0.052032
0.618256 0.317139 0.049316
0.657593 0.321014 0.046967
0.696075 0.324066 0.044708
0.734497 0.326782 0.041962
0.772461 0.329468 0.039856
0.809601 0.332001 0.038940
0.845276 0.334442 0.040649
0.879578 0.336792 0.043976
0.912933 0.338898 0.049469
0.945465 0.340851 0.056915
0.976990 0.342682 0.065521
1.000000 0.345673 0.076630
0.000000 0.319244 0.153442
0.000000 0.319366 0.153046
0.000000 0.318481 0.152222
0.000000 0.316467 0.151642
0.000000 0.314606 0.146332
0.000000 0.313507 0.139404
0.001434 0.313385 0.133545
0.032318 0.314880 0.128479
0.108582 0.318329 0.121490
0.168640 0.323120 0.112457
0.222687 0.328369 0.101959
0.274994 0.333862 0.088867
0.329346 0.340790 0.066498
0.390045 0.358398 0.048584
0.436005 0.366486 0.040405
0.467194 0.362610 0.043335
0.497894 0.358368 0.046387
0.527924 0.353973 0.049652
0.557129 0.349518 0.053406
0.588470 0.347198 0.055237
0.622009 0.347076 0.055145
0.661346 0.351471 0.052673
0.699982 0.355011 0.050140
0.738464 0.358246 0.046600
0.776031 0.360748 0.043976
0.812439 0.362946 0.042755
0.847504 0.365021 0.044434
0.881317 0.367279 0.047791
0.914001 0.369598 0.053223
0.945923 0.371918 0.060791
0.976929 0.373932 0.070557
1.000000 0.376617 0.081726
0.000000 0.363464 0.176208
0.000000 0.363708 0.175751
0.000000 0.363068 0.175018
0.000000 0.361450 0.174255
0.000000 0.358185 0.173462
0.000000 0.356415 0.164917
0.000000 0.355560 0.156189
0.002594 0.355896 0.150909
0.063660 0.358734 0.144409
0.141754 0.363251 0.135803
0.204529 0.368561 0.125427
0.261383 0.374207 0.113220
0.316895 0.379791 0.098450
0.373810 0.386169 0.073547
0.439453 0.405975 0.049316
0.488678 0.415070 0.036957
0.520294 0.410004 0.040131
0.551025 0.404541 0.043701
0.580536 0.398773 0.047760
0.608917 0.392914 0.052002
0.636322 0.387299 0.056274
0.667999 0.385345 0.057556
0.703583 0.386963 0.055969
0.742035 0.390747 0.052856
0.779358 0.393463 0.050568
0.815155 0.395569 0.049286
0.849701 0.397247 0.049835
0.883026 0.398987 0.052826
0.915344 0.400909 0.058594
0.946991 0.403259 0.066223
0.977509 0.405487 0.076294
1.000000 0.408020 0.087952
0.000000 0.409729 0.199860
0.000000 0.409790 0.199402
0.000000 0.409149 0.198517
0.000000 0.408722 0.197815
0.000000 0.406433 0.197296
0.000000 0.403412 0.190338
0.000000 0.400787 0.181702
0.000000 0.399994 0.173950
0.001038 0.401520 0.167999
0.097382 0.405334 0.159790
0.177612 0.410736 0.149780
0.242889 0.416473 0.137970
0.302582 0.422241 0.124390
0.361053 0.428253 0.107697
0.420166 0.434143 0.080017
0.491943 0.457153 0.047272
0.544006 0.466583 0.030090
0.574951 0.459656 0.034943
0.604614 0.452118 0.040253
0.632904 0.444550 0.046112
0.659790 0.437408 0.051361
0.686554 0.430725 0.056458
0.715393 0.426727 0.059296
0.746613 0.424927 0.059998
0.782745 0.427551 0.058655
0.818115 0.429840 0.057526
0.852264 0.431274 0.058533
0.885193 0.432373 0.060791
0.917267 0.433655 0.066376
0.948730 0.435455 0.073700
0.979034 0.437531 0.084076
1.000000 0.439758 0.095703
0.000000 0.458252 0.224335
0.000000 0.458496 0.223999
0.000000 0.458099 0.223175
0.000000 0.457581 0.222382
0.000000 0.457306 0.222015
0.000000 0.453522 0.220367
0.000000 0.449677 0.211670
0.000000 0.447693 0.199097
0.000000 0.447662 0.192261
0.020905 0.450500 0.184570
0.135651 0.455414 0.174896
0.216339 0.461304 0.163635
0.283417 0.467255 0.150543
0.345673 0.473114 0.135315
0.406982 0.479156 0.116669
0.468109 0.484283 0.086823
0.546112 0.510284 0.043610
0.598175 0.517975 0.026001
0.629150 0.509766 0.030975
0.657471 0.500488 0.037872
0.684479 0.491638 0.045258
0.711243 0.483826 0.051605
0.737305 0.476990 0.057526
0.762756 0.470551 0.062714
0.791107 0.466766 0.066376
0.821106 0.464996 0.067871
0.854889 0.466614 0.069397
0.887451 0.467529 0.072083
0.919281 0.468262 0.076569
0.950714 0.469086 0.083862
0.981110 0.470367 0.093933
1.000000 0.471924 0.105621
0.000000 0.508606 0.249756
0.000000 0.508942 0.249481
0.000000 0.508545 0.248596
0.000000 0.508118 0.247681
0.000000 0.508118 0.247192
0.000000 0.506714 0.246857
0.000000 0.501526 0.239105
0.000000 0.497559 0.228424
0.000000 0.496277 0.216858
0.000000 0.497833 0.209961
0.057617 0.502014 0.200928
0.176697 0.507599 0.190033
0.256561 0.513580 0.177673
0.325562 0.519379 0.163574
0.390076 0.525116 0.146881
0.453522 0.530823 0.126678
0.515900 0.534424 0.094391
0.597992 0.561646 0.045593
0.650513 0.568542 0.026276
0.681000 0.559296 0.030426
0.708069 0.548553 0.039795
0.734344 0.538818 0.047852
0.759735 0.530487 0.056152
0.784424 0.523132 0.063477
0.808807 0.516052 0.070496
0.833221 0.509613 0.076508
0.858887 0.504242 0.081329
0.889038 0.503204 0.085266
0.920715 0.503601 0.089722
0.951996 0.503845 0.095917
0.982758 0.504120 0.105469
1.000000 0.504700 0.117493
0.000000 0.558929 0.276093
0.000000 0.559326 0.275818
0.000000 0.559143 0.275177
0.000000 0.558746 0.274200
0.000000 0.558563 0.273590
0.000000 0.558990 0.273590
0.000000 0.554474 0.270447
0.000000 0.548157 0.261719
0.000000 0.545319 0.244934
0.000000 0.545349 0.236084
0.000000 0.548401 0.227875
0.109772 0.553467 0.217804
0.217773 0.559113 0.205963
0.297699 0.564789 0.192688
0.367584 0.570282 0.177490
0.434021 0.575409 0.159698
0.499298 0.580536 0.138092
0.561890 0.582581 0.104889
0.647308 0.610870 0.050446
0.698944 0.616455 0.034698
0.728973 0.606750 0.039276
0.754822 0.594940 0.050018
0.779846 0.584961 0.060089
0.804047 0.576324 0.068665
0.827789 0.568604 0.077606
0.851044 0.561310 0.085754
0.874084 0.553864 0.092712
0.897339 0.546600 0.098999
0.922241 0.540192 0.104919
0.952789 0.539734 0.110962
0.983643 0.539215 0.119904
1.000000 0.539124 0.131165
0.000000 0.608093 0.303223
0.000000 0.608337 0.302856
0.000000 0.607819 0.302185
0.000000 0.607513 0.301300
0.000000 0.607300 0.300659
0.000000 0.607635 0.300598
0.000000 0.606262 0.300476
0.000000 0.599365 0.293335
0.000000 0.594177 0.279938
0.000000 0.593262 0.264343
0.000000 0.595245 0.256470
0.020111 0.599487 0.247040
0.161194 0.604889 0.236237
0.261292 0.610352 0.223816
0.340240 0.615540 0.209747
0.411072 0.620209 0.193695
0.478546 0.624512 0.175110
0.544281 0.628845 0.153015
0.605865 0.628906 0.119171
0.691010 0.656097 0.070984
0.743073 0.662048 0.054413
0.773254 0.652588 0.061127
0.797913 0.640778 0.072449
0.821716 0.630524 0.081787
0.844910 0.621613 0.091492
0.867615 0.613647 0.100220
0.890106 0.606079 0.108521
0.912292 0.598419 0.115845
0.934540 0.590210 0.122864
0.957184 0.581085 0.129333
0.983673 0.575653 0.137390
0.999756 0.574890 0.148560
0.000000 0.656372 0.331696
0.000000 0.656921 0.331726
0.000000 0.656891 0.331268
0.000000 0.656860 0.330811
0.000000 0.656738 0.330414
0.000000 0.656952 0.330292
0.000000 0.657379 0.330658
0.000000 0.650940 0.326477
0.000000 0.643433 0.317719
0.000000 0.640747 0.298035
0.000000 0.641541 0.287170
0.000000 0.644928 0.278687
0.071808 0.649750 0.268677
0.215271 0.654846 0.257294
0.306824 0.659729 0.244568
0.384094 0.663971 0.229950
0.454712 0.667694 0.213562
0.521606 0.670959 0.195190
0.586700 0.674286 0.173553
0.646118 0.672394 0.141785
0.729401 0.697937 0.104706
0.782227 0.704529 0.089966
0.813110 0.696869 0.093628
0.836609 0.685059 0.102600
0.859467 0.674561 0.111938
0.881744 0.665558 0.120636
0.903687 0.657532 0.129547
0.925262 0.649780 0.137787
0.946899 0.641724 0.145660
0.968750 0.632996 0.152496
0.988708 0.623474 0.160156
0.999237 0.614685 0.169495
0.000000 0.702118 0.362701
0.000000 0.702698 0.362946
0.000000 0.702789 0.362915
0.000000 0.702820 0.362549
0.000000 0.702789 0.362579
0.000000 0.703003 0.362946
0.000000 0.703400 0.363556
0.000000 0.700287 0.362793
0.000000 0.691772 0.357544
0.000000 0.686920 0.341553
0.000000 0.686798 0.322418
0.000000 0.689148 0.313477
0.022888 0.692993 0.304657
0.157654 0.697418 0.294189
0.270599 0.701660 0.282898
0.354462 0.705658 0.269684
0.428802 0.708923 0.255219
0.497314 0.711700 0.238770
0.562592 0.714172 0.220703
0.625824 0.716553 0.200531
0.682312 0.713348 0.171143
0.761139 0.735229 0.144745
0.815704 0.744049 0.131409
0.848846 0.738892 0.131592
0.871429 0.727173 0.139923
0.893463 0.716858 0.147614
0.915009 0.708008 0.156036
0.936035 0.699799 0.164795
0.956970 0.692078 0.173096
0.977905 0.683807 0.180969
0.993439 0.674774 0.189148
1.000000 0.665039 0.197845
0.000000 0.743927 0.396118
0.000000 0.744537 0.396606
0.000000 0.744843 0.396790
0.000000 0.744873 0.396973
0.000000 0.744751 0.397217
0.000000 0.744659 0.397919
0.000000 0.744781 0.398956
0.000000 0.744263 0.399872
0.000000 0.736877 0.395508
0.000000 0.730316 0.386932
0.000000 0.729065 0.365356
0.000000 0.730560 0.352539
0.000000 0.733551 0.344269
0.090607 0.737335 0.335266
0.236816 0.741150 0.324982
0.327087 0.744812 0.313293
0.403778 0.747803 0.300140
0.473145 0.750336 0.285522
0.538818 0.752258 0.269409
0.601318 0.753906 0.251678
0.661255 0.755402 0.233032
0.715088 0.751495 0.205536
0.786804 0.768646 0.187378
0.843933 0.779846 0.175354
0.880615 0.778198 0.173645
0.902405 0.766754 0.180328
0.923676 0.756866 0.188080
0.944336 0.748077 0.195831
0.964569 0.739960 0.204285
0.984589 0.732178 0.213104
0.996735 0.723816 0.221802
1.000000 0.713989 0.230591
0.000000 0.781281 0.431152
0.000000 0.781860 0.431824
0.000000 0.782135 0.432434
0.000000 0.782288 0.433167
0.000000 0.782196 0.433807
0.000000 0.781952 0.434998
0.000000 0.781921 0.436554
0.000000 0.782104 0.438477
0.000000 0.777313 0.436188
0.000000 0.769958 0.431519
0.000000 0.766968 0.415222
0.000000 0.768005 0.395996
0.000000 0.770172 0.387146
0.069977 0.773315 0.378845
0.215668 0.776825 0.369873
0.307098 0.780182 0.359375
0.383179 0.783173 0.347504
0.452271 0.785583 0.334229
0.516968 0.787384 0.319611
0.578400 0.788696 0.303864
0.636688 0.789673 0.287079
0.693024 0.790405 0.269623
0.743378 0.786163 0.244568
0.808655 0.799255 0.230865
0.867828 0.812103 0.221161
0.907227 0.813141 0.218384
0.929657 0.803497 0.224426
0.950043 0.793854 0.231537
0.969788 0.785278 0.239685
0.989075 0.777588 0.248657
0.998718 0.769806 0.257782
1.000000 0.759888 0.266266
0.000000 0.815430 0.468964
0.000000 0.815948 0.469818
0.000000 0.816223 0.470734
0.000000 0.816345 0.471802
0.000000 0.816193 0.472900
0.000000 0.815887 0.474243
0.000000 0.815613 0.475983
0.000000 0.815674 0.478241
0.003510 0.814209 0.478912
0.000000 0.807037 0.473969
0.000000 0.802063 0.465363
0.000000 0.802063 0.444855
0.037781 0.803802 0.432617
0.096191 0.806305 0.425232
0.218872 0.809387 0.417023
0.302795 0.812469 0.407715
0.373840 0.815369 0.397369
0.439362 0.817749 0.385742
0.501373 0.819580 0.372345
0.560394 0.820923 0.357819
0.616211 0.821747 0.342957
0.669861 0.822144 0.327118
0.721344 0.822327 0.311005
0.768677 0.818298 0.287689
0.828918 0.828156 0.276367
0.887177 0.840332 0.269470
0.929749 0.844482 0.267120
0.953613 0.837341 0.271729
0.973083 0.828125 0.279297
0.991913 0.820251 0.287842
0.999695 0.812408 0.297089
1.000000 0.802612 0.305603
0.000000 0.845764 0.507416
0.000000 0.846344 0.508606
0.000000 0.846558 0.509674
0.000000 0.846588 0.511078
0.000000 0.846436 0.512482
0.006714 0.846100 0.514099
0.011169 0.845795 0.516327
0.014862 0.845642 0.518829
0.048462 0.845795 0.521759
0.076508 0.840607 0.518127
0.121094 0.834320 0.513855
0.101227 0.832764 0.498840
0.105621 0.834412 0.481293
0.162720 0.836578 0.473236
0.250793 0.839172 0.465881
0.318329 0.841980 0.457886
0.379547 0.844666 0.448578
0.438354 0.847015 0.438354
0.495117 0.848999 0.426300
0.550079 0.850403 0.413513
0.602051 0.851227 0.399841
0.651978 0.851532 0.385559
0.699585 0.851440 0.371124
0.746643 0.851227 0.355896
0.791992 0.848236 0.334747
0.847382 0.855133 0.324646
0.903687 0.866058 0.320221
0.948547 0.872650 0.319000
0.974396 0.868500 0.322388
0.992889 0.860107 0.330841
0.999847 0.852020 0.340424
1.000000 0.842133 0.348785
0.000000 0.873199 0.547485
0.001099 0.873596 0.548828
0.004547 0.873779 0.550079
0.008331 0.873810 0.551697
0.012115 0.873627 0.553406
0.062103 0.873260 0.555450
0.136169 0.872742 0.557678
0.183289 0.872498 0.560516
0.217743 0.872498 0.563629
0.236847 0.870209 0.563446
0.238159 0.864136 0.558624
0.243561 0.860718 0.550842
0.224579 0.861694 0.533234
0.251892 0.863708 0.522308
0.302917 0.865936 0.515717
0.352417 0.868439 0.508453
0.401428 0.870880 0.500305
0.450653 0.873199 0.491089
0.500305 0.875183 0.480499
0.549286 0.876740 0.469055
0.596313 0.877777 0.456848
0.641174 0.878204 0.444153
0.683899 0.878052 0.431152
0.726135 0.877716 0.417877
0.769714 0.877411 0.403687
0.813324 0.875549 0.385284
0.864380 0.880249 0.375641
0.917969 0.889648 0.372986
0.964172 0.897614 0.372833
0.990936 0.895935 0.377075
0.999481 0.888489 0.385712
1.000000 0.878601 0.394012
0.150574 0.897522 0.588806
0.163513 0.897827 0.590057
0.180267 0.897919 0.591370
0.201874 0.897888 0.592896
0.226074 0.897766 0.595001
0.250977 0.897339 0.597076
0.276001 0.896820 0.599243
0.300354 0.896393 0.602051
0.322357 0.896301 0.605072
0.339172 0.895996 0.607635
0.340790 0.890869 0.602692
0.347382 0.886597 0.599823
0.339783 0.886200 0.586945
0.336212 0.888184 0.572174
0.365479 0.890106 0.565582
0.400482 0.892242 0.559357
0.437775 0.894501 0.552338
0.476959 0.896637 0.544128
0.518158 0.898651 0.535278
0.559631 0.900299 0.525177
0.600586 0.901550 0.514618
0.639557 0.902161 0.502991
0.676392 0.902161 0.491364
0.713074 0.901794 0.479156
0.751099 0.901428 0.466766
0.791504 0.901306 0.453949
0.833405 0.900635 0.438568
0.880157 0.903625 0.429321
0.930359 0.911316 0.427521
0.975403 0.919220 0.429382
0.996185 0.919769 0.433533
1.000000 0.911591 0.438721
0.290833 0.918610 0.627899
0.297760 0.918884 0.629150
0.306671 0.919006 0.630432
0.318817 0.919037 0.632080
0.333893 0.918915 0.634186
0.351044 0.918793 0.636688
0.368317 0.918335 0.638977
0.385376 0.917877 0.641418
0.401581 0.917633 0.644196
0.416748 0.917664 0.647369
0.422668 0.914978 0.645905
0.425079 0.910614 0.642181
0.424835 0.908722 0.635284
0.415192 0.909973 0.620758
0.427307 0.911621 0.612335
