tools/luts_backup/LAPARDIN-WEDLUTS-9.cube
#Created by: Adobe Photoshop Export Color Lookup Plugin
#Copyright: (C) 2017 Andrey Lapardin. vk.com-3dluts
TITLE "Andrey Lapardin. vk.com-3dluts"
#LUT size
LUT_3D_SIZE 5
#data domain
#LUT data points
DOMAIN_MIN 0.000000 0.000000 0.000000
DOMAIN_MAX 0.903226 0.903226 0.903226
0.032196 0.038361 0.039795
0.169556 0.047577 0.045837
0.410583 0.052551 0.045593
0.690094 0.049225 0.041168
0.892242 0.032776 0.046082
0.036499 0.170990 0.054230
0.174133 0.162170 0.054443
0.404846 0.162933 0.054993
0.672913 0.147034 0.054352
0.890381 0.152222 0.044830
0.036285 0.422913 0.086121
0.168579 0.420746 0.075470
0.442078 0.386353 0.082214
0.672668 0.392761 0.062958
0.878296 0.402527 0.066284
0.036591 0.670288 0.163300
0.202148 0.679108 0.151031
0.493256 0.656799 0.176819
0.694855 0.632294 0.167389
0.866241 0.647278 0.164795
0.215363 0.868073 0.272919
0.374634 0.876068 0.274261
0.544556 0.852356 0.304688
0.724365 0.850342 0.310852
0.883575 0.849701 0.318634
0.038788 0.042755 0.160553
0.156494 0.048340 0.160614
0.401031 0.045532 0.172729
0.668121 0.045685 0.165192
0.890594 0.031433 0.151611
0.039307 0.170380 0.167114
0.202545 0.199219 0.190186
0.443451 0.183655 0.180603
0.693207 0.174622 0.166870
0.872162 0.214355 0.187256
0.047485 0.404572 0.205109
0.188782 0.448639 0.225616
0.475586 0.439026 0.222778
0.699921 0.428314 0.195343
0.893005 0.414154 0.199066
0.044159 0.661987 0.285248
0.276520 0.695862 0.316376
0.511597 0.686249 0.331635
0.715332 0.663544 0.333832
0.896149 0.671509 0.308960
0.227905 0.869812 0.394989
0.405060 0.886627 0.408417
0.579926 0.889618 0.414185
0.752319 0.886505 0.440704
0.908508 0.883789 0.443268
0.038696 0.045105 0.343048
0.134674 0.058960 0.370453
0.356354 0.078796 0.389496
0.681641 0.072876 0.436035
0.893066 0.034027 0.430450
0.043457 0.187653 0.346344
0.203186 0.223633 0.391083
0.424561 0.262299 0.414978
0.691406 0.288208 0.455902
0.875519 0.281891 0.465698
0.041534 0.414856 0.386169
0.214142 0.440918 0.416656
0.486145 0.472687 0.445648
0.713715 0.456757 0.428619
0.894775 0.454102 0.449951
0.050873 0.665039 0.456085
0.286041 0.676208 0.473083
0.523285 0.694214 0.499573
0.722046 0.686890 0.496429
0.891663 0.680817 0.486145
0.206421 0.866852 0.522247
0.382172 0.875763 0.537964
0.589325 0.886658 0.559143
0.754852 0.888306 0.581970
0.907959 0.884796 0.589783
0.039063 0.060059 0.582367
0.154755 0.085632 0.617767
0.373047 0.146729 0.642731
0.627197 0.190765 0.663544
0.868500 0.226837 0.704803
0.039459 0.229279 0.585876
0.219849 0.263641 0.628632
0.415253 0.319580 0.645538
0.644104 0.363495 0.671387
0.846985 0.399750 0.700592
0.048523 0.425293 0.609528
0.199127 0.443207 0.626556
0.482269 0.503143 0.650482
0.692932 0.538055 0.671295
0.870117 0.564514 0.697510
0.047729 0.666718 0.643677
0.269012 0.674225 0.659851
0.504425 0.684479 0.671021
0.721497 0.704346 0.683411
0.895935 0.697205 0.679688
0.181519 0.869354 0.695709
0.353668 0.873718 0.704987
0.549652 0.874664 0.704559
0.757782 0.887939 0.726746
0.906494 0.889069 0.727814
0.096771 0.141724 0.813599
0.296783 0.172455 0.826965
0.439697 0.232056 0.846100
0.648041 0.287109 0.841278
0.842072 0.287354 0.853546
0.107788 0.300720 0.815765
0.318695 0.341370 0.803406
0.464386 0.380493 0.844971
0.667694 0.431763 0.849792
0.849915 0.431915 0.858856
0.040070 0.453705 0.820770
0.236267 0.484528 0.808624
0.506561 0.550201 0.832275
0.688171 0.587189 0.841064
0.857513 0.593231 0.857941
0.046326 0.689362 0.840027
0.253876 0.695038 0.842712
0.482727 0.693909 0.841278
0.718964 0.729065 0.849731
0.881958 0.756439 0.863159
0.187042 0.870697 0.844849
0.348969 0.894745 0.870117
0.535065 0.881226 0.869598
0.727966 0.886688 0.873016
0.907898 0.902466 0.884338
