tools/luts_backup/LAPARDIN-WEDLUTS-1.cube
#Created by: Adobe Photoshop Export Color Lookup Plugin
#Copyright: (C) 2017 Andrey Lapardin. vk.com-3dluts
TITLE "FILM-MONTAZH EXPORT.00_05_32_02.Still008.jpg"
#LUT size
LUT_3D_SIZE 8
#data domain
#LUT data points
DOMAIN_MIN 0.000000 0.000000 0.000000
DOMAIN_MAX 0.903226 0.903226 0.903226
0.002930 0.005127 0.006256
0.073822 0.007050 0.010040
0.188629 0.002930 0.006317
0.353424 0.000000 0.002777
0.535767 0.000000 0.000000
0.707092 0.000000 0.000000
0.869385 0.000000 0.000000
0.998047 0.000000 0.000000
0.005310 0.067596 0.010956
0.073944 0.072479 0.009766
0.192566 0.076141 0.007507
0.357635 0.049835 0.001221
0.532745 0.008331 0.000000
0.706421 0.003662 0.000000
0.865906 0.000000 0.000000
0.994843 0.000153 0.000000
0.000000 0.188293 0.003387
0.073120 0.190887 0.002472
0.199860 0.185425 0.000000
0.372803 0.197662 0.000000
0.546173 0.187683 0.000000
0.707397 0.170776 0.000000
0.864929 0.153748 0.000000
0.992126 0.184662 0.000000
0.000000 0.361450 0.000000
0.032928 0.359467 0.000000
0.223755 0.362640 0.000000
0.382324 0.350525 0.000000
0.556519 0.357910 0.000000
0.714539 0.359039 0.000000
0.860626 0.352631 0.000000
0.984192 0.362366 0.000000
0.000000 0.529663 0.000000
0.033234 0.531830 0.000000
0.237427 0.530090 0.000000
0.421234 0.530701 0.000000
0.564758 0.511078 0.000000
0.717438 0.524567 0.000000
0.853058 0.527954 0.000000
0.968506 0.535278 0.000000
0.000000 0.683624 0.000000
0.073822 0.693146 0.000000
0.276428 0.689606 0.000000
0.447083 0.679993 0.000000
0.604706 0.681793 0.000000
0.721252 0.662170 0.000000
0.846222 0.677856 0.000000
0.945831 0.688049 0.000000
0.089050 0.817017 0.000000
0.213623 0.830109 0.000000
0.343628 0.828918 0.000000
0.487732 0.810059 0.000000
0.626404 0.809479 0.000000
0.758484 0.808258 0.000000
0.842010 0.796356 0.000000
0.945709 0.818726 0.000000
0.286804 0.926056 0.013824
0.346252 0.936462 0.023254
0.435089 0.928680 0.008179
0.540039 0.915619 0.018890
0.658813 0.912933 0.033417
0.775452 0.911865 0.026031
0.865479 0.909912 0.041016
0.952118 0.911011 0.045258
0.002594 0.006256 0.076843
0.069550 0.007080 0.075378
0.185425 0.001526 0.080261
0.344727 0.000000 0.077179
0.518036 0.000000 0.070099
0.687408 0.000000 0.055786
0.855042 0.000000 0.015198
0.996246 0.000000 0.000000
0.003510 0.071320 0.066956
0.082886 0.081146 0.081940
0.205475 0.080566 0.084259
0.378113 0.048828 0.077881
0.550842 0.025177 0.059967
0.710419 0.006592 0.043396
0.866333 0.000000 0.019531
0.987793 0.000427 0.027863
0.000000 0.184631 0.068390
0.079895 0.204376 0.082092
0.217651 0.213257 0.070313
0.390869 0.218353 0.055878
0.567719 0.200317 0.048065
0.726990 0.183807 0.037445
0.865906 0.186066 0.039673
0.978149 0.206299 0.037506
0.000000 0.353119 0.045929
0.036133 0.368286 0.064880
0.240173 0.378052 0.061554
0.405579 0.377045 0.033295
0.575958 0.382294 0.028290
0.735199 0.377441 0.028168
0.873230 0.372162 0.023499
0.980377 0.373596 0.040527
0.000000 0.526062 0.027985
0.027771 0.540497 0.042053
0.252686 0.550964 0.043884
0.436707 0.552826 0.036560
0.585327 0.536224 0.032867
0.730042 0.544373 0.048645
0.863098 0.548615 0.033264
0.983032 0.545166 0.008148
0.000000 0.686096 0.030701
0.089539 0.701141 0.037323
0.293732 0.710602 0.027191
0.458405 0.702393 0.061951
0.623322 0.700073 0.031311
0.734528 0.681641 0.084595
0.854553 0.695343 0.102264
0.973480 0.705933 0.030640
0.109558 0.821198 0.084625
0.227509 0.836365 0.071838
0.366211 0.843109 0.036346
0.503265 0.833710 0.074951
0.637146 0.825378 0.107208
0.764771 0.818542 0.152924
0.859619 0.817505 0.123260
0.972961 0.839172 0.102417
0.295685 0.927490 0.150024
0.356995 0.935425 0.154602
0.453369 0.940277 0.141327
0.567108 0.942535 0.147461
0.678009 0.940826 0.181213
0.800598 0.940338 0.179596
0.895660 0.938873 0.186615
0.973602 0.937286 0.196136
0.000000 0.003448 0.188873
0.044647 0.002838 0.197388
0.178131 0.000000 0.203888
0.352234 0.000000 0.211609
0.524475 0.000000 0.207886
0.691895 0.000000 0.202972
0.856903 0.000000 0.206482
0.995941 0.000000 0.191620
0.000000 0.078705 0.182465
0.063690 0.081665 0.202301
0.204468 0.075500 0.205109
0.371246 0.047424 0.211273
0.542877 0.021393 0.211975
0.705322 0.000000 0.204285
0.860107 0.000000 0.201965
0.984314 0.000275 0.207703
0.000000 0.187103 0.173218
0.060425 0.200684 0.188995
0.226990 0.225403 0.209412
0.403900 0.216034 0.203888
0.577820 0.206085 0.202759
0.734344 0.211456 0.203430
0.864166 0.214172 0.215607
0.969238 0.251282 0.256897
0.000000 0.347382 0.171234
0.036530 0.361664 0.182648
0.244598 0.393097 0.207947
0.412903 0.395935 0.200562
0.586243 0.392914 0.197357
0.749908 0.395142 0.211975
0.874817 0.392853 0.228638
0.980713 0.379608 0.264404
0.000000 0.513092 0.160187
0.023315 0.531586 0.185272
0.267914 0.561279 0.215668
0.439972 0.567688 0.222687
0.596710 0.559937 0.204956
0.748535 0.564209 0.210388
0.875031 0.565704 0.232574
0.983215 0.549835 0.255798
0.000000 0.671234 0.168701
0.079193 0.690613 0.207825
0.306427 0.717590 0.228760
0.471344 0.715851 0.246368
0.625977 0.715912 0.247803
0.755249 0.702271 0.235046
0.870636 0.717194 0.267059
0.974152 0.717072 0.269684
0.088715 0.817810 0.214783
0.222778 0.825348 0.242645
0.380157 0.837982 0.258667
0.519958 0.841187 0.257263
0.649689 0.842438 0.276794
0.785980 0.841217 0.271149
0.881195 0.839233 0.297821
0.967468 0.842102 0.311554
0.296692 0.923767 0.266907
0.356262 0.933319 0.272125
0.465515 0.939209 0.292847
0.584290 0.941132 0.287384
0.689392 0.940826 0.304382
0.793488 0.941986 0.324432
0.892151 0.939117 0.342438
0.970764 0.937988 0.335083
0.000000 0.000000 0.347504
0.000000 0.000000 0.364624
0.130890 0.000000 0.374939
0.322998 0.000000 0.384094
0.526001 0.000000 0.404816
0.697235 0.000000 0.394409
0.861237 0.000000 0.391632
0.997589 0.000000 0.399445
0.000000 0.075043 0.333954
0.009094 0.071716 0.360260
0.175232 0.062561 0.370056
0.352325 0.035980 0.383057
0.532288 0.014587 0.402130
0.700897 0.000000 0.401917
0.858978 0.000000 0.398285
0.981415 0.000000 0.411621
0.000000 0.210754 0.331482
0.028351 0.213257 0.346069
0.214996 0.223877 0.375702
0.396729 0.220093 0.377899
0.565613 0.216675 0.380310
0.728424 0.221527 0.394897
0.859222 0.238007 0.413879
0.969574 0.253754 0.428955
0.000000 0.361908 0.320892
0.011322 0.371094 0.334381
0.220947 0.395325 0.363434
0.415070 0.406921 0.378448
0.590027 0.392151 0.369171
0.743622 0.400665 0.379272
0.867554 0.412323 0.409149
0.979340 0.412323 0.426025
0.000000 0.526978 0.331757
0.020203 0.536804 0.341797
0.249329 0.550354 0.358582
0.431854 0.568848 0.387238
0.591553 0.564209 0.378479
0.746521 0.564728 0.383362
0.876221 0.573517 0.400146
0.982605 0.552185 0.416992
0.000000 0.681519 0.338379
0.077484 0.686890 0.347412
0.289459 0.700317 0.370453
0.474731 0.714996 0.400421
0.621399 0.720276 0.409393
0.755890 0.715912 0.389893
0.868103 0.726440 0.406342
0.967377 0.719574 0.430603
0.058167 0.818024 0.357086
0.211212 0.821533 0.371460
0.359497 0.828125 0.391205
0.529755 0.838959 0.414124
0.655365 0.839142 0.433563
0.782349 0.843231 0.431335
0.881287 0.840393 0.423279
0.957916 0.841400 0.466248
0.293640 0.920837 0.391296
0.353271 0.928314 0.406738
0.448578 0.933167 0.412079
0.588654 0.938446 0.441132
0.696808 0.937836 0.446747
0.794647 0.939667 0.466644
0.887848 0.939026 0.472382
0.965149 0.937134 0.482635
0.000000 0.000000 0.509644
0.000000 0.000000 0.522522
0.031342 0.000000 0.546295
0.289978 0.000000 0.552826
0.485260 0.000000 0.561127
0.702484 0.000000 0.592133
0.861420 0.000000 0.581818
0.993805 0.000000 0.585815
0.000000 0.060425 0.498505
0.000000 0.045959 0.521332
0.120453 0.033783 0.541443
0.320648 0.027496 0.551697
0.501770 0.003387 0.561829
0.698608 0.000000 0.594543
0.858704 0.000000 0.589569
0.977539 0.000000 0.590454
0.000000 0.207642 0.488190
0.008881 0.213196 0.509308
0.191193 0.227020 0.542755
0.370117 0.218048 0.541962
0.547882 0.227142 0.554657
0.712982 0.253693 0.571930
0.848663 0.253387 0.586273
0.961517 0.261627 0.597809
0.000000 0.382904 0.497162
0.000000 0.389893 0.504333
0.219849 0.405151 0.530670
0.403992 0.410095 0.542267
0.578705 0.401550 0.544464
0.733429 0.407257 0.542419
0.863953 0.430664 0.564148
0.968719 0.442810 0.591705
0.000000 0.542175 0.492737
0.000000 0.549652 0.505371
0.235992 0.558411 0.519623
0.419922 0.570679 0.539978
0.592804 0.574921 0.542542
0.746735 0.568756 0.536072
0.872375 0.572723 0.548065
0.971191 0.581116 0.575165
0.000000 0.693573 0.501190
0.032166 0.698944 0.510986
0.276367 0.705780 0.527313
0.454559 0.708313 0.539490
0.612762 0.719513 0.559784
0.747467 0.716339 0.548126
0.864685 0.722321 0.552948
0.966278 0.723541 0.569183
0.026306 0.826721 0.513763
0.199554 0.825317 0.524628
0.350281 0.828613 0.538239
0.499420 0.828857 0.546173
0.654907 0.837555 0.569122
0.771057 0.843353 0.575989
0.869537 0.843170 0.562653
0.951904 0.846069 0.587769
0.278656 0.927490 0.537354
0.343231 0.929993 0.548492
0.439575 0.928864 0.556671
0.561066 0.928741 0.558411
0.695953 0.933655 0.584717
0.794189 0.934296 0.601227
0.885376 0.937195 0.599701
0.957001 0.934814 0.605286
0.000000 0.000000 0.667969
0.000000 0.000000 0.673615
0.003784 0.000000 0.705963
0.267578 0.000000 0.712799
0.473083 0.000000 0.712036
0.662262 0.000000 0.723114
0.863586 0.000000 0.762054
0.990112 0.000000 0.754425
0.000000 0.027374 0.656921
0.000000 0.006226 0.679230
0.082306 0.008972 0.702118
0.293915 0.010376 0.712860
0.484924 0.000000 0.713959
0.670532 0.000000 0.727509
0.861725 0.000000 0.759369
0.975433 0.000000 0.751495
0.000000 0.206757 0.655243
0.000000 0.213715 0.667999
0.169250 0.227264 0.706451
0.354309 0.227234 0.698456
0.522064 0.236755 0.701660
0.688171 0.231232 0.718781
0.845398 0.233795 0.739868
0.959808 0.253571 0.743774
0.000000 0.388855 0.656372
0.000000 0.396545 0.661896
0.214935 0.416046 0.691559
0.399994 0.429016 0.698792
0.561310 0.414856 0.691193
0.721039 0.429016 0.700439
0.854645 0.456085 0.712372
0.957489 0.458130 0.731567
0.000000 0.562744 0.662354
0.000427 0.568024 0.670441
0.241425 0.579407 0.674408
0.429321 0.585663 0.684998
0.588928 0.585419 0.689911
0.738312 0.575592 0.689301
0.862152 0.580261 0.694153
0.957916 0.607910 0.713165
0.000000 0.706543 0.658356
0.043579 0.711853 0.669495
0.267029 0.715942 0.675812
0.448059 0.716003 0.681213
0.604370 0.722290 0.688354
0.745361 0.728546 0.692505
0.860962 0.724884 0.690826
0.956177 0.730377 0.703949
0.034637 0.833649 0.667389
0.179840 0.833496 0.675110
0.342438 0.835266 0.685822
0.493256 0.832703 0.688110
0.633301 0.832031 0.690247
0.761353 0.843140 0.708374
0.857910 0.844727 0.700958
0.948181 0.847443 0.709015
0.268036 0.930756 0.677979
0.332550 0.934631 0.687897
0.433502 0.931854 0.690979
0.553070 0.926514 0.695465
0.669556 0.926910 0.696625
0.791260 0.932098 0.719208
0.873108 0.936798 0.726013
0.949738 0.935242 0.718597
0.000000 0.000000 0.819397
0.000000 0.000000 0.821136
0.083862 0.000000 0.844238
0.285034 0.000000 0.853455
0.484375 0.000000 0.850403
0.658844 0.000000 0.844727
0.830994 0.000000 0.853577
0.986420 0.000000 0.882690
0.000000 0.002289 0.813873
0.000000 0.000488 0.825928
0.177338 0.000244 0.841492
0.316559 0.000000 0.852020
0.495972 0.000000 0.849182
0.669098 0.000000 0.841614
0.835846 0.000000 0.853760
0.974854 0.000000 0.869873
0.000000 0.210968 0.811798
0.000549 0.214417 0.819458
0.223389 0.235413 0.832214
0.370728 0.238037 0.833893
0.516418 0.239868 0.845123
0.682587 0.237030 0.841736
0.840698 0.207275 0.849731
0.962585 0.246674 0.857391
0.000000 0.401306 0.805847
0.007385 0.411255 0.808563
0.247314 0.434235 0.818359
0.415619 0.452362 0.828918
0.558502 0.437317 0.820160
0.707001 0.445038 0.820953
0.843323 0.438202 0.837494
0.957184 0.449860 0.843414
0.000000 0.577026 0.802429
0.036163 0.583008 0.804108
0.273376 0.590057 0.805328
0.447510 0.603668 0.819214
0.592163 0.607849 0.819458
0.728027 0.594086 0.813599
0.849243 0.604950 0.818542
0.948517 0.624634 0.823853
0.000000 0.729492 0.801086
0.110107 0.737152 0.804779
0.301697 0.735168 0.808960
0.463531 0.738251 0.803802
0.611450 0.738556 0.810669
0.744843 0.736725 0.814484
0.855988 0.729889 0.810455
0.946014 0.742004 0.814697
0.085052 0.840729 0.791443
0.211517 0.842468 0.798401
0.343018 0.847382 0.810822
0.489746 0.841766 0.807648
0.629913 0.838776 0.808411
0.752808 0.844116 0.812408
0.856812 0.849030 0.813721
0.945496 0.850372 0.819427
0.282867 0.935547 0.800140
0.339417 0.942932 0.810974
0.430359 0.937256 0.812958
0.552002 0.931030 0.813049
0.668243 0.928467 0.810425
0.774445 0.928589 0.812256
0.869598 0.936920 0.826324
0.943024 0.939209 0.822479
0.000000 0.000000 0.941223
0.029907 0.000000 0.943359
0.237457 0.000000 0.955933
0.354462 0.000000 0.963928
0.518188 0.000000 0.958527
0.682617 0.000000 0.950226
0.835571 0.000000 0.944305
0.967957 0.000000 0.949615
0.000000 0.000000 0.938263
0.058044 0.000000 0.936279
0.278107 0.000000 0.940430
0.385193 0.000000 0.957489
0.531250 0.000000 0.965240
0.696411 0.000000 0.957214
0.849152 0.000000 0.949951
0.973907 0.000000 0.952087
0.000000 0.203613 0.934845
0.066711 0.217377 0.926147
0.303589 0.254181 0.924683
0.421448 0.241302 0.939880
0.546753 0.235168 0.952667
0.701965 0.242706 0.947998
0.849365 0.251099 0.940308
0.968048 0.240082 0.946350
0.000000 0.419159 0.923462
0.087830 0.433350 0.915497
0.303894 0.460571 0.916748
0.458282 0.469635 0.926880
0.572998 0.444397 0.931702
0.703369 0.453278 0.931427
0.842072 0.460327 0.925262
0.955475 0.447052 0.934845
0.000641 0.590729 0.915039
0.144745 0.599823 0.911285
0.316559 0.614349 0.903625
0.474609 0.625519 0.912659
0.605316 0.626862 0.920105
0.725800 0.613495 0.913239
0.842377 0.623230 0.912231
0.940887 0.618561 0.921509
0.080170 0.744232 0.906647
0.216400 0.747467 0.908966
0.356018 0.748291 0.904297
0.493896 0.750366 0.903992
0.629608 0.754486 0.910675
0.746674 0.756805 0.909393
0.845856 0.751221 0.906494
0.937073 0.757721 0.908783
0.218140 0.861328 0.900391
0.299011 0.867767 0.906677
0.406494 0.863403 0.905945
0.524292 0.855560 0.902893
0.647552 0.853668 0.901703
0.761383 0.855499 0.908264
0.856659 0.855438 0.909393
0.940491 0.851807 0.907928
0.310913 0.938904 0.886169
0.380646 0.957703 0.904938
0.457001 0.952576 0.906189
0.554077 0.943878 0.906860
0.665924 0.936279 0.904785
0.770447 0.933716 0.905457
0.859009 0.939117 0.908417
0.940979 0.943420 0.910645
