tools/luts_backup/LAPARDIN-WEDLUTS-3.cube
#Created by: Adobe Photoshop Export Color Lookup Plugin
#Copyright: (C) 2017 Andrey Lapardin. vk.com-3dluts
TITLE "Andrey Lapardin. vk.com-3dluts"
#LUT size
LUT_3D_SIZE 5
#data domain
#LUT data points
DOMAIN_MIN 0.000000 0.000000 0.000000
DOMAIN_MAX 0.903226 0.903226 0.903226
0.004974 0.009521 0.009796
0.177094 0.019318 0.015533
0.417938 0.003448 0.011780
0.680359 0.000000 0.002869
0.914032 0.000000 0.000000
0.000000 0.179932 0.009491
0.186859 0.171692 0.015228
0.432739 0.182373 0.008575
0.682831 0.174530 0.007538
0.910919 0.200104 0.000000
0.000000 0.442017 0.000000
0.211731 0.433746 0.000000
0.460510 0.410126 0.000000
0.711090 0.422821 0.000000
0.916321 0.426605 0.000000
0.000000 0.703339 0.000000
0.231995 0.709290 0.000000
0.509369 0.678406 0.000000
0.722900 0.657654 0.000000
0.912415 0.684814 0.000000
0.103668 0.923309 0.000000
0.315063 0.927765 0.000000
0.550873 0.894714 0.000000
0.761169 0.889099 0.000000
0.932892 0.888153 0.000519
0.014465 0.013519 0.162689
0.174622 0.013245 0.172333
0.408569 0.000275 0.183502
0.662018 0.000000 0.189850
0.911774 0.000000 0.187073
0.004761 0.171844 0.154816
0.207886 0.201782 0.182007
0.451843 0.195892 0.183655
0.700958 0.205231 0.188446
0.887634 0.245300 0.239929
0.000000 0.419403 0.134277
0.222351 0.458801 0.167114
0.486938 0.454681 0.172028
0.731689 0.453796 0.201569
0.925323 0.437653 0.248077
0.000000 0.693939 0.102844
0.230957 0.730408 0.147766
0.524506 0.714172 0.205261
0.748566 0.690765 0.226868
0.943634 0.710754 0.240997
0.082092 0.926208 0.128113
0.331818 0.939514 0.152557
0.578247 0.933807 0.184387
0.787354 0.924286 0.250763
0.957306 0.919220 0.258942
0.000000 0.010773 0.382782
0.144867 0.017670 0.411377
0.391937 0.000000 0.431213
0.676300 0.000000 0.457275
0.914795 0.000000 0.469147
0.000000 0.193604 0.379181
0.205078 0.214478 0.412964
0.439758 0.218872 0.433075
0.691895 0.242462 0.466583
0.888824 0.259705 0.489532
0.000000 0.431793 0.386261
0.216797 0.449768 0.413208
0.486389 0.468964 0.438080
0.727997 0.466125 0.443909
0.916229 0.478851 0.489685
0.000000 0.687653 0.397644
0.236694 0.704651 0.415833
0.524292 0.719971 0.445740
0.754791 0.713989 0.447998
0.934875 0.718384 0.486084
0.111237 0.915009 0.409637
0.301270 0.925537 0.422516
0.583801 0.931885 0.452759
0.787079 0.923584 0.491180
0.950897 0.917419 0.505585
0.000000 0.004395 0.622345
0.186920 0.003937 0.652069
0.386230 0.000000 0.676178
0.654663 0.000000 0.696014
0.918427 0.003174 0.734070
0.000000 0.210541 0.624908
0.226074 0.227814 0.657623
0.419434 0.247223 0.671143
0.669769 0.238373 0.698700
0.897339 0.265137 0.721649
0.000000 0.458466 0.649963
0.248108 0.475220 0.667450
0.492279 0.498596 0.672058
0.720795 0.494537 0.683899
0.911255 0.527252 0.708557
0.001740 0.704041 0.655273
0.266541 0.711578 0.673859
0.514618 0.713013 0.683014
0.750854 0.724274 0.688660
0.928680 0.729065 0.702515
0.179596 0.908630 0.672760
0.335907 0.913055 0.682556
0.554565 0.912781 0.682159
0.784790 0.920990 0.702637
0.945435 0.919006 0.704315
0.124359 0.001373 0.848175
0.287231 0.000000 0.861389
0.431396 0.000000 0.882874
0.671692 0.002106 0.882294
0.906433 0.021393 0.894135
0.136597 0.225250 0.853058
0.315338 0.263550 0.839172
0.461487 0.259216 0.882019
0.692535 0.270996 0.886108
0.911743 0.271851 0.897522
0.136536 0.490417 0.866516
0.315674 0.518982 0.851318
0.527771 0.540558 0.865601
0.714355 0.534821 0.871674
0.910431 0.529114 0.888000
0.154236 0.737274 0.874969
0.323242 0.742218 0.877625
0.555450 0.742645 0.874817
0.758331 0.752045 0.874695
0.919678 0.754181 0.880585
0.249908 0.915253 0.859619
0.373383 0.935394 0.882782
0.567871 0.919067 0.884705
0.769226 0.917755 0.884247
0.941376 0.926239 0.891571
