tools/luts_backup/LAPARDIN-WEDLUTS-4.cube
#Created by: Adobe Photoshop Export Color Lookup Plugin
#Copyright: (C) 2017 Andrey Lapardin. vk.com-3dluts
TITLE "Andrey Lapardin. vk.com-3dluts"
#LUT size
LUT_3D_SIZE 5
#data domain
#LUT data points
DOMAIN_MIN 0.000000 0.000000 0.000000
DOMAIN_MAX 0.903226 0.903226 0.903226
0.002930 0.005127 0.006256
0.152649 0.005829 0.008972
0.431152 0.000000 0.001160
0.725220 0.000000 0.000000
0.985626 0.000000 0.000000
0.000000 0.157288 0.002258
0.159363 0.155518 0.001068
0.446991 0.152649 0.000000
0.724152 0.112610 0.000000
0.973511 0.095764 0.000000
0.000000 0.443481 0.000000
0.152069 0.436340 0.000000
0.447266 0.431122 0.000000
0.730560 0.436951 0.000000
0.956055 0.433990 0.000000
0.000000 0.709381 0.000000
0.232452 0.716339 0.000000
0.474365 0.703522 0.000000
0.720825 0.695984 0.000000
0.937927 0.710510 0.000000
0.274719 0.916260 0.000641
0.395508 0.920868 0.000000
0.541962 0.911957 0.000427
0.767822 0.910767 0.000000
0.925446 0.904755 0.001587
0.000000 0.001801 0.170410
0.132904 0.000305 0.180145
0.431000 0.000000 0.203217
0.715576 0.000000 0.193298
0.977295 0.000000 0.150940
0.000092 0.148895 0.142517
0.186005 0.187561 0.181000
0.476196 0.165527 0.174835
0.747650 0.162903 0.177124
0.938782 0.219025 0.217102
0.000000 0.423950 0.128021
0.210419 0.456757 0.175934
0.490295 0.468689 0.162842
0.761261 0.469482 0.151581
0.950958 0.468445 0.206238
0.000000 0.697327 0.139893
0.275299 0.723114 0.162140
0.517822 0.730713 0.185272
0.754150 0.713654 0.192444
0.937500 0.724426 0.223114
0.260803 0.905243 0.205109
0.420959 0.893799 0.248016
0.607910 0.902710 0.242706
0.775421 0.905304 0.254608
0.936676 0.905579 0.264801
0.000000 0.000000 0.455536
0.000000 0.000000 0.490509
0.364990 0.000000 0.500763
0.723633 0.000000 0.555847
0.972687 0.000000 0.521057
0.000000 0.149109 0.427490
0.128387 0.167542 0.477692
0.440063 0.165833 0.484283
0.720856 0.199188 0.521057
0.927185 0.235992 0.519104
0.000000 0.422791 0.392212
0.184723 0.463287 0.443665
0.489166 0.487701 0.465851
0.756836 0.480225 0.468597
0.956818 0.504303 0.497284
0.000000 0.691315 0.385712
0.252380 0.709320 0.418304
0.536987 0.727570 0.481689
0.756531 0.731689 0.471436
0.930206 0.746063 0.490753
0.250641 0.896149 0.412720
0.399689 0.886505 0.442993
0.645844 0.894684 0.492798
0.788055 0.907257 0.527649
0.937592 0.907623 0.525055
0.000000 0.000000 0.727203
0.011871 0.000000 0.743378
0.340851 0.000000 0.766449
0.650726 0.000000 0.762756
0.962585 0.000000 0.819000
0.000000 0.137878 0.720703
0.105713 0.125732 0.745178
0.388458 0.163330 0.752258
0.664703 0.172363 0.751373
0.912842 0.224579 0.777283
0.000000 0.427795 0.681946
0.159576 0.462250 0.720245
0.474091 0.497955 0.728790
0.734558 0.492523 0.725769
0.930511 0.544373 0.732513
0.000000 0.684143 0.650604
0.252014 0.712616 0.681183
0.527954 0.733063 0.709991
0.757019 0.746155 0.720215
0.931915 0.752991 0.731750
0.220062 0.899200 0.655609
0.398254 0.898926 0.669861
0.610107 0.896179 0.690247
0.800507 0.914551 0.731506
0.929169 0.917389 0.745056
0.000000 0.000000 0.949585
0.182434 0.000000 0.948364
0.405212 0.000000 0.965363
0.664917 0.000000 0.946777
0.914703 0.000000 0.936005
0.000000 0.102570 0.943787
0.248749 0.181274 0.910919
0.451538 0.160461 0.944733
0.669464 0.184570 0.938446
0.908020 0.203156 0.923279
0.000000 0.453491 0.918732
0.249054 0.499878 0.894470
0.509949 0.526276 0.913330
0.705933 0.523346 0.904572
0.900818 0.544403 0.900635
0.024353 0.703705 0.882355
0.312531 0.718750 0.875854
0.546326 0.750519 0.891876
0.757843 0.765747 0.895721
0.919891 0.766998 0.894623
0.254761 0.900665 0.866852
0.406647 0.901001 0.868439
0.600708 0.907257 0.875671
0.783752 0.916962 0.892456
0.928986 0.930145 0.900970
