tools/luts_backup/LAPARDIN-WEDLUTS-18.cube
#Created by: Adobe Photoshop Export Color Lookup Plugin
#Copyright: (C) 2017 Andrey Lapardin. vk.com-3dluts
TITLE "Andrey Lapardin. vk.com-3dluts"
#LUT size
LUT_3D_SIZE 5
#data domain
#LUT data points
DOMAIN_MIN 0.000000 0.000000 0.000000
DOMAIN_MAX 0.903226 0.903226 0.903226
0.011871 0.022003 0.020477
0.155670 0.037628 0.027893
0.340515 0.045807 0.035248
0.601257 0.025452 0.034943
0.859741 0.011414 0.033478
0.022308 0.161133 0.038605
0.151337 0.155640 0.045898
0.343781 0.163574 0.044403
0.596832 0.122711 0.049622
0.845764 0.118225 0.047791
0.038055 0.348663 0.065399
0.195007 0.331299 0.090210
0.354614 0.334320 0.080841
0.610016 0.337006 0.059631
0.836639 0.337402 0.045013
0.038635 0.608429 0.112366
0.264191 0.606232 0.129547
0.422333 0.578491 0.164307
0.608856 0.590363 0.118286
0.824982 0.605530 0.091003
0.229553 0.811371 0.232666
0.397827 0.811188 0.242432
0.515564 0.798462 0.272247
0.673584 0.800568 0.274658
0.808197 0.802124 0.260010
0.015991 0.021820 0.160828
0.144989 0.032013 0.166107
0.345245 0.032715 0.177246
0.590698 0.020752 0.171326
0.846710 0.009827 0.152405
0.017761 0.159210 0.150574
0.172943 0.184082 0.175262
0.373322 0.178375 0.172760
0.620453 0.156219 0.172577
0.811493 0.169525 0.187805
0.025177 0.338043 0.169952
0.221710 0.362549 0.205383
0.396179 0.374786 0.198303
0.643311 0.369324 0.179260
0.831116 0.376740 0.192505
0.016968 0.600189 0.222107
0.284424 0.618591 0.253418
0.471802 0.617218 0.300201
0.647583 0.618042 0.259979
0.827606 0.621735 0.258057
0.222443 0.801941 0.332886
0.417969 0.789520 0.368347
0.566010 0.792389 0.394989
0.681885 0.796692 0.403412
0.821075 0.803955 0.387726
0.008942 0.030701 0.347137
0.099792 0.038422 0.375916
0.301483 0.032593 0.381775
0.632599 0.011597 0.439606
0.856598 0.009766 0.380646
0.015259 0.173676 0.336334
0.145905 0.187195 0.375580
0.357727 0.184845 0.379639
0.635956 0.154144 0.411499
0.821930 0.174835 0.393280
0.028503 0.346527 0.326202
0.142242 0.389465 0.370789
0.423981 0.419617 0.391968
0.657898 0.411163 0.382111
0.846100 0.430389 0.396271
0.035248 0.597595 0.347443
0.180847 0.621216 0.379974
0.493683 0.636078 0.458405
0.660278 0.642822 0.444946
0.826691 0.645355 0.442169
0.200378 0.794342 0.429382
0.382294 0.787628 0.461853
0.594116 0.792786 0.522949
0.702301 0.804352 0.553864
0.830200 0.808594 0.537811
0.002045 0.043915 0.601563
0.125916 0.041016 0.618530
0.250854 0.043884 0.637970
0.548126 0.017242 0.631470
0.854919 0.007874 0.684448
0.001373 0.192383 0.606720
0.130859 0.190491 0.627777
0.303772 0.206207 0.633942
0.566681 0.163086 0.628723
0.816071 0.169403 0.651642
0.025391 0.382324 0.589844
0.140228 0.417389 0.625946
0.409332 0.449371 0.629761
0.649628 0.432251 0.622925
0.833496 0.477631 0.613556
0.042816 0.601776 0.569977
0.162384 0.628693 0.601227
0.428650 0.650726 0.628967
0.672272 0.665985 0.640869
0.832672 0.666107 0.641113
0.044220 0.800171 0.578339
0.209991 0.801971 0.593933
0.527924 0.801697 0.626831
0.723633 0.817200 0.683685
0.834808 0.820984 0.690765
0.000214 0.062286 0.815063
0.138550 0.057831 0.814850
0.224121 0.065887 0.834778
0.523621 0.026581 0.823059
0.782410 0.026581 0.815216
0.000214 0.213013 0.814819
0.157471 0.239349 0.785736
0.315125 0.233063 0.819794
0.533142 0.226135 0.820587
0.783264 0.164856 0.808167
0.011963 0.421051 0.809326
0.155670 0.459808 0.786133
0.423767 0.491486 0.804962
0.594971 0.476288 0.798523
0.793823 0.472137 0.798523
0.037048 0.617676 0.789246
0.173157 0.631439 0.783447
0.470367 0.666473 0.803101
0.669189 0.687622 0.806030
0.823914 0.684021 0.804779
0.041992 0.796661 0.783997
0.185455 0.801025 0.787018
0.481964 0.810181 0.797028
0.685547 0.822449 0.815491
0.841675 0.838226 0.828918
