tools/luts_backup/LAPARDIN-WEDLUTS-10.cube
#Created by: Adobe Photoshop Export Color Lookup Plugin
#Copyright: (C) 2017 Andrey Lapardin. vk.com-3dluts
TITLE "Andrey Lapardin. vk.com-3dluts"
#LUT size
LUT_3D_SIZE 8
#data domain
#LUT data points
DOMAIN_MIN 0.000000 0.000000 0.000000
DOMAIN_MAX 0.903226 0.903226 0.903226
0.012024 0.034332 0.042480
0.116882 0.045288 0.052399
0.224792 0.058197 0.059753
0.341705 0.063416 0.064453
0.473694 0.064545 0.068268
0.605499 0.061584 0.068970
0.738678 0.053040 0.068085
0.874298 0.046875 0.069000
0.009796 0.117950 0.047729
0.107452 0.120239 0.052307
0.226746 0.129883 0.056122
0.349091 0.132843 0.062958
0.476257 0.135223 0.071320
0.606354 0.136719 0.074402
0.737793 0.138367 0.070740
0.873169 0.138580 0.065796
0.009125 0.205383 0.052399
0.106720 0.204620 0.059143
0.213043 0.205353 0.069153
0.345459 0.218292 0.066589
0.476685 0.216949 0.065674
0.604370 0.215973 0.071625
0.731079 0.213806 0.077209
0.857178 0.211792 0.079803
0.009674 0.306488 0.050751
0.093048 0.303375 0.055878
0.205048 0.302551 0.071167
0.331360 0.310822 0.076569
0.476715 0.324615 0.069458
0.608124 0.319519 0.065521
0.735107 0.317902 0.070984
0.856201 0.318237 0.077545
0.021881 0.407684 0.045746
0.091705 0.407562 0.045471
0.175659 0.396576 0.066132
0.315582 0.409729 0.072083
0.452728 0.424835 0.076416
0.606140 0.444855 0.072510
0.736908 0.446381 0.079834
0.858551 0.439911 0.082428
0.039154 0.511963 0.040558
0.110626 0.512543 0.040497
0.156738 0.502808 0.049500
0.280884 0.503387 0.061310
0.431641 0.526886 0.066956
0.575195 0.547607 0.075562
0.734009 0.582397 0.084229
0.858795 0.588593 0.090240
0.057312 0.632690 0.045868
0.129059 0.633972 0.045868
0.187195 0.631744 0.045715
0.232147 0.613098 0.063843
0.405701 0.638550 0.067993
0.563599 0.665405 0.074249
0.699005 0.685669 0.085815
0.853333 0.722717 0.094574
0.071808 0.784851 0.050018
0.144379 0.785217 0.050018
0.210968 0.787079 0.050323
0.252533 0.775208 0.062378
0.366302 0.777527 0.069122
0.551636 0.800171 0.073242
0.686462 0.814697 0.084747
0.819092 0.829285 0.096130
0.009186 0.043640 0.128754
0.078949 0.048706 0.130890
0.214600 0.059753 0.131409
0.331238 0.065308 0.144409
0.457062 0.069916 0.156067
0.585052 0.066498 0.158203
0.720825 0.056915 0.153687
0.860870 0.048157 0.145721
0.023529 0.111542 0.118256
0.118866 0.127319 0.133423
0.225586 0.133972 0.141266
0.350159 0.138733 0.147003
0.478241 0.145233 0.151031
0.604614 0.148163 0.153015
0.731934 0.146576 0.154449
0.854492 0.150238 0.158478
0.032135 0.200836 0.129242
0.123962 0.210358 0.137085
0.224335 0.219635 0.141052
0.356567 0.229767 0.136963
0.486725 0.224579 0.139374
0.614044 0.221527 0.146301
0.735352 0.225769 0.153412
0.848450 0.239319 0.161835
0.014282 0.301971 0.128906
0.113220 0.306427 0.135193
0.220886 0.310608 0.142761
0.348145 0.322266 0.147766
0.486847 0.336426 0.143158
0.618439 0.328247 0.132355
0.747498 0.325409 0.137390
0.851440 0.328552 0.158173
0.025269 0.405426 0.125183
0.095825 0.410492 0.123383
0.199524 0.408783 0.127899
0.335175 0.422333 0.139496
0.471588 0.435669 0.152954
0.618073 0.455994 0.148285
0.748840 0.456451 0.127991
0.854401 0.446777 0.139282
0.040985 0.510101 0.108887
0.114380 0.520538 0.104584
0.177490 0.515930 0.104401
0.299713 0.518677 0.122559
0.451935 0.539856 0.130646
0.595917 0.561676 0.144897
0.747986 0.593475 0.142548
0.856842 0.588409 0.147491
0.058929 0.629181 0.094757
0.135040 0.652374 0.094910
0.205780 0.649536 0.093445
0.270355 0.634735 0.107788
0.416199 0.645508 0.120483
0.578125 0.673828 0.128601
0.718903 0.695190 0.136871
0.855255 0.723389 0.149750
0.074432 0.775177 0.095337
0.154785 0.794952 0.101654
0.225250 0.795715 0.099976
0.281433 0.779999 0.106445
0.383575 0.772217 0.130249
0.555176 0.791290 0.137024
0.705841 0.813477 0.143646
0.828491 0.830536 0.151764
0.009766 0.053406 0.225952
0.057129 0.054718 0.232330
0.112915 0.062378 0.235138
0.325256 0.061951 0.253784
0.458435 0.068787 0.238281
0.586334 0.063324 0.248444
0.718018 0.054718 0.259918
0.857483 0.049561 0.257263
0.032379 0.123688 0.209229
0.108337 0.136475 0.225494
0.186432 0.140259 0.233185
0.335876 0.151306 0.236450
0.462952 0.155762 0.246521
0.591705 0.153259 0.258118
0.719849 0.150177 0.260925
0.841064 0.155060 0.259125
0.042725 0.198029 0.200073
0.136505 0.213989 0.217102
0.238617 0.235474 0.236481
0.358856 0.228821 0.234314
0.487457 0.229736 0.238647
0.616791 0.236145 0.246765
0.726837 0.250153 0.258728
0.824890 0.271484 0.284698
0.051270 0.300934 0.207184
0.135590 0.308624 0.210175
0.226105 0.323914 0.222412
0.355316 0.337463 0.231018
0.496582 0.341248 0.222565
0.625854 0.335419 0.226227
0.744690 0.338806 0.241699
0.846771 0.348999 0.267853
0.041077 0.402832 0.186523
0.098877 0.408966 0.200989
0.217529 0.419312 0.212189
0.338074 0.430847 0.225189
0.485413 0.451508 0.230957
0.630524 0.469574 0.226379
0.747681 0.465271 0.227600
0.846924 0.457794 0.245148
0.054810 0.508209 0.177429
0.115509 0.512085 0.193451
0.190216 0.522919 0.192902
0.311523 0.526184 0.209686
0.470886 0.553894 0.219910
0.613373 0.571960 0.238983
0.742340 0.598846 0.258057
0.853821 0.600037 0.248871
0.067749 0.628235 0.156738
0.132141 0.627747 0.167755
0.208862 0.637878 0.166962
0.298798 0.633423 0.174988
0.437744 0.652435 0.194000
0.595581 0.681305 0.201691
0.729187 0.701202 0.239349
0.858032 0.729401 0.271088
0.079315 0.774872 0.153351
0.152008 0.756500 0.158569
0.236176 0.755859 0.174896
0.302856 0.750061 0.174194
0.421661 0.780121 0.184082
0.571167 0.797852 0.189545
0.716431 0.817566 0.201569
0.843445 0.832794 0.215118
0.014618 0.068817 0.336365
0.068726 0.066528 0.348389
0.104340 0.074829 0.359955
0.161224 0.077148 0.366119
0.421783 0.068573 0.404755
0.587402 0.065796 0.387421
0.725372 0.068237 0.358368
0.858032 0.064270 0.369934
0.015106 0.138062 0.320007
0.073120 0.142456 0.339691
0.118073 0.151245 0.353851
0.208344 0.158020 0.361847
0.431305 0.161255 0.390808
0.583618 0.166595 0.375092
0.720642 0.163696 0.367706
0.838196 0.168488 0.377960
0.053314 0.208099 0.310028
0.141998 0.223022 0.328766
0.222473 0.243134 0.350616
0.314728 0.241058 0.354340
0.479309 0.247345 0.351624
0.605347 0.257629 0.359100
0.720520 0.273804 0.380463
0.824402 0.286041 0.397736
0.058411 0.300171 0.297241
0.152527 0.314789 0.315430
0.245422 0.336975 0.338135
0.367188 0.351013 0.349640
0.494812 0.339386 0.342407
0.619904 0.343231 0.351379
0.734192 0.364990 0.377808
0.848480 0.379211 0.396942
0.054108 0.411591 0.298340
0.147705 0.422668 0.308075
0.239990 0.431030 0.312561
0.340149 0.440186 0.324921
0.489410 0.462921 0.344696
0.627533 0.466003 0.338928
0.743317 0.467377 0.351746
0.866821 0.469727 0.365784
0.071899 0.515350 0.278107
0.130249 0.520813 0.279785
0.193665 0.523193 0.285065
0.330353 0.533112 0.309601
0.465729 0.554077 0.331482
0.616730 0.582245 0.346375
0.749084 0.609222 0.358765
0.862701 0.614777 0.363617
0.083954 0.628387 0.244476
0.144623 0.631805 0.259033
0.207336 0.622101 0.270020
0.335388 0.622864 0.293457
0.441071 0.644501 0.312439
0.601593 0.680084 0.331238
0.741089 0.705017 0.349365
0.860474 0.737610 0.393951
0.091248 0.770874 0.202942
0.158478 0.758881 0.230042
0.223785 0.751495 0.230530
0.306122 0.753845 0.253479
0.437134 0.774933 0.263245
0.577606 0.802368 0.291748
0.729797 0.821014 0.312042
0.852448 0.834076 0.357483
0.024902 0.089172 0.461700
0.089752 0.085815 0.467987
0.114258 0.093964 0.495728
0.168243 0.096924 0.502075
0.228821 0.095917 0.503784
0.510742 0.086029 0.561249
0.721436 0.056396 0.556854
0.863739 0.095551 0.485992
0.023926 0.153687 0.451385
0.091492 0.155090 0.470154
0.129486 0.164642 0.491943
0.174774 0.175903 0.498718
0.234375 0.176270 0.500732
0.517242 0.173157 0.547607
0.714691 0.158691 0.550751
0.842682 0.192535 0.489166
0.034363 0.231018 0.441925
0.103973 0.241852 0.459076
0.167816 0.254364 0.484680
0.250183 0.256866 0.482117
0.350525 0.262848 0.485840
0.563995 0.273499 0.515472
0.709778 0.297028 0.504883
0.823212 0.314728 0.494843
0.066956 0.311157 0.428772
0.158356 0.324127 0.448364
0.250824 0.342133 0.469391
0.348724 0.360901 0.477112
0.456390 0.358276 0.481110
0.616760 0.366547 0.473694
0.732086 0.390991 0.485992
0.846344 0.405670 0.502045
0.065674 0.412140 0.406464
0.162781 0.425812 0.423523
0.263153 0.444244 0.447754
0.375427 0.466003 0.468811
0.502472 0.478760 0.474609
0.630096 0.472198 0.473358
0.750580 0.479767 0.485718
0.866272 0.495392 0.509796
0.084076 0.529968 0.406219
0.143890 0.539032 0.415710
0.253479 0.548859 0.427246
0.365509 0.554993 0.439270
0.465454 0.560699 0.442871
0.624268 0.597473 0.475677
0.758514 0.610352 0.476685
0.869690 0.605835 0.480927
0.098755 0.645294 0.395905
0.162811 0.644806 0.394318
0.219055 0.648865 0.399994
0.311707 0.637878 0.386017
0.446228 0.650635 0.412964
0.590973 0.687103 0.445831
0.746002 0.719849 0.472534
0.870697 0.744019 0.506622
0.103577 0.776917 0.355560
0.169250 0.772736 0.344971
0.229950 0.767395 0.349121
0.293518 0.755188 0.342743
0.460571 0.768646 0.373169
0.575867 0.795624 0.417816
0.735840 0.820709 0.454346
0.863953 0.835632 0.486786
0.036316 0.113403 0.595551
0.106415 0.110199 0.598572
0.139374 0.113007 0.628326
0.178314 0.120880 0.636139
0.239075 0.117432 0.631012
0.304993 0.116913 0.634491
0.616760 0.104767 0.707489
0.847687 0.057922 0.704590
0.034790 0.169220 0.589935
0.106964 0.170685 0.604767
0.152374 0.175659 0.622009
0.184692 0.196930 0.635132
0.242432 0.197479 0.630554
0.308350 0.196442 0.632568
0.621399 0.188965 0.695038
0.826752 0.169800 0.686188
0.042328 0.255371 0.584717
0.105316 0.260712 0.594513
0.157715 0.268646 0.619171
0.207550 0.274567 0.619263
0.263336 0.284241 0.612671
0.383759 0.291321 0.618530
0.644135 0.296906 0.662628
0.805420 0.309052 0.655243
0.056000 0.330261 0.571320
0.142395 0.344666 0.581116
0.235199 0.368988 0.608002
0.319641 0.383820 0.614166
0.395355 0.379486 0.602936
0.520386 0.386688 0.606110
0.704681 0.409943 0.631897
0.837494 0.437927 0.600250
0.071869 0.425110 0.551025
0.169434 0.436646 0.564667
0.263824 0.458984 0.591949
0.384064 0.476654 0.601746
0.488800 0.494659 0.602631
0.603210 0.493500 0.608826
0.748810 0.508728 0.608795
0.862213 0.525391 0.611786
0.089569 0.528015 0.526337
0.166534 0.539307 0.534729
0.271027 0.560272 0.563507
0.390594 0.575623 0.580139
0.512482 0.601654 0.601288
0.642151 0.615784 0.606659
0.763428 0.613861 0.610107
0.870850 0.621796 0.621124
0.105011 0.662750 0.537781
0.168304 0.664825 0.538116
0.226898 0.672821 0.553101
0.369598 0.675354 0.553284
0.487915 0.690216 0.565399
0.586639 0.692108 0.558716
0.755463 0.736420 0.616669
0.872406 0.749756 0.625946
0.113129 0.789124 0.525818
0.177704 0.787994 0.525360
0.239288 0.788788 0.528320
0.298737 0.788635 0.519836
0.406494 0.777283 0.483368
0.582458 0.799011 0.510437
0.726501 0.827148 0.576782
0.867798 0.844757 0.622131
0.049622 0.142120 0.729767
0.118042 0.139618 0.730835
0.170074 0.137390 0.742371
0.195282 0.148132 0.762024
0.253906 0.142853 0.758820
0.316376 0.139404 0.751160
0.383820 0.144043 0.756378
0.728149 0.126068 0.817566
0.048401 0.187927 0.726532
0.118317 0.190704 0.740448
0.179443 0.191132 0.745270
0.204651 0.213501 0.760162
0.256775 0.222321 0.757996
0.319672 0.220642 0.749695
0.387115 0.223999 0.752838
0.717865 0.215118 0.798035
0.051941 0.281311 0.725159
0.117218 0.284119 0.728302
0.181610 0.290344 0.734375
0.225586 0.296234 0.742950
0.270508 0.311768 0.746216
0.328430 0.315857 0.743561
0.444366 0.320160 0.745483
0.720764 0.327942 0.768707
0.066498 0.368073 0.716034
0.127228 0.380402 0.718719
0.194458 0.398254 0.730469
0.300720 0.415771 0.729950
0.369415 0.409546 0.724121
0.454102 0.417572 0.720337
0.577362 0.426605 0.727020
0.768158 0.435852 0.754608
0.079498 0.441620 0.699188
0.166626 0.454224 0.703613
0.273712 0.480530 0.719604
0.388275 0.508331 0.726318
0.481018 0.527649 0.728638
0.547028 0.520233 0.723450
0.678040 0.526367 0.728149
0.839050 0.548462 0.736633
0.094849 0.550751 0.679596
0.160065 0.558075 0.682373
0.277802 0.577789 0.703949
0.401703 0.600372 0.716949
0.528351 0.617889 0.727478
0.633453 0.635895 0.732880
0.740784 0.635010 0.735779
0.866516 0.654846 0.731140
0.106659 0.658569 0.662323
0.169617 0.661530 0.660522
0.260864 0.676086 0.678070
0.400299 0.692871 0.695618
0.531616 0.712738 0.713470
0.655426 0.738464 0.732971
0.771027 0.750519 0.737976
0.875214 0.753082 0.744080
0.126251 0.803772 0.678101
0.190582 0.804871 0.679443
0.253265 0.808899 0.685150
0.348785 0.814331 0.692963
0.506317 0.815643 0.692719
0.598877 0.816437 0.668549
0.732605 0.838196 0.687042
0.871399 0.863617 0.752075
0.067505 0.176025 0.851593
0.132355 0.174622 0.852173
0.195953 0.170685 0.854126
0.231567 0.177429 0.874298
0.275177 0.182404 0.873718
0.334869 0.169708 0.866913
0.397095 0.163177 0.857025
0.512207 0.165741 0.858185
0.067169 0.223877 0.851074
0.135834 0.229309 0.852478
0.200897 0.225250 0.850433
0.240631 0.233826 0.862000
0.276215 0.244659 0.879456
0.338867 0.244751 0.870911
0.401886 0.241486 0.858368
0.539795 0.246826 0.853729
0.069061 0.306000 0.849915
0.135010 0.312744 0.842468
0.210632 0.329285 0.818329
0.257202 0.327942 0.839508
0.291199 0.336670 0.863831
0.343994 0.343384 0.861816
0.406708 0.341309 0.849213
0.590912 0.344971 0.846954
0.075653 0.408936 0.849030
0.142181 0.419678 0.837280
0.214081 0.434448 0.820679
0.286224 0.445648 0.836884
0.339630 0.437500 0.843536
0.423492 0.447906 0.842621
0.508514 0.451111 0.835388
0.652222 0.452759 0.839417
0.094299 0.486847 0.838593
0.169617 0.497070 0.829651
0.293030 0.519623 0.816071
0.406555 0.552673 0.831573
0.484924 0.564484 0.840332
0.542511 0.553131 0.832611
0.609985 0.557617 0.826508
0.747681 0.565918 0.832458
0.109009 0.572632 0.822723
0.187317 0.579956 0.815277
0.309570 0.596802 0.816193
0.427612 0.623352 0.833618
0.545685 0.651428 0.839447
0.638092 0.671143 0.838623
0.693054 0.663910 0.834991
0.817322 0.669861 0.838135
0.121887 0.685028 0.811920
0.187988 0.685699 0.805511
0.290833 0.695679 0.809784
0.423431 0.713806 0.821747
0.556976 0.737915 0.833405
0.674530 0.754944 0.845886
0.767914 0.771912 0.850769
0.858276 0.773956 0.852386
0.131195 0.798309 0.801056
0.195709 0.800964 0.802734
0.258362 0.807190 0.804718
0.395294 0.817078 0.810486
0.536926 0.827240 0.823517
0.668182 0.840576 0.837250
0.785339 0.861938 0.850494
0.886047 0.877563 0.860199
