tools/luts_backup/LAPARDIN-WEDLUTS-16.cube
#Created by: Adobe Photoshop Export Color Lookup Plugin
#Copyright: (C) 2017 Andrey Lapardin. vk.com-3dluts
TITLE "Andrey Lapardin. vk.com-3dluts"
#LUT size
LUT_3D_SIZE 8
#data domain
#LUT data points
DOMAIN_MIN 0.000000 0.000000 0.000000
DOMAIN_MAX 0.903226 0.903226 0.903226
0.043823 0.053070 0.044983
0.103241 0.056763 0.048492
0.200623 0.059967 0.051178
0.333618 0.061615 0.050964
0.483734 0.062469 0.047089
0.619110 0.061859 0.044312
0.741669 0.054260 0.040497
0.853729 0.050659 0.036163
0.042267 0.117554 0.046570
0.107544 0.122284 0.047058
0.214020 0.135834 0.047577
0.345520 0.145691 0.048065
0.487854 0.153198 0.050659
0.618713 0.156219 0.050232
0.739594 0.159424 0.045135
0.848053 0.160370 0.038116
0.040619 0.219574 0.042145
0.108398 0.219971 0.045532
0.216949 0.223175 0.049530
0.361969 0.245514 0.051086
0.499207 0.247681 0.052277
0.624390 0.245270 0.054169
0.735657 0.240448 0.057800
0.834259 0.236603 0.061340
0.040039 0.356934 0.037354
0.102997 0.355682 0.041931
0.207489 0.355896 0.053162
0.359833 0.363373 0.054047
0.513733 0.373779 0.054962
0.633453 0.363983 0.058044
0.737000 0.353424 0.067688
0.829926 0.347931 0.082672
0.039032 0.499664 0.048798
0.109222 0.500488 0.059631
0.170990 0.485535 0.083679
0.340454 0.489899 0.075409
0.486664 0.490631 0.061798
0.628601 0.490479 0.058197
0.732971 0.481750 0.090637
0.824799 0.470825 0.115784
0.038971 0.614410 0.118378
0.113129 0.616699 0.129333
0.204071 0.604034 0.136780
0.330170 0.602600 0.150940
0.468048 0.606476 0.140533
0.595795 0.602814 0.123993
0.724762 0.607544 0.113892
0.818726 0.602203 0.144135
0.112457 0.715668 0.185089
0.211639 0.716583 0.190247
0.297058 0.716705 0.195496
0.360168 0.702667 0.213165
0.469574 0.705994 0.207550
0.585724 0.708038 0.200867
0.688354 0.705353 0.197479
0.809357 0.718262 0.187866
0.204010 0.809143 0.244598
0.288422 0.810059 0.248230
0.371857 0.810425 0.253845
0.421967 0.802368 0.265747
0.506531 0.801605 0.272644
0.605591 0.804535 0.268250
0.688232 0.803497 0.270020
0.777405 0.804626 0.268524
0.046265 0.054199 0.102386
0.102631 0.055786 0.104614
0.199524 0.055725 0.116089
0.333862 0.050659 0.125977
0.480286 0.052490 0.126434
0.609741 0.052948 0.126312
0.729736 0.049866 0.122955
0.840942 0.051178 0.120850
0.043060 0.116272 0.098907
0.122284 0.129333 0.110809
0.225311 0.136353 0.117157
0.362213 0.140411 0.119629
0.501434 0.149536 0.121796
0.626007 0.158142 0.125580
0.738800 0.165833 0.134064
0.833466 0.178741 0.147888
0.043793 0.216156 0.109863
0.125214 0.229797 0.119263
0.238068 0.244751 0.114319
0.383209 0.258179 0.111694
0.516785 0.253601 0.119904
0.638519 0.249878 0.130188
0.742249 0.257263 0.148865
0.827667 0.274658 0.171356
0.042755 0.351166 0.117645
0.107269 0.360260 0.126373
0.230835 0.370392 0.135132
0.388123 0.382751 0.119690
0.533112 0.391113 0.122925
0.647217 0.378845 0.149689
0.748596 0.368378 0.167114
0.828888 0.373352 0.202881
0.039764 0.491211 0.146210
0.109985 0.499237 0.157410
0.226227 0.503937 0.173950
0.372589 0.509308 0.172241
0.513763 0.506958 0.159332
0.644836 0.506409 0.157745
0.742462 0.496460 0.190948
0.821198 0.487335 0.221252
0.039459 0.605530 0.188202
0.134583 0.615814 0.198425
0.264771 0.617279 0.209351
0.362030 0.615662 0.223938
0.492676 0.617126 0.219177
0.615845 0.614471 0.213440
0.735901 0.617950 0.208893
0.815887 0.604797 0.233704
0.119080 0.708405 0.239532
0.230682 0.723602 0.251587
0.331726 0.723419 0.256317
0.400177 0.715851 0.272797
0.488922 0.712585 0.279053
0.602448 0.714233 0.274750
0.703949 0.710236 0.265167
0.810242 0.718353 0.262024
0.199646 0.800201 0.286621
0.301178 0.810516 0.302399
0.390289 0.810974 0.306213
0.466492 0.806824 0.319519
0.518250 0.797699 0.339996
0.608673 0.798157 0.337708
0.701141 0.800598 0.333466
0.784485 0.804962 0.331024
0.041199 0.057587 0.189178
0.099792 0.052216 0.200195
0.194824 0.049896 0.210358
0.337921 0.045685 0.246887
0.483917 0.046875 0.260956
0.614960 0.047913 0.256317
0.733826 0.047516 0.255035
0.838074 0.076294 0.251892
0.042816 0.131927 0.185425
0.111481 0.129822 0.210754
0.228241 0.130157 0.223602
0.360779 0.137482 0.243103
0.495636 0.144287 0.251495
0.621033 0.160553 0.257324
0.731445 0.182129 0.262054
0.822693 0.202454 0.264984
0.047180 0.219208 0.187103
0.126282 0.236267 0.206696
0.253387 0.257751 0.228760
0.390869 0.253662 0.230865
0.524780 0.258972 0.238983
0.642914 0.272614 0.253510
0.731232 0.294647 0.273865
0.800659 0.320648 0.305237
0.050446 0.348145 0.200165
0.127991 0.360931 0.210724
0.249756 0.389740 0.240662
0.400055 0.402405 0.232086
0.540741 0.397339 0.235626
0.651001 0.390808 0.258636
0.742920 0.392090 0.281311
0.814484 0.399536 0.308777
0.051849 0.479248 0.213684
0.119324 0.490601 0.233307
0.267609 0.512421 0.267242
0.387146 0.520020 0.276917
0.529572 0.523254 0.257294
0.653137 0.519318 0.253326
0.737274 0.510223 0.291870
0.810944 0.505646 0.322906
0.056519 0.599152 0.250885
0.164978 0.603333 0.273376
0.295593 0.619843 0.291809
0.390320 0.622223 0.312469
0.514160 0.625793 0.305176
0.628479 0.618103 0.295410
0.729645 0.623077 0.307953
0.811462 0.619476 0.333740
0.140045 0.702209 0.300995
0.232391 0.703583 0.316254
0.347656 0.715302 0.333740
0.432129 0.715485 0.347412
0.514160 0.716034 0.353058
0.618530 0.717102 0.344269
0.712128 0.713013 0.347839
0.811218 0.722961 0.353729
0.208313 0.797028 0.350342
0.288361 0.785980 0.354279
0.401276 0.786865 0.381592
0.488190 0.787720 0.388580
0.546570 0.800690 0.401917
0.622833 0.800476 0.398865
0.709900 0.801910 0.400909
0.795288 0.805328 0.400635
0.040009 0.063141 0.318939
0.095093 0.045471 0.336029
0.174133 0.046082 0.353149
0.309540 0.042358 0.367798
0.485535 0.042603 0.421844
0.617096 0.042572 0.422485
0.730865 0.042999 0.400879
0.831879 0.072968 0.391937
0.040466 0.144196 0.319000
0.097168 0.122223 0.346771
0.188995 0.125244 0.363129
0.331757 0.120972 0.376465
0.490204 0.125214 0.413727
0.614594 0.146790 0.416931
0.724792 0.179169 0.406647
0.813080 0.215729 0.404541
0.047363 0.244415 0.321106
0.101257 0.249756 0.341949
0.212585 0.247253 0.367889
0.384308 0.242828 0.377289
0.519775 0.263397 0.386353
0.630981 0.294006 0.396271
0.719727 0.327667 0.412537
0.795258 0.348480 0.422913
0.052277 0.352203 0.309509
0.110748 0.371216 0.334381
0.253723 0.394257 0.361938
0.405365 0.404144 0.375946
0.532104 0.398804 0.376923
0.639404 0.404236 0.387390
0.723480 0.426270 0.414154
0.806641 0.439026 0.431366
0.059113 0.481873 0.321045
0.184692 0.495392 0.340973
0.296814 0.507019 0.359497
0.401733 0.522858 0.386688
0.530792 0.528259 0.380768
0.644226 0.519684 0.383514
0.727234 0.524658 0.415436
0.816589 0.522217 0.426575
0.142609 0.594482 0.344971
0.228638 0.604126 0.359070
0.310242 0.610321 0.368927
0.420776 0.621216 0.404114
0.521790 0.626862 0.414612
0.631378 0.625061 0.397522
0.730865 0.630188 0.401123
0.809021 0.632294 0.431671
0.175964 0.694580 0.365143
0.255920 0.698822 0.381836
0.343719 0.693878 0.393555
0.466003 0.703461 0.432953
0.534576 0.713287 0.449005
0.630951 0.716583 0.442810
0.723694 0.715698 0.430298
0.809845 0.726898 0.444794
0.223419 0.790314 0.404327
0.296783 0.782135 0.416351
0.384033 0.780334 0.424622
0.505219 0.788727 0.462067
0.568726 0.798248 0.475342
0.638092 0.804108 0.482300
0.723694 0.805084 0.473328
0.803558 0.806610 0.480316
0.037415 0.056122 0.453156
0.102234 0.041504 0.463745
0.126923 0.043884 0.491577
0.271057 0.043152 0.499939
0.417328 0.043213 0.509949
0.604248 0.040833 0.570465
0.729736 0.039551 0.562317
0.827637 0.051422 0.534058
0.036682 0.142426 0.454956
0.101654 0.117981 0.474609
0.140808 0.121368 0.493622
0.269440 0.128784 0.503540
0.423615 0.119354 0.513306
0.601135 0.121582 0.561279
0.721741 0.148041 0.558441
0.809296 0.195984 0.535797
0.044189 0.247040 0.451080
0.100555 0.243530 0.471405
0.151611 0.239014 0.498566
0.324402 0.242706 0.500031
0.478668 0.251770 0.509735
0.615814 0.286743 0.539368
0.708527 0.323303 0.534088
0.789490 0.346466 0.532410
0.052399 0.360809 0.444946
0.107025 0.374359 0.466736
0.231842 0.394287 0.493347
0.375427 0.395599 0.506042
0.526337 0.396423 0.513397
0.632996 0.407837 0.510437
0.714630 0.433960 0.516693
0.799774 0.452545 0.522583
0.058319 0.480377 0.435028
0.152527 0.495239 0.455811
0.283203 0.515015 0.484741
0.407410 0.524872 0.499054
0.532166 0.529297 0.503540
0.634460 0.526093 0.506744
0.723389 0.530365 0.515411
0.809784 0.541199 0.533569
0.134247 0.592102 0.437927
0.232666 0.600586 0.452118
0.334259 0.610596 0.471924
0.444366 0.618286 0.497986
0.532013 0.627441 0.514557
0.634552 0.631439 0.509644
0.731293 0.632050 0.511871
0.808594 0.636597 0.535400
0.209869 0.690887 0.460297
0.292816 0.692261 0.466553
0.369507 0.697723 0.484161
0.455963 0.699493 0.490784
0.552979 0.714874 0.529633
0.631409 0.721283 0.535156
0.725189 0.723022 0.521301
0.814178 0.728149 0.527832
0.245270 0.785431 0.482635
0.318878 0.784882 0.485931
0.393738 0.785004 0.496704
0.482635 0.783417 0.504578
0.593658 0.793671 0.542633
0.650726 0.802094 0.564240
0.733307 0.806244 0.562805
0.813263 0.807556 0.557251
0.033997 0.048218 0.575684
0.104187 0.039856 0.578888
0.134369 0.036804 0.604706
0.212830 0.045654 0.615295
0.379272 0.045868 0.616547
0.531250 0.044983 0.625641
0.704590 0.039215 0.681396
0.823486 0.039886 0.671692
0.032806 0.132568 0.579346
0.103210 0.115601 0.590485
0.146973 0.115479 0.605042
0.202576 0.135895 0.616638
0.375488 0.134277 0.618103
0.532349 0.125427 0.624420
0.699829 0.135437 0.672363
0.805786 0.172974 0.659332
0.037048 0.252014 0.579285
0.098846 0.239441 0.587708
0.148682 0.232635 0.609619
0.270203 0.241364 0.610474
0.415680 0.260925 0.609741
0.557800 0.271271 0.617493
0.694794 0.293671 0.650024
0.782806 0.326904 0.640167
0.048767 0.364929 0.569427
0.106415 0.374359 0.579742
0.211731 0.388672 0.604095
0.335419 0.393311 0.612518
0.472015 0.392639 0.606903
0.604675 0.404755 0.611145
0.704254 0.440491 0.625122
0.793793 0.459198 0.617218
0.058136 0.482727 0.562469
0.141724 0.493378 0.575104
0.261780 0.511047 0.596405
0.389954 0.521606 0.602356
0.511536 0.522919 0.606598
0.631378 0.523590 0.611542
0.720856 0.531952 0.615631
0.807007 0.547729 0.618408
0.111481 0.589264 0.550293
0.216919 0.597748 0.557861
0.314392 0.614441 0.583954
0.427307 0.620667 0.595490
0.534424 0.629364 0.605591
0.638977 0.634521 0.609619
0.728973 0.635681 0.616425
0.810669 0.641479 0.625122
0.183563 0.689423 0.549072
0.273376 0.692230 0.554413
0.360870 0.698395 0.571503
0.464813 0.702545 0.583557
0.559753 0.715454 0.606781
0.641846 0.726379 0.623535
0.729095 0.728973 0.619995
0.814331 0.733154 0.623505
0.240906 0.784790 0.566559
0.320129 0.785736 0.571899
0.404205 0.788300 0.583496
0.491058 0.791168 0.595490
0.574402 0.790741 0.596710
0.670288 0.807068 0.630371
0.735626 0.812775 0.646423
0.816956 0.812927 0.641235
0.031677 0.047272 0.686676
0.100403 0.043060 0.688324
0.151733 0.039215 0.699768
0.174927 0.050385 0.716339
0.341888 0.047485 0.715485
0.495697 0.050354 0.711761
0.638733 0.048920 0.717590
0.795349 0.041656 0.766174
0.031677 0.121857 0.689453
0.099731 0.117065 0.698792
0.160553 0.114044 0.703522
0.183380 0.136383 0.715179
0.335602 0.145386 0.714661
0.495789 0.146118 0.710510
0.642059 0.144440 0.715485
0.783783 0.173767 0.754517
0.031647 0.254486 0.691132
0.096191 0.240753 0.692352
0.159882 0.238220 0.697571
0.233429 0.245300 0.704987
0.367645 0.267609 0.708649
0.508240 0.279144 0.707428
0.648193 0.283142 0.710083
0.765167 0.310974 0.729614
0.042725 0.372528 0.683258
0.102264 0.382355 0.685242
0.185028 0.393188 0.695282
0.316467 0.402008 0.698090
0.439178 0.397034 0.694214
0.559052 0.412415 0.692566
0.673615 0.421783 0.698059
0.775818 0.439911 0.720367
0.055115 0.487823 0.671692
0.131134 0.497345 0.675842
0.257172 0.512268 0.687012
0.381470 0.524414 0.693329
0.486664 0.528290 0.697449
0.596252 0.522278 0.694183
0.706360 0.530029 0.698242
0.795959 0.555481 0.705353
0.094269 0.592133 0.662842
0.203583 0.598816 0.666290
0.305756 0.612274 0.681671
0.412415 0.624725 0.688599
0.517242 0.629913 0.693298
0.625153 0.629517 0.700409
0.726105 0.631439 0.704285
0.809113 0.641510 0.708740
0.163086 0.688934 0.655914
0.255554 0.691040 0.655548
0.350647 0.699890 0.669159
0.446289 0.707642 0.680725
0.542450 0.715393 0.691101
0.640045 0.723083 0.699310
0.733643 0.730377 0.705963
0.815033 0.738007 0.717926
0.199432 0.783630 0.650757
0.285339 0.785889 0.655853
0.378052 0.789734 0.665192
0.472168 0.793701 0.676117
0.572510 0.796295 0.686218
0.662842 0.805664 0.697662
0.749329 0.820770 0.721436
0.819336 0.823669 0.729248
0.031647 0.052429 0.787537
0.096619 0.049347 0.788147
0.160583 0.044434 0.789917
0.192780 0.045013 0.806641
0.303986 0.056183 0.807831
0.464996 0.053802 0.802124
0.609222 0.055237 0.795471
0.744537 0.053558 0.798431
0.031647 0.121552 0.787476
0.100098 0.127930 0.787659
0.166351 0.125977 0.786133
0.204620 0.135681 0.795227
0.288666 0.145294 0.809753
0.462585 0.144836 0.803345
0.613037 0.152069 0.796692
0.745056 0.164948 0.795898
0.031647 0.248596 0.786041
0.098267 0.245544 0.780060
0.176636 0.266479 0.762329
0.245544 0.259277 0.778564
0.331268 0.263062 0.798096
0.467682 0.274658 0.797119
0.616425 0.285400 0.789490
0.745911 0.292603 0.789581
0.032318 0.385010 0.785339
0.099823 0.392944 0.774902
0.177277 0.405823 0.763245
0.285370 0.396606 0.776398
0.408997 0.388580 0.782593
0.514160 0.402557 0.782257
0.631927 0.413879 0.777985
0.751312 0.417450 0.783112
0.048584 0.490540 0.774628
0.113739 0.500885 0.768127
0.251556 0.521912 0.758484
0.366486 0.535217 0.771057
0.459259 0.529633 0.780365
0.564514 0.519501 0.774658
0.668152 0.531036 0.771332
0.776184 0.541901 0.778046
0.060638 0.593842 0.761780
0.160370 0.600311 0.756927
0.283752 0.611572 0.757629
0.386871 0.626404 0.770142
0.502838 0.635315 0.776947
0.605225 0.637573 0.780579
0.699249 0.633423 0.779480
0.800903 0.641998 0.783905
0.123291 0.695313 0.758545
0.224274 0.695465 0.754211
0.325439 0.700928 0.757507
0.424377 0.711334 0.766907
0.528076 0.722565 0.774689
0.628326 0.730194 0.785919
0.725281 0.731720 0.793091
0.813385 0.736023 0.795441
0.179016 0.787506 0.754700
0.263733 0.788940 0.756439
0.357697 0.792145 0.758453
0.454102 0.796875 0.763092
0.549866 0.803589 0.775574
0.647339 0.810913 0.787781
0.743896 0.818390 0.794312
0.828217 0.830658 0.807495
