tools/luts_backup/LAPARDIN-WEDLUTS-BW.cube
#Created by: Adobe Photoshop Export Color Lookup Plugin
#Copyright: (C) 2017 Andrey Lapardin. vk.com-3dluts
TITLE "Andrey Lapardin. vk.com-3dluts"
#LUT size
LUT_3D_SIZE 32
#data domain
DOMAIN_MIN 0.0 0.0 0.0
DOMAIN_MAX 1.0 1.0 1.0
#LUT data points
0.065796 0.065979 0.065918
0.065796 0.065979 0.065918
0.065796 0.065979 0.065918
0.065796 0.065979 0.065918
0.066071 0.066254 0.066193
0.067932 0.068115 0.068054
0.071869 0.072052 0.071991
0.075928 0.076080 0.076019
0.079346 0.079529 0.079468
0.083740 0.083893 0.083862
0.089203 0.089386 0.089325
0.096893 0.097046 0.096985
0.106628 0.106812 0.106750
0.118317 0.118500 0.118439
0.132263 0.132416 0.132355
0.147705 0.147858 0.147827
0.163696 0.163818 0.163788
0.180145 0.180267 0.180237
0.196808 0.196930 0.196899
0.213654 0.213776 0.213745
0.230408 0.230499 0.230469
0.247162 0.247253 0.247223
0.263916 0.264008 0.263977
0.281555 0.281616 0.281586
0.299744 0.299805 0.299774
0.318787 0.318817 0.318817
0.339081 0.339142 0.339142
0.361572 0.361633 0.361603
0.386230 0.386261 0.386261
0.414337 0.414398 0.414368
0.444489 0.444519 0.444519
0.474976 0.475006 0.475006
0.065796 0.065979 0.065918
0.065796 0.065979 0.065918
0.065796 0.065979 0.065918
0.065796 0.065979 0.065918
0.066071 0.066254 0.066193
0.067993 0.068176 0.068115
0.071930 0.072113 0.072052
0.075958 0.076111 0.076050
0.079376 0.079559 0.079498
0.083832 0.083984 0.083954
0.089355 0.089508 0.089447
0.097137 0.097290 0.097229
0.106903 0.107086 0.107025
0.118591 0.118774 0.118713
0.132538 0.132690 0.132660
0.147980 0.148132 0.148102
0.163940 0.164063 0.164032
0.180359 0.180481 0.180450
0.197021 0.197144 0.197113
0.213867 0.213989 0.213959
0.230621 0.230713 0.230682
0.247375 0.247437 0.247406
0.264099 0.264191 0.264160
0.281708 0.281769 0.281738
0.299896 0.299957 0.299957
0.318939 0.319000 0.319000
0.339233 0.339294 0.339294
0.361755 0.361786 0.361786
0.386322 0.386383 0.386353
0.414429 0.414459 0.414459
0.444489 0.444519 0.444519
0.475006 0.475037 0.475037
0.065796 0.065979 0.065918
0.065796 0.065979 0.065918
0.065796 0.065979 0.065918
0.065796 0.065979 0.065918
0.066467 0.066650 0.066589
0.069946 0.070099 0.070038
0.074036 0.074219 0.074158
0.078400 0.078583 0.078522
0.083710 0.083893 0.083832
0.090759 0.090942 0.090881
0.099091 0.099274 0.099213
0.108459 0.108612 0.108551
0.119171 0.119354 0.119293
0.131470 0.131622 0.131561
0.145020 0.145172 0.145142
0.159363 0.159515 0.159454
0.174500 0.174622 0.174591
0.190125 0.190247 0.190216
0.206085 0.206207 0.206146
0.222321 0.222443 0.222412
0.238617 0.238708 0.238678
0.255127 0.255188 0.255157
0.271820 0.271912 0.271881
0.289063 0.289124 0.289093
0.307068 0.307129 0.307098
0.326080 0.326141 0.326111
0.346649 0.346710 0.346710
0.368958 0.369019 0.368988
0.392914 0.392944 0.392944
0.418640 0.418671 0.418671
0.446289 0.446320 0.446289
0.475281 0.475311 0.475311
0.065796 0.065979 0.065918
0.065796 0.065979 0.065918
0.065796 0.065979 0.065918
0.065796 0.065979 0.065918
0.070190 0.070374 0.070313
0.077606 0.077789 0.077728
0.083435 0.083618 0.083557
0.088928 0.089111 0.089050
0.095245 0.095428 0.095367
0.102478 0.102661 0.102600
0.110565 0.110748 0.110687
0.120056 0.120239 0.120178
0.130920 0.131104 0.131042
0.142914 0.143066 0.143005
0.155670 0.155792 0.155762
0.169159 0.169281 0.169250
0.183380 0.183502 0.183472
0.198273 0.198395 0.198334
0.213684 0.213776 0.213745
0.229584 0.229675 0.229645
0.245728 0.245789 0.245758
0.262451 0.262543 0.262512
0.279419 0.279480 0.279449
0.296814 0.296906 0.296875
0.314972 0.315033 0.315033
0.334167 0.334229 0.334198
0.354889 0.354950 0.354919
0.376862 0.376923 0.376892
0.400360 0.400421 0.400391
0.425659 0.425690 0.425659
0.452789 0.452820 0.452789
0.481140 0.481171 0.481171
0.076660 0.076843 0.076782
0.076721 0.076904 0.076843
0.078644 0.078827 0.078766
0.080841 0.081024 0.080963
0.083618 0.083801 0.083740
0.090515 0.090698 0.090637
0.098145 0.098297 0.098236
0.103516 0.103699 0.103638
0.109406 0.109589 0.109528
0.116058 0.116241 0.116180
0.123993 0.124176 0.124115
0.132965 0.133148 0.133087
0.143250 0.143402 0.143341
0.154144 0.154297 0.154236
0.166107 0.166229 0.166168
0.178864 0.178986 0.178955
0.192505 0.192596 0.192566
0.206818 0.206940 0.206909
0.221710 0.221802 0.221771
0.236847 0.236938 0.236908
0.252533 0.252594 0.252594
0.269379 0.269470 0.269440
0.286743 0.286835 0.286804
0.304474 0.304535 0.304504
0.322968 0.323029 0.322998
0.342560 0.342590 0.342590
0.363129 0.363159 0.363159
0.384918 0.384979 0.384949
0.408295 0.408325 0.408325
0.433258 0.433289 0.433289
0.460052 0.460083 0.460083
0.487946 0.487976 0.487976
0.091064 0.091217 0.091156
0.091095 0.091278 0.091217
0.093109 0.093292 0.093231
0.096222 0.096405 0.096344
0.100006 0.100189 0.100128
0.102814 0.102997 0.102936
0.111328 0.111481 0.111420
0.119476 0.119659 0.119598
0.125793 0.125977 0.125916
0.132141 0.132324 0.132263
0.139465 0.139618 0.139557
0.147552 0.147705 0.147644
0.156555 0.156708 0.156647
0.166626 0.166779 0.166718
0.177643 0.177795 0.177734
0.189636 0.189728 0.189697
0.202484 0.202606 0.202576
0.216187 0.216309 0.216278
0.230652 0.230743 0.230713
0.245667 0.245758 0.245728
0.261566 0.261627 0.261627
0.277893 0.277985 0.277954
0.294617 0.294678 0.294678
0.312439 0.312500 0.312500
0.331024 0.331085 0.331085
0.350494 0.350555 0.350525
0.370911 0.370972 0.370941
0.392731 0.392792 0.392761
0.415894 0.415955 0.415924
0.440674 0.440704 0.440674
0.467255 0.467285 0.467285
0.494629 0.494659 0.494659
0.104858 0.105042 0.104980
0.104858 0.105042 0.104980
0.107361 0.107513 0.107452
0.111237 0.111420 0.111359
0.115356 0.115540 0.115479
0.119568 0.119720 0.119659
0.121674 0.121826 0.121765
0.131805 0.131989 0.131927
0.142151 0.142303 0.142273
0.148346 0.148499 0.148468
0.154999 0.155151 0.155121
0.162292 0.162415 0.162384
0.170532 0.170654 0.170624
0.179779 0.179901 0.179840
0.190033 0.190155 0.190094
0.201202 0.201294 0.201263
0.213348 0.213440 0.213409
0.226379 0.226471 0.226440
0.240356 0.240417 0.240387
0.255188 0.255280 0.255249
0.270691 0.270782 0.270752
0.286621 0.286682 0.286682
0.303131 0.303192 0.303162
0.320587 0.320648 0.320648
0.338928 0.338989 0.338959
0.358459 0.358521 0.358490
0.378784 0.378845 0.378815
0.400360 0.400421 0.400391
0.423401 0.423431 0.423431
0.448090 0.448120 0.448120
0.474365 0.474396 0.474396
0.501251 0.501282 0.501282
0.120636 0.120819 0.120758
0.120697 0.120880 0.120819
0.123474 0.123657 0.123596
0.127808 0.127991 0.127930
0.132385 0.132568 0.132507
0.136597 0.136749 0.136719
0.140472 0.140625 0.140564
0.142120 0.142273 0.142242
0.153717 0.153870 0.153839
0.164642 0.164795 0.164734
0.171326 0.171478 0.171417
0.178528 0.178650 0.178619
0.186279 0.186401 0.186371
0.194855 0.194946 0.194916
0.204376 0.204468 0.204437
0.214905 0.214996 0.214966
0.226410 0.226501 0.226471
0.238770 0.238861 0.238831
0.252045 0.252106 0.252106
0.266144 0.266235 0.266205
0.281036 0.281097 0.281067
0.296417 0.296478 0.296478
0.312469 0.312531 0.312500
0.329376 0.329437 0.329437
0.347260 0.347321 0.347321
0.366486 0.366547 0.366516
0.386871 0.386902 0.386902
0.408600 0.408630 0.408630
0.431732 0.431763 0.431763
0.456421 0.456451 0.456451
0.482300 0.482330 0.482330
0.508820 0.508850 0.508850
0.141205 0.141388 0.141327
0.141235 0.141418 0.141357
0.143585 0.143738 0.143677
0.147430 0.147614 0.147552
0.151703 0.151855 0.151794
0.155579 0.155731 0.155670
0.159332 0.159454 0.159424
0.163300 0.163422 0.163361
0.164337 0.164459 0.164429
0.176483 0.176605 0.176575
0.188354 0.188446 0.188416
0.195679 0.195801 0.195770
0.203308 0.203400 0.203369
0.211517 0.211639 0.211609
0.220520 0.220612 0.220581
0.230530 0.230621 0.230591
0.241455 0.241547 0.241516
0.253204 0.253265 0.253265
0.265594 0.265656 0.265625
0.278839 0.278931 0.278900
0.292694 0.292755 0.292725
0.307159 0.307220 0.307190
0.322449 0.322510 0.322510
0.338928 0.338989 0.338959
0.356476 0.356506 0.356506
0.375214 0.375244 0.375244
0.395325 0.395386 0.395355
0.417053 0.417084 0.417084
0.440491 0.440521 0.440521
0.465485 0.465515 0.465515
0.491241 0.491272 0.491272
0.517365 0.517395 0.517395
0.163971 0.164124 0.164063
0.164001 0.164124 0.164093
0.165436 0.165558 0.165527
0.168793 0.168915 0.168854
0.172668 0.172791 0.172760
0.176300 0.176422 0.176392
0.179626 0.179749 0.179688
0.183472 0.183594 0.183563
0.187866 0.187988 0.187958
0.188324 0.188446 0.188416
0.201813 0.201904 0.201874
0.213440 0.213531 0.213501
0.221252 0.221344 0.221313
0.229401 0.229492 0.229462
0.238220 0.238312 0.238281
0.247803 0.247894 0.247864
0.258209 0.258301 0.258270
0.269287 0.269379 0.269348
0.281036 0.281097 0.281067
0.293213 0.293274 0.293243
0.305878 0.305939 0.305908
0.319305 0.319366 0.319366
0.333832 0.333893 0.333893
0.349579 0.349640 0.349609
0.366516 0.366547 0.366547
0.384827 0.384888 0.384857
0.404724 0.404755 0.404724
0.426239 0.426270 0.426270
0.449738 0.449768 0.449738
0.474792 0.474823 0.474823
0.500580 0.500610 0.500610
0.526581 0.526611 0.526611
0.188263 0.188416 0.188354
0.188293 0.188416 0.188354
0.188751 0.188873 0.188843
0.191864 0.191956 0.191925
0.195374 0.195496 0.195435
0.198761 0.198853 0.198822
0.201935 0.202026 0.201996
0.205505 0.205627 0.205566
0.209564 0.209656 0.209625
0.214050 0.214172 0.214142
0.213898 0.214020 0.213989
0.228638 0.228729 0.228699
0.239868 0.239960 0.239929
0.248138 0.248230 0.248199
0.256836 0.256897 0.256866
0.266205 0.266266 0.266235
0.276123 0.276184 0.276154
0.286652 0.286713 0.286682
0.297668 0.297729 0.297729
0.309082 0.309143 0.309113
0.320862 0.320923 0.320892
0.333221 0.333282 0.333252
0.346802 0.346863 0.346832
0.361786 0.361847 0.361816
0.378113 0.378143 0.378143
0.395844 0.395905 0.395874
0.415192 0.415222 0.415192
0.436462 0.436493 0.436493
0.459808 0.459839 0.459808
0.484589 0.484619 0.484589
0.510284 0.510315 0.510315
0.536285 0.536316 0.536285
0.214172 0.214264 0.214233
0.214142 0.214233 0.214203
0.213654 0.213776 0.213745
0.216583 0.216705 0.216644
0.219849 0.219940 0.219910
0.222992 0.223114 0.223053
0.225952 0.226044 0.226013
0.229126 0.229218 0.229187
0.232666 0.232758 0.232727
0.236938 0.237030 0.237000
0.241608 0.241669 0.241638
0.240448 0.240540 0.240509
0.256287 0.256378 0.256348
0.267395 0.267456 0.267426
0.276062 0.276123 0.276123
0.285156 0.285217 0.285187
0.294739 0.294800 0.294769
0.304840 0.304901 0.304901
0.315430 0.315491 0.315460
0.326294 0.326355 0.326324
0.337372 0.337402 0.337402
0.348877 0.348938 0.348907
0.361481 0.361542 0.361511
0.375610 0.375641 0.375641
0.391266 0.391296 0.391296
0.408508 0.408539 0.408539
0.427429 0.427490 0.427460
0.448273 0.448303 0.448303
0.471039 0.471069 0.471039
0.495239 0.495270 0.495239
0.520630 0.520660 0.520660
0.546661 0.546661 0.546661
0.241364 0.241455 0.241425
0.241333 0.241394 0.241364
0.240204 0.240295 0.240265
0.242889 0.242950 0.242920
0.245789 0.245880 0.245850
0.248688 0.248749 0.248718
0.251434 0.251495 0.251465
0.254211 0.254303 0.254272
0.257324 0.257416 0.257385
0.260986 0.261047 0.261017
0.265320 0.265411 0.265381
0.270081 0.270172 0.270142
0.268158 0.268219 0.268188
0.283813 0.283875 0.283875
0.295929 0.295990 0.295959
0.304840 0.304901 0.304871
0.314178 0.314240 0.314209
0.323975 0.324036 0.324005
0.334167 0.334229 0.334229
0.344727 0.344788 0.344757
0.355316 0.355347 0.355347
0.366241 0.366302 0.366272
0.378235 0.378265 0.378265
0.391418 0.391479 0.391449
0.406250 0.406311 0.406281
0.423004 0.423035 0.423004
0.441528 0.441559 0.441559
0.462036 0.462067 0.462067
0.483978 0.484009 0.483978
0.507324 0.507355 0.507355
0.532135 0.532166 0.532135
0.558075 0.558105 0.558075
0.269470 0.269531 0.269531
0.269379 0.269470 0.269440
0.267792 0.267853 0.267822
0.270233 0.270294 0.270264
0.272980 0.273071 0.273041
0.275543 0.275604 0.275604
0.277985 0.278046 0.278046
0.280396 0.280457 0.280426
0.283051 0.283112 0.283081
0.286194 0.286255 0.286224
0.289948 0.290009 0.289978
0.294556 0.294617 0.294586
0.299622 0.299683 0.299683
0.296600 0.296661 0.296631
0.313812 0.313873 0.313873
0.325287 0.325348 0.325348
0.334503 0.334564 0.334564
0.343994 0.344025 0.344025
0.353882 0.353943 0.353943
0.364105 0.364136 0.364136
0.374481 0.374512 0.374512
0.385376 0.385437 0.385406
0.396973 0.397003 0.397003
0.409515 0.409546 0.409546
0.423462 0.423523 0.423492
0.439575 0.439606 0.439606
0.457672 0.457703 0.457703
0.477570 0.477600 0.477600
0.498688 0.498718 0.498688
0.521179 0.521210 0.521210
0.545441 0.545471 0.545441
0.571259 0.571259 0.571259
0.298218 0.298309 0.298279
0.298187 0.298279 0.298248
0.296143 0.296204 0.296204
0.298431 0.298492 0.298492
0.301117 0.301208 0.301178
0.303406 0.303467 0.303436
0.305542 0.305603 0.305573
0.307648 0.307739 0.307709
0.309875 0.309937 0.309906
0.312531 0.312592 0.312561
0.315765 0.315826 0.315796
0.319916 0.319977 0.319977
0.324799 0.324860 0.324829
0.329346 0.329407 0.329376
0.326294 0.326355 0.326324
0.345184 0.345245 0.345215
0.355469 0.355530 0.355499
0.364777 0.364838 0.364807
0.374481 0.374512 0.374512
0.384491 0.384552 0.384521
0.394867 0.394897 0.394897
0.405945 0.406006 0.405975
0.417664 0.417694 0.417694
0.429901 0.429932 0.429932
0.443176 0.443237 0.443207
0.458435 0.458466 0.458466
0.475677 0.475708 0.475677
0.494659 0.494690 0.494690
0.515045 0.515076 0.515076
0.536835 0.536865 0.536835
0.560455 0.560486 0.560455
0.586853 0.586884 0.586853
0.327515 0.327545 0.327545
0.327454 0.327515 0.327484
0.325287 0.325348 0.325317
0.327515 0.327576 0.327576
0.330170 0.330231 0.330200
0.332336 0.332397 0.332367
0.334198 0.334259 0.334259
0.335968 0.336029 0.336029
0.337769 0.337799 0.337799
0.339813 0.339874 0.339874
0.342712 0.342773 0.342743
0.346375 0.346436 0.346405
0.350769 0.350800 0.350800
0.355896 0.355957 0.355927
0.359253 0.359314 0.359283
0.356873 0.356903 0.356903
0.375000 0.375031 0.375031
0.386597 0.386658 0.386658
0.396027 0.396088 0.396057
0.405884 0.405945 0.405914
0.416504 0.416565 0.416534
0.428009 0.428040 0.428009
0.440125 0.440155 0.440155
0.452606 0.452637 0.452637
0.465515 0.465546 0.465515
0.479492 0.479523 0.479523
0.495422 0.495453 0.495453
0.513397 0.513428 0.513428
0.533081 0.533112 0.533112
0.554138 0.554169 0.554169
0.577209 0.577240 0.577209
0.603699 0.603699 0.603699
0.357452 0.357483 0.357483
0.357422 0.357452 0.357452
0.355347 0.355408 0.355377
0.357605 0.357635 0.357635
0.360168 0.360199 0.360199
0.362427 0.362457 0.362457
0.364227 0.364258 0.364258
0.365570 0.365601 0.365601
0.366852 0.366913 0.366882
0.368378 0.368439 0.368439
0.370667 0.370728 0.370697
0.373871 0.373932 0.373901
0.377869 0.377899 0.377899
0.382568 0.382629 0.382599
0.388092 0.388123 0.388123
0.390045 0.390076 0.390076
0.387329 0.387390 0.387360
0.407593 0.407623 0.407623
0.418793 0.418823 0.418793
0.428619 0.428650 0.428619
0.439514 0.439545 0.439545
0.451447 0.451477 0.451447
0.464081 0.464111 0.464081
0.476746 0.476776 0.476776
0.489349 0.489380 0.489380
0.502472 0.502502 0.502502
0.517151 0.517181 0.517181
0.533936 0.533966 0.533966
0.552765 0.552765 0.552765
0.573059 0.573059 0.573059
0.595703 0.595734 0.595703
0.622040 0.622070 0.622070
0.387787 0.387848 0.387817
0.387756 0.387817 0.387787
0.386047 0.386078 0.386078
0.388306 0.388367 0.388336
0.390991 0.391052 0.391022
0.393311 0.393341 0.393341
0.395172 0.395203 0.395203
0.396332 0.396362 0.396362
0.397125 0.397186 0.397156
0.398071 0.398132 0.398102
0.399719 0.399750 0.399750
0.402344 0.402405 0.402374
0.405945 0.406006 0.405975
0.410309 0.410339 0.410339
0.415283 0.415344 0.415314
0.421021 0.421082 0.421051
0.421631 0.421661 0.421631
0.418671 0.418732 0.418701
0.441132 0.441162 0.441162
0.452667 0.452698 0.452698
0.463806 0.463837 0.463806
0.475800 0.475830 0.475830
0.488434 0.488464 0.488464
0.501221 0.501251 0.501251
0.513885 0.513916 0.513885
0.526703 0.526733 0.526703
0.540527 0.540558 0.540527
0.556274 0.556274 0.556274
0.573944 0.573944 0.573944
0.593323 0.593353 0.593353
0.615448 0.615448 0.615448
0.641724 0.641754 0.641754
0.418549 0.418610 0.418579
0.418518 0.418579 0.418549
0.417297 0.417328 0.417328
0.419678 0.419708 0.419678
0.422485 0.422546 0.422516
0.425049 0.425079 0.425079
0.427094 0.427124 0.427124
0.428284 0.428314 0.428314
0.428650 0.428711 0.428680
0.428925 0.428986 0.428955
0.429718 0.429749 0.429749
0.431732 0.431793 0.431763
0.434875 0.434906 0.434906
0.438965 0.439026 0.438995
0.443756 0.443787 0.443787
0.449097 0.449127 0.449127
0.455109 0.455139 0.455109
0.454407 0.454437 0.454407
0.452484 0.452545 0.452515
0.473755 0.473785 0.473785
0.488403 0.488434 0.488403
0.500244 0.500275 0.500275
0.512726 0.512756 0.512756
0.525543 0.525574 0.525543
0.538361 0.538391 0.538361
0.551239 0.551270 0.551239
0.564667 0.564697 0.564697
0.579620 0.579651 0.579620
0.596252 0.596283 0.596283
0.614746 0.614746 0.614746
0.636230 0.636230 0.636230
0.662750 0.662750 0.662750
0.450989 0.451019 0.451019
0.450958 0.451019 0.450989
0.450256 0.450317 0.450287
0.452942 0.452972 0.452972
0.456024 0.456055 0.456055
0.458832 0.458862 0.458862
0.461182 0.461212 0.461212
0.462585 0.462646 0.462616
0.462769 0.462799 0.462799
0.462250 0.462280 0.462280
0.462036 0.462067 0.462036
0.463135 0.463165 0.463165
0.465759 0.465790 0.465790
0.469452 0.469482 0.469452
0.473907 0.473938 0.473938
0.478912 0.478943 0.478912
0.484406 0.484436 0.484436
0.490356 0.490387 0.490387
0.488617 0.488647 0.488647
0.486908 0.486938 0.486908
0.507355 0.507385 0.507355
0.524445 0.524445 0.524445
0.536774 0.536804 0.536804
0.549530 0.549530 0.549530
0.562408 0.562408 0.562408
0.575439 0.575470 0.575439
0.588867 0.588898 0.588898
0.603363 0.603394 0.603394
0.619263 0.619263 0.619263
0.636932 0.636963 0.636932
0.658020 0.658020 0.658020
0.684296 0.684326 0.684296
0.484863 0.484894 0.484894
0.484894 0.484924 0.484924
0.484833 0.484863 0.484863
0.487732 0.487762 0.487732
0.490936 0.490967 0.490967
0.493835 0.493866 0.493866
0.496399 0.496429 0.496429
0.498047 0.498077 0.498047
0.498169 0.498199 0.498199
0.497040 0.497070 0.497070
0.495850 0.495880 0.495880
0.495850 0.495880 0.495880
0.497528 0.497559 0.497528
0.500641 0.500671 0.500641
0.504700 0.504730 0.504700
0.509308 0.509338 0.509338
0.514374 0.514404 0.514404
0.519836 0.519867 0.519836
0.525604 0.525635 0.525635
0.523193 0.523224 0.523224
0.521149 0.521179 0.521149
0.540497 0.540527 0.540527
0.560272 0.560303 0.560303
0.572998 0.573029 0.572998
0.585815 0.585846 0.585846
0.598938 0.598938 0.598938
0.612366 0.612396 0.612366
0.626617 0.626617 0.626617
0.641998 0.641998 0.641998
0.659454 0.659485 0.659485
0.680359 0.680389 0.680389
0.706787 0.706787 0.706787
0.519135 0.519165 0.519165
0.519165 0.519196 0.519165
0.519714 0.519714 0.519714
0.522827 0.522858 0.522858
0.526123 0.526154 0.526123
0.529205 0.529236 0.529236
0.531891 0.531921 0.531891
0.533661 0.533691 0.533691
0.533905 0.533936 0.533936
0.532532 0.532562 0.532532
0.530426 0.530457 0.530457
0.529327 0.529358 0.529358
0.529968 0.529999 0.529999
0.532349 0.532349 0.532349
0.535919 0.535950 0.535919
0.540161 0.540192 0.540192
0.544830 0.544861 0.544861
0.549835 0.549835 0.549835
0.555115 0.555115 0.555115
0.560760 0.560760 0.560760
0.557922 0.557953 0.557953
0.555664 0.555695 0.555695
0.573425 0.573456 0.573456
0.595734 0.595734 0.595734
0.608856 0.608887 0.608856
0.621918 0.621948 0.621918
0.635193 0.635223 0.635193
0.649109 0.649109 0.649109
0.664429 0.664429 0.664429
0.682281 0.682281 0.682281
0.703583 0.703583 0.703583
0.730103 0.730103 0.730103
0.553711 0.553741 0.553711
0.553741 0.553772 0.553741
0.554749 0.554779 0.554749
0.558136 0.558167 0.558136
0.561737 0.561768 0.561737
0.564850 0.564880 0.564880
0.567657 0.567657 0.567657
0.569519 0.569550 0.569550
0.569885 0.569916 0.569916
0.568359 0.568390 0.568390
0.565674 0.565704 0.565704
0.563538 0.563538 0.563538
0.563110 0.563110 0.563110
0.564545 0.564575 0.564575
0.567505 0.567535 0.567535
0.571320 0.571350 0.571350
0.575592 0.575623 0.575623
0.580170 0.580200 0.580200
0.585052 0.585083 0.585083
0.590240 0.590271 0.590271
0.595764 0.595795 0.595795
0.592896 0.592926 0.592926
0.590851 0.590851 0.590851
0.606110 0.606110 0.606110
0.628845 0.628876 0.628845
0.644470 0.644470 0.644470
0.657471 0.657501 0.657501
0.670929 0.670959 0.670929
0.686340 0.686340 0.686340
0.704926 0.704926 0.704926
0.728241 0.728241 0.728241
0.754181 0.754181 0.754181
0.588623 0.588654 0.588623
0.588623 0.588654 0.588623
0.590088 0.590088 0.590088
0.593658 0.593689 0.593689
0.597504 0.597534 0.597534
0.600861 0.600891 0.600861
0.603729 0.603760 0.603729
0.605713 0.605743 0.605743
0.606110 0.606140 0.606140
0.604584 0.604614 0.604584
0.601532 0.601532 0.601532
0.598419 0.598450 0.598450
0.596924 0.596954 0.596954
0.597412 0.597443 0.597443
0.599579 0.599609 0.599609
0.602814 0.602844 0.602844
0.606689 0.606720 0.606720
0.610931 0.610962 0.610962
0.615417 0.615448 0.615448
0.620239 0.620239 0.620239
0.625366 0.625366 0.625366
0.630890 0.630890 0.630890
0.628296 0.628296 0.628296
0.626526 0.626556 0.626556
0.639221 0.639221 0.639221
0.660126 0.660156 0.660156
0.679077 0.679108 0.679077
0.692261 0.692291 0.692291
0.707489 0.707520 0.707489
0.728760 0.728760 0.728760
0.752991 0.752991 0.752991
0.778839 0.778839 0.778839
0.623810 0.623840 0.623840
0.623871 0.623871 0.623871
0.625702 0.625732 0.625702
0.629425 0.629456 0.629456
0.633575 0.633575 0.633575
0.637177 0.637177 0.637177
0.640137 0.640137 0.640137
0.642181 0.642212 0.642181
0.642670 0.642700 0.642670
0.641144 0.641174 0.641144
0.637878 0.637878 0.637878
0.634094 0.634094 0.634094
0.631500 0.631500 0.631500
0.630920 0.630951 0.630920
0.632233 0.632263 0.632263
0.634888 0.634888 0.634888
0.638306 0.638336 0.638306
0.642151 0.642181 0.642181
0.646393 0.646393 0.646393
0.650879 0.650879 0.650879
0.655670 0.655670 0.655670
0.660706 0.660706 0.660706
0.666107 0.666138 0.666138
0.664185 0.664185 0.664185
0.662384 0.662384 0.662384
0.673065 0.673096 0.673065
0.689758 0.689758 0.689758
0.710175 0.710175 0.710175
0.728638 0.728668 0.728668
0.752289 0.752289 0.752289
0.777313 0.777344 0.777344
0.802948 0.802979 0.802979
0.659637 0.659668 0.659668
0.659668 0.659698 0.659698
0.661743 0.661774 0.661774
0.665649 0.665680 0.665680
0.670013 0.670013 0.670013
0.673767 0.673798 0.673798
0.676910 0.676910 0.676910
0.679047 0.679047 0.679047
0.679535 0.679535 0.679535
0.678009 0.678040 0.678040
0.674591 0.674591 0.674591
0.670380 0.670410 0.670380
0.666870 0.666870 0.666870
0.665375 0.665405 0.665375
0.665771 0.665802 0.665802
0.667755 0.667786 0.667755
0.670746 0.670746 0.670746
0.674255 0.674286 0.674286
0.678223 0.678223 0.678223
0.682434 0.682434 0.682434
0.686890 0.686890 0.686890
0.691467 0.691467 0.691467
0.696259 0.696259 0.696259
0.701202 0.701202 0.701202
0.699982 0.699982 0.699982
0.697388 0.697418 0.697388
0.706543 0.706543 0.706543
0.719299 0.719330 0.719330
0.745392 0.745392 0.745392
0.774780 0.774780 0.774780
0.800873 0.800873 0.800873
0.825378 0.825378 0.825378
0.695923 0.695923 0.695923
0.695984 0.695984 0.695984
0.698273 0.698273 0.698273
0.702179 0.702179 0.702179
0.706696 0.706696 0.706696
0.710632 0.710632 0.710632
0.713806 0.713837 0.713806
0.715851 0.715851 0.715851
0.716278 0.716278 0.716278
0.714661 0.714661 0.714661
0.711151 0.711151 0.711151
0.706665 0.706665 0.706665
0.702576 0.702606 0.702576
0.700256 0.700287 0.700256
0.699951 0.699982 0.699982
0.701355 0.701385 0.701385
0.703888 0.703888 0.703888
0.707092 0.707123 0.707123
0.710754 0.710754 0.710754
0.714691 0.714722 0.714722
0.718811 0.718811 0.718811
0.722931 0.722961 0.722961
0.727081 0.727081 0.727081
0.731079 0.731079 0.731079
0.734741 0.734741 0.734741
0.733948 0.733948 0.733948
0.730103 0.730133 0.730133
0.739868 0.739868 0.739868
0.759338 0.759338 0.759338
0.790436 0.790436 0.790436
0.822968 0.822968 0.822968
0.846832 0.846832 0.846832
0.732758 0.732788 0.732758
0.732819 0.732819 0.732819
0.735291 0.735291 0.735291
0.739136 0.739136 0.739136
0.743652 0.743683 0.743683
0.747650 0.747650 0.747650
0.750763 0.750763 0.750763
0.752563 0.752563 0.752563
0.752563 0.752594 0.752563
0.750610 0.750641 0.750641
0.746918 0.746948 0.746948
0.742371 0.742371 0.742371
0.738159 0.738159 0.738159
0.735413 0.735443 0.735443
0.734741 0.734741 0.734741
