tools/luts_backup/LAPARDIN-WEDLUTS-4.cube
#Created by: Adobe Photoshop Export Color Lookup Plugin
#Copyright: (C) 2017 Andrey Lapardin. vk.com-3dluts
TITLE "Andrey Lapardin. vk.com-3dluts"
#LUT size
LUT_3D_SIZE 32
#data domain
DOMAIN_MIN 0.0 0.0 0.0
DOMAIN_MAX 1.0 1.0 1.0
#LUT data points
0.002930 0.005127 0.006256
0.014221 0.007233 0.007813
0.030426 0.006897 0.009064
0.048187 0.007111 0.009460
0.073303 0.007324 0.009735
0.099701 0.006348 0.008453
0.124481 0.006378 0.008423
0.152649 0.005829 0.008972
0.184784 0.003448 0.007843
0.220703 0.000000 0.006989
0.258850 0.000000 0.006317
0.300446 0.000031 0.005219
0.343292 0.000000 0.004272
0.385895 0.000000 0.003479
0.431152 0.000000 0.001160
0.474854 0.000000 0.000427
0.518097 0.000000 0.000000
0.560364 0.000000 0.000000
0.601837 0.000000 0.000000
0.643402 0.000000 0.000000
0.684265 0.000000 0.000000
0.725220 0.000000 0.000000
0.768829 0.000000 0.000000
0.810150 0.000000 0.000000
0.849274 0.000000 0.000000
0.885864 0.000000 0.000000
0.920898 0.000000 0.000000
0.957031 0.000000 0.000000
0.985626 0.000000 0.000000
1.000000 0.000000 0.000000
1.000000 0.000000 0.000000
1.000000 0.000000 0.000000
0.004517 0.013428 0.007385
0.012726 0.014893 0.007477
0.028198 0.016113 0.008789
0.047577 0.017181 0.009277
0.072906 0.017792 0.009644
0.099121 0.018127 0.008362
0.126343 0.017975 0.008362
0.155334 0.018585 0.008820
0.187286 0.016724 0.007599
0.223022 0.012268 0.006989
0.259613 0.006500 0.006836
0.303314 0.001221 0.004761
0.346008 0.000366 0.003265
0.388123 0.000000 0.001587
0.431152 0.000000 0.000397
0.475128 0.000000 0.000122
0.518372 0.000000 0.000000
0.560059 0.000000 0.000000
0.602722 0.000000 0.000000
0.643280 0.000000 0.000000
0.684723 0.000000 0.000000
0.727295 0.000000 0.000000
0.771332 0.000000 0.000000
0.808716 0.000000 0.000000
0.848267 0.000000 0.000000
0.886658 0.000000 0.000000
0.921692 0.000000 0.000000
0.957031 0.000000 0.000000
0.985718 0.000000 0.000000
1.000000 0.000000 0.000000
1.000000 0.000000 0.000000
1.000000 0.000000 0.000000
0.004272 0.030518 0.007721
0.013184 0.032135 0.008118
0.029999 0.031433 0.008362
0.050323 0.033722 0.008942
0.072906 0.036499 0.009430
0.098358 0.038055 0.008209
0.126617 0.038330 0.008209
0.157715 0.036133 0.008636
0.190338 0.032623 0.007263
0.224945 0.027679 0.006775
0.261230 0.018219 0.006775
0.305084 0.010681 0.004608
0.348450 0.004456 0.003021
0.390106 0.004364 0.000946
0.433380 0.000000 0.000153
0.476227 0.000000 0.000000
0.519073 0.000000 0.000000
0.560272 0.000000 0.000000
0.602783 0.000000 0.000000
0.644836 0.000000 0.000000
0.685577 0.000000 0.000000
0.728363 0.000000 0.000000
0.772125 0.000000 0.000000
0.809723 0.000000 0.000000
0.846466 0.000000 0.000000
0.885803 0.000000 0.000000
0.923798 0.000000 0.000000
0.957275 0.000000 0.000000
0.985870 0.000000 0.000000
1.000000 0.000000 0.000000
1.000000 0.000000 0.000000
1.000000 0.000000 0.000000
0.004669 0.048462 0.007568
0.014648 0.051727 0.007874
0.032074 0.051208 0.008209
0.052002 0.051453 0.008270
0.074188 0.056519 0.008514
0.099274 0.059296 0.008728
0.128479 0.060059 0.008667
0.159332 0.057526 0.008423
0.192108 0.056824 0.006195
0.227264 0.052826 0.005615
0.264587 0.045807 0.005493
0.308228 0.034943 0.003143
0.351074 0.025604 0.001801
0.392059 0.018188 0.000275
0.436462 0.000000 0.000183
0.478760 0.000000 0.000000
0.521057 0.000000 0.000000
0.561310 0.000000 0.000000
0.603424 0.000000 0.000000
0.645782 0.000000 0.000000
0.686920 0.000000 0.000000
0.728394 0.000000 0.000000
0.769623 0.000000 0.000000
0.809326 0.000000 0.000000
0.847717 0.000000 0.000000
0.884796 0.000000 0.000000
0.921448 0.000000 0.000000
0.955627 0.000000 0.000000
0.985931 0.000000 0.000000
1.000000 0.000000 0.000000
1.000000 0.000000 0.000000
1.000000 0.000000 0.000000
0.005127 0.070862 0.007782
0.012787 0.074036 0.007874
0.030945 0.074310 0.008179
0.053314 0.074921 0.008026
0.073242 0.076508 0.008057
0.098328 0.079742 0.008850
0.128784 0.080658 0.009277
0.159088 0.078827 0.008575
0.192047 0.078735 0.006195
0.228485 0.078674 0.004913
0.266724 0.074310 0.004517
0.311127 0.065277 0.002380
0.353668 0.055389 0.001251
0.394653 0.040344 0.000000
0.438843 0.023224 0.000000
0.480621 0.015411 0.000000
0.523010 0.012146 0.000000
0.562683 0.012939 0.000000
0.604187 0.008331 0.000000
0.645660 0.006195 0.000000
0.686218 0.004913 0.000000
0.726990 0.003876 0.000000
0.768372 0.000000 0.000000
0.807709 0.001221 0.000000
0.845795 0.000000 0.000000
0.883179 0.000000 0.000000
0.919464 0.000000 0.000000
0.953003 0.000000 0.000000
0.984344 0.000244 0.000000
1.000000 0.003326 0.000000
1.000000 0.004089 0.000000
1.000000 0.004852 0.000000
0.001801 0.095306 0.005585
0.008484 0.098541 0.005615
0.027588 0.099609 0.006073
0.054901 0.099396 0.005981
0.074280 0.100769 0.006561
0.096924 0.099457 0.006592
0.127319 0.101807 0.006500
0.158356 0.103241 0.004639
0.193848 0.103973 0.004181
0.230591 0.105286 0.002777
0.267059 0.104340 0.000885
0.312836 0.099670 0.000702
0.356110 0.091919 0.000305
0.398010 0.080872 0.000000
0.441254 0.070862 0.000000
0.482117 0.060760 0.000000
0.523743 0.053833 0.000000
0.564514 0.043732 0.000000
0.605194 0.026581 0.000000
0.645844 0.020691 0.000000
0.685577 0.016632 0.000000
0.725220 0.012451 0.000000
0.768036 0.000000 0.000000
0.806824 0.002411 0.000000
0.843719 0.001495 0.000000
0.879517 0.000000 0.000000
0.917542 0.000000 0.000000
0.950134 0.000000 0.000000
0.981903 0.002014 0.000000
1.000000 0.012360 0.000000
1.000000 0.015015 0.000000
1.000000 0.027832 0.000000
0.001617 0.124298 0.005066
0.006470 0.124237 0.004974
0.024139 0.126831 0.005341
0.052338 0.127197 0.005219
0.076904 0.125854 0.006012
0.102020 0.124969 0.005615
0.126129 0.122711 0.005707
0.157990 0.126495 0.003418
0.194092 0.129272 0.002991
0.232361 0.131714 0.002625
0.268158 0.133423 0.000275
0.314423 0.131409 0.000092
0.359436 0.126801 0.000000
0.401611 0.120239 0.000000
0.444580 0.112244 0.000000
0.485229 0.107910 0.000000
0.525513 0.100250 0.000000
0.566803 0.084351 0.000000
0.606384 0.069733 0.000000
0.646790 0.060669 0.000000
0.685425 0.052277 0.000000
0.724121 0.046631 0.000000
0.767303 0.034271 0.000000
0.805145 0.032196 0.000000
0.842194 0.030609 0.000000
0.876373 0.029877 0.000000
0.913605 0.031616 0.000000
0.946960 0.032745 0.000000
0.977722 0.034851 0.000000
0.999939 0.044434 0.000000
1.000000 0.049683 0.000000
1.000000 0.069458 0.000000
0.000000 0.157288 0.002258
0.003143 0.158081 0.002197
0.011993 0.159058 0.002167
0.043488 0.160156 0.002472
0.071930 0.159027 0.002716
0.103485 0.156799 0.002106
0.132446 0.157745 0.002075
0.159363 0.155518 0.001068
0.194000 0.157837 0.000824
0.231567 0.160461 0.000519
0.269897 0.162872 0.000031
0.316650 0.163910 0.000031
0.362091 0.161469 0.000000
0.404785 0.157288 0.000000
0.446991 0.152649 0.000000
0.488251 0.151215 0.000000
0.528961 0.145844 0.000000
0.569092 0.135895 0.000000
0.606964 0.130585 0.000000
0.647644 0.126068 0.000000
0.686218 0.119812 0.000000
0.724152 0.112610 0.000000
0.767853 0.106689 0.000000
0.803894 0.101013 0.000000
0.840027 0.096771 0.000000
0.875366 0.090179 0.000000
0.908875 0.095551 0.000000
0.943085 0.095062 0.000000
0.973511 0.095764 0.000000
0.998016 0.100861 0.000000
1.000000 0.108002 0.000000
1.000000 0.124390 0.000000
0.000000 0.193420 0.000000
0.000000 0.194641 0.000000
0.002411 0.194153 0.000000
0.032104 0.194824 0.000336
0.065155 0.194824 0.001038
0.097534 0.193085 0.001068
0.131775 0.192474 0.001373
0.164581 0.194702 0.000000
0.194733 0.188477 0.000000
0.232544 0.191620 0.000000
0.271637 0.194977 0.000000
0.317474 0.197937 0.000000
0.362915 0.197906 0.000000
0.405609 0.195435 0.000000
0.447540 0.192535 0.000000
0.490265 0.190247 0.000000
0.531067 0.189697 0.000000
0.571198 0.183319 0.000000
0.609467 0.180481 0.000000
0.648895 0.178589 0.000000
0.688019 0.175385 0.000000
0.725525 0.168243 0.000000
0.768066 0.163025 0.000000
0.803192 0.161163 0.000000
0.838623 0.157593 0.000000
0.874268 0.148346 0.000000
0.906586 0.152039 0.000000
0.939087 0.153473 0.000000
0.970764 0.152283 0.000000
0.996796 0.153809 0.000000
0.999390 0.160431 0.000000
1.000000 0.171448 0.000000
0.000000 0.231781 0.000000
0.000000 0.234650 0.000000
0.000000 0.233185 0.000000
0.020599 0.233154 0.000000
0.049469 0.231689 0.000000
0.085236 0.231201 0.000000
0.126221 0.231140 0.000000
0.162628 0.232697 0.000000
0.201843 0.230865 0.000000
0.233429 0.225006 0.000000
0.273712 0.229614 0.000000
0.319122 0.233704 0.000000
0.363861 0.234924 0.000000
0.406403 0.233887 0.000000
0.447693 0.233002 0.000000
0.490875 0.230896 0.000000
0.532623 0.229401 0.000000
0.572784 0.228546 0.000000
0.611786 0.228638 0.000000
0.651184 0.227234 0.000000
0.689423 0.224365 0.000000
0.728058 0.219269 0.000000
0.769409 0.213409 0.000000
0.802979 0.212097 0.000000
0.837189 0.209381 0.000000
0.873322 0.204376 0.000000
0.904968 0.204590 0.000000
0.936676 0.205811 0.000000
0.967712 0.205383 0.000000
0.996582 0.204132 0.000000
0.999207 0.206696 0.000000
1.000000 0.213928 0.000000
0.000000 0.271790 0.000000
0.000000 0.273132 0.000000
0.000000 0.273407 0.000000
0.001465 0.273773 0.000000
0.030823 0.271912 0.000000
0.079559 0.269043 0.000000
0.120758 0.268982 0.000000
0.159790 0.270508 0.000000
0.203888 0.270538 0.000000
0.242798 0.270111 0.000000
0.274231 0.265015 0.000000
0.318329 0.269775 0.000000
0.363342 0.271301 0.000000
0.406494 0.270996 0.000000
0.446747 0.272217 0.000000
0.490509 0.271515 0.000000
0.532227 0.271027 0.000000
0.572723 0.270935 0.000000
0.613434 0.270386 0.000000
0.652557 0.269043 0.000000
0.690216 0.268524 0.000000
0.728668 0.265594 0.000000
0.769379 0.261139 0.000000
0.804993 0.256958 0.000000
0.836639 0.256439 0.000000
0.871002 0.252899 0.000000
0.904144 0.250763 0.000000
0.934814 0.251953 0.000000
0.965149 0.253693 0.000000
0.994476 0.253815 0.000000
0.999115 0.256073 0.000000
1.000000 0.260925 0.000000
0.000000 0.316986 0.000000
0.000000 0.317627 0.000000
0.000000 0.317230 0.000000
0.000641 0.317688 0.000000
0.025848 0.316254 0.000000
0.068237 0.313385 0.000000
0.116302 0.311798 0.000000
0.157654 0.312500 0.000000
0.203217 0.312866 0.000000
0.245361 0.312378 0.000000
0.284912 0.313568 0.000000
0.319611 0.308899 0.000000
0.362457 0.311462 0.000000
0.406158 0.311005 0.000000
0.447327 0.312317 0.000000
0.489838 0.312927 0.000000
0.532745 0.312866 0.000000
0.573212 0.314270 0.000000
0.614349 0.314240 0.000000
0.653259 0.312683 0.000000
0.690979 0.312469 0.000000
0.729431 0.311615 0.000000
0.769348 0.308563 0.000000
0.804352 0.305359 0.000000
0.838654 0.302704 0.000000
0.869720 0.301666 0.000000
0.902374 0.298950 0.000000
0.933258 0.299469 0.000000
0.963654 0.300934 0.000000
0.992188 0.303131 0.000000
0.998199 0.306061 0.000000
1.000000 0.309387 0.000000
0.000000 0.361755 0.000000
0.000000 0.362274 0.000000
0.000000 0.361053 0.000000
0.000000 0.360931 0.000000
0.026337 0.359406 0.000000
0.061340 0.357300 0.000000
0.106201 0.356079 0.000000
0.154938 0.356079 0.000000
0.201813 0.356476 0.000000
0.245636 0.356903 0.000000
0.288361 0.356415 0.000000
0.331268 0.360443 0.000000
0.363495 0.353943 0.000000
0.404358 0.354401 0.000000
0.448486 0.353729 0.000000
0.490143 0.355286 0.000000
0.532166 0.355591 0.000000
0.574493 0.355591 0.000000
0.615356 0.357666 0.000000
0.654510 0.355652 0.000000
0.691345 0.356171 0.000000
0.729706 0.355927 0.000000
0.769165 0.354797 0.000000
0.804321 0.353027 0.000000
0.838562 0.350677 0.000000
0.871124 0.348969 0.000000
0.900726 0.347809 0.000000
0.930817 0.348602 0.000000
0.960754 0.349884 0.000000
0.990021 0.351379 0.000000
0.997528 0.355469 0.000000
1.000000 0.358368 0.000000
0.000000 0.402985 0.000000
0.000000 0.403656 0.000000
0.000000 0.403717 0.000000
0.000000 0.402588 0.000000
0.026184 0.400848 0.000000
0.055420 0.398010 0.000000
0.102020 0.396118 0.000000
0.153137 0.395294 0.000000
0.199982 0.394470 0.000000
0.244049 0.396362 0.000000
0.288208 0.397675 0.000000
0.335571 0.397858 0.000000
0.375488 0.398224 0.000000
0.406281 0.391449 0.000000
0.446899 0.393585 0.000000
0.489197 0.394592 0.000000
0.530182 0.395447 0.000000
0.572052 0.395172 0.000000
0.613983 0.394470 0.000000
0.653381 0.394135 0.000000
0.690979 0.396667 0.000000
0.730072 0.397949 0.000000
0.769226 0.397461 0.000000
0.803772 0.395752 0.000000
0.837799 0.392426 0.000000
0.870209 0.389954 0.000000
0.899780 0.388947 0.000000
0.928986 0.390411 0.000000
0.958099 0.391846 0.000000
0.986053 0.393524 0.000000
0.997955 0.397491 0.000000
1.000000 0.400543 0.000000
0.000000 0.443481 0.000000
0.000000 0.444031 0.000000
0.000000 0.444061 0.000000
0.000000 0.444214 0.000000
0.019440 0.443420 0.000000
0.049744 0.440735 0.000000
0.102539 0.438416 0.000000
0.152069 0.436340 0.000000
0.194580 0.434357 0.000000
0.244415 0.434387 0.000000
0.291016 0.436584 0.000000
0.339905 0.437500 0.000000
0.379089 0.439240 0.000000
0.417633 0.438416 0.000000
0.447266 0.431122 0.000000
0.488586 0.433594 0.000000
0.530334 0.434204 0.000000
0.570862 0.435364 0.000000
0.611816 0.435333 0.000000
0.652313 0.434204 0.000000
0.690399 0.435059 0.000000
0.730560 0.436951 0.000000
0.769043 0.437134 0.000000
0.802765 0.436127 0.000000
0.834503 0.436310 0.000000
0.868042 0.434387 0.000000
0.897461 0.434204 0.000000
0.927307 0.433807 0.000000
0.956055 0.433990 0.000000
0.983429 0.435242 0.000000
0.997650 0.439331 0.000000
1.000000 0.441193 0.000000
0.000000 0.483276 0.000000
0.000000 0.483826 0.000000
0.000000 0.483765 0.000000
0.000000 0.482666 0.000000
0.017334 0.484955 0.000000
0.054535 0.483246 0.000000
0.104980 0.480194 0.000000
0.152893 0.477356 0.000000
0.193634 0.474854 0.000000
0.240387 0.474426 0.000000
0.292114 0.475342 0.000000
0.342194 0.477142 0.000000
0.381683 0.479004 0.000000
0.421265 0.479645 0.000000
0.458527 0.478088 0.000000
0.489532 0.471344 0.000000
0.530151 0.473633 0.000000
0.571411 0.473236 0.000000
0.609955 0.475769 0.000000
0.650177 0.474976 0.000000
0.688721 0.474976 0.000000
0.729187 0.475403 0.000000
0.768066 0.475861 0.000000
0.801636 0.475342 0.000000
0.833832 0.476868 0.000000
0.865082 0.478271 0.000000
0.894623 0.479279 0.000000
0.924866 0.477020 0.000000
0.954620 0.477173 0.000000
0.981750 0.476563 0.000000
0.998322 0.480103 0.000000
1.000000 0.481476 0.000000
0.000000 0.521729 0.000000
0.000000 0.522461 0.000000
0.000000 0.522644 0.000000
0.000000 0.522461 0.000000
0.024933 0.524139 0.000000
0.067963 0.525330 0.000000
0.118011 0.521729 0.000000
0.156219 0.518555 0.000000
0.195770 0.515289 0.000000
0.240356 0.514069 0.000000
0.289978 0.514496 0.000000
0.342529 0.515961 0.000000
0.381927 0.518036 0.000000
0.422607 0.519012 0.000000
0.462860 0.518921 0.000000
0.500153 0.517242 0.000000
0.530304 0.510498 0.000000
0.570099 0.511871 0.000000
0.611755 0.511444 0.000000
0.647888 0.514709 0.000000
0.687408 0.514252 0.000000
0.728333 0.514465 0.000000
0.766052 0.514648 0.000000
0.800507 0.514221 0.000000
0.832764 0.515900 0.000000
0.863281 0.518494 0.000000
0.894867 0.520599 0.000000
0.924805 0.517761 0.000000
0.954132 0.517670 0.000000
0.979980 0.518646 0.000000
0.999481 0.520294 0.000000
1.000000 0.521027 0.000000
0.000000 0.560089 0.000000
0.000000 0.559967 0.000000
0.000000 0.560547 0.000000
0.000000 0.562378 0.000000
0.030640 0.564331 0.000000
0.080078 0.565918 0.000000
0.135803 0.562775 0.000000
0.166870 0.558807 0.000000
0.204193 0.556183 0.000000
0.244598 0.553925 0.000000
0.290894 0.552887 0.000000
0.338104 0.552856 0.000000
0.384888 0.553497 0.000000
0.426178 0.555267 0.000000
0.464600 0.556702 0.000000
0.502655 0.557373 0.000000
0.541565 0.556915 0.000000
0.570435 0.547974 0.000000
0.610107 0.547852 0.000000
0.648651 0.550842 0.000000
0.687225 0.549561 0.000000
0.726074 0.551239 0.000000
0.762665 0.553619 0.000000
0.797668 0.555054 0.000000
0.831055 0.554749 0.000000
0.861877 0.556671 0.000000
0.889954 0.560211 0.000000
0.920837 0.559814 0.000000
0.950134 0.560944 0.000000
0.975616 0.561737 0.000000
0.999115 0.560944 0.000000
0.999847 0.560303 0.000000
0.000000 0.598877 0.000000
0.000000 0.597290 0.000000
0.000000 0.598419 0.000000
0.000000 0.601074 0.000000
0.051819 0.602051 0.000000
0.107147 0.603363 0.000000
0.147308 0.603394 0.000000
0.177521 0.599091 0.000000
0.210693 0.595245 0.000000
0.246490 0.591766 0.000000
0.290222 0.591217 0.000000
0.338715 0.592834 0.000000
0.383087 0.593170 0.000000
0.427490 0.593658 0.000000
0.467957 0.595093 0.000000
0.506989 0.594757 0.000000
0.543518 0.593628 0.000000
0.581146 0.593628 0.000000
0.610321 0.584534 0.000000
0.649628 0.586700 0.000000
0.686249 0.586029 0.000000
0.724487 0.585846 0.000000
0.761047 0.588287 0.000000
0.795959 0.590027 0.000000
0.827515 0.593170 0.000000
0.858246 0.594727 0.000000
0.887543 0.597687 0.000000
0.919403 0.598877 0.000000
0.947601 0.601044 0.000000
0.974487 0.601776 0.000000
0.998383 0.601044 0.000000
0.999817 0.602295 0.000000
0.000000 0.635376 0.000000
0.000000 0.635437 0.000000
0.000000 0.636017 0.000000
0.000000 0.639313 0.000000
0.048340 0.638458 0.000000
0.116913 0.640350 0.000000
0.171356 0.642761 0.000000
0.196869 0.639709 0.000000
0.223846 0.634399 0.000000
0.254211 0.629211 0.000000
0.293274 0.628174 0.000000
0.339752 0.630890 0.000000
0.385315 0.631256 0.000000
0.426300 0.631714 0.000000
0.470276 0.632355 0.000000
0.510681 0.631653 0.000000
0.547913 0.630310 0.000000
0.582764 0.631317 0.000000
0.620972 0.630096 0.000000
0.649780 0.622070 0.000000
0.685638 0.622192 0.000000
0.722076 0.622681 0.000000
0.758942 0.624390 0.000000
0.793274 0.626953 0.000000
0.826355 0.628540 0.000000
0.856720 0.630890 0.000000
0.886810 0.633575 0.000000
0.917664 0.636566 0.000000
0.944122 0.637115 0.000000
0.970612 0.640564 0.000000
0.995361 0.642059 0.000000
0.999664 0.640564 0.000000
0.000000 0.671509 0.000000
0.000000 0.672119 0.000000
0.000305 0.672821 0.000000
0.004425 0.673676 0.000000
0.075378 0.675049 0.000000
0.126617 0.677124 0.000000
0.182983 0.678680 0.000000
0.215851 0.676331 0.000000
0.238312 0.671417 0.000000
0.264832 0.666870 0.000000
0.300690 0.664215 0.000000
0.341705 0.667175 0.000000
0.387299 0.667053 0.000000
0.431061 0.667664 0.000000
0.470520 0.669159 0.000000
0.512665 0.668610 0.000000
0.551788 0.666687 0.000000
0.587463 0.668304 0.000000
0.623383 0.667358 0.000000
0.660309 0.665497 0.000000
0.685608 0.658142 0.000000
0.720581 0.660187 0.000000
0.756378 0.660645 0.000000
0.789948 0.663971 0.000000
0.822754 0.664734 0.000000
0.853485 0.666351 0.000000
0.885223 0.668427 0.000000
0.915405 0.671967 0.000000
0.940582 0.674438 0.000000
0.967041 0.676056 0.000000
0.992645 0.679932 0.000000
0.998810 0.679291 0.000000
0.000000 0.709381 0.000000
0.000000 0.709351 0.000000
0.001190 0.709961 0.000000
0.028595 0.710480 0.000000
0.099457 0.711548 0.000000
0.157043 0.713104 0.000000
0.196533 0.716095 0.000000
0.232452 0.716339 0.000000
0.254059 0.708923 0.000000
0.277649 0.703369 0.000000
0.309906 0.700806 0.000000
0.349274 0.701080 0.000000
0.391174 0.701202 0.000000
0.433441 0.702057 0.000000
0.474365 0.703522 0.000000
0.513397 0.705170 0.000000
0.554352 0.703491 0.000000
0.590729 0.704956 0.000000
0.626678 0.703644 0.000000
0.660828 0.701752 0.000000
0.694366 0.701691 0.000000
0.720825 0.695984 0.000000
0.755859 0.698059 0.000000
0.789734 0.697998 0.000000
0.821594 0.698853 0.000000
0.852478 0.700653 0.000000
0.881714 0.703766 0.000000
0.910980 0.706879 0.000000
0.937927 0.710510 0.000000
0.962921 0.713531 0.000000
0.989563 0.716400 0.000000
0.998291 0.716431 0.000000
0.001526 0.745758 0.000000
0.011017 0.746429 0.000000
0.017822 0.746887 0.000000
0.072083 0.746887 0.000000
0.131165 0.747894 0.000000
0.175049 0.748505 0.000000
0.218323 0.749725 0.000000
0.255981 0.752533 0.000000
0.275513 0.749512 0.000000
0.294830 0.743439 0.000000
0.323425 0.739624 0.000000
0.361176 0.738403 0.000000
0.397003 0.738861 0.000000
0.435364 0.740173 0.000000
0.476105 0.741058 0.000000
0.518066 0.741180 0.000000
0.558594 0.740234 0.000000
0.593567 0.741577 0.000000
0.630035 0.740936 0.000000
0.664886 0.739929 0.000000
0.699280 0.739716 0.000000
0.733093 0.737518 0.000000
0.757263 0.731842 0.000000
0.788910 0.732513 0.000000
0.817932 0.733978 0.000000
0.850372 0.735565 0.000000
0.879791 0.738373 0.000000
0.906494 0.742981 0.000000
0.935730 0.746826 0.000000
0.961914 0.750122 0.000000
0.985077 0.752563 0.000000
0.997101 0.752533 0.000000
0.004547 0.777405 0.000000
0.025909 0.778931 0.000000
0.064392 0.779449 0.000000
0.116882 0.777740 0.000000
0.168976 0.779846 0.000000
0.206146 0.780762 0.000000
0.245087 0.781342 0.000000
0.280029 0.782501 0.000000
0.300476 0.782928 0.000000
0.316010 0.777527 0.000000
0.340729 0.772919 0.000000
0.373108 0.771088 0.000000
0.408112 0.770447 0.000000
0.446503 0.771637 0.000000
0.484009 0.772644 0.000000
0.523743 0.773132 0.000000
0.563171 0.773346 0.000000
0.598938 0.774384 0.000000
0.634583 0.773529 0.000000
0.669891 0.772858 0.000000
0.704437 0.772522 0.000000
0.738129 0.770294 0.000000
0.766785 0.769623 0.000000
0.790680 0.764008 0.000000
0.819031 0.765472 0.000000
0.848938 0.766174 0.000000
0.878845 0.768158 0.000000
0.906708 0.772369 0.000000
0.933350 0.775818 0.000000
0.958313 0.779236 0.000000
0.982483 0.781860 0.000000
0.996857 0.782410 0.000000
0.066040 0.806854 0.000000
0.097961 0.807678 0.000000
0.129486 0.808929 0.000000
0.152130 0.811310 0.000000
0.198090 0.809235 0.000000
0.229584 0.812622 0.000000
0.264496 0.813049 0.000000
0.297913 0.813568 0.000000
0.322693 0.814941 0.000000
0.337921 0.811005 0.000000
0.358124 0.806488 0.000000
0.386597 0.803436 0.000000
0.418762 0.801971 0.000000
0.455566 0.801819 0.000000
0.493805 0.803253 0.000000
0.530273 0.803802 0.000000
0.568420 0.804504 0.000000
0.606415 0.805511 0.000000
0.640930 0.805634 0.000000
0.675690 0.804138 0.000000
0.710297 0.803955 0.000000
0.743286 0.802155 0.000000
0.769653 0.800140 0.000000
0.794373 0.799011 0.000000
0.818542 0.795074 0.000000
0.847076 0.796509 0.000000
0.877167 0.797211 0.000000
0.905151 0.800507 0.000000
0.930756 0.803802 0.000000
0.956116 0.806976 0.000000
0.980804 0.809753 0.000000
0.997406 0.811157 0.000000
0.126007 0.834900 0.000000
0.151337 0.835785 0.000000
0.171539 0.838287 0.000000
0.190369 0.839874 0.000000
0.231476 0.839111 0.000000
0.259918 0.841980 0.000000
0.291504 0.841309 0.000000
0.322357 0.842041 0.000000
0.344208 0.844513 0.000000
0.364594 0.841644 0.000000
0.381653 0.835602 0.000000
0.403992 0.833832 0.000000
0.432373 0.832336 0.000000
0.464569 0.832275 0.000000
0.501007 0.832703 0.000000
0.538940 0.833618 0.000000
0.575653 0.834015 0.000000
0.614288 0.834137 0.000000
0.650085 0.834503 0.000000
0.683655 0.834167 0.000000
0.716248 0.833344 0.000000
0.747986 0.832642 0.000000
0.774719 0.831116 0.000000
0.798859 0.829285 0.000000
0.825500 0.827545 0.000000
0.848602 0.825226 0.000000
0.874542 0.826569 0.000000
0.903534 0.828156 0.000000
0.929260 0.830505 0.000000
0.954041 0.833313 0.000000
0.979431 0.835815 0.000000
0.997406 0.837311 0.000000
0.192932 0.862427 0.000000
0.196930 0.863037 0.000000
0.210693 0.866089 0.000000
0.231903 0.866913 0.000000
0.263458 0.867188 0.000000
0.292175 0.868774 0.000000
0.320038 0.870026 0.000000
0.348419 0.868347 0.000000
0.369720 0.870728 0.000000
0.387970 0.872040 0.000000
0.406097 0.865021 0.000000
0.425720 0.860016 0.000000
0.451477 0.859802 0.000061
0.479248 0.859802 0.000000
0.512512 0.860199 0.000000
0.550323 0.860718 0.000000
0.586151 0.862427 0.000000
0.620270 0.861115 0.000000
0.656281 0.861298 0.000000
0.691101 0.861115 0.000000
0.723206 0.860748 0.000000
0.752350 0.860046 0.000000
0.780090 0.859100 0.000000
0.804626 0.857788 0.000000
0.827026 0.856262 0.000000
0.851013 0.856262 0.000000
0.876099 0.855011 0.000000
0.902954 0.854340 0.000000
0.928436 0.855988 0.000000
0.953766 0.858154 0.000000
0.977936 0.860840 0.000000
0.996948 0.862305 0.000000
0.231567 0.890625 0.000397
0.238068 0.891663 0.000427
0.254578 0.891815 0.000488
0.267181 0.893219 0.000458
0.293365 0.893860 0.000275
0.322449 0.893982 0.000183
0.347137 0.895660 0.000183
0.375183 0.895599 0.000000
0.398285 0.895020 0.000000
0.416809 0.896973 0.000000
0.430328 0.894928 0.000000
0.444916 0.889618 0.000000
0.466522 0.886139 0.000000
0.495270 0.885925 0.000000
0.526093 0.886932 0.000000
