tools/luts_backup/LAPARDIN-WEDLUTS-14.cube
#Created by: Adobe Photoshop Export Color Lookup Plugin
#Copyright: (C) 2017 Andrey Lapardin. vk.com-3dluts
TITLE "Andrey Lapardin. vk.com-3dluts"
#LUT size
LUT_3D_SIZE 8
#data domain
#LUT data points
DOMAIN_MIN 0.000000 0.000000 0.000000
DOMAIN_MAX 0.903226 0.903226 0.903226
0.075134 0.068695 0.058502
0.118866 0.069550 0.060303
0.245728 0.059479 0.060883
0.393524 0.057587 0.058655
0.554840 0.058228 0.054047
0.697479 0.057770 0.052734
0.816986 0.054901 0.050659
0.904388 0.050934 0.048309
0.064240 0.124359 0.056824
0.134247 0.126923 0.056335
0.255035 0.132263 0.054169
0.404877 0.115479 0.054749
0.559021 0.099365 0.056183
0.694275 0.101471 0.055939
0.810028 0.125153 0.053162
0.904297 0.154297 0.048859
0.050720 0.229645 0.050293
0.135406 0.227478 0.052582
0.231659 0.223816 0.055511
0.399963 0.243591 0.056396
0.561218 0.233673 0.057068
0.690948 0.236420 0.058075
0.800629 0.240631 0.058685
0.900391 0.249329 0.057709
0.050415 0.370331 0.048950
0.127228 0.365387 0.051086
0.241272 0.361938 0.056793
0.369751 0.362152 0.058014
0.545563 0.386230 0.058533
0.687103 0.376923 0.059418
0.796906 0.370850 0.059204
0.895142 0.370697 0.059113
0.049866 0.503845 0.048279
0.155518 0.500732 0.048279
0.253052 0.489685 0.056793
0.386322 0.491638 0.058929
0.508453 0.491943 0.060028
0.664459 0.515472 0.060272
0.784119 0.509430 0.061401
0.892303 0.495911 0.059875
0.078705 0.619751 0.048248
0.216125 0.618042 0.048248
0.299957 0.608459 0.053558
0.399872 0.603363 0.059265
0.522949 0.608521 0.059814
0.629974 0.607574 0.061462
0.764679 0.634918 0.061859
0.876770 0.636719 0.061829
0.180359 0.729584 0.048248
0.271881 0.729095 0.048248
0.357056 0.727631 0.048279
0.424438 0.712585 0.058594
0.535767 0.717621 0.058868
0.645386 0.721680 0.059753
0.735138 0.720795 0.063019
0.855438 0.752808 0.062378
0.236450 0.848083 0.048248
0.313599 0.848694 0.048248
0.399048 0.848175 0.048248
0.459900 0.838165 0.055176
0.553223 0.836761 0.058380
0.661316 0.841431 0.057983
0.747528 0.841125 0.061279
0.837952 0.845123 0.063141
0.071136 0.070953 0.113007
0.121490 0.069916 0.114197
0.248199 0.056549 0.120697
0.395172 0.055664 0.121002
0.548401 0.057159 0.118866
0.683807 0.057404 0.116028
0.803894 0.055084 0.097351
0.901947 0.050995 0.077118
0.062439 0.121765 0.105377
0.159576 0.135864 0.120850
0.271912 0.136261 0.124908
0.421417 0.123993 0.122253
0.570496 0.114441 0.115479
0.698486 0.117462 0.104614
0.808746 0.130585 0.090851
0.900391 0.157379 0.082855
0.063965 0.226227 0.111267
0.169281 0.240173 0.120270
0.263611 0.248810 0.118896
0.428589 0.258759 0.105164
0.579437 0.245453 0.098877
0.704803 0.241394 0.092468
0.807404 0.252014 0.085114
0.895874 0.274994 0.086761
0.051880 0.370117 0.103119
0.162079 0.375061 0.103882
0.274841 0.377838 0.107635
0.403107 0.382233 0.104340
0.565460 0.401733 0.085205
0.701904 0.386475 0.083557
0.808960 0.378510 0.084686
0.893768 0.380707 0.090332
0.050262 0.504700 0.085297
0.175079 0.507355 0.079132
0.291260 0.505768 0.081299
0.416901 0.508118 0.084869
0.534180 0.506012 0.093384
0.679749 0.526642 0.087433
0.796600 0.518585 0.087219
0.890686 0.503357 0.090820
0.087616 0.619080 0.077698
0.226440 0.626678 0.077087
0.336639 0.622955 0.077606
0.426147 0.619843 0.083832
0.545898 0.621277 0.085754
0.649811 0.619965 0.088531
0.778503 0.644470 0.089355
0.877899 0.636993 0.093079
0.179108 0.725403 0.074768
0.279388 0.741425 0.074341
0.384125 0.739136 0.073700
0.457611 0.729889 0.081848
0.548004 0.725494 0.087250
0.658539 0.729156 0.089020
0.750397 0.727875 0.090149
0.860718 0.755402 0.092316
0.232819 0.839386 0.072998
0.321136 0.852020 0.075653
0.415985 0.851868 0.074615
0.502258 0.844635 0.079102
0.560364 0.831818 0.091522
0.661316 0.833221 0.092804
0.759125 0.838013 0.092773
0.844269 0.846100 0.092957
0.051056 0.075378 0.239197
0.101959 0.068451 0.248108
0.209930 0.062012 0.253052
0.397614 0.053467 0.279236
0.561035 0.054108 0.269012
0.695404 0.054688 0.258240
0.809998 0.053436 0.235809
0.902130 0.050018 0.214294
0.053833 0.135315 0.224091
0.153107 0.143677 0.244110
0.260376 0.150665 0.252655
0.417267 0.145416 0.264526
0.566467 0.123657 0.262817
0.697296 0.099213 0.252136
0.803680 0.116486 0.239655
0.895691 0.146301 0.218170
0.067993 0.228058 0.206207
0.180145 0.246918 0.227417
0.293732 0.271912 0.250854
0.445068 0.255035 0.241089
0.588531 0.248993 0.235168
0.710785 0.258240 0.233337
0.801819 0.281342 0.237946
0.877289 0.309357 0.261475
0.058563 0.368744 0.207611
0.180176 0.378723 0.213837
0.295502 0.400055 0.229279
0.425385 0.406250 0.230530
0.585571 0.408295 0.208710
0.711060 0.395935 0.207245
0.808990 0.394775 0.215698
0.889801 0.402222 0.239471
0.058105 0.499847 0.182983
0.187225 0.505463 0.201447
0.317596 0.518066 0.212311
0.432861 0.522797 0.224640
0.555908 0.526276 0.220245
0.694092 0.540039 0.199188
0.799042 0.528198 0.204529
0.887054 0.517517 0.222870
0.120087 0.614746 0.173370
0.227417 0.617096 0.195129
0.349670 0.628998 0.184021
0.444397 0.629242 0.204956
0.566620 0.634186 0.213898
0.666138 0.629303 0.231232
0.777069 0.650787 0.241425
0.876892 0.647949 0.230865
0.188873 0.722473 0.169769
0.270264 0.721283 0.179718
0.386780 0.731842 0.166687
0.478912 0.730499 0.164581
0.568451 0.732758 0.197662
0.673187 0.735504 0.203094
0.759674 0.734253 0.240479
0.868927 0.764954 0.250031
0.231537 0.836761 0.164642
0.307800 0.821899 0.167755
0.424133 0.821503 0.187897
0.523041 0.820435 0.149200
0.586823 0.838104 0.172455
0.673981 0.838409 0.182861
0.767395 0.841919 0.206848
0.855255 0.848511 0.216858
0.050385 0.073303 0.396240
0.079437 0.064178 0.412170
0.154053 0.059631 0.429108
0.331665 0.051727 0.435150
0.554718 0.051788 0.479889
0.698669 0.051788 0.470245
0.813080 0.052002 0.430481
0.901733 0.050354 0.407562
0.050659 0.151611 0.379333
0.118103 0.147095 0.406219
0.230988 0.158691 0.420807
0.372131 0.171143 0.428070
0.551697 0.170776 0.460938
0.690643 0.168396 0.458344
0.803650 0.161255 0.432343
0.894470 0.161774 0.412140
0.054382 0.250549 0.363159
0.159821 0.264587 0.386261
0.281525 0.280029 0.413300
0.430939 0.286957 0.416656
0.583984 0.285217 0.420380
0.703064 0.294708 0.417328
0.796173 0.310547 0.419708
0.878418 0.315796 0.414063
0.061798 0.375610 0.341034
0.197540 0.393951 0.365234
0.316742 0.416199 0.391296
0.452454 0.423737 0.400116
0.591248 0.405792 0.385834
0.705841 0.404327 0.385376
0.796417 0.423553 0.405823
0.886536 0.431427 0.413025
0.118988 0.507996 0.338470
0.232513 0.519073 0.351593
0.337921 0.527740 0.362915
0.447021 0.535889 0.376373
0.568207 0.541168 0.385071
0.698792 0.537781 0.370667
0.797302 0.532867 0.384308
0.897064 0.525940 0.383820
0.170349 0.617859 0.320038
0.258362 0.622101 0.329193
0.351440 0.625763 0.334747
0.464691 0.634583 0.359955
0.569794 0.639069 0.377747
0.672638 0.640625 0.378235
0.782776 0.657623 0.376373
0.880341 0.655823 0.380798
0.211029 0.718811 0.302032
0.285492 0.721619 0.318939
0.377899 0.714752 0.325134
0.500824 0.719360 0.344971
0.576141 0.730377 0.366302
0.679688 0.736145 0.374268
0.769379 0.738312 0.376099
0.870300 0.768921 0.398315
0.239807 0.830078 0.298859
0.310730 0.820740 0.321411
0.399780 0.816193 0.311218
0.528168 0.822906 0.325592
0.601532 0.835388 0.337128
0.682922 0.844055 0.357758
0.778229 0.846191 0.355255
0.862030 0.850555 0.383240
0.048981 0.069794 0.543976
0.084198 0.058533 0.550354
0.103546 0.054993 0.577698
0.308655 0.056641 0.582092
0.477417 0.060455 0.584686
0.676300 0.078613 0.635345
0.807281 0.060974 0.623444
0.902344 0.104279 0.585175
0.048584 0.151581 0.536560
0.094543 0.154297 0.553009
0.214478 0.166229 0.570282
0.342865 0.185913 0.575989
0.489838 0.204193 0.579803
0.668640 0.225769 0.621704
0.795654 0.219666 0.617188
0.890564 0.245483 0.583191
0.052673 0.273376 0.520355
0.137756 0.274811 0.537933
0.264832 0.288696 0.562286
0.402954 0.302246 0.558777
0.536072 0.328766 0.563934
0.676147 0.349274 0.589569
0.780457 0.368378 0.582458
0.868958 0.380280 0.571259
0.057129 0.395294 0.501495
0.175171 0.407928 0.521759
0.307831 0.425232 0.542938
0.442932 0.434235 0.549469
0.578247 0.444427 0.554779
0.699829 0.444183 0.552032
0.790619 0.460419 0.551239
0.883362 0.460236 0.543732
0.145721 0.512329 0.475739
0.258820 0.527344 0.496826
0.363678 0.545807 0.524658
0.475281 0.554138 0.537018
0.590515 0.556732 0.537537
0.700684 0.545959 0.530518
0.797150 0.543640 0.530457
0.891541 0.548218 0.540985
0.241394 0.624908 0.475372
0.317932 0.633148 0.487640
0.400665 0.641541 0.502106
0.492981 0.644775 0.516205
0.582855 0.648834 0.519562
0.683350 0.654938 0.528442
0.793365 0.657715 0.518066
0.889923 0.652649 0.525208
0.264374 0.725647 0.465179
0.331604 0.726074 0.466156
0.406891 0.729919 0.482544
0.494690 0.724396 0.472107
0.591980 0.736572 0.497131
0.681213 0.745972 0.515076
0.775330 0.751373 0.514008
0.878754 0.769775 0.522125
0.268768 0.829865 0.450928
0.333771 0.827820 0.450531
0.410767 0.825348 0.456696
0.502350 0.820099 0.439545
0.625977 0.831329 0.465942
0.692810 0.842377 0.504425
0.787598 0.848938 0.515015
0.871124 0.852264 0.519104
0.047119 0.067566 0.665375
0.085266 0.056854 0.667236
0.137909 0.055786 0.691345
0.297729 0.082611 0.697693
0.461395 0.101196 0.694366
0.602112 0.144623 0.696991
0.773621 0.195374 0.751495
0.900452 0.176422 0.742798
0.046478 0.164032 0.661407
0.097382 0.168121 0.671722
0.244537 0.178009 0.684784
0.331512 0.210999 0.694275
0.470398 0.232361 0.692078
0.604584 0.263031 0.693542
0.765961 0.292969 0.740082
0.879364 0.285156 0.727539
0.048767 0.293671 0.653473
0.130493 0.288544 0.661285
0.272003 0.303406 0.680725
0.391052 0.320679 0.679321
0.506531 0.352173 0.675781
0.623352 0.381470 0.680481
0.757629 0.400146 0.712738
0.854248 0.410736 0.704895
0.070221 0.409210 0.635651
0.225983 0.424133 0.644745
0.334412 0.444366 0.667419
0.435822 0.454559 0.672668
0.552948 0.465942 0.665039
0.664856 0.485840 0.667328
0.769165 0.503693 0.681793
0.870819 0.513580 0.670319
0.150513 0.524719 0.617523
0.258392 0.534607 0.630035
0.355774 0.552490 0.652374
0.469421 0.561218 0.657013
0.588043 0.572693 0.660553
0.694763 0.578705 0.665070
0.794464 0.578735 0.667908
0.888306 0.581360 0.660522
0.258026 0.627411 0.600769
0.336395 0.635956 0.608765
0.419525 0.653137 0.635498
0.514038 0.658997 0.645935
0.609833 0.668549 0.655884
0.704742 0.668823 0.652771
0.800995 0.663269 0.650482
0.891357 0.663757 0.651855
0.337860 0.731506 0.607544
0.396149 0.734131 0.609985
0.465607 0.741486 0.626770
0.540466 0.742920 0.628113
0.615265 0.752716 0.637817
0.693298 0.755829 0.635040
0.785248 0.763550 0.648895
0.885040 0.773651 0.646973
0.334686 0.833618 0.600708
0.390991 0.834534 0.602936
0.457428 0.836700 0.608704
0.529449 0.837708 0.608612
0.610138 0.831909 0.585327
0.713593 0.850891 0.605988
0.791382 0.859375 0.639343
0.877319 0.860870 0.646332
0.045868 0.076843 0.775055
0.083221 0.080414 0.774994
0.237488 0.092041 0.784302
0.313171 0.130493 0.799713
0.455231 0.157440 0.795502
0.586548 0.196075 0.787689
0.705292 0.247162 0.790863
0.858826 0.281097 0.839844
0.045868 0.186127 0.771393
0.125366 0.194489 0.780304
0.290710 0.204224 0.783630
0.350220 0.241180 0.796021
0.463226 0.269348 0.793030
0.589905 0.298737 0.784821
0.707397 0.335815 0.786682
0.843597 0.358398 0.823853
0.045868 0.310547 0.768066
0.168060 0.316406 0.768494
0.311035 0.333221 0.773254
0.403748 0.350708 0.780304
0.492859 0.381348 0.781891
0.602234 0.406799 0.778412
0.713379 0.434967 0.779694
0.828003 0.453827 0.800385
0.184296 0.443481 0.756134
0.267975 0.453003 0.757141
0.349182 0.465820 0.767456
0.453094 0.486572 0.767670
0.548157 0.491028 0.762329
0.642883 0.512329 0.758606
0.737701 0.531525 0.764465
0.840088 0.542267 0.788910
0.180664 0.534180 0.738770
0.277283 0.544250 0.742188
0.380157 0.564423 0.754730
0.492676 0.584351 0.761261
0.582703 0.593628 0.764221
0.677979 0.599762 0.760254
0.774017 0.611389 0.764832
0.869843 0.623566 0.773651
0.262665 0.640167 0.725739
0.333801 0.645447 0.728058
0.414612 0.658478 0.744171
0.507782 0.672333 0.753235
0.601837 0.677826 0.759369
0.706451 0.687256 0.765656
0.797363 0.693390 0.769409
0.887573 0.698761 0.772705
0.331024 0.735779 0.718781
0.393982 0.738007 0.718353
0.467194 0.746735 0.731293
0.549194 0.755798 0.743683
0.636200 0.765961 0.755676
0.722748 0.774750 0.763428
0.805969 0.777344 0.762634
0.892365 0.781250 0.768524
0.403229 0.838043 0.729431
0.454437 0.839722 0.732056
0.514648 0.842712 0.737457
0.582245 0.846832 0.744293
0.654327 0.849121 0.745148
0.720123 0.856262 0.736694
0.806061 0.871552 0.745636
0.882904 0.876251 0.770874
0.045868 0.137909 0.874664
0.133820 0.146088 0.874054
0.293396 0.159485 0.874634
0.369934 0.189148 0.890289
0.462463 0.227051 0.888306
0.580627 0.260010 0.880951
0.693939 0.298065 0.872009
0.804901 0.332031 0.871948
0.045868 0.231079 0.872101
0.193512 0.247833 0.871704
0.324219 0.258850 0.869171
0.403778 0.286713 0.877472
0.469574 0.317474 0.890961
0.586273 0.343262 0.882751
0.699310 0.374634 0.871918
0.804779 0.401459 0.867554
0.098206 0.348846 0.868622
0.224670 0.360596 0.861725
0.361420 0.386932 0.840546
0.445099 0.395874 0.857025
0.502838 0.416504 0.876495
0.596405 0.440674 0.874054
0.705750 0.464691 0.863770
0.808228 0.482117 0.861725
0.226563 0.481873 0.864838
0.297760 0.489716 0.854797
0.384644 0.499176 0.841034
0.479675 0.514313 0.853638
0.556732 0.515991 0.858582
0.633820 0.535461 0.857697
0.722656 0.554718 0.852600
0.817505 0.565918 0.856110
0.258820 0.565399 0.853485
0.332184 0.574707 0.845795
0.418915 0.593658 0.834900
0.513245 0.615387 0.847900
0.589294 0.619263 0.856628
0.673920 0.620911 0.849884
0.755127 0.638306 0.845947
0.845825 0.649933 0.851654
0.268799 0.651642 0.839203
0.338806 0.656708 0.833130
0.423218 0.668274 0.834259
0.508667 0.684509 0.848755
0.614594 0.700317 0.854431
0.705383 0.711151 0.855927
0.786102 0.718384 0.853485
0.872528 0.726654 0.856750
0.324249 0.751801 0.832886
0.387238 0.751587 0.828003
0.461029 0.757446 0.831512
0.542603 0.769379 0.842010
0.630951 0.781403 0.849792
0.717712 0.788086 0.860138
0.813049 0.800629 0.866150
0.886200 0.808777 0.867737
0.376465 0.843445 0.828857
0.431976 0.845093 0.830536
0.499298 0.848602 0.832245
0.576752 0.854126 0.836975
0.660919 0.861420 0.849091
0.748535 0.869293 0.860474
0.831879 0.878174 0.866516
0.897736 0.888916 0.875763
