tools/luts_backup/LAPARDIN-WEDLUTS-3.cube
#Created by: Adobe Photoshop Export Color Lookup Plugin
#Copyright: (C) 2017 Andrey Lapardin. vk.com-3dluts
TITLE "Andrey Lapardin. vk.com-3dluts"
#LUT size
LUT_3D_SIZE 32
#data domain
DOMAIN_MIN 0.0 0.0 0.0
DOMAIN_MAX 1.0 1.0 1.0
#LUT data points
0.004974 0.009521 0.009796
0.020325 0.011658 0.012543
0.044006 0.013336 0.013733
0.069824 0.014099 0.014404
0.094360 0.015381 0.014099
0.121552 0.014984 0.016846
0.148804 0.016876 0.017212
0.177094 0.019318 0.015533
0.208557 0.019196 0.014160
0.239105 0.018555 0.014740
0.271332 0.013184 0.016144
0.307007 0.010010 0.014832
0.344849 0.008331 0.014343
0.382080 0.006592 0.013367
0.417938 0.003448 0.011780
0.454956 0.002991 0.011536
0.490479 0.001801 0.009003
0.529083 0.000641 0.008728
0.567230 0.000610 0.008270
0.604736 0.000458 0.007202
0.641113 0.000000 0.006226
0.680359 0.000000 0.002869
0.717651 0.000000 0.004486
0.750275 0.000000 0.003876
0.785034 0.000000 0.001373
0.817108 0.000000 0.000000
0.848999 0.000000 0.000000
0.880585 0.000000 0.000000
0.914032 0.000000 0.000000
0.945831 0.000000 0.000000
0.974243 0.000000 0.000000
0.994415 0.001007 0.000000
0.007568 0.026520 0.012238
0.023224 0.024750 0.012451
0.048187 0.027557 0.013702
0.071869 0.030151 0.014404
0.096191 0.032562 0.014221
0.123657 0.033264 0.016998
0.149750 0.034088 0.017517
0.178253 0.036896 0.015686
0.207214 0.040100 0.015442
0.237457 0.040741 0.015808
0.269714 0.037018 0.017059
0.308411 0.034973 0.015656
0.345581 0.030029 0.015564
0.382507 0.026062 0.014984
0.418884 0.021332 0.013641
0.454285 0.017609 0.013031
0.491150 0.012421 0.010071
0.528992 0.007507 0.009247
0.566803 0.003296 0.008362
0.604309 0.003876 0.007111
0.641357 0.000000 0.006836
0.679443 0.000000 0.004242
0.718231 0.000000 0.002899
0.750946 0.000000 0.002380
0.784698 0.000000 0.001740
0.817749 0.000000 0.000336
0.849030 0.000000 0.000061
0.881165 0.000214 0.000000
0.910980 0.000000 0.000000
0.940979 0.000000 0.000000
0.970093 0.000000 0.000000
0.994598 0.000488 0.000000
0.009918 0.049316 0.013763
0.028809 0.047821 0.014038
0.047058 0.049042 0.013794
0.070801 0.052826 0.014648
0.097412 0.051971 0.015076
0.124634 0.053558 0.017334
0.150665 0.054657 0.018066
0.179230 0.056030 0.016327
0.207764 0.058868 0.016541
0.238586 0.059723 0.017303
0.270050 0.058167 0.018768
0.308350 0.056732 0.017761
0.345032 0.053345 0.017670
0.381073 0.046204 0.017792
0.417633 0.041138 0.016449
0.453308 0.038177 0.015900
0.490967 0.031860 0.013306
0.528442 0.027161 0.010986
0.565979 0.019562 0.009766
0.603119 0.019928 0.007782
0.640259 0.014862 0.006622
0.679230 0.011902 0.005066
0.716339 0.010040 0.003265
0.751648 0.005676 0.002319
0.783630 0.001801 0.001831
0.816437 0.000000 0.000671
0.847534 0.000000 0.000305
0.879730 0.000732 0.000183
0.910065 0.003876 0.000000
0.939941 0.009766 0.000000
0.970551 0.011597 0.000000
0.994873 0.014862 0.000000
0.010284 0.073273 0.014679
0.027985 0.071625 0.014801
0.048737 0.073120 0.014404
0.072357 0.074585 0.014526
0.098938 0.074677 0.014740
0.125153 0.075836 0.016388
0.151184 0.078430 0.017426
0.179901 0.079926 0.016022
0.208984 0.079865 0.017761
0.240082 0.081238 0.017639
0.271973 0.080811 0.017914
0.310120 0.077301 0.019409
0.345642 0.076721 0.018616
0.380402 0.071808 0.018463
0.416168 0.069061 0.018524
0.451721 0.068787 0.018188
0.489929 0.060486 0.016327
0.528168 0.055359 0.013428
0.565155 0.056122 0.010986
0.601593 0.053528 0.007843
0.639160 0.048584 0.005249
0.679565 0.047485 0.006317
0.716888 0.048584 0.004364
0.750732 0.046967 0.002258
0.784546 0.039825 0.000488
0.816437 0.047455 0.000000
0.848267 0.040894 0.000000
0.880432 0.037048 0.000000
0.911011 0.037201 0.000000
0.940765 0.034546 0.000000
0.970154 0.037720 0.000000
0.995209 0.044464 0.000000
0.010071 0.097473 0.015411
0.027344 0.096466 0.015320
0.053192 0.095795 0.014832
0.078217 0.097534 0.014465
0.099640 0.096497 0.014038
0.124817 0.099060 0.015686
0.153198 0.101959 0.016632
0.182037 0.104736 0.015930
0.210114 0.104309 0.017944
0.241791 0.104645 0.018616
0.274445 0.106201 0.017548
0.312592 0.102631 0.019104
0.348846 0.099884 0.019379
0.381775 0.099182 0.017883
0.416931 0.097260 0.018738
0.452362 0.097504 0.018799
0.489960 0.091644 0.017334
0.529083 0.083069 0.015045
0.565063 0.089294 0.012177
0.601501 0.084808 0.008789
0.639130 0.081573 0.006622
0.679108 0.078491 0.006134
0.717499 0.082336 0.005341
0.750641 0.083679 0.002228
0.785187 0.080261 0.000275
0.816986 0.085480 0.000000
0.849457 0.082428 0.000000
0.881317 0.084442 0.000000
0.911133 0.086243 0.000000
0.940918 0.084473 0.000000
0.969452 0.089935 0.000000
0.993286 0.099915 0.000000
0.008636 0.121552 0.014771
0.025726 0.121429 0.014557
0.051392 0.122070 0.013794
0.080139 0.121124 0.013824
0.103882 0.122131 0.013733
0.124359 0.120575 0.014496
0.154724 0.123993 0.015656
0.184784 0.125763 0.017059
0.213959 0.127960 0.015930
0.245911 0.129364 0.017151
0.279083 0.131622 0.017975
0.314423 0.130280 0.016449
0.351318 0.127228 0.017761
0.384949 0.126038 0.017059
0.419464 0.123627 0.015289
0.456726 0.123871 0.015839
0.493256 0.121857 0.014771
0.531036 0.114929 0.013367
0.566345 0.117523 0.012054
0.603760 0.114380 0.008453
0.641296 0.114166 0.007019
0.680023 0.108643 0.005280
0.717651 0.110840 0.004211
0.750763 0.116486 0.001587
0.785919 0.119415 0.000000
0.817230 0.123596 0.000000
0.849854 0.122925 0.000000
0.882568 0.124268 0.000000
0.910736 0.129059 0.000000
0.941956 0.129669 0.000000
0.970886 0.129700 0.000000
0.994568 0.135437 0.000000
0.008362 0.147766 0.013306
0.023407 0.147095 0.012909
0.048584 0.150085 0.012238
0.080505 0.149078 0.012512
0.108917 0.147858 0.013062
0.133850 0.150269 0.013245
0.154907 0.146393 0.014130
0.185608 0.146881 0.018311
0.216431 0.150238 0.016602
0.248962 0.153534 0.015045
0.282379 0.156860 0.016418
0.318726 0.156982 0.015198
0.354340 0.154785 0.015320
0.390076 0.154449 0.015076
0.424866 0.151947 0.011841
0.461212 0.151398 0.012848
0.497986 0.150970 0.011200
0.534485 0.146881 0.011444
0.569122 0.146393 0.011597
0.606842 0.143799 0.009308
0.643768 0.142883 0.008453
0.681732 0.142181 0.007080
0.718567 0.138611 0.005127
0.751434 0.145508 0.001404
0.786285 0.148346 0.000122
0.818054 0.152710 0.000000
0.849487 0.156311 0.000000
0.882111 0.159393 0.000000
0.910797 0.167297 0.000000
0.941345 0.169159 0.000000
0.971375 0.169403 0.000000
0.995239 0.172882 0.000000
0.000000 0.179932 0.009491
0.014435 0.178223 0.008972
0.044708 0.179779 0.007751
0.081940 0.178406 0.008026
0.110992 0.177094 0.009247
0.136078 0.178436 0.011108
0.164215 0.178925 0.012482
0.186859 0.171692 0.015228
0.218323 0.174377 0.013794
0.250763 0.178436 0.011719
0.285187 0.182220 0.010559
0.323059 0.185516 0.011078
0.358459 0.183197 0.011536
0.394623 0.181793 0.011169
0.432739 0.182373 0.008575
0.467621 0.180328 0.011078
0.503082 0.181885 0.007599
0.538361 0.179382 0.007050
0.573486 0.175598 0.008911
0.611816 0.174500 0.009216
0.645752 0.172516 0.008209
0.682831 0.174530 0.007538
0.719635 0.172852 0.006897
0.753113 0.173462 0.005096
0.786865 0.176666 0.003204
0.819000 0.179321 0.000519
0.850433 0.184174 0.000000
0.881622 0.191437 0.000000
0.910919 0.200104 0.000000
0.941589 0.201752 0.000000
0.970490 0.204498 0.000000
0.995422 0.210052 0.000000
0.000000 0.212952 0.006104
0.005493 0.211029 0.006012
0.037903 0.211426 0.004913
0.078308 0.210693 0.004974
0.110229 0.209229 0.004822
0.136139 0.209991 0.006714
0.167633 0.209503 0.009308
0.198792 0.208832 0.010468
0.220306 0.201172 0.010529
0.253265 0.204285 0.008240
0.288055 0.208710 0.006378
0.325500 0.212219 0.007599
0.362518 0.214966 0.007172
0.398529 0.212341 0.008423
0.437439 0.213287 0.006592
0.472198 0.212463 0.007416
0.507904 0.211700 0.006500
0.544373 0.213501 0.004303
0.578979 0.208862 0.006226
0.615936 0.207062 0.006897
0.650055 0.204773 0.006256
0.685669 0.205139 0.005585
0.721832 0.206360 0.005585
0.755005 0.203888 0.005188
0.788239 0.206299 0.004547
0.820862 0.208008 0.003174
0.852112 0.210358 0.001709
0.883331 0.215820 0.000488
0.912903 0.225342 0.000000
0.943848 0.230316 0.000000
0.971863 0.235046 0.000000
0.994843 0.242218 0.000000
0.000000 0.249359 0.001770
0.005554 0.244568 0.001923
0.026306 0.244141 0.001831
0.067688 0.244934 0.001831
0.106903 0.244751 0.001221
0.135956 0.244324 0.000000
0.168823 0.243347 0.002655
0.202545 0.242523 0.005096
0.234528 0.242279 0.005035
0.256409 0.233459 0.005157
0.291351 0.236542 0.003540
0.328247 0.239899 0.005249
0.365295 0.243835 0.004059
0.402740 0.245880 0.002838
0.441132 0.244263 0.004364
0.475739 0.244873 0.003418
0.511871 0.244110 0.003754
0.549316 0.244354 0.002991
0.585480 0.243713 0.003571
0.619110 0.241150 0.004517
0.654205 0.238281 0.005280
0.690063 0.237671 0.005066
0.724152 0.237762 0.005707
0.757233 0.237091 0.006012
0.789948 0.239227 0.005890
0.822723 0.239899 0.004791
0.853973 0.241028 0.003265
0.884949 0.243103 0.001801
0.914764 0.251465 0.000610
0.944763 0.257294 0.000305
0.972412 0.263763 0.000031
0.994171 0.270935 0.000000
0.000000 0.285248 0.000000
0.000916 0.279816 0.000183
0.007874 0.278473 0.000061
0.056305 0.281250 0.000031
0.101196 0.281891 0.000122
0.135986 0.282104 0.000000
0.170776 0.278809 0.000000
0.203979 0.277435 0.002655
0.235596 0.276855 0.003571
0.271210 0.277008 0.004303
0.294800 0.267181 0.003784
0.332581 0.271088 0.005096
0.370880 0.272949 0.004852
0.406769 0.276794 0.003723
0.443909 0.277283 0.005096
0.482544 0.276184 0.005096
0.516876 0.278473 0.005493
0.553253 0.277466 0.004272
0.589722 0.275757 0.004761
0.625244 0.273499 0.005066
0.657440 0.274139 0.005524
0.694702 0.271362 0.003326
0.727692 0.271210 0.001984
0.759277 0.270691 0.002136
0.790283 0.271240 0.002289
0.823578 0.271729 0.002045
0.854767 0.272583 0.002106
0.885498 0.274597 0.001709
0.916321 0.281219 0.001190
0.945374 0.285614 0.000885
0.972748 0.292053 0.000244
0.993713 0.299194 0.000153
0.000000 0.326324 0.000000
0.000000 0.319824 0.000000
0.001923 0.317871 0.000000
0.044952 0.319824 0.000000
0.094666 0.321655 0.000000
0.133118 0.322021 0.000000
0.168701 0.319733 0.000000
0.206970 0.316071 0.000763
0.240234 0.314636 0.001526
0.274963 0.314301 0.002594
0.312164 0.314697 0.001526
0.336365 0.303528 0.001465
0.374420 0.305450 0.001678
0.411987 0.309174 0.002533
0.446777 0.312500 0.001709
0.485596 0.312012 0.001892
0.521790 0.313538 0.002106
0.558563 0.314850 0.001617
0.592926 0.312897 0.001892
0.630341 0.310486 0.001526
0.662109 0.311279 0.001526
0.699799 0.309174 0.001190
0.730072 0.308960 0.001282
0.761505 0.306976 0.001587
0.792358 0.305389 0.001831
0.825134 0.306946 0.000397
0.856079 0.307892 0.002106
0.885956 0.310730 0.001648
0.915863 0.317169 0.000702
0.946014 0.321106 0.000000
0.972748 0.324982 0.001068
0.994995 0.329315 0.000549
0.000000 0.366119 0.000000
0.000000 0.361053 0.000000
0.000305 0.359375 0.000000
0.033081 0.360260 0.000000
0.086121 0.361969 0.000000
0.130035 0.362000 0.000000
0.167664 0.359894 0.000000
0.204285 0.357178 0.000092
0.245422 0.354095 0.000488
0.279449 0.353607 0.000793
0.316528 0.353821 0.000458
0.352692 0.352142 0.000275
0.376984 0.339172 0.002075
0.415192 0.343018 0.002625
0.451965 0.346649 0.001495
0.488281 0.348175 0.001648
0.526886 0.348267 0.001709
0.563995 0.349976 0.000824
0.598785 0.350189 0.001221
0.634003 0.348663 0.000580
0.666351 0.348633 0.000610
0.704651 0.348053 0.000580
0.735077 0.347046 0.000763
0.764343 0.347412 0.001038
0.797760 0.341644 0.001343
0.828369 0.343811 0.000305
0.858429 0.345612 0.001404
0.886566 0.347656 0.001556
0.915680 0.352631 0.000458
0.944427 0.356476 0.000000
0.972595 0.362427 0.000000
0.996552 0.360199 0.000153
0.000000 0.404053 0.000000
0.000000 0.397614 0.000000
0.000031 0.398987 0.000000
0.017822 0.399292 0.000000
0.076202 0.400970 0.000000
0.126373 0.400787 0.000000
0.170410 0.398041 0.000000
0.206970 0.395142 0.000031
0.243164 0.392883 0.000488
0.280151 0.392883 0.000793
0.319885 0.393402 0.000488
0.358978 0.392090 0.000000
0.393738 0.387390 0.000305
0.418457 0.375488 0.000671
0.455597 0.379028 0.000366
0.492615 0.380402 0.000854
0.531769 0.380951 0.001129
0.566681 0.382172 0.000214
0.600891 0.383972 0.000824
0.636963 0.384064 0.000061
0.671722 0.384613 0.000000
0.707794 0.386169 0.000000
0.738312 0.382751 0.000000
0.769073 0.381134 0.000000
0.799652 0.381775 0.000000
0.827240 0.382965 0.000000
0.857697 0.383911 0.000000
0.888672 0.386108 0.000000
0.917023 0.389160 0.000000
0.943542 0.393555 0.000000
0.970917 0.398926 0.000000
0.997864 0.396393 0.000000
0.000000 0.442017 0.000000
0.000000 0.436523 0.000000
0.000031 0.440155 0.000000
0.000793 0.441040 0.000000
0.070404 0.441986 0.000000
0.128265 0.440277 0.000000
0.173737 0.436340 0.000000
0.211731 0.433746 0.000000
0.248840 0.431732 0.000000
0.282318 0.431305 0.000000
0.324982 0.428558 0.000000
0.365295 0.427032 0.000000
0.403687 0.426422 0.000000
0.435547 0.423035 0.000000
0.460510 0.410126 0.000000
0.497162 0.412445 0.000000
0.534729 0.414337 0.000000
0.569122 0.415833 0.000000
0.604706 0.419006 0.000000
0.639832 0.420258 0.000000
0.674713 0.421356 0.000000
0.711090 0.422821 0.000000
0.740967 0.423615 0.000000
0.771698 0.420532 0.000000
0.801697 0.419067 0.000000
0.830902 0.419067 0.000000
0.859528 0.419250 0.000000
0.888733 0.421661 0.000000
0.916321 0.426605 0.000000
0.943512 0.430481 0.000000
0.971893 0.434784 0.000000
0.997375 0.432953 0.000000
0.000000 0.481720 0.000000
0.000000 0.475647 0.000000
0.000000 0.477448 0.000000
0.000000 0.479218 0.000000
0.057220 0.481384 0.000000
0.118347 0.480530 0.000000
0.170074 0.477325 0.000000
0.212616 0.475037 0.000000
0.250061 0.470917 0.000000
0.285522 0.468567 0.000000
0.330872 0.467163 0.000000
0.367645 0.465363 0.000000
0.408844 0.463562 0.000000
0.446747 0.463989 0.000000
0.478271 0.456207 0.000000
0.501190 0.444763 0.000000
0.537262 0.447937 0.000000
0.572327 0.450134 0.000000
0.608734 0.453491 0.000000
0.644196 0.455505 0.000000
0.677429 0.456635 0.000000
0.711731 0.458008 0.000000
0.743317 0.459808 0.000000
0.773895 0.460419 0.000000
0.803772 0.458466 0.000000
0.832916 0.458160 0.000000
0.861450 0.456177 0.000000
0.889374 0.458374 0.000000
0.918335 0.463715 0.000000
0.942902 0.468964 0.000000
0.971741 0.471313 0.000000
0.997223 0.471283 0.000000
0.000000 0.520569 0.000000
0.000000 0.516052 0.000000
0.000000 0.517517 0.000000
0.000000 0.519775 0.000000
0.059692 0.518829 0.000000
0.116638 0.520752 0.000000
0.169495 0.518127 0.000000
0.212555 0.513367 0.000000
0.250275 0.511475 0.000000
0.290466 0.506775 0.000000
0.337158 0.504486 0.000000
0.374481 0.503632 0.000000
0.412659 0.501892 0.000000
0.450836 0.501007 0.000000
0.488342 0.500488 0.000000
0.516266 0.492493 0.000000
0.539612 0.482574 0.000000
0.575714 0.485321 0.000000
0.611816 0.488495 0.000000
0.647186 0.490997 0.000000
0.679779 0.493622 0.000000
0.714325 0.494263 0.000000
0.745575 0.496094 0.000000
0.774780 0.497009 0.000000
0.805511 0.497406 0.000000
0.834106 0.497345 0.000000
0.862915 0.497498 0.000000
0.890228 0.496338 0.000000
0.919220 0.500244 0.000000
0.944580 0.505676 0.000000
0.972931 0.509857 0.000000
0.997314 0.508850 0.000000
0.000000 0.557648 0.000000
0.000000 0.555084 0.000000
0.000000 0.557129 0.000000
0.000000 0.559509 0.000000
0.057129 0.560944 0.000000
0.119263 0.558777 0.000000
0.170837 0.558167 0.000000
0.217255 0.553345 0.000000
0.253296 0.548859 0.000000
0.292114 0.545746 0.000000
0.337311 0.541260 0.000000
0.378021 0.540680 0.000000
0.417511 0.539490 0.000000
0.454559 0.538513 0.000000
0.493378 0.538086 0.000000
0.529663 0.538116 0.000000
0.556549 0.528809 0.000000
0.578674 0.519135 0.000000
0.612701 0.521912 0.000000
0.648285 0.525574 0.000000
0.682007 0.529144 0.000000
0.717041 0.531525 0.000000
0.748108 0.532837 0.000000
0.777283 0.534485 0.000000
0.805878 0.534576 0.000000
0.834442 0.534424 0.000000
0.863251 0.535645 0.000000
0.890228 0.537598 0.000000
0.918457 0.538147 0.000000
0.944366 0.540710 0.000000
0.974701 0.546661 0.000000
0.997437 0.549438 0.000000
0.000000 0.594452 0.000000
0.000000 0.592804 0.000000
0.000000 0.595154 0.000000
0.000000 0.597809 0.000000
0.047394 0.600220 0.000000
0.120789 0.599487 0.000000
0.172516 0.596680 0.000000
0.221039 0.593262 0.000000
0.259155 0.588165 0.000000
0.299103 0.583252 0.000000
0.339935 0.577789 0.000000
0.382263 0.577148 0.000000
0.420471 0.576508 0.000000
0.458954 0.576141 0.000000
0.496796 0.575500 0.000000
0.533142 0.574280 0.000000
0.570953 0.572479 0.000000
0.593903 0.563324 0.000000
0.615601 0.555115 0.000000
0.647125 0.558777 0.000000
0.682465 0.562683 0.000000
0.719269 0.565582 0.000000
0.751038 0.566864 0.000000
0.780090 0.569794 0.000000
0.807678 0.571808 0.000000
0.835663 0.571014 0.000000
0.864014 0.572571 0.000000
0.891571 0.574524 0.000000
0.916626 0.576935 0.000000
0.942139 0.578369 0.000000
0.975861 0.581940 0.000000
0.997620 0.587097 0.000000
0.000000 0.630981 0.000000
0.000000 0.630280 0.000000
0.000000 0.632874 0.000000
0.000000 0.635559 0.000000
0.041718 0.637695 0.000000
0.111298 0.637909 0.000000
0.177917 0.635376 0.000000
0.221619 0.631989 0.000000
0.258667 0.625824 0.000000
0.300781 0.620941 0.000000
0.345551 0.616974 0.000000
0.388000 0.612671 0.000000
0.424561 0.612213 0.000000
0.464478 0.611267 0.000000
0.501831 0.609711 0.000000
0.539063 0.608246 0.000000
0.576660 0.608124 0.000000
0.610260 0.607941 0.000000
0.630890 0.598358 0.000000
0.650421 0.590515 0.000000
0.683624 0.594635 0.000000
0.719788 0.598175 0.000000
0.751648 0.600006 0.000000
0.779144 0.602539 0.000000
0.806000 0.605286 0.000000
0.833221 0.607056 0.000000
0.860657 0.608673 0.000000
0.888184 0.610718 0.000061
0.914703 0.612305 0.000061
0.940796 0.614624 0.000000
0.976227 0.619446 0.000000
0.997498 0.622864 0.000000
0.000000 0.667328 0.000000
0.000000 0.667297 0.000000
0.000000 0.670319 0.000000
0.000000 0.672668 0.000000
0.044678 0.674683 0.000000
0.109528 0.675232 0.000000
0.174377 0.674591 0.000000
0.225555 0.671112 0.000000
0.267090 0.662964 0.000000
0.306244 0.657166 0.000000
0.349274 0.652832 0.000000
0.391052 0.648132 0.000000
0.429626 0.645844 0.000000
0.466919 0.644592 0.000000
0.503754 0.644135 0.000000
0.541321 0.642853 0.000000
0.577667 0.642914 0.000000
0.612915 0.642303 0.000000
0.646057 0.640869 0.000000
0.665558 0.631561 0.000000
0.686859 0.624878 0.000000
0.721222 0.629181 0.000000
0.753143 0.631897 0.000000
0.781281 0.635468 0.000000
0.807251 0.638519 0.000000
0.833160 0.641083 0.000000
0.859772 0.643738 0.000000
0.886383 0.646118 0.000000
0.911316 0.647888 0.000000
0.943207 0.652679 0.000000
0.978485 0.657440 0.000000
0.997498 0.659088 0.000000
0.000000 0.703339 0.000000
0.000000 0.703888 0.000000
0.000000 0.707214 0.000000
0.000000 0.710876 0.000000
0.066193 0.713715 0.000000
0.136993 0.713531 0.000000
0.192871 0.711853 0.000000
0.231995 0.709290 0.000000
0.269989 0.705719 0.000000
0.314819 0.695313 0.000000
0.354004 0.689240 0.000000
0.395660 0.684204 0.000000
0.435852 0.680969 0.000000
0.472473 0.679688 0.000000
0.509369 0.678406 0.000000
0.545135 0.677460 0.000000
0.580444 0.677399 0.000000
0.616272 0.676849 0.000000
0.648773 0.676056 0.000000
0.681213 0.675568 0.000000
0.701294 0.665070 0.000000
0.722900 0.657654 0.000000
0.754639 0.662811 0.000000
0.783508 0.667633 0.000000
0.808899 0.672821 0.000000
0.833099 0.676422 0.000000
0.859039 0.677917 0.000000
0.884705 0.680634 0.000000
0.912415 0.684814 0.000000
0.947266 0.691498 0.000000
0.982880 0.695892 0.000000
0.998291 0.699646 0.000000
0.000000 0.737976 0.000000
0.000000 0.738953 0.000000
0.000183 0.742371 0.000000
0.010437 0.745514 0.000000
0.074249 0.748077 0.000000
0.138306 0.750000 0.000000
0.196411 0.748505 0.000000
0.242645 0.744904 0.000000
0.278870 0.740967 0.000000
0.321594 0.733063 0.000000
0.363098 0.725739 0.000000
0.400696 0.719574 0.000000
0.442047 0.716614 0.000000
0.478333 0.715729 0.000000
0.515503 0.714081 0.000000
0.550781 0.712799 0.000000
0.585236 0.711487 0.000000
0.620697 0.711456 0.000000
0.652496 0.711060 0.000000
0.684204 0.711090 0.000000
0.715118 0.711548 0.000000
0.735474 0.701324 0.000000
0.756104 0.693726 0.000000
0.785797 0.699341 0.000000
0.811462 0.705078 0.000000
0.833282 0.710602 0.000000
0.858063 0.712280 0.000000
0.882690 0.712952 0.000000
0.914368 0.719910 0.000000
0.951141 0.726501 0.000000
0.986023 0.730438 0.000000
0.999268 0.735626 0.000000
0.000000 0.772522 0.000000
0.000000 0.773071 0.000000
0.000244 0.776672 0.000000
0.011780 0.779236 0.000000
0.082642 0.781860 0.000000
0.153198 0.783844 0.000000
0.204193 0.783813 0.000000
0.250977 0.779633 0.000000
0.287506 0.773956 0.000000
0.331299 0.766113 0.000000
0.370361 0.759216 0.000000
0.409119 0.753662 0.000000
0.446594 0.748474 0.000000
0.482330 0.747284 0.000000
0.519318 0.745300 0.000000
0.553589 0.745239 0.000000
0.587219 0.745239 0.000000
0.622040 0.744537 0.000000
0.655975 0.741882 0.000000
0.688599 0.740570 0.000000
0.719879 0.740509 0.000000
0.748505 0.740143 0.000000
0.766815 0.732819 0.000000
0.784119 0.727814 0.000000
0.810486 0.733002 0.000000
0.834290 0.737610 0.000000
0.858124 0.740326 0.000000
0.883911 0.743561 0.000000
0.916992 0.752136 0.000000
0.953827 0.758759 0.000000
0.991150 0.764130 0.000000
1.000000 0.768768 0.000000
0.000000 0.805115 0.000000
0.000000 0.806580 0.000000
0.000641 0.809967 0.000000
0.033112 0.812378 0.000000
0.102722 0.815063 0.000000
0.166412 0.817139 0.000000
0.219421 0.816162 0.000000
0.259888 0.813538 0.000000
0.296722 0.806549 0.000000
0.341644 0.798737 0.000000
0.379364 0.791443 0.000000
0.416107 0.786560 0.000000
0.452972 0.781799 0.000000
0.489929 0.778259 0.000000
0.525024 0.776917 0.000000
0.558868 0.774689 0.000000
0.592285 0.775024 0.000000
0.626495 0.774414 0.000000
0.659576 0.772369 0.000000
0.693817 0.770966 0.000000
0.724304 0.770569 0.000000
0.751740 0.770447 0.000000
0.778931 0.770660 0.000000
0.795929 0.765045 0.000000
0.810333 0.758118 0.000000
0.835236 0.761993 0.000000
0.857697 0.765961 0.000000
0.886414 0.772858 0.000000
0.919800 0.783051 0.000000
0.956207 0.789551 0.000000
0.992523 0.796844 0.000000
1.000000 0.801300 0.000000
0.000000 0.835205 0.000000
0.000000 0.836945 0.000000
0.000824 0.840332 0.000000
0.057068 0.844299 0.000000
0.123352 0.847137 0.000000
0.181854 0.848663 0.000000
0.232819 0.848083 0.000000
0.273834 0.843903 0.000000
0.307190 0.839600 0.000000
0.348358 0.832458 0.000000
0.389557 0.822845 0.000000
0.424072 0.816620 0.000000
0.458496 0.813660 0.000000
0.494537 0.809692 0.000000
0.530243 0.807312 0.000000
0.566193 0.804932 0.000000
0.597839 0.804016 0.000000
0.631775 0.804138 0.000000
0.664215 0.803192 0.000000
0.696320 0.800446 0.000000
0.728180 0.800049 0.000000
0.755005 0.799957 0.000000
0.781067 0.799011 0.000000
0.805084 0.798492 0.000000
0.821838 0.792694 0.000000
0.834930 0.785248 0.000000
0.857788 0.788788 0.000000
0.889008 0.800171 0.000000
0.923157 0.811157 0.000000
0.959412 0.820435 0.000000
0.991913 0.828247 0.001343
1.000000 0.833649 0.000000
0.010681 0.865051 0.000000
0.026459 0.866608 0.000000
0.052216 0.869843 0.000000
0.118408 0.873779 0.000000
0.161316 0.876984 0.000000
0.206573 0.877686 0.000000
0.249146 0.876587 0.000000
0.288757 0.873444 0.000000
0.322510 0.867950 0.000000
0.361877 0.860596 0.000000
0.396576 0.853333 0.000000
0.432343 0.847443 0.000000
0.467041 0.842682 0.000000
0.498505 0.840607 0.000000
0.534943 0.837433 0.000000
0.569763 0.835327 0.000000
0.603485 0.833344 0.000000
0.636749 0.833405 0.000000
0.667389 0.834106 0.000000
0.699677 0.830688 0.000000
0.730316 0.828705 0.000000
0.756287 0.828613 0.000000
0.781616 0.826752 0.000000
0.804932 0.824615 0.000000
0.825989 0.823029 0.000000
0.842926 0.818817 0.002258
0.858398 0.814026 0.007172
0.891052 0.826477 0.000000
0.926422 0.837769 0.000702
0.962616 0.847809 0.000397
0.992035 0.856445 0.001526
1.000000 0.865997 0.000000
0.045868 0.895081 0.000000
0.071289 0.895874 0.000000
0.093872 0.899017 0.000000
0.148499 0.902832 0.000000
0.190979 0.904724 0.000000
0.225128 0.905060 0.000000
0.265930 0.903717 0.000000
0.303955 0.900635 0.000000
0.337006 0.894958 0.000000
0.373505 0.888000 0.000000
0.407593 0.881439 0.000000
0.439789 0.876312 0.000000
0.472900 0.873108 0.000000
0.507446 0.869446 0.000000
0.545441 0.865570 0.000000
