tools/luts_backup/LAPARDIN-WEDLUTS-18.cube
#Created by: Adobe Photoshop Export Color Lookup Plugin
#Copyright: (C) 2017 Andrey Lapardin. vk.com-3dluts
TITLE "Andrey Lapardin. vk.com-3dluts"
#LUT size
LUT_3D_SIZE 32
#data domain
DOMAIN_MIN 0.0 0.0 0.0
DOMAIN_MAX 1.0 1.0 1.0
#LUT data points
0.011871 0.022003 0.020477
0.028931 0.025085 0.023254
0.048187 0.026581 0.024170
0.069183 0.027649 0.024811
0.090729 0.028961 0.025238
0.112305 0.031067 0.025909
0.133698 0.034088 0.026794
0.155670 0.037628 0.027893
0.178589 0.040894 0.029175
0.202454 0.043457 0.030365
0.227570 0.045197 0.031494
0.253571 0.046356 0.032501
0.280945 0.046906 0.033447
0.309906 0.046783 0.034454
0.340515 0.045807 0.035248
0.372894 0.043182 0.035767
0.406982 0.038544 0.036285
0.442841 0.031342 0.036377
0.480438 0.027679 0.036377
0.519623 0.027344 0.036072
0.559937 0.026581 0.035614
0.601257 0.025452 0.034943
0.641876 0.023956 0.034363
0.681793 0.022186 0.033539
0.721039 0.020264 0.032959
0.759766 0.018158 0.032318
0.795959 0.015961 0.031952
0.829559 0.013672 0.031952
0.859741 0.011414 0.033478
0.887909 0.009125 0.035828
0.914795 0.007202 0.038727
0.939880 0.007080 0.042603
0.014893 0.038361 0.023438
0.028778 0.038788 0.023499
0.047760 0.042175 0.024689
0.068695 0.044373 0.025269
0.090271 0.046021 0.025726
0.111786 0.048126 0.026398
0.133484 0.050873 0.027222
0.155701 0.053986 0.028107
0.178589 0.057068 0.029083
0.202515 0.059601 0.030304
0.227478 0.061371 0.031555
0.253448 0.062653 0.032806
0.280670 0.063385 0.033936
0.309601 0.063507 0.035034
0.340271 0.062805 0.035950
0.372681 0.060791 0.036530
0.406830 0.056671 0.036896
0.442719 0.049683 0.037170
0.480286 0.043152 0.037079
0.519348 0.042358 0.036804
0.559540 0.041809 0.036285
0.600525 0.040924 0.035553
0.640869 0.039642 0.034851
0.680542 0.038055 0.033936
0.719696 0.036194 0.033203
0.758057 0.034180 0.032471
0.794159 0.032013 0.031921
0.827759 0.029785 0.031891
0.858124 0.027496 0.033142
0.886353 0.025146 0.035339
0.913452 0.023163 0.038208
0.938721 0.022858 0.042053
0.016205 0.057678 0.024628
0.032471 0.057526 0.025146
0.047668 0.057922 0.025177
0.068298 0.061737 0.025848
0.089478 0.064270 0.026398
0.111267 0.066162 0.027100
0.133240 0.068237 0.027863
0.155853 0.070557 0.028656
0.178925 0.072906 0.029419
0.202820 0.074829 0.030273
0.227509 0.076538 0.031708
0.253204 0.077911 0.033295
0.280212 0.078827 0.034760
0.308899 0.079254 0.035980
0.339478 0.078918 0.037140
0.371826 0.077515 0.038025
0.405884 0.074280 0.038544
0.441742 0.068268 0.038818
0.479370 0.060394 0.038879
0.518524 0.056702 0.038635
0.558685 0.056702 0.037994
0.599701 0.056396 0.037109
0.640228 0.055725 0.036133
0.680206 0.054718 0.035034
0.719666 0.053345 0.034027
0.757904 0.051697 0.033112
0.793854 0.049835 0.032379
0.827271 0.047821 0.032135
0.857819 0.045715 0.033112
0.885895 0.043365 0.035278
0.912750 0.041321 0.037994
0.937958 0.040955 0.041748
0.017334 0.077942 0.026215
0.035309 0.077423 0.027313
0.051544 0.077301 0.027863
0.067780 0.078430 0.027313
0.088715 0.082031 0.027863
0.110168 0.084595 0.028503
0.132660 0.086151 0.029205
0.155701 0.087433 0.029816
0.179077 0.089081 0.030396
0.203094 0.090363 0.031036
0.227814 0.091675 0.032257
0.253418 0.092865 0.033875
0.280396 0.093811 0.035645
0.309021 0.094269 0.037170
0.339386 0.094116 0.038483
0.371582 0.093109 0.039673
0.405579 0.090576 0.040588
0.441223 0.085571 0.041077
0.478760 0.076904 0.041321
0.517639 0.070007 0.041168
0.557587 0.069794 0.040649
0.598358 0.070129 0.039703
0.638733 0.070190 0.038513
0.678619 0.069916 0.037170
0.717926 0.069336 0.035675
0.755920 0.068420 0.034393
0.791992 0.067230 0.033295
0.825653 0.065826 0.032623
0.856842 0.064240 0.032928
0.885101 0.062286 0.035126
0.912201 0.060455 0.037842
0.937531 0.060120 0.041626
0.018585 0.097687 0.028778
0.038147 0.097076 0.030090
0.055603 0.097015 0.030823
0.071777 0.097473 0.031036
0.087860 0.098175 0.030670
0.108978 0.101776 0.031525
0.131378 0.104004 0.032227
0.154755 0.105347 0.032532
0.178741 0.106201 0.032715
0.203003 0.107361 0.032990
0.228027 0.108368 0.033539
0.253906 0.109192 0.034760
0.281036 0.109924 0.036438
0.309723 0.110229 0.038177
0.339996 0.109985 0.039673
0.371887 0.108978 0.040955
0.405548 0.106628 0.042175
0.441040 0.102142 0.043121
0.478210 0.094452 0.043701
0.516907 0.085236 0.043884
0.556580 0.081573 0.043579
0.597137 0.082092 0.042877
0.637451 0.082458 0.041748
0.677185 0.082764 0.040344
0.716431 0.082825 0.038666
0.754303 0.082672 0.036957
0.790375 0.082336 0.035522
0.824036 0.081757 0.034454
0.855713 0.080963 0.033905
0.884674 0.079712 0.034973
0.911560 0.078308 0.037628
0.936890 0.078400 0.041412
0.019775 0.117401 0.031708
0.040771 0.116974 0.032928
0.059906 0.116180 0.034668
0.076233 0.116577 0.035095
0.092072 0.117218 0.035187
0.107910 0.116730 0.035095
0.129944 0.120056 0.035919
0.153259 0.122375 0.036285
0.177551 0.123932 0.036438
0.202484 0.125244 0.036407
0.227966 0.125793 0.036469
0.254181 0.126526 0.036926
0.281494 0.127045 0.037598
0.310425 0.127167 0.039154
0.340790 0.126862 0.040527
0.372620 0.125793 0.041962
0.406067 0.123688 0.043274
0.441162 0.119781 0.044556
0.478241 0.112946 0.045532
0.516632 0.101929 0.046082
0.555969 0.094208 0.046295
0.596283 0.093506 0.046082
0.636322 0.093811 0.045288
0.676086 0.094086 0.044189
0.715149 0.094360 0.042694
0.752960 0.094604 0.041046
0.789642 0.094788 0.039581
0.824188 0.094849 0.038452
0.856262 0.094788 0.037842
0.886475 0.094360 0.037872
0.914307 0.093689 0.039337
0.939545 0.094452 0.042969
0.020996 0.138336 0.034973
0.042786 0.137939 0.036102
0.063324 0.137085 0.037750
0.080811 0.136414 0.039673
0.096039 0.136566 0.040344
0.112366 0.136688 0.040863
0.128815 0.135406 0.040436
0.152069 0.138947 0.040741
0.176544 0.141418 0.040955
0.201813 0.143341 0.040802
0.227722 0.144379 0.040619
0.254578 0.144806 0.040588
0.282471 0.144928 0.040619
0.311615 0.145020 0.041046
0.342285 0.144745 0.041962
0.374176 0.143829 0.043030
0.407654 0.141907 0.044189
0.442596 0.138611 0.045471
0.479279 0.133026 0.046661
0.517273 0.123718 0.047546
0.556213 0.109680 0.048096
0.596222 0.106140 0.048401
0.635651 0.106018 0.048187
0.674591 0.105988 0.047607
0.712891 0.105988 0.046722
0.749908 0.106079 0.045471
0.785431 0.106201 0.044281
0.819031 0.106354 0.043274
0.851196 0.106476 0.042694
0.881653 0.106415 0.042633
0.910492 0.106171 0.043610
0.937134 0.107697 0.045654
0.022308 0.161133 0.038605
0.044983 0.160706 0.039673
0.066650 0.159668 0.041290
0.085144 0.158356 0.043854
0.100525 0.157379 0.045990
0.115997 0.157074 0.046906
0.133820 0.157257 0.047028
0.151337 0.155640 0.045898
0.175873 0.159271 0.045807
0.201202 0.161743 0.045776
0.227386 0.163391 0.045532
0.254730 0.164063 0.045197
0.283203 0.164001 0.044708
0.312866 0.163757 0.044342
0.343781 0.163574 0.044403
0.376007 0.162933 0.044922
0.409637 0.161377 0.045654
0.444641 0.158539 0.046417
0.481201 0.153839 0.047455
0.518921 0.146393 0.048431
0.557526 0.134735 0.049194
0.596832 0.122711 0.049622
0.635925 0.119995 0.049866
0.674042 0.119659 0.049866
0.711243 0.119354 0.049500
0.747253 0.119049 0.049042
0.781952 0.118744 0.048370
0.814728 0.118469 0.047974
0.845764 0.118225 0.047791
0.875244 0.117950 0.047913
0.903778 0.117584 0.049072
0.930695 0.119263 0.050842
0.023926 0.184235 0.041962
0.047241 0.183838 0.042908
0.069519 0.182770 0.044495
0.088959 0.181061 0.047516
0.105316 0.179077 0.051086
0.119995 0.178314 0.052795
0.137177 0.178223 0.053314
0.156952 0.178864 0.052765
0.175232 0.176971 0.051086
0.200775 0.180481 0.050842
0.227112 0.182709 0.050629
0.254578 0.183960 0.050232
0.283508 0.184204 0.049530
0.313660 0.183624 0.048676
0.344849 0.183167 0.047943
0.377197 0.182617 0.047363
0.411102 0.181580 0.047485
0.446320 0.179443 0.047974
0.482849 0.175873 0.048615
0.520477 0.170319 0.049286
0.558990 0.161774 0.049866
0.598236 0.148590 0.050262
0.636597 0.137024 0.050568
0.673889 0.134796 0.050873
0.710236 0.134308 0.050781
0.745483 0.133789 0.050812
0.779449 0.133148 0.050781
0.811646 0.132416 0.051025
0.840576 0.131683 0.051453
0.869934 0.130951 0.052246
0.898102 0.130310 0.053772
0.924744 0.131622 0.055695
0.026581 0.207947 0.045471
0.050079 0.207642 0.046265
0.073364 0.206573 0.047882
0.093536 0.204773 0.050934
0.110107 0.202545 0.054901
0.125732 0.200500 0.058594
0.141846 0.200226 0.059509
0.160767 0.200623 0.059296
0.181732 0.201508 0.058289
0.200592 0.199463 0.056305
0.227142 0.202698 0.055786
0.254730 0.204620 0.055359
0.283813 0.205475 0.054535
0.314240 0.205414 0.053436
0.345764 0.204590 0.052368
0.378113 0.203247 0.051361
0.411957 0.202393 0.050568
0.447052 0.200989 0.050201
0.483521 0.198547 0.050049
0.521301 0.194611 0.050446
0.559570 0.188843 0.050659
0.598206 0.180420 0.050720
0.635925 0.168518 0.050781
0.672821 0.156799 0.050903
0.708679 0.150574 0.050934
0.743347 0.149750 0.051147
0.776794 0.149109 0.051483
0.808624 0.148285 0.052155
0.837402 0.147400 0.053040
0.866425 0.146454 0.054443
0.894440 0.145630 0.056519
0.921173 0.146332 0.059082
0.029480 0.232635 0.049011
0.053223 0.232422 0.049744
0.077667 0.231354 0.051239
0.099030 0.229523 0.054291
0.116028 0.227142 0.058563
0.131714 0.224640 0.063080
0.147919 0.223267 0.065826
0.165833 0.223480 0.065918
0.186096 0.224243 0.065063
0.208099 0.225372 0.063660
0.227783 0.223236 0.061401
0.255646 0.226410 0.060669
0.284943 0.228058 0.059845
0.315735 0.228699 0.058594
0.347687 0.228363 0.057220
0.380707 0.227203 0.055878
0.414734 0.225464 0.054718
0.450073 0.223755 0.053650
0.486847 0.222290 0.052704
0.524445 0.219879 0.052032
0.562744 0.216095 0.051880
0.600922 0.210693 0.051605
0.638000 0.203674 0.051117
0.673920 0.194916 0.050720
0.708862 0.185150 0.050507
0.742645 0.180969 0.050568
0.775177 0.177765 0.050842
0.806122 0.175262 0.051697
0.835724 0.173218 0.052979
0.864258 0.171753 0.054749
0.891998 0.171234 0.057251
0.918640 0.173492 0.060455
0.032501 0.258453 0.052734
0.056641 0.258209 0.053345
0.082184 0.257263 0.054596
0.105042 0.255524 0.057526
0.122864 0.253113 0.061981
0.138397 0.250275 0.066986
0.155090 0.247589 0.071625
0.172424 0.247253 0.072815
0.191803 0.247986 0.072021
0.213196 0.249176 0.070679
0.236145 0.250519 0.069000
0.256836 0.248291 0.066467
0.286285 0.251373 0.065277
0.317322 0.252930 0.063965
0.349792 0.253357 0.062439
0.383484 0.252838 0.060822
0.418213 0.251587 0.059204
0.453918 0.249695 0.057739
0.490448 0.247375 0.056335
0.528168 0.245575 0.055054
0.566315 0.243530 0.053619
0.604767 0.240448 0.052612
0.642120 0.236420 0.051697
0.678131 0.231873 0.050598
0.712799 0.227234 0.049896
0.746185 0.223022 0.049347
0.777924 0.219360 0.049469
0.808075 0.216675 0.050232
0.836945 0.214813 0.051849
0.864777 0.213715 0.054138
0.891998 0.214020 0.057068
0.918121 0.217773 0.060852
0.035492 0.285706 0.056396
0.059814 0.285583 0.056946
0.086517 0.284729 0.058044
0.111115 0.283020 0.060760
0.130157 0.280365 0.065186
0.145630 0.277344 0.070557
0.161865 0.274292 0.075867
0.180145 0.272064 0.079834
0.198547 0.272644 0.079437
0.219299 0.273956 0.078033
0.241760 0.275513 0.076324
0.265961 0.277222 0.074371
0.287659 0.274719 0.071289
0.318695 0.277954 0.069641
0.351746 0.279816 0.067963
0.386017 0.280243 0.065979
0.421478 0.279755 0.063965
0.457703 0.278473 0.062042
0.494385 0.276489 0.060242
0.531433 0.274170 0.058289
0.568817 0.271729 0.056641
0.606659 0.270416 0.054413
0.643524 0.268677 0.052368
0.679199 0.266418 0.050842
0.713501 0.264038 0.049500
0.746490 0.262146 0.048248
0.778046 0.261017 0.047821
0.808136 0.260712 0.048401
0.836761 0.261139 0.049896
0.864380 0.261993 0.052399
0.891510 0.263245 0.055817
0.917236 0.265991 0.060211
0.037933 0.316162 0.060669
0.062622 0.316101 0.061249
0.090576 0.315216 0.062256
0.117432 0.313660 0.064575
0.138245 0.310822 0.068756
0.153992 0.307098 0.074280
0.169434 0.303406 0.080139
0.187622 0.300140 0.085266
0.206757 0.298981 0.087524
0.226776 0.300232 0.086212
0.248749 0.302063 0.084320
0.272461 0.304077 0.082306
0.298035 0.306152 0.079895
0.320770 0.303406 0.076233
0.353699 0.307251 0.074005
0.388641 0.309540 0.071716
0.424500 0.310028 0.069153
0.461334 0.309540 0.066498
0.498383 0.308319 0.064117
0.535370 0.306458 0.061829
0.572052 0.303955 0.059509
0.609039 0.302124 0.056885
0.645264 0.300903 0.053955
0.680695 0.300751 0.051025
0.715088 0.300385 0.049072
0.748047 0.300110 0.047150
0.779480 0.299957 0.046021
0.809204 0.300171 0.046143
0.837585 0.301056 0.047668
0.864960 0.302429 0.050354
0.891815 0.304138 0.054169
0.917053 0.306793 0.059235
0.038055 0.348663 0.065399
0.063538 0.348450 0.066193
0.092865 0.347412 0.067291
0.122040 0.346466 0.068878
0.145599 0.344055 0.072357
0.162689 0.339844 0.077942
0.177612 0.335358 0.084229
0.195007 0.331299 0.090210
0.215607 0.327942 0.095184
0.235474 0.328186 0.095245
0.256775 0.330231 0.093109
0.279816 0.332458 0.090729
0.304352 0.334808 0.088165
0.331116 0.337250 0.085175
0.354614 0.334320 0.080841
0.389130 0.338776 0.077820
0.425568 0.341400 0.074677
0.462280 0.341888 0.071472
0.499634 0.341370 0.068268
0.536896 0.340332 0.065369
0.573578 0.338837 0.062561
0.610016 0.337006 0.059631
0.645325 0.335327 0.056183
0.679901 0.334320 0.052307
0.713928 0.335022 0.048553
0.746887 0.335999 0.046234
0.778351 0.336487 0.044464
0.808105 0.336823 0.043976
0.836639 0.337402 0.045013
0.864288 0.338684 0.047852
0.891388 0.340485 0.052094
0.916443 0.342926 0.057770
0.035248 0.382599 0.070129
0.061615 0.382446 0.070923
0.092316 0.381439 0.072021
0.123810 0.380188 0.073669
0.150513 0.379028 0.075836
0.169861 0.374390 0.080658
0.184845 0.368469 0.087128
0.201385 0.363861 0.094025
0.221954 0.360321 0.100067
0.244629 0.357635 0.104340
0.265198 0.359589 0.102478
0.287476 0.362152 0.099762
0.311279 0.364868 0.096832
0.336823 0.367584 0.093689
0.364624 0.370361 0.089996
0.389069 0.367371 0.084930
0.425232 0.372498 0.080963
0.460846 0.373993 0.076965
0.497864 0.374268 0.073090
0.535248 0.374054 0.069458
0.572266 0.373505 0.065979
0.608978 0.372894 0.062469
0.644318 0.372131 0.058838
0.678375 0.371033 0.054474
0.711670 0.370514 0.049194
0.744080 0.370209 0.045197
0.775513 0.371552 0.043213
0.805420 0.372101 0.042267
0.834198 0.372559 0.042786
0.862335 0.373230 0.045258
0.889923 0.374573 0.049652
0.915253 0.376587 0.055908
0.027496 0.419922 0.075348
0.056427 0.420013 0.076202
0.089386 0.419189 0.077454
0.123840 0.417938 0.079193
0.153839 0.417053 0.081329
0.177338 0.415100 0.084778
0.193970 0.408722 0.091644
0.209198 0.401184 0.098419
0.228455 0.395874 0.105042
0.251709 0.391602 0.110565
0.274231 0.390533 0.112213
0.295685 0.393066 0.109467
0.318634 0.396057 0.106110
0.343170 0.398987 0.102661
0.369690 0.401917 0.098877
0.398529 0.404877 0.094482
0.423157 0.400970 0.088440
0.460266 0.406616 0.083649
0.498077 0.409637 0.079010
0.535339 0.410187 0.074493
0.572510 0.410217 0.070068
0.611206 0.411987 0.065582
0.646515 0.412170 0.061249
0.680450 0.412323 0.056488
0.713318 0.412170 0.050812
0.744965 0.411255 0.044586
0.775574 0.409821 0.040894
0.805237 0.409973 0.040710
0.834015 0.410431 0.041351
0.862274 0.410706 0.044006
0.890167 0.411469 0.048828
0.916687 0.412903 0.056061
0.016052 0.457336 0.080536
0.048065 0.457428 0.081421
0.084290 0.456787 0.082672
0.121948 0.455658 0.084503
0.155151 0.454651 0.086823
0.182434 0.454010 0.089294
0.201904 0.448822 0.095154
0.217529 0.441223 0.102905
0.236267 0.435547 0.110779
0.259705 0.431335 0.117554
0.285919 0.427612 0.123383
0.307800 0.429138 0.122162
0.330048 0.432495 0.118408
0.353973 0.435883 0.114380
0.379639 0.439026 0.110107
0.407227 0.441925 0.105347
0.437195 0.444824 0.099945
0.461731 0.439880 0.092590
0.499969 0.446167 0.086670
0.538086 0.449432 0.081177
0.575317 0.450409 0.075684
0.614044 0.452637 0.070160
0.649109 0.453064 0.064911
0.682526 0.453583 0.059631
0.714935 0.454193 0.053833
0.746063 0.454254 0.047272
0.776123 0.453217 0.040863
0.805298 0.450836 0.037933
0.834045 0.448425 0.040405
0.862213 0.448853 0.043701
0.890106 0.448883 0.049347
0.916290 0.449646 0.057495
0.009064 0.496155 0.086578
0.037903 0.497650 0.088074
0.079559 0.500061 0.090515
0.121490 0.499268 0.092590
0.158386 0.498383 0.095123
0.189240 0.497925 0.097992
0.212433 0.495361 0.101715
0.227264 0.484344 0.108398
0.244202 0.476105 0.116302
0.266144 0.470398 0.123474
0.292358 0.466064 0.129639
0.318756 0.463745 0.133881
0.340424 0.466888 0.130585
0.363373 0.470459 0.126190
0.388245 0.473938 0.121552
0.414948 0.477173 0.116608
0.443695 0.480225 0.111267
0.474548 0.483276 0.105103
0.499878 0.478638 0.096680
0.538605 0.485687 0.089905
0.576263 0.489166 0.083862
0.612732 0.490326 0.077789
0.647736 0.491089 0.071838
0.681335 0.491974 0.066132
0.713684 0.493103 0.060364
0.744690 0.493927 0.054504
0.774628 0.494202 0.048248
0.803558 0.493317 0.041443
0.832062 0.490784 0.040283
0.860474 0.486389 0.045380
0.888458 0.485382 0.051636
0.914703 0.485840 0.060760
0.008850 0.536438 0.094330
0.034637 0.537170 0.095551
0.078827 0.538116 0.097473
0.122437 0.537842 0.099670
0.161255 0.537018 0.102264
0.194244 0.536255 0.105133
0.220764 0.535645 0.108093
0.237976 0.527893 0.114563
0.253021 0.517670 0.122253
0.273865 0.511505 0.130219
0.299622 0.506927 0.136932
0.328125 0.503326 0.143097
0.353027 0.503448 0.144226
0.375214 0.506927 0.139923
0.399109 0.510529 0.134979
0.424622 0.513702 0.129730
0.452087 0.516541 0.124115
0.481262 0.519196 0.118011
0.512421 0.522034 0.111084
0.537598 0.517334 0.101593
0.575714 0.524506 0.094727
0.612396 0.527924 0.088593
0.646973 0.529297 0.082581
0.680542 0.530396 0.076721
0.712830 0.531403 0.071106
0.743622 0.532440 0.066132
0.773254 0.533142 0.061218
0.801819 0.533295 0.055969
0.829926 0.532318 0.049988
0.857910 0.529541 0.051514
0.885803 0.525085 0.057709
0.912292 0.522491 0.066589
0.012329 0.573792 0.102783
0.046967 0.574524 0.104065
0.088318 0.574860 0.105804
0.130066 0.574799 0.108093
0.168427 0.574280 0.110809
0.201019 0.572052 0.112762
0.229126 0.571625 0.115753
0.248230 0.566620 0.119812
0.260559 0.554718 0.126373
0.281006 0.549561 0.135895
0.307037 0.546204 0.144104
0.335815 0.543091 0.150757
0.365082 0.540283 0.156891
0.388153 0.542511 0.154694
0.410858 0.545990 0.149658
0.435242 0.549164 0.144196
0.461395 0.551880 0.138428
0.489075 0.554260 0.132294
0.518433 0.556610 0.125702
0.549225 0.559082 0.118469
0.573730 0.554535 0.108459
0.610657 0.561218 0.102081
0.645386 0.564575 0.096649
0.678619 0.566132 0.091064
0.710754 0.567261 0.085815
0.741547 0.568237 0.081116
0.771057 0.569183 0.077057
0.799408 0.569855 0.073425
0.827118 0.569855 0.069611
0.854340 0.568787 0.064911
0.881531 0.566132 0.068634
0.908020 0.562195 0.076385
0.038635 0.608429 0.112366
0.070221 0.609161 0.113678
0.105530 0.609558 0.115448
0.143433 0.609467 0.117706
0.179932 0.608948 0.120300
0.213318 0.608246 0.123199
0.242126 0.607819 0.126343
0.264191 0.606232 0.129547
0.274567 0.594940 0.134308
0.290131 0.585815 0.141815
0.314484 0.582031 0.150574
0.342682 0.579163 0.157715
0.372498 0.576630 0.164337
0.399963 0.575500 0.168274
0.422333 0.578491 0.164307
0.445709 0.581696 0.159058
0.470795 0.584595 0.153412
0.497406 0.587250 0.147675
0.525574 0.589722 0.141663
0.554932 0.592163 0.135345
0.585114 0.594666 0.128571
0.608856 0.590363 0.118286
0.643738 0.596252 0.113007
0.677185 0.599823 0.108582
0.709106 0.601532 0.104034
0.739807 0.602661 0.099640
0.769409 0.603851 0.096039
0.797668 0.604889 0.093353
0.824982 0.605530 0.091003
0.851563 0.605560 0.088593
0.878052 0.604767 0.087708
0.903931 0.601837 0.092529
0.077789 0.645660 0.127960
0.103821 0.646210 0.129211
0.134369 0.646393 0.130798
0.168060 0.646271 0.132904
0.201660 0.645691 0.135376
0.233582 0.644958 0.138275
0.262329 0.644379 0.141388
0.286072 0.644104 0.144562
0.300171 0.638062 0.149506
0.310333 0.627228 0.154785
0.331146 0.622131 0.163391
0.357117 0.618744 0.170654
0.385834 0.616241 0.177216
0.415192 0.614105 0.183899
0.439850 0.614838 0.184357
0.462341 0.617767 0.179596
0.486176 0.620544 0.174133
0.511414 0.623047 0.168365
0.537964 0.625183 0.162354
0.565491 0.627167 0.156281
0.593567 0.629059 0.150116
0.622223 0.630890 0.143646
0.645203 0.627136 0.133545
0.677399 0.631622 0.129028
0.708984 0.634644 0.125427
0.739197 0.636200 0.121674
0.768463 0.637360 0.118256
0.796539 0.638489 0.115662
0.823578 0.639526 0.113983
0.849701 0.640350 0.113068
0.875305 0.640472 0.112396
0.900696 0.638458 0.114075
0.107178 0.677429 0.142670
0.131195 0.677887 0.143890
0.159546 0.678070 0.145447
0.191010 0.678009 0.147583
0.222412 0.677582 0.150024
0.253082 0.676941 0.152832
0.281403 0.676392 0.155975
0.305573 0.676208 0.159210
0.323151 0.674133 0.162811
0.333191 0.665588 0.168732
0.349548 0.659393 0.176697
0.373077 0.655945 0.184540
0.400360 0.653625 0.191284
0.428955 0.651733 0.197723
0.456848 0.650238 0.203644
0.479431 0.652191 0.200806
0.502167 0.654694 0.195709
0.526062 0.656921 0.190155
0.551086 0.658691 0.184326
0.576813 0.660187 0.178314
0.602844 0.661499 0.172546
0.629089 0.662567 0.166779
0.655304 0.663574 0.160767
0.677704 0.660370 0.151337
0.707642 0.663635 0.146790
0.737488 0.666229 0.143707
0.766388 0.667908 0.140686
0.794281 0.669128 0.138062
0.821228 0.670410 0.136383
0.847168 0.671753 0.135834
0.872498 0.672577 0.135986
0.897461 0.671204 0.135834
0.138489 0.707977 0.161072
0.161499 0.708588 0.162415
0.188293 0.708740 0.163879
0.217377 0.708588 0.165649
0.246368 0.708160 0.167664
0.275146 0.707458 0.170074
0.302429 0.706818 0.172791
0.326324 0.706421 0.175659
0.345764 0.706360 0.178497
0.356659 0.700256 0.183960
0.368347 0.693054 0.190460
0.388367 0.688965 0.198059
0.413269 0.686493 0.204651
0.440765 0.684814 0.210785
0.468658 0.683380 0.217010
0.494141 0.683197 0.219971
0.516327 0.685333 0.215912
0.539368 0.687408 0.211029
0.563324 0.689178 0.205688
0.587830 0.690582 0.200195
0.612183 0.691559 0.194824
0.636505 0.692322 0.189819
0.660400 0.692841 0.184998
0.684662 0.693268 0.179596
0.706940 0.690826 0.170807
0.735382 0.693512 0.166016
0.763977 0.695984 0.163177
0.791626 0.697876 0.160889
0.818481 0.699280 0.159149
0.844360 0.700867 0.158417
0.869598 0.702057 0.158447
0.894287 0.701172 0.158508
0.162506 0.735229 0.177307
0.184448 0.735687 0.178467
0.210205 0.735870 0.179779
0.238220 0.735809 0.181458
0.266144 0.735474 0.183411
0.293945 0.734985 0.185791
0.320862 0.734406 0.188507
0.344788 0.734100 0.191376
0.364441 0.734100 0.194122
0.377930 0.731293 0.198303
0.387146 0.724060 0.204254
0.404419 0.719879 0.212372
0.427338 0.717407 0.219269
0.453339 0.715881 0.225189
0.480438 0.714691 0.230988
0.507355 0.713531 0.236816
0.530426 0.714447 0.235901
0.552612 0.716248 0.231598
0.575684 0.717896 0.226837
0.599152 0.719299 0.221893
0.622375 0.720306 0.217194
0.644989 0.720886 0.212921
0.666809 0.721100 0.209106
0.688660 0.721191 0.205170
0.711670 0.721375 0.200195
0.734222 0.719910 0.192108
0.761627 0.722260 0.186798
0.788971 0.724609 0.183990
0.815552 0.726593 0.182343
0.841400 0.728394 0.181671
0.866547 0.729736 0.181335
0.891144 0.729340 0.181549
0.184448 0.761078 0.193848
0.205841 0.761505 0.194916
0.230927 0.761688 0.196136
0.258118 0.761688 0.197723
0.285217 0.761505 0.199677
0.312164 0.761108 0.201965
0.338470 0.760651 0.204590
0.362457 0.760345 0.207458
0.382446 0.760345 0.210236
0.398224 0.760040 0.213104
0.404663 0.752808 0.216431
0.419006 0.748047 0.224121
0.440247 0.745667 0.232117
0.464722 0.744263 0.238190
0.490753 0.743225 0.243591
0.517120 0.742279 0.248779
0.542542 0.741699 0.252838
0.564453 0.743195 0.249603
0.586823 0.744720 0.245605
0.609497 0.746063 0.241364
0.631866 0.747101 0.237335
0.653442 0.747711 0.233917
0.673706 0.747925 0.231384
0.693604 0.747833 0.228821
0.714325 0.747803 0.225555
0.736694 0.748138 0.220886
0.759888 0.747833 0.213776
0.786346 0.750092 0.208160
0.812622 0.752258 0.205231
0.838135 0.754395 0.204193
0.863098 0.755707 0.203339
0.887604 0.755737 0.203918
0.205383 0.786011 0.211090
0.226501 0.786469 0.212219
0.251251 0.786682 0.213501
0.278015 0.786804 0.215179
0.304565 0.786743 0.217224
0.331146 0.786621 0.219849
0.357178 0.786407 0.222687
0.381256 0.786285 0.225647
0.401672 0.786346 0.228455
0.418976 0.786835 0.231323
0.429901 0.783203 0.235474
0.439606 0.777252 0.240295
0.456726 0.774078 0.247223
0.478363 0.772186 0.253021
0.502777 0.771210 0.258148
