tools/luts_backup/LAPARDIN-WEDLUTS-15.cube
#Created by: Adobe Photoshop Export Color Lookup Plugin
#Copyright: (C) 2017 Andrey Lapardin. vk.com-3dluts
TITLE "Andrey Lapardin. vk.com-3dluts"
#LUT size
LUT_3D_SIZE 8
#data domain
#LUT data points
DOMAIN_MIN 0.000000 0.000000 0.000000
DOMAIN_MAX 0.903226 0.903226 0.903226
0.047546 0.050873 0.051636
0.102509 0.055023 0.055115
0.206909 0.056458 0.059540
0.349213 0.055176 0.057343
0.515900 0.054443 0.051727
0.662506 0.053558 0.045471
0.781555 0.048309 0.048462
0.886749 0.040985 0.059753
0.045410 0.112640 0.052612
0.105530 0.117859 0.053101
0.225342 0.143311 0.051208
0.363892 0.145325 0.050842
0.520691 0.148285 0.052704
0.660156 0.141968 0.053589
0.777222 0.138367 0.058563
0.880005 0.138275 0.066772
0.040619 0.233612 0.043823
0.103271 0.232178 0.050110
0.193787 0.227203 0.060303
0.374634 0.274414 0.052368
0.532379 0.260498 0.055206
0.662750 0.251892 0.063599
0.770844 0.240112 0.085510
0.864899 0.233612 0.108490
0.040039 0.388855 0.042175
0.102997 0.387299 0.053284
0.197144 0.380157 0.078918
0.322968 0.378815 0.093109
0.525848 0.422485 0.064514
0.665131 0.389832 0.078766
0.768524 0.366119 0.103729
0.857391 0.357849 0.132965
0.039032 0.538818 0.087128
0.109222 0.539978 0.099243
0.185516 0.523651 0.125214
0.333618 0.521027 0.142273
0.450928 0.514893 0.157257
0.618286 0.536163 0.139191
0.750732 0.522736 0.150055
0.848022 0.491211 0.166138
0.056915 0.645020 0.173981
0.193298 0.646851 0.184845
0.262573 0.636322 0.189728
0.365356 0.631378 0.214264
0.476654 0.630524 0.227203
0.571777 0.623474 0.239868
0.687988 0.637115 0.248993
0.819519 0.651947 0.238037
0.205353 0.738525 0.251221
0.292725 0.739594 0.255707
0.368378 0.740082 0.259979
0.421906 0.726715 0.277252
0.513947 0.727051 0.284882
0.605560 0.726318 0.295135
0.680450 0.721985 0.308960
0.769135 0.735138 0.323059
0.275452 0.831177 0.304779
0.355652 0.832489 0.307281
0.433350 0.833405 0.311096
0.480652 0.825470 0.322693
0.557434 0.823914 0.333496
0.643768 0.825623 0.338593
0.711884 0.824127 0.349518
0.782715 0.825684 0.358978
0.051544 0.050476 0.106323
0.104370 0.053772 0.109070
0.203674 0.052551 0.128571
0.344482 0.049774 0.146606
0.503540 0.052490 0.164948
0.648468 0.052887 0.159790
0.767853 0.048645 0.158875
0.873230 0.041107 0.164490
0.047028 0.110077 0.106476
0.127045 0.127350 0.123901
0.236847 0.133972 0.133484
0.378479 0.134003 0.139679
0.532196 0.136505 0.146576
0.664551 0.138397 0.155853
0.774323 0.144958 0.170898
0.863892 0.165680 0.190735
0.043793 0.224762 0.127899
0.133759 0.239929 0.140686
0.226135 0.250488 0.146820
0.399475 0.279114 0.133636
0.549561 0.262268 0.143494
0.675446 0.252014 0.160553
0.775574 0.256561 0.185333
0.855804 0.277283 0.213654
0.042755 0.375244 0.144318
0.107269 0.386780 0.154846
0.233398 0.394989 0.171448
0.357941 0.399933 0.183502
0.550720 0.437622 0.163269
0.679138 0.397400 0.177734
0.778137 0.379791 0.202789
0.853424 0.385651 0.245880
0.039764 0.527252 0.183990
0.110260 0.535706 0.196014
0.252747 0.540039 0.214264
0.377289 0.538208 0.233276
0.485168 0.529572 0.249054
0.641510 0.552032 0.236298
0.759613 0.533020 0.242401
0.842987 0.507355 0.265533
0.076324 0.636017 0.241302
0.210175 0.645599 0.252686
0.318695 0.647125 0.263611
0.401978 0.643036 0.285187
0.506714 0.639832 0.299561
0.597290 0.633759 0.315613
0.706726 0.647949 0.321564
0.819153 0.651337 0.314148
0.208679 0.731323 0.303558
0.308228 0.745972 0.315247
0.398926 0.746338 0.318726
0.458984 0.738953 0.335602
0.533356 0.733154 0.350891
0.623016 0.732117 0.361420
0.695953 0.726746 0.368256
0.773743 0.736450 0.383911
0.273102 0.821960 0.347137
0.367065 0.832947 0.360291
0.450104 0.834045 0.362305
0.520538 0.830231 0.374115
0.567108 0.820007 0.398041
0.645782 0.819061 0.404510
0.722260 0.821045 0.410187
0.789063 0.826172 0.417084
0.041199 0.047638 0.204529
0.111420 0.048431 0.214752
0.199280 0.046509 0.224762
0.343964 0.045685 0.264435
0.502380 0.046875 0.289215
0.645599 0.047913 0.296997
0.762665 0.051727 0.304230
0.862732 0.090637 0.304657
0.042816 0.118561 0.204742
0.124451 0.124237 0.229828
0.235474 0.128845 0.242462
0.370239 0.141144 0.265808
0.518860 0.145599 0.284851
0.652283 0.165558 0.299896
0.761902 0.182953 0.303528
0.850342 0.200623 0.304993
0.047180 0.223206 0.209442
0.136414 0.241089 0.229340
0.259796 0.264954 0.252930
0.411163 0.256775 0.253448
0.557922 0.258209 0.264313
0.677887 0.271912 0.283234
0.762207 0.298340 0.308319
0.826843 0.330658 0.344818
0.050446 0.367584 0.229156
0.128082 0.382690 0.238220
0.263306 0.416107 0.270721
0.387115 0.421753 0.281891
0.565704 0.431793 0.266663
0.682922 0.404327 0.285248
0.770721 0.404633 0.315735
0.837982 0.414795 0.349792
0.053131 0.513092 0.248322
0.138977 0.523804 0.271545
0.297180 0.544922 0.308350
0.406769 0.547974 0.328369
0.512451 0.545105 0.331512
0.655945 0.562042 0.317047
0.755768 0.541229 0.336731
0.832245 0.525330 0.364319
0.123932 0.628143 0.302490
0.228363 0.631683 0.325439
0.348358 0.647461 0.345551
0.434875 0.648529 0.368713
0.534393 0.647552 0.377167
0.614594 0.637146 0.384247
0.708801 0.652008 0.399261
0.816498 0.661316 0.402954
0.223419 0.724884 0.362457
0.305817 0.726013 0.376526
0.410492 0.737823 0.392548
0.486511 0.738281 0.405243
0.556488 0.736603 0.418427
0.638885 0.735046 0.422607
0.706573 0.729584 0.437286
0.783051 0.742798 0.454834
0.279633 0.818634 0.408813
0.356506 0.807434 0.412476
0.459900 0.809052 0.436584
0.539581 0.810486 0.441956
0.592468 0.823212 0.457367
0.658844 0.821777 0.461609
0.730774 0.822601 0.472107
0.798889 0.826752 0.480896
0.040009 0.044464 0.336823
0.128876 0.037415 0.354004
0.202576 0.041870 0.372467
0.321686 0.042358 0.388794
0.503387 0.042603 0.449036
0.642822 0.042572 0.454285
0.757019 0.044373 0.435913
0.853088 0.102417 0.434174
0.040466 0.111298 0.341736
0.124695 0.110291 0.369720
0.221130 0.115936 0.387299
0.346893 0.117371 0.401367
0.509979 0.122467 0.442657
0.641235 0.148499 0.449249
0.749512 0.194702 0.443329
0.832184 0.243408 0.448364
0.047363 0.231750 0.347778
0.103180 0.235840 0.370117
0.240265 0.247040 0.396210
0.400818 0.247894 0.405670
0.544678 0.272308 0.418579
0.656525 0.310577 0.433319
0.740479 0.352509 0.454926
0.810913 0.379486 0.470642
0.052277 0.365845 0.340485
0.112732 0.386444 0.366211
0.267090 0.412262 0.395203
0.423859 0.423859 0.410675
0.561279 0.415253 0.409790
0.666687 0.420593 0.423096
0.746399 0.445374 0.453003
0.825256 0.460480 0.473175
0.066528 0.511017 0.358948
0.209351 0.523682 0.379883
0.324615 0.534729 0.399353
0.433563 0.550385 0.428650
0.532837 0.549530 0.435913
0.661957 0.552612 0.427277
0.749207 0.545013 0.452026
0.835266 0.543182 0.467804
0.195526 0.620789 0.391846
0.280121 0.629333 0.407257
0.360718 0.635437 0.419373
0.464264 0.646515 0.452911
0.550873 0.648529 0.469482
0.628662 0.643555 0.466431
0.723328 0.660095 0.470490
0.819336 0.667053 0.485077
0.247345 0.716675 0.420837
0.322815 0.720581 0.437378
0.402863 0.716217 0.448029
0.513824 0.726044 0.483246
0.575226 0.734283 0.501434
0.653046 0.734741 0.504944
0.720154 0.732178 0.503998
0.792297 0.748596 0.523376
0.292664 0.811340 0.460449
0.363068 0.803162 0.471832
0.443024 0.801880 0.478149
0.553558 0.811615 0.510864
0.612030 0.821228 0.525116
0.673523 0.826324 0.536865
0.744629 0.826630 0.536438
0.808289 0.828644 0.550690
0.037415 0.036713 0.482300
0.157135 0.035156 0.492798
0.201569 0.040283 0.522278
0.311218 0.043152 0.530670
0.441467 0.043213 0.540131
0.627167 0.040833 0.599518
0.753601 0.039551 0.591248
0.847961 0.071533 0.563507
0.036682 0.103546 0.486938
0.134491 0.097900 0.506256
0.214417 0.102417 0.525635
0.313324 0.113251 0.535309
0.448822 0.111115 0.544250
0.624756 0.118256 0.591248
0.745239 0.157410 0.587677
0.828247 0.219757 0.566071
0.044189 0.213409 0.486084
0.100983 0.217041 0.505829
0.219604 0.230774 0.531921
0.358704 0.239716 0.532684
0.501190 0.255676 0.541473
0.640167 0.299103 0.570465
0.728973 0.345093 0.565186
0.805023 0.375336 0.566772
0.052399 0.355377 0.482178
0.107025 0.368164 0.504364
0.254456 0.390656 0.529907
0.408325 0.410431 0.539154
0.549377 0.416412 0.545258
0.653656 0.431732 0.543640
0.732086 0.460938 0.553497
0.813538 0.481903 0.563446
0.058838 0.504425 0.475006
0.183411 0.517975 0.494751
0.316833 0.535980 0.521851
0.439789 0.545868 0.534882
0.555664 0.550934 0.539581
0.657990 0.546692 0.541504
0.743927 0.550812 0.551422
0.827576 0.562225 0.570770
0.194183 0.616028 0.480652
0.285736 0.623718 0.495178
0.380554 0.632904 0.514496
0.481201 0.640015 0.538025
0.565430 0.650177 0.554626
0.643158 0.649658 0.557831
0.744812 0.661346 0.555054
0.827759 0.658081 0.571655
0.271637 0.711548 0.508118
0.348663 0.713013 0.513580
0.420013 0.718445 0.529999
0.502228 0.720764 0.537018
0.592224 0.736542 0.572693
0.659393 0.740509 0.582825
0.728851 0.739899 0.578766
0.810272 0.754517 0.587341
0.306427 0.805969 0.531982
0.377472 0.805664 0.535065
0.448029 0.806213 0.544922
0.531464 0.805389 0.551880
0.634552 0.817078 0.587128
0.686035 0.825226 0.610138
0.756165 0.828644 0.615417
0.819427 0.830261 0.617584
0.033997 0.035126 0.607117
0.163605 0.035126 0.609772
0.220001 0.035248 0.634613
0.292267 0.044495 0.644531
0.418823 0.045868 0.645081
0.555267 0.044983 0.652832
0.725586 0.039215 0.706177
0.843750 0.048340 0.696533
0.032806 0.092865 0.611420
0.135590 0.089813 0.621460
0.229645 0.091827 0.635223
0.291260 0.112335 0.646149
0.416870 0.116241 0.647003
0.556671 0.117188 0.652161
0.721008 0.139679 0.697632
0.825409 0.192993 0.684631
0.037048 0.206573 0.612915
0.098846 0.211212 0.619812
0.214813 0.218658 0.639832
0.331573 0.231049 0.640289
0.450500 0.257904 0.639069
0.580505 0.277893 0.645416
0.715698 0.310181 0.676208
0.800079 0.352936 0.666626
0.048767 0.336578 0.605011
0.108307 0.350769 0.614410
0.246399 0.372986 0.636627
0.382019 0.400360 0.642090
0.504730 0.407898 0.635559
0.626465 0.426514 0.638733
0.721802 0.466858 0.652252
0.807251 0.487976 0.647247
0.067993 0.483948 0.597565
0.197662 0.495972 0.609283
0.306519 0.515717 0.629333
0.428284 0.530945 0.634003
0.546356 0.544495 0.635773
0.652527 0.547180 0.639984
0.737610 0.556305 0.645355
0.821472 0.572937 0.651703
0.180450 0.609406 0.587433
0.274048 0.617798 0.594543
0.366974 0.632629 0.618408
0.468872 0.638702 0.628540
0.566650 0.647919 0.637512
0.661163 0.653229 0.641541
0.750031 0.654083 0.647278
0.831268 0.660065 0.657104
0.259644 0.708099 0.590851
0.339386 0.711029 0.595764
0.417297 0.717163 0.611572
0.508636 0.721588 0.621887
0.594330 0.734833 0.642578
0.672821 0.746918 0.659058
0.740326 0.746216 0.661682
0.828979 0.761139 0.663330
0.306305 0.804138 0.611633
0.380066 0.805420 0.616119
0.456390 0.808624 0.626099
0.535065 0.812469 0.636261
0.614868 0.813324 0.637787
0.705231 0.831635 0.669952
0.763184 0.837006 0.688812
0.828308 0.836761 0.690399
0.031677 0.035126 0.713409
0.150543 0.035126 0.714752
0.243469 0.035126 0.725342
0.284241 0.044098 0.741302
0.401886 0.047485 0.739990
0.529938 0.050354 0.735779
0.660004 0.048920 0.740845
0.815704 0.045166 0.788635
0.031677 0.086121 0.716095
0.126343 0.086304 0.724731
0.250458 0.087036 0.729065
0.292572 0.106262 0.740509
0.397949 0.119446 0.739716
0.530029 0.128693 0.734955
0.663208 0.143311 0.738861
0.803040 0.191772 0.776245
0.031647 0.207855 0.718903
0.096344 0.209991 0.719177
0.235077 0.218994 0.723633
0.328003 0.228760 0.730560
0.420654 0.257660 0.733826
0.541473 0.278625 0.731995
0.669220 0.295258 0.733612
0.784393 0.335236 0.752747
0.042725 0.330933 0.713287
0.112030 0.349030 0.714569
0.252472 0.374390 0.722992
0.380493 0.406006 0.723724
0.483765 0.407562 0.719238
0.590057 0.430328 0.716675
0.694031 0.446320 0.721252
0.792328 0.470093 0.743225
0.087067 0.470856 0.702179
0.203583 0.484253 0.705688
0.309357 0.505096 0.715851
0.424164 0.526642 0.720673
0.531006 0.545868 0.722412
0.627472 0.545166 0.718353
0.725830 0.555481 0.722107
0.811218 0.581726 0.730774
0.186493 0.598053 0.692749
0.275635 0.606171 0.695740
0.366516 0.620850 0.710205
0.461578 0.635315 0.716766
0.556671 0.642548 0.721527
0.656891 0.649689 0.726105
0.745880 0.652679 0.729553
0.827271 0.663116 0.736694
0.245758 0.704712 0.688690
0.326050 0.707489 0.688507
0.410522 0.715759 0.700775
0.495941 0.723724 0.711487
0.582611 0.732239 0.721283
0.670410 0.740845 0.728821
0.756012 0.748352 0.735535
0.841278 0.756653 0.746796
0.287292 0.801422 0.691223
0.362885 0.804016 0.695648
0.442444 0.808441 0.703857
0.524353 0.813446 0.713776
0.612579 0.817505 0.722321
0.695282 0.829315 0.732239
0.779663 0.847900 0.756683
0.840485 0.850708 0.768158
0.031647 0.035126 0.811218
0.136200 0.035126 0.811646
0.251404 0.035126 0.813354
0.309631 0.037384 0.830170
0.393921 0.049255 0.830841
0.514557 0.052917 0.825043
0.640167 0.055237 0.818268
0.766388 0.055359 0.820953
0.031647 0.084259 0.811432
0.121765 0.090851 0.811523
0.252594 0.092499 0.809937
0.325317 0.102905 0.819122
0.387054 0.112061 0.833893
0.513275 0.120148 0.827240
0.644135 0.144897 0.819702
0.766693 0.182190 0.818176
0.031647 0.199738 0.811188
0.098633 0.211334 0.804718
0.262177 0.246735 0.786652
0.352203 0.240479 0.802704
0.410217 0.246216 0.822296
0.516998 0.267517 0.821075
0.647949 0.293457 0.812622
0.767792 0.315826 0.812012
0.032318 0.335968 0.812592
0.100586 0.355011 0.801971
0.267212 0.386810 0.789276
0.379852 0.398407 0.800995
0.470032 0.393555 0.806610
0.560333 0.415222 0.805878
0.664703 0.436035 0.801025
0.773315 0.448425 0.805573
0.051544 0.462158 0.802765
0.183319 0.478790 0.795837
0.311829 0.510254 0.785675
0.416077 0.532349 0.797302
0.518616 0.545837 0.804535
0.610413 0.542664 0.798035
0.699707 0.557678 0.794434
0.797394 0.571442 0.801300
0.164581 0.588165 0.790039
0.259491 0.597656 0.784943
0.357269 0.612640 0.785461
0.447449 0.630035 0.798065
0.548370 0.643433 0.804016
0.647278 0.656921 0.805786
0.730286 0.656158 0.804047
0.822845 0.665771 0.808990
0.234070 0.704620 0.786896
0.316132 0.705505 0.782593
0.400055 0.712006 0.785889
0.485046 0.723572 0.795441
0.575165 0.735931 0.803375
0.663879 0.743652 0.814728
0.756500 0.751007 0.821014
0.839722 0.756378 0.824036
0.274261 0.803345 0.786774
0.348297 0.805389 0.788666
0.427032 0.809753 0.791046
0.510132 0.815552 0.795685
0.595367 0.823456 0.807983
0.683258 0.832947 0.820557
0.773773 0.843811 0.827728
0.861938 0.860321 0.843811
