tools/luts_backup/LAPARDIN-WEDLUTS-1.cube
#Created by: Adobe Photoshop Export Color Lookup Plugin
#Copyright: (C) 2017 Andrey Lapardin. vk.com-3dluts
TITLE "FILM-MONTAZH EXPORT.00_05_32_02.Still008.jpg"
#LUT size
LUT_3D_SIZE 5
#data domain
#LUT data points
DOMAIN_MIN 0.000000 0.000000 0.000000
DOMAIN_MAX 0.903226 0.903226 0.903226
0.002930 0.005127 0.006256
0.154907 0.005768 0.008209
0.445282 0.000000 0.000610
0.750977 0.000000 0.000000
0.998047 0.000000 0.000000
0.000000 0.152527 0.005463
0.162109 0.151672 0.002075
0.457703 0.150421 0.000031
0.749451 0.109192 0.000000
0.991669 0.140167 0.000000
0.000000 0.447815 0.000000
0.182312 0.446350 0.000000
0.474762 0.429535 0.000000
0.758514 0.445038 0.000000
0.975128 0.449524 0.000000
0.000000 0.722168 0.000000
0.251740 0.735657 0.000000
0.533936 0.715088 0.000000
0.756561 0.700165 0.000000
0.945282 0.726440 0.000000
0.286804 0.926056 0.013824
0.404144 0.935059 0.009857
0.600372 0.913208 0.032104
0.800293 0.911163 0.028534
0.952118 0.911011 0.045258
0.000000 0.003876 0.156677
0.148438 0.000000 0.165802
0.438049 0.000000 0.169952
0.732697 0.000000 0.166473
0.995697 0.000000 0.135712
0.000000 0.152679 0.141388
0.188141 0.185120 0.172272
0.485748 0.164734 0.164368
0.771149 0.153625 0.154144
0.967346 0.207825 0.211182
0.000000 0.429047 0.126312
0.212158 0.471985 0.173615
0.508026 0.478394 0.159363
0.783081 0.480743 0.171234
0.985352 0.462433 0.216003
0.000000 0.715790 0.140350
0.276947 0.749268 0.197510
0.551178 0.747070 0.226410
0.780518 0.730072 0.227020
0.971924 0.752563 0.235229
0.295593 0.926178 0.240936
0.435425 0.939789 0.257996
0.634155 0.943604 0.255127
0.823212 0.940796 0.293732
0.971832 0.937805 0.296722
0.000000 0.000000 0.430573
0.018982 0.000000 0.459747
0.404297 0.000000 0.472809
0.743286 0.000000 0.490417
0.996521 0.000000 0.492401
0.000000 0.169403 0.409241
0.146210 0.183960 0.456512
0.463531 0.175079 0.469543
0.755920 0.190735 0.496674
0.963593 0.206604 0.515594
0.000000 0.453491 0.406616
0.178864 0.471863 0.436066
0.502808 0.494415 0.461731
0.781311 0.486389 0.461273
0.976044 0.497650 0.505371
0.000000 0.725342 0.422607
0.261932 0.734314 0.447876
0.556152 0.749878 0.484406
0.786499 0.751923 0.474243
0.961945 0.759277 0.507996
0.288483 0.924225 0.463104
0.416351 0.929016 0.483673
0.643005 0.936462 0.513702
0.816071 0.938202 0.539520
0.961456 0.936096 0.547791
0.000000 0.000000 0.707153
0.004211 0.000000 0.737091
0.379059 0.000000 0.751740
0.706635 0.000000 0.763062
0.987488 0.000000 0.791931
0.000000 0.165314 0.696075
0.109009 0.167633 0.736755
0.423645 0.186371 0.743713
0.721405 0.146484 0.761810
0.961945 0.186401 0.775818
0.000000 0.479523 0.698151
0.181305 0.498413 0.715912
0.495972 0.517273 0.729156
0.765564 0.506073 0.732758
0.957001 0.545715 0.749756
0.000000 0.748413 0.693848
0.242615 0.752991 0.713043
0.535461 0.751617 0.721588
0.777649 0.762482 0.727631
0.951752 0.764832 0.736145
0.264771 0.931335 0.712189
0.405090 0.933624 0.725311
0.610535 0.927460 0.727570
0.812561 0.932404 0.750427
0.947418 0.936310 0.746490
0.000000 0.000000 0.941223
0.199921 0.000000 0.950745
0.433594 0.000000 0.963898
0.722229 0.000000 0.948181
0.967957 0.000000 0.949615
0.000000 0.138672 0.937012
0.263855 0.194397 0.921326
0.467163 0.175323 0.955811
0.741089 0.182251 0.947845
0.968658 0.176819 0.947510
0.000000 0.506927 0.919159
0.266418 0.535889 0.907349
0.532104 0.551727 0.923370
0.749268 0.541412 0.922333
0.949341 0.533051 0.928497
0.108459 0.776581 0.904449
0.329834 0.781372 0.906006
0.567932 0.779297 0.906219
0.777252 0.783600 0.908417
0.936523 0.782440 0.908356
0.310913 0.938904 0.886169
0.429413 0.956055 0.905609
0.610535 0.938568 0.906830
0.793701 0.934845 0.905670
0.940979 0.943420 0.910645
