tools/luts_backup/LAPARDIN-WEDLUTS-1.cube
#Created by: Adobe Photoshop Export Color Lookup Plugin
#Copyright: (C) 2017 Andrey Lapardin. vk.com-3dluts
TITLE "FILM-MONTAZH EXPORT.00_05_32_02.Still008.jpg"
#LUT size
LUT_3D_SIZE 32
#data domain
DOMAIN_MIN 0.0 0.0 0.0
DOMAIN_MAX 1.0 1.0 1.0
#LUT data points
0.002930 0.005127 0.006256
0.014221 0.007202 0.007874
0.030518 0.006714 0.009277
0.048798 0.006897 0.009827
0.073822 0.007050 0.010040
0.100403 0.006012 0.008484
0.125916 0.006195 0.008148
0.154907 0.005768 0.008209
0.188629 0.002930 0.006317
0.226318 0.000000 0.005676
0.265228 0.000000 0.005096
0.309387 0.000031 0.003601
0.353424 0.000000 0.002777
0.398621 0.000000 0.001953
0.445282 0.000000 0.000610
0.490845 0.000000 0.000000
0.535767 0.000000 0.000000
0.579865 0.000000 0.000000
0.622681 0.000000 0.000000
0.665588 0.000000 0.000000
0.707092 0.000000 0.000000
0.750977 0.000000 0.000000
0.793457 0.000000 0.000000
0.833038 0.000000 0.000000
0.869385 0.000000 0.000000
0.902740 0.000000 0.000000
0.936737 0.000000 0.000000
0.969666 0.000000 0.000000
0.998047 0.000000 0.000000
1.000000 0.000000 0.000000
1.000000 0.000000 0.000000
1.000000 0.000000 0.000000
0.004517 0.013367 0.007568
0.012756 0.014740 0.007690
0.028137 0.015533 0.009125
0.047546 0.016235 0.009827
0.072815 0.016785 0.010254
0.099365 0.016998 0.008789
0.127228 0.016998 0.008423
0.156860 0.017944 0.008545
0.190155 0.015900 0.006653
0.227203 0.010651 0.006165
0.264862 0.006378 0.005920
0.311005 0.000549 0.003326
0.354523 0.000214 0.001770
0.398895 0.000000 0.000671
0.444000 0.000000 0.000000
0.489807 0.000000 0.000000
0.534393 0.000000 0.000000
0.578644 0.000000 0.000000
0.622803 0.000000 0.000000
0.665039 0.000000 0.000000
0.708588 0.000000 0.000000
0.752991 0.000000 0.000000
0.793060 0.000000 0.000000
0.831696 0.000000 0.000000
0.868591 0.000000 0.000000
0.903687 0.000000 0.000000
0.936646 0.000000 0.000000
0.969360 0.000000 0.000000
0.995728 0.000000 0.000000
1.000000 0.000000 0.000000
1.000000 0.000000 0.000000
1.000000 0.000000 0.000000
0.004272 0.029938 0.008453
0.013062 0.031158 0.008942
0.029694 0.030212 0.009216
0.049530 0.032074 0.009949
0.072937 0.034485 0.010529
0.098541 0.036041 0.009308
0.126434 0.036377 0.008942
0.158234 0.034180 0.009125
0.191559 0.030853 0.007324
0.227142 0.025055 0.006714
0.264526 0.014648 0.006561
0.310455 0.007843 0.003876
0.354401 0.003265 0.002289
0.398376 0.000061 0.000885
0.442749 0.000000 0.000000
0.488068 0.000000 0.000000
0.532562 0.000000 0.000000
0.576385 0.000000 0.000000
0.622040 0.000000 0.000000
0.664795 0.000000 0.000000
0.708344 0.000000 0.000000
0.752808 0.000000 0.000000
0.794586 0.000000 0.000000
0.829254 0.000000 0.000000
0.867157 0.000000 0.000000
0.904266 0.000000 0.000000
0.937744 0.000000 0.000000
0.969147 0.000000 0.000000
0.995514 0.000000 0.000000
1.000000 0.000000 0.000000
1.000000 0.000000 0.000000
1.000000 0.000000 0.000000
0.004761 0.046722 0.009216
0.014374 0.049255 0.009674
0.032532 0.048645 0.009888
0.051636 0.048004 0.009857
0.073792 0.052979 0.010284
0.098572 0.056213 0.010254
0.127380 0.057404 0.009766
0.158936 0.054871 0.009491
0.192322 0.053711 0.007172
0.228302 0.049408 0.006256
0.266296 0.041595 0.006012
0.311554 0.031250 0.003265
0.355103 0.021240 0.001831
0.397888 0.014221 0.000366
0.443542 0.000000 0.000000
0.487610 0.000000 0.000000
0.531677 0.000000 0.000000
0.575195 0.000000 0.000000
0.620605 0.000000 0.000000
0.664490 0.000000 0.000000
0.707336 0.000000 0.000000
0.750122 0.000000 0.000000
0.792236 0.000000 0.000000
0.829742 0.000000 0.000000
0.867157 0.000000 0.000000
0.901947 0.000000 0.000000
0.936279 0.000000 0.000000
0.967957 0.000000 0.000000
0.995331 0.000000 0.000000
1.000000 0.000000 0.000000
1.000000 0.000000 0.000000
1.000000 0.000000 0.000000
0.005310 0.067596 0.010956
0.014557 0.070282 0.010712
0.030884 0.071014 0.010773
0.053314 0.071960 0.010315
0.073944 0.072479 0.009766
0.098907 0.076508 0.010468
0.128693 0.078186 0.010803
0.159454 0.076569 0.009918
0.192566 0.076141 0.007507
0.229553 0.075439 0.005920
0.268555 0.070984 0.005402
0.314331 0.060913 0.002716
0.357635 0.049835 0.001221
0.399811 0.035461 0.000000
0.445679 0.015259 0.000000
0.489105 0.010742 0.000000
0.532745 0.008331 0.000000
0.575226 0.005310 0.000000
0.619965 0.005310 0.000000
0.663879 0.004395 0.000000
0.706421 0.003662 0.000000
0.749115 0.000000 0.000000
0.790710 0.001038 0.000000
0.829681 0.000885 0.000000
0.865906 0.000000 0.000000
0.901276 0.000000 0.000000
0.934479 0.000000 0.000000
0.966461 0.000122 0.000000
0.994843 0.000153 0.000000
1.000000 0.001434 0.000000
1.000000 0.000092 0.000000
1.000000 0.000000 0.000000
0.002777 0.091400 0.010437
0.010834 0.093109 0.010193
0.027710 0.094635 0.010162
0.055542 0.095245 0.009460
0.076965 0.097504 0.009186
0.098053 0.095184 0.009094
0.128082 0.098938 0.008545
0.159393 0.101044 0.006287
0.195343 0.102295 0.005676
0.231934 0.103546 0.003510
0.269531 0.101898 0.001770
0.317078 0.096680 0.001465
0.361176 0.088226 0.000580
0.403870 0.076782 0.000000
0.448547 0.064087 0.000000
0.490448 0.055908 0.000000
0.534271 0.045959 0.000000
0.576996 0.035004 0.000000
0.620575 0.024078 0.000000
0.663483 0.017181 0.000000
0.704285 0.012939 0.000000
0.748657 0.004211 0.000000
0.790588 0.001129 0.000000
0.829407 0.002838 0.000000
0.863953 0.000000 0.000000
0.900696 0.000000 0.000000
0.934570 0.000000 0.000000
0.965424 0.000122 0.000000
0.994781 0.004883 0.000000
1.000000 0.013733 0.000000
1.000000 0.019623 0.000000
1.000000 0.029846 0.000000
0.001984 0.118988 0.009094
0.007599 0.117981 0.009003
0.023560 0.120728 0.009186
0.053467 0.121490 0.008423
0.080444 0.121643 0.008179
0.106079 0.122070 0.007233
0.127716 0.118805 0.006561
0.159637 0.123840 0.004150
0.196320 0.127777 0.003540
0.234833 0.130646 0.002838
0.271301 0.132172 0.000336
0.319916 0.129211 0.000092
0.365509 0.124115 0.000000
0.408630 0.117920 0.000000
0.453156 0.108826 0.000000
0.494720 0.104401 0.000000
0.537018 0.093201 0.000000
0.579376 0.078979 0.000000
0.622009 0.061066 0.000000
0.664459 0.052917 0.000000
0.704437 0.046631 0.000000
0.748352 0.039276 0.000000
0.790283 0.031982 0.000000
0.828766 0.038025 0.000000
0.864166 0.038727 0.000000
0.898865 0.048615 0.000000
0.933746 0.056335 0.000000
0.964294 0.062958 0.000000
0.992920 0.070984 0.000000
1.000000 0.080322 0.000000
1.000000 0.081543 0.000000
1.000000 0.094574 0.000000
0.000000 0.152527 0.005463
0.003601 0.150269 0.004913
0.015869 0.152100 0.004547
0.048126 0.154388 0.004730
0.078339 0.154175 0.004608
0.109619 0.153687 0.003998
0.139160 0.156219 0.003113
0.162109 0.151672 0.002075
0.197235 0.155548 0.001495
0.235596 0.159393 0.001007
0.274353 0.162262 0.000092
0.323822 0.163330 0.000061
0.369873 0.160278 0.000000
0.413788 0.155731 0.000000
0.457703 0.150421 0.000031
0.500122 0.150330 0.000031
0.541931 0.141785 0.000000
0.582916 0.132538 0.000000
0.623535 0.124847 0.000000
0.666351 0.122314 0.000000
0.705139 0.114441 0.000000
0.749451 0.109192 0.000000
0.791260 0.102844 0.000000
0.827759 0.104370 0.000000
0.865204 0.098389 0.000000
0.898560 0.109589 0.000000
0.931885 0.120972 0.000000
0.963654 0.131195 0.000000
0.991669 0.140167 0.000000
0.998657 0.151428 0.000000
1.000000 0.160553 0.000000
1.000000 0.171051 0.000000
0.000000 0.188293 0.003387
0.000000 0.185730 0.002533
0.006134 0.186523 0.002197
0.037140 0.188843 0.002228
0.073120 0.190887 0.002472
0.107025 0.190155 0.001709
0.140991 0.191681 0.001343
0.174377 0.194214 0.000000
0.199860 0.185425 0.000000
0.237854 0.189911 0.000000
0.277832 0.194183 0.000031
0.326691 0.197876 0.000061
0.372803 0.197662 0.000000
0.416626 0.195679 0.000000
0.460480 0.192200 0.000000
0.504333 0.190796 0.000000
0.546173 0.187683 0.000000
0.587250 0.183380 0.000000
0.626862 0.179016 0.000000
0.668762 0.177368 0.000000
0.707397 0.170776 0.000000
0.750031 0.164764 0.000000
0.791290 0.161987 0.000000
0.827057 0.160889 0.000000
0.864929 0.153748 0.000000
0.898468 0.158234 0.000000
0.931091 0.167786 0.000000
0.963074 0.175354 0.000000
0.992126 0.184662 0.000000
0.998688 0.196442 0.000000
1.000000 0.207001 0.000000
1.000000 0.217316 0.000000
0.000000 0.226868 0.000000
0.000000 0.224854 0.000000
0.000000 0.224091 0.000000
0.030396 0.226898 0.000000
0.061829 0.228760 0.000000
0.100220 0.230316 0.000000
0.137207 0.231781 0.000000
0.174377 0.232330 0.000153
0.213470 0.230865 0.000519
0.240723 0.222107 0.000549
0.282379 0.228119 0.000214
0.330200 0.233704 0.000153
0.375336 0.235046 0.000000
0.419373 0.234985 0.000000
0.462402 0.234375 0.000000
0.507843 0.231689 0.000000
0.550140 0.230560 0.000000
0.591248 0.230011 0.000000
0.631409 0.228455 0.000000
0.671448 0.226654 0.000000
0.709991 0.220886 0.000000
0.752106 0.215271 0.000000
0.791504 0.211945 0.000000
0.825623 0.211945 0.000000
0.864166 0.207397 0.000000
0.897766 0.209564 0.000000
0.930267 0.214630 0.000000
0.961792 0.221802 0.000000
0.991455 0.228210 0.000000
0.998718 0.238678 0.000000
1.000000 0.248688 0.000000
1.000000 0.258240 0.000000
0.000000 0.268005 0.000000
0.000000 0.264069 0.000000
0.000000 0.265625 0.000000
0.000702 0.268585 0.000000
0.043610 0.269287 0.000000
0.096283 0.269348 0.000000
0.134857 0.271362 0.000000
0.175018 0.272247 0.000000
0.217957 0.271606 0.000000
0.257904 0.272034 0.000000
0.285370 0.262604 0.000000
0.332031 0.268646 0.000000
0.377533 0.270569 0.000000
0.421021 0.272614 0.000000
0.463409 0.273987 0.000000
0.509430 0.273285 0.000000
0.551605 0.273865 0.000000
0.594208 0.272919 0.000000
0.634979 0.271057 0.000000
0.674164 0.269348 0.000000
0.711426 0.266663 0.000000
0.752563 0.262848 0.000000
0.791718 0.258240 0.000000
0.825989 0.257507 0.000000
0.860840 0.256653 0.000000
0.896637 0.254700 0.000000
0.928619 0.258514 0.000000
0.960052 0.264008 0.000000
0.989532 0.270538 0.000000
0.997864 0.279541 0.000000
1.000000 0.289001 0.000000
1.000000 0.298004 0.000000
0.000000 0.314148 0.000000
0.000000 0.307404 0.000000
0.000000 0.309204 0.000000
0.000244 0.312836 0.000000
0.033081 0.314972 0.000000
0.086731 0.314972 0.000000
0.133789 0.316101 0.000000
0.175934 0.317078 0.000000
0.220825 0.316956 0.000000
0.262543 0.316284 0.000000
0.306641 0.319092 0.000000
0.335449 0.306549 0.000000
0.380005 0.308777 0.000000
0.423798 0.310730 0.000000
0.466187 0.313812 0.000000
0.511017 0.315155 0.000000
0.553650 0.316498 0.000000
0.596161 0.317993 0.000000
0.636597 0.315857 0.000000
0.676605 0.314545 0.000000
0.713165 0.313202 0.000000
0.753754 0.310394 0.000000
0.790497 0.307648 0.000000
0.826416 0.304901 0.000000
0.860138 0.305298 0.000000
0.892944 0.305023 0.000000
0.926117 0.306274 0.000000
0.957581 0.310760 0.000000
0.987610 0.315918 0.000000
0.997498 0.323944 0.000000
1.000000 0.331085 0.000000
1.000000 0.336487 0.000000
0.000000 0.361450 0.000000
0.000000 0.353973 0.000000
0.000000 0.354736 0.000000
0.000000 0.357727 0.000000
0.032928 0.359467 0.000000
0.079773 0.360626 0.000000
0.131165 0.361633 0.000000
0.178162 0.361786 0.000000
0.223755 0.362640 0.000000
0.266449 0.361664 0.000000
0.312317 0.362976 0.000000
0.356232 0.364197 0.000000
0.382324 0.350525 0.000000
0.425476 0.351959 0.000000
0.470367 0.353638 0.000000
0.512634 0.356598 0.000000
0.556519 0.357910 0.000000
0.598755 0.359924 0.000000
0.639221 0.359772 0.000000
0.678131 0.359436 0.000000
0.714539 0.359039 0.000000
0.754639 0.357819 0.000000
0.790771 0.355652 0.000000
0.825623 0.353455 0.000000
0.860626 0.352631 0.000000
0.891541 0.352844 0.000000
0.922821 0.355164 0.000000
0.953461 0.358612 0.000000
0.984192 0.362366 0.000000
0.996185 0.369110 0.000000
1.000000 0.375183 0.000000
1.000000 0.376251 0.000000
0.000000 0.404755 0.000000
0.000000 0.398682 0.000000
0.000000 0.399536 0.000000
0.000000 0.401062 0.000000
0.030579 0.402252 0.000000
0.077576 0.403229 0.000000
0.134064 0.403931 0.000000
0.181122 0.403137 0.000000
0.226410 0.402863 0.000000
0.268311 0.404968 0.000000
0.316956 0.404572 0.000000
0.363800 0.404114 0.000000
0.402832 0.401581 0.000000
0.428162 0.390015 0.000000
0.472778 0.392426 0.000000
0.514984 0.394989 0.000000
0.557007 0.397034 0.000000
0.599335 0.397217 0.000000
0.639740 0.398132 0.000000
0.678009 0.400360 0.000000
0.716034 0.403259 0.000000
0.755951 0.403076 0.000000
0.791748 0.401001 0.000000
0.825439 0.397614 0.000000
0.859436 0.394287 0.000000
0.890137 0.394226 0.000000
0.921204 0.396881 0.000000
0.950562 0.401672 0.000000
0.979431 0.406097 0.000000
0.993652 0.412750 0.000000
1.000000 0.418121 0.000000
1.000000 0.417847 0.000000
0.000000 0.447815 0.000000
0.000000 0.442200 0.000000
0.000000 0.443848 0.000000
0.000000 0.445190 0.000000
0.021423 0.446503 0.000000
0.069977 0.447693 0.000000
0.139191 0.448456 0.000000
0.182312 0.446350 0.000000
0.227264 0.444855 0.000000
0.275452 0.445129 0.000000
0.324036 0.446594 0.000000
0.369446 0.447632 0.000000
0.413055 0.447449 0.000000
0.448425 0.441589 0.000000
0.474762 0.429535 0.000000
0.517578 0.432159 0.000000
0.559357 0.435028 0.000000
0.600250 0.437622 0.000000
0.640289 0.439270 0.000000
0.678986 0.441345 0.000000
0.717621 0.444092 0.000000
0.758514 0.445038 0.000000
0.791473 0.443726 0.000000
0.823608 0.442352 0.000000
0.856018 0.440277 0.000000
0.888367 0.440338 0.000000
0.917603 0.442261 0.000000
0.946930 0.446014 0.000000
0.975128 0.449524 0.000000
0.991974 0.456635 0.000000
1.000000 0.461609 0.000000
1.000000 0.460541 0.000000
0.000000 0.489990 0.000000
0.000000 0.485168 0.000000
0.000000 0.486938 0.000000
0.000000 0.488892 0.000000
0.013794 0.490112 0.000000
0.068359 0.491455 0.000000
0.139832 0.491638 0.000000
0.187408 0.489563 0.000000
0.231506 0.487793 0.000000
0.279877 0.487427 0.000000
0.329895 0.488159 0.000000
0.374390 0.488922 0.000000
0.417023 0.490265 0.000000
0.459625 0.488708 0.000000
0.494934 0.481628 0.000000
0.520874 0.470703 0.000000
0.562744 0.472748 0.000000
0.601959 0.476715 0.000000
0.640015 0.480347 0.000000
0.678345 0.482208 0.000000
0.717194 0.484528 0.000000
0.758514 0.486145 0.000000
0.790985 0.485352 0.000000
0.823334 0.485504 0.000000
0.854462 0.485413 0.000000
0.885376 0.486511 0.000000
0.913971 0.485352 0.000000
0.943939 0.488159 0.000000
0.971924 0.492493 0.000000
0.990723 0.497864 0.000000
1.000000 0.502991 0.000000
1.000000 0.502838 0.000000
0.000000 0.529663 0.000000
0.000000 0.526428 0.000000
0.000000 0.529022 0.000000
0.000000 0.532043 0.000000
0.033234 0.531830 0.000000
0.082520 0.534149 0.000000
0.146698 0.534576 0.000000
0.194305 0.533325 0.000000
0.237427 0.530090 0.000000
0.284210 0.528748 0.000000
0.335236 0.528473 0.000000
0.378815 0.529175 0.000000
0.421234 0.530701 0.000000
0.465332 0.530731 0.000000
0.507446 0.529480 0.000000
0.539337 0.521698 0.000000
0.564758 0.511078 0.000000
0.605927 0.512604 0.000000
0.641998 0.518250 0.000000
0.678986 0.521332 0.000000
0.717438 0.524567 0.000000
0.757080 0.526428 0.000000
0.789673 0.527496 0.000000
0.822723 0.526581 0.000000
0.853058 0.527954 0.000000
0.883698 0.529419 0.000000
0.912933 0.529114 0.000000
0.941772 0.529846 0.000000
0.968506 0.535278 0.000000
0.988739 0.540070 0.000000
0.999786 0.544647 0.000000
1.000000 0.547424 0.000000
0.000000 0.568970 0.000000
0.000000 0.566528 0.000000
0.000000 0.570129 0.000000
0.000000 0.573486 0.000000
0.039673 0.575592 0.000000
0.093658 0.576904 0.000000
0.156494 0.576721 0.000000
0.202759 0.575836 0.000000
0.246307 0.572266 0.000000
0.290894 0.570038 0.000000
0.337280 0.568390 0.000000
0.383942 0.567871 0.000000
0.428345 0.568390 0.000000
0.469910 0.570221 0.000000
0.511169 0.570160 0.000000
0.553894 0.569916 0.000000
0.582428 0.559265 0.000000
0.607849 0.548431 0.000000
0.644073 0.554291 0.000000
0.682465 0.556549 0.000000
0.719360 0.559692 0.000000
0.755341 0.564972 0.000000
0.787964 0.567444 0.000000
0.819977 0.568878 0.000000
0.851074 0.568390 0.000000
0.879822 0.570404 0.000000
0.908875 0.571136 0.000000
0.937164 0.572662 0.000000
0.963623 0.577454 0.000000
0.985596 0.581085 0.000000
0.999390 0.586365 0.000000
1.000000 0.589233 0.000000
0.000000 0.608551 0.000000
0.000000 0.605865 0.000000
0.000000 0.610077 0.000000
0.000000 0.614197 0.000000
0.046387 0.616272 0.000000
0.112610 0.618439 0.000000
0.166107 0.618439 0.000000
0.211761 0.617462 0.000000
0.252106 0.612427 0.000000
0.295288 0.609467 0.000000
0.343506 0.609772 0.000000
0.388641 0.608704 0.000000
0.432159 0.608032 0.000000
0.475616 0.609650 0.000000
0.517456 0.608795 0.000000
0.557220 0.607544 0.000000
0.597107 0.608093 0.000000
0.623718 0.597565 0.000000
0.648285 0.588806 0.000000
0.684174 0.591309 0.000000
0.720215 0.594086 0.000000
0.755768 0.598053 0.000000
0.787872 0.601685 0.000000
0.818298 0.605377 0.000000
0.847382 0.608246 0.000000
0.875671 0.609772 0.000000
0.905396 0.610962 0.000000
0.933777 0.612366 0.000000
0.958923 0.616425 0.000000
0.981842 0.620544 0.000000
0.998932 0.624725 0.000000
1.000000 0.629761 0.000000
0.000000 0.646667 0.000000
0.000000 0.646118 0.000000
0.000427 0.648834 0.000000
0.003723 0.653595 0.000000
0.054047 0.655609 0.000000
0.113129 0.657959 0.000000
0.181183 0.657990 0.000000
0.225403 0.657715 0.000000
0.265533 0.651978 0.000000
0.306458 0.648041 0.000000
0.350098 0.647522 0.000000
0.395935 0.646149 0.000000
0.436005 0.645355 0.000000
0.481415 0.645752 0.000000
0.523499 0.644806 0.000000
0.562225 0.644409 0.000000
0.598694 0.646301 0.000000
0.638794 0.644348 0.000000
0.662994 0.633820 0.000000
0.685608 0.624878 0.000000
0.720337 0.628540 0.000000
0.755463 0.633026 0.000000
0.787109 0.638306 0.000000
0.818634 0.641052 0.000000
0.847687 0.643799 0.000000
0.875061 0.645447 0.000000
0.902496 0.648376 0.000000
0.929718 0.650574 0.000000
0.953552 0.651642 0.000000
0.977814 0.657562 0.000000
0.996765 0.663971 0.000000
1.000000 0.666840 0.000000
0.000000 0.683624 0.000000
0.000000 0.683441 0.000000
0.000305 0.687561 0.000000
0.013062 0.689301 0.000000
0.073822 0.693146 0.000000
0.140472 0.696747 0.000000
0.188599 0.697998 0.000000
0.237457 0.693390 0.000000
0.276428 0.689606 0.000000
0.316315 0.685028 0.000000
0.357849 0.682861 0.000000
0.402740 0.680573 0.000000
0.447083 0.679993 0.000000
0.486755 0.681580 0.000000
0.529083 0.679810 0.000000
0.568146 0.679688 0.000000
0.604706 0.681793 0.000000
0.642426 0.679596 0.000000
0.677429 0.679657 0.000000
0.698853 0.669189 0.000000
0.721252 0.662170 0.000000
0.755646 0.666504 0.000000
0.787476 0.671936 0.000000
0.817413 0.675079 0.000000
0.846222 0.677856 0.000000
0.872192 0.680481 0.000000
0.898071 0.682892 0.000000
0.923370 0.685730 0.000000
0.945831 0.688049 0.000000
0.978149 0.693787 0.000000
0.996460 0.699982 0.000000
1.000000 0.704498 0.000000
0.000000 0.722168 0.000000
0.000000 0.722290 0.000000
0.000732 0.725922 0.000000
0.053864 0.729889 0.000000
0.112213 0.732971 0.000000
0.169220 0.735474 0.000000
0.210724 0.736938 0.000000
0.251740 0.735657 0.000000
0.290100 0.729340 0.000000
0.331604 0.723145 0.000000
0.369781 0.719177 0.000000
0.410461 0.716431 0.000000
0.453247 0.715576 0.000000
0.494324 0.715973 0.000000
0.533936 0.715088 0.000000
0.572357 0.714325 0.000000
0.609436 0.716492 0.000000
0.646454 0.714661 0.000000
0.680878 0.714966 0.000000
0.715485 0.714264 0.000000
0.735626 0.706268 0.000000
0.756561 0.700165 0.000000
0.788544 0.703583 0.000000
0.816956 0.707611 0.000000
0.844757 0.711029 0.000000
0.869537 0.714478 0.000000
0.893341 0.718292 0.000000
0.918274 0.721100 0.000000
0.945282 0.726440 0.000000
0.976990 0.733246 0.000000
0.996735 0.737976 0.000000
1.000000 0.742767 0.000000
0.003357 0.756836 0.000000
0.015167 0.757813 0.000000
0.041931 0.761108 0.000000
0.091339 0.763153 0.000000
0.148621 0.767639 0.000000
0.188110 0.769592 0.000000
0.232483 0.770050 0.000000
0.275238 0.768921 0.000000
0.308105 0.764862 0.000000
0.347076 0.759216 0.000000
0.384796 0.754608 0.000000
0.421417 0.752136 0.000000
0.458923 0.751495 0.000000
0.500671 0.750336 0.000000
0.540070 0.749207 0.000000
0.577118 0.749054 0.000000
0.612762 0.750000 0.000000
0.650452 0.749237 0.000000
0.684784 0.749908 0.000000
0.719940 0.749023 0.000000
0.753815 0.747375 0.000000
0.770660 0.739960 0.000000
0.788788 0.734406 0.000000
0.815125 0.739685 0.000000
0.841522 0.743835 0.000000
0.868317 0.746704 0.000000
0.891144 0.750366 0.000000
0.912964 0.753540 0.000000
0.946381 0.761078 0.000000
0.977631 0.766998 0.000000
0.997925 0.771545 0.000000
1.000000 0.778778 0.000000
0.029785 0.787323 0.000000
0.046631 0.789490 0.000000
0.092529 0.792786 0.000000
0.131134 0.796753 0.000000
0.179871 0.798492 0.000000
0.215363 0.803253 0.000000
0.252045 0.803436 0.000000
0.291779 0.801239 0.000000
0.325195 0.797607 0.000000
0.363068 0.792572 0.000000
0.399017 0.786682 0.000000
0.436157 0.782867 0.000000
0.473907 0.781494 0.000000
0.510162 0.780334 0.000000
0.548157 0.780151 0.000000
0.584961 0.779541 0.000000
0.620087 0.779480 0.000000
0.654266 0.779388 0.000000
0.687866 0.780151 0.000000
0.723206 0.779327 0.000000
0.756409 0.778290 0.000000
0.784668 0.778961 0.000000
0.801453 0.772156 0.000000
0.817078 0.766968 0.000000
0.842590 0.770966 0.000000
0.867706 0.773682 0.000000
0.889221 0.777649 0.000000
0.912933 0.782318 0.000000
0.945984 0.790649 0.000000
0.976898 0.797180 0.000000
1.000000 0.803192 0.000000
1.000000 0.809204 0.000000
0.089050 0.817017 0.000000
0.119354 0.818481 0.000000
0.151611 0.822632 0.000000
0.172485 0.828247 0.000000
0.213623 0.830109 0.000000
0.246338 0.833649 0.000000
0.277191 0.834290 0.000000
0.311432 0.832489 0.000000
0.343628 0.828918 0.000000
0.379547 0.824585 0.000000
0.413483 0.818909 0.000000
0.450378 0.812805 0.000000
0.487732 0.810059 0.000000
0.522675 0.810089 0.000000
0.556061 0.809479 0.000000
0.591766 0.809540 0.000000
0.626404 0.809479 0.000000
0.659485 0.809509 0.000000
0.691986 0.809174 0.000000
0.725739 0.809387 0.000000
0.758484 0.808258 0.000000
0.785522 0.807922 0.000000
0.811005 0.807434 0.000000
0.827576 0.801788 0.000000
0.842010 0.796356 0.000000
0.866028 0.799377 0.000000
0.887817 0.802185 0.000000
0.914307 0.809479 0.000000
0.945709 0.818726 0.000000
0.978058 0.825714 0.000000
1.000000 0.833344 0.000000
1.000000 0.838348 0.000000
0.159973 0.844238 0.000000
0.174103 0.846344 0.000000
0.186279 0.852600 0.000000
0.211517 0.856293 0.000000
0.248108 0.858978 0.000000
0.279297 0.862305 0.000000
0.306854 0.863922 0.000000
0.337189 0.859863 0.000000
0.363647 0.858704 0.000000
0.400665 0.849945 0.000000
0.431335 0.846924 0.000000
0.462128 0.842468 0.000000
0.497986 0.838348 0.000000
0.532745 0.838135 0.000000
0.566956 0.837769 0.000000
0.599060 0.836914 0.000000
0.633545 0.837219 0.000000
0.666443 0.837372 0.000000
0.698456 0.836792 0.000000
0.730927 0.836670 0.000000
0.762085 0.836609 0.000000
0.788208 0.835571 0.000000
0.812439 0.834503 0.000000
0.836090 0.833496 0.000000
0.851898 0.828979 0.000000
0.864075 0.822723 0.000000
0.885803 0.825378 0.000000
0.916412 0.834259 0.000000
0.947662 0.843719 0.000000
0.979218 0.852203 0.000000
1.000000 0.859589 0.004059
1.000000 0.865814 0.000000
0.206024 0.872742 0.000000
0.213898 0.874603 0.000000
0.231689 0.878723 0.000000
0.255615 0.883453 0.000000
0.279083 0.886780 0.000000
0.309601 0.888641 0.000000
0.336670 0.889648 0.000031
0.362274 0.887939 0.000000
0.386322 0.883118 0.000000
0.416412 0.878082 0.000153
0.450226 0.871796 0.000488
0.479736 0.868896 0.000000
0.509552 0.866730 0.000732
0.542328 0.864471 0.005737
0.577881 0.864655 0.006042
0.609528 0.863800 0.003418
0.641418 0.863281 0.003357
0.675629 0.863129 0.001404
0.706726 0.862732 0.001404
0.736847 0.862366 0.003082
0.764801 0.862122 0.001648
0.792847 0.861511 0.001465
0.815826 0.860046 0.000244
0.837494 0.858429 0.001038
0.857849 0.857483 0.000397
0.873535 0.853485 0.002197
0.887299 0.847961 0.007050
0.918640 0.857788 0.002258
0.951172 0.867188 0.005524
0.981323 0.876678 0.009125
0.998566 0.885132 0.004608
1.000000 0.892273 0.000458
0.248199 0.900208 0.001251
0.255920 0.902466 0.001404
0.266937 0.906525 0.001526
0.289520 0.909424 0.001312
0.312317 0.911499 0.000580
0.341003 0.912689 0.000366
0.360046 0.913971 0.000458
0.384613 0.911957 0.000305
0.410736 0.906586 0.000000
0.435883 0.903351 0.003021
0.465363 0.897064 0.002869
0.495728 0.893524 0.001343
0.526428 0.891907 0.005463
0.557434 0.891052 0.007477
0.588654 0.888489 0.009338
