tools/luts_backup/LAPARDIN-WEDLUTS-10.cube
#Created by: Adobe Photoshop Export Color Lookup Plugin
#Copyright: (C) 2017 Andrey Lapardin. vk.com-3dluts
TITLE "Andrey Lapardin. vk.com-3dluts"
#LUT size
LUT_3D_SIZE 5
#data domain
#LUT data points
DOMAIN_MIN 0.000000 0.000000 0.000000
DOMAIN_MAX 0.903226 0.903226 0.903226
0.012024 0.034332 0.042480
0.197418 0.055023 0.057953
0.407349 0.064301 0.066772
0.638916 0.059692 0.068848
0.874298 0.046875 0.069000
0.009369 0.181976 0.051788
0.185303 0.182129 0.065765
0.412689 0.194275 0.064178
0.636047 0.192657 0.075928
0.860870 0.192108 0.077301
0.014496 0.358612 0.048309
0.160980 0.349243 0.066742
0.393158 0.367828 0.077667
0.643585 0.382568 0.071503
0.859894 0.377594 0.079437
0.043610 0.540253 0.041809
0.156525 0.539551 0.042419
0.349792 0.542053 0.064392
0.606812 0.581421 0.078033
0.863037 0.628052 0.092194
0.071808 0.784851 0.050018
0.196564 0.786133 0.050201
0.280151 0.768982 0.067474
0.590851 0.805237 0.075134
0.819092 0.829285 0.096130
0.009918 0.050537 0.200165
0.111908 0.059082 0.206757
0.394135 0.068054 0.208679
0.617615 0.061188 0.229950
0.858551 0.048004 0.225586
0.038147 0.174591 0.178345
0.206207 0.206329 0.208191
0.419708 0.204315 0.212341
0.640930 0.215302 0.222473
0.823456 0.245636 0.256073
0.028717 0.352448 0.174438
0.196228 0.366180 0.194427
0.420929 0.392700 0.207153
0.661743 0.399139 0.194489
0.851013 0.399353 0.231354
0.053467 0.538757 0.160217
0.173615 0.552338 0.162750
0.380096 0.566711 0.183441
0.643951 0.606262 0.217133
0.864746 0.637482 0.226105
0.077606 0.775391 0.139832
0.218384 0.756287 0.160004
0.363861 0.765503 0.163971
0.604736 0.800476 0.178894
0.840027 0.831940 0.196381
0.019287 0.078430 0.397095
0.096863 0.082245 0.425690
0.193939 0.086243 0.436584
0.616211 0.056458 0.484070
0.860596 0.080811 0.424683
0.030914 0.201630 0.376923
0.157104 0.221863 0.414368
0.300659 0.227600 0.419067
0.620392 0.252197 0.438171
0.820099 0.277588 0.443695
0.058167 0.355957 0.350830
0.229858 0.385803 0.388245
0.432617 0.411743 0.409302
0.651489 0.408936 0.414368
0.858490 0.429962 0.446472
0.082703 0.550049 0.342133
0.183655 0.565887 0.347809
0.394287 0.567657 0.372955
0.652008 0.622101 0.410400
0.864227 0.648590 0.424713
0.097534 0.772583 0.266418
0.210754 0.759033 0.289368
0.385620 0.757477 0.310242
0.617981 0.805725 0.366516
0.856476 0.835327 0.420502
0.039124 0.120361 0.630188
0.143097 0.116791 0.647308
0.211639 0.125610 0.666351
0.324768 0.123260 0.666687
0.819427 0.073883 0.732300
0.040863 0.242065 0.624512
0.150452 0.245239 0.646423
0.228363 0.264709 0.653534
0.359406 0.273590 0.657867
0.790100 0.279694 0.695251
0.066711 0.378082 0.602234
0.228912 0.410492 0.631409
0.406433 0.446808 0.634186
0.583191 0.444702 0.637756
0.843964 0.491058 0.626190
0.095184 0.557831 0.557983
0.245880 0.591003 0.593536
0.453857 0.617950 0.622040
0.674896 0.648621 0.638641
0.869995 0.650330 0.646942
0.116333 0.792480 0.563721
0.227692 0.792572 0.566681
0.365967 0.792694 0.557373
0.616547 0.810638 0.551575
0.868439 0.851013 0.657104
0.067505 0.176025 0.851593
0.181732 0.171326 0.852325
0.249756 0.183044 0.875366
0.350464 0.167114 0.864655
0.512207 0.165741 0.858185
0.067688 0.279968 0.850311
0.194794 0.304169 0.818176
0.267822 0.306671 0.859039
0.358765 0.318115 0.862427
0.578705 0.320831 0.850342
0.086639 0.451111 0.843781
0.250519 0.479248 0.816132
0.393127 0.503845 0.838501
0.498505 0.494598 0.830078
0.699829 0.510529 0.836823
0.112396 0.599945 0.819244
0.276855 0.615387 0.812164
0.489288 0.657471 0.835754
0.669189 0.693604 0.838226
0.826599 0.693146 0.840088
0.131195 0.798309 0.801056
0.242889 0.805237 0.804077
0.467957 0.822144 0.816528
0.699799 0.846130 0.841614
0.886047 0.877563 0.860199
