tools/luts_backup/LAPARDIN-WEDLUTS-2.cube
#Created by: Adobe Photoshop Export Color Lookup Plugin
#Copyright: (C) 2017 Andrey Lapardin. vk.com-3dluts
TITLE "Andrey Lapardin. vk.com-3dluts"
#LUT size
LUT_3D_SIZE 8
#data domain
#LUT data points
DOMAIN_MIN 0.000000 0.000000 0.000000
DOMAIN_MAX 0.903226 0.903226 0.903226
0.004974 0.009521 0.009827
0.093689 0.015991 0.013428
0.205231 0.019562 0.016724
0.335632 0.008484 0.019318
0.477539 0.001556 0.016418
0.620575 0.000000 0.010559
0.765839 0.000000 0.001495
0.898895 0.000000 0.000000
0.009735 0.100922 0.011047
0.098938 0.100830 0.011597
0.209961 0.106445 0.015747
0.345856 0.102386 0.018158
0.480621 0.098694 0.017303
0.621918 0.089691 0.008240
0.766479 0.083466 0.001251
0.899628 0.086823 0.000000
0.000000 0.217407 0.000977
0.103210 0.213257 0.002594
0.215729 0.204285 0.008728
0.354858 0.214813 0.005127
0.494598 0.211151 0.004791
0.633514 0.206268 0.004852
0.764862 0.203125 0.003296
0.889679 0.204041 0.000549
0.000000 0.366241 0.000000
0.082031 0.361969 0.000000
0.226990 0.349792 0.000000
0.360596 0.342194 0.000336
0.505432 0.346649 0.000397
0.645325 0.346069 0.000092
0.776764 0.342957 0.000427
0.891785 0.340546 0.000214
0.000000 0.512787 0.000000
0.062927 0.511780 0.000000
0.217377 0.498230 0.000000
0.377747 0.491730 0.000000
0.508240 0.482391 0.000000
0.651978 0.484436 0.000000
0.784363 0.487030 0.000000
0.901184 0.485382 0.000000
0.000000 0.655426 0.000000
0.047302 0.656250 0.000000
0.232239 0.646179 0.000000
0.378387 0.634735 0.000000
0.526611 0.630676 0.000000
0.652527 0.621338 0.000000
0.786133 0.625244 0.000000
0.903107 0.634766 0.000000
0.000000 0.794189 0.000000
0.100677 0.793304 0.000000
0.279541 0.792236 0.000000
0.387482 0.774506 0.000000
0.538483 0.770630 0.000000
0.676849 0.765686 0.000000
0.787109 0.757599 0.000000
0.903473 0.767212 0.000000
0.083527 0.912170 0.000000
0.205627 0.912292 0.000000
0.345520 0.910156 0.000000
0.427765 0.900818 0.000000
0.557739 0.891510 0.000000
0.692596 0.890320 0.000000
0.800598 0.884888 0.000000
0.901978 0.882874 0.000000
0.013947 0.009674 0.094055
0.094574 0.014130 0.097107
0.202972 0.017853 0.109894
0.333862 0.003967 0.114105
0.470062 0.000122 0.114502
0.607880 0.000031 0.114960
0.752167 0.000000 0.101593
0.891388 0.000000 0.082550
0.015381 0.092438 0.088440
0.106506 0.104340 0.100006
0.220032 0.112366 0.105865
0.356476 0.106262 0.110291
0.495209 0.110626 0.110626
0.629517 0.106384 0.111938
0.766235 0.099335 0.106537
0.886017 0.107300 0.106781
0.003662 0.205139 0.083527
0.118164 0.219971 0.096985
0.234894 0.222168 0.099487
0.372467 0.229889 0.098907
0.512543 0.223145 0.102325
0.646851 0.219269 0.107544
0.774139 0.223297 0.110931
0.880829 0.241913 0.116882
0.000000 0.352325 0.063965
0.095947 0.362213 0.072998
0.241699 0.361816 0.086823
0.383026 0.358032 0.086548
0.521301 0.364563 0.091034
0.662781 0.360229 0.091827
0.789948 0.354187 0.096222
0.888702 0.362823 0.125153
0.000000 0.502075 0.009949
0.067719 0.512085 0.004700
0.248962 0.515686 0.025787
0.402435 0.508881 0.055481
0.532043 0.495667 0.075317
0.667236 0.498688 0.082489
0.796509 0.502258 0.081787
0.897308 0.497040 0.113495
0.000000 0.648682 0.000000
0.048889 0.661530 0.000000
0.278839 0.661255 0.000000
0.401886 0.655273 0.023895
0.551361 0.646454 0.044434
0.674408 0.633972 0.062408
0.802307 0.637085 0.071808
0.901550 0.637451 0.100891
0.000000 0.785858 0.000000
0.115662 0.804291 0.000000
0.321045 0.801880 0.000000
0.429016 0.792572 0.007050
0.552490 0.779266 0.036530
0.692169 0.773499 0.058960
0.802368 0.763885 0.065765
0.903259 0.768707 0.084473
0.069733 0.903687 0.000000
0.220825 0.914856 0.000000
0.368225 0.913452 0.000000
0.488647 0.904205 0.000000
0.567963 0.887695 0.060059
0.697174 0.881714 0.086517
0.811646 0.880493 0.100800
0.907166 0.881256 0.103699
0.009338 0.008575 0.202942
0.094360 0.011932 0.210907
0.187225 0.013550 0.220856
0.337433 0.006378 0.244781
0.476807 0.000000 0.250732
0.614471 0.000000 0.249939
0.756653 0.000000 0.246979
0.891449 0.000000 0.232056
0.013184 0.099701 0.193024
0.111328 0.109711 0.209106
0.216370 0.111603 0.220032
0.352112 0.116638 0.235535
0.485718 0.122406 0.244720
0.626587 0.115540 0.249390
0.759277 0.109344 0.244232
0.875702 0.122864 0.238678
0.004425 0.198822 0.183258
0.117157 0.216431 0.202972
0.242767 0.236664 0.224640
0.378998 0.230255 0.221954
0.518707 0.231659 0.227631
0.652924 0.240387 0.235199
0.768158 0.258881 0.249298
0.862793 0.286224 0.280762
0.000000 0.338623 0.180359
0.102814 0.351898 0.190125
0.246643 0.381775 0.211426
0.394989 0.381409 0.214508
0.537354 0.376312 0.212891
0.673157 0.374023 0.222717
0.790222 0.375702 0.242798
0.885010 0.388367 0.270966
0.000000 0.484863 0.156128
0.062897 0.497833 0.177673
0.265564 0.520508 0.198761
0.409058 0.523529 0.217285
0.550415 0.516815 0.210938
0.683105 0.517761 0.211639
0.797272 0.518402 0.237549
0.890961 0.517303 0.269379
0.000000 0.634705 0.139404
0.060028 0.641083 0.168243
0.281097 0.664856 0.174591
0.420685 0.664093 0.208679
0.571747 0.660645 0.216370
0.691284 0.643402 0.225983
0.799683 0.646973 0.253815
0.898590 0.653809 0.270905
0.000000 0.777771 0.133209
0.086670 0.778473 0.152679
0.322418 0.794373 0.168793
0.460052 0.791412 0.193176
0.578003 0.785400 0.225189
0.711884 0.778809 0.227966
0.809937 0.770355 0.253357
0.908051 0.777802 0.272583
0.046692 0.899292 0.137024
0.191498 0.884705 0.154053
0.384277 0.882965 0.209808
0.520538 0.879547 0.214539
0.604523 0.891418 0.240448
0.713684 0.885620 0.248138
0.819550 0.882141 0.263794
0.918762 0.882751 0.274384
0.000000 0.006866 0.338379
0.090942 0.006042 0.351440
0.167755 0.012756 0.367645
0.302551 0.004059 0.375977
0.482269 0.000000 0.423126
0.620361 0.000000 0.427429
0.760162 0.000000 0.414429
0.890289 0.000000 0.408081
0.002106 0.100281 0.326508
0.098145 0.107361 0.347870
0.201385 0.113495 0.361298
0.321808 0.116333 0.374176
0.480621 0.127350 0.410034
0.620361 0.121399 0.422119
0.758362 0.118073 0.416840
0.872314 0.139160 0.412659
0.000122 0.207397 0.319916
0.116089 0.219666 0.340027
0.240387 0.238525 0.363922
0.373779 0.240753 0.372406
0.514191 0.246094 0.383362
0.645935 0.260681 0.394836
0.763763 0.284668 0.409424
0.864197 0.299896 0.419250
0.000000 0.334686 0.306000
0.113556 0.353424 0.331207
0.246002 0.377747 0.357483
0.398102 0.389343 0.368927
0.536346 0.379852 0.365875
0.666565 0.384033 0.376221
0.779053 0.406525 0.402771
0.885284 0.422699 0.421600
0.000000 0.479614 0.298584
0.094330 0.496033 0.315979
0.258118 0.513336 0.332153
0.405640 0.532227 0.361694
0.550690 0.527771 0.365601
0.681061 0.521790 0.366974
0.789917 0.530273 0.391510
0.902466 0.529877 0.405731
0.000000 0.625488 0.288666
0.093384 0.635651 0.301147
0.268066 0.647919 0.316284
0.434326 0.664154 0.358154
0.566742 0.663147 0.376709
0.692017 0.654663 0.370972
0.800812 0.658356 0.379974
0.898285 0.668488 0.405365
0.000000 0.763824 0.277283
0.119965 0.770599 0.300659
0.305908 0.766113 0.315887
0.487213 0.774628 0.362915
0.584503 0.783264 0.390869
0.711487 0.778870 0.394958
0.815338 0.772522 0.387177
0.906830 0.782288 0.418518
0.048279 0.889069 0.283569
0.199890 0.879425 0.314270
0.348969 0.876526 0.315735
0.531860 0.880310 0.367462
0.626373 0.888458 0.389923
0.725159 0.889679 0.409454
0.831085 0.884857 0.401459
0.921112 0.885101 0.423798
0.000000 0.007721 0.472900
0.101990 0.003448 0.479431
0.157684 0.008514 0.509857
0.286743 0.002808 0.516907
0.430389 0.000000 0.525726
0.627777 0.000000 0.590668
0.766479 0.000000 0.587952
0.890594 0.000000 0.573975
0.000000 0.104279 0.470337
0.104858 0.103607 0.486328
0.196014 0.111481 0.504974
0.300842 0.125092 0.516357
0.439911 0.118378 0.525452
0.622162 0.121704 0.579071
0.761719 0.117401 0.586304
0.872559 0.137756 0.571899
0.000000 0.211792 0.462219
0.113281 0.222992 0.479218
0.230988 0.237793 0.506866
0.353058 0.245453 0.506287
0.485443 0.255157 0.515747
0.631958 0.283020 0.552460
0.753387 0.305206 0.559723
0.857208 0.320465 0.562073
0.000031 0.341064 0.455292
0.110077 0.356171 0.477356
0.251587 0.376587 0.501251
0.394104 0.392761 0.509338
0.531738 0.391876 0.517792
0.661407 0.399078 0.525818
0.775635 0.423676 0.537933
0.883331 0.441742 0.543579
0.000031 0.473724 0.440308
0.119446 0.492371 0.462433
0.267517 0.515869 0.493774
0.406860 0.529114 0.508545
0.551666 0.537506 0.513733
0.680817 0.531891 0.516296
0.794495 0.536682 0.526428
0.899292 0.551544 0.547272
0.000000 0.616974 0.435699
0.126892 0.630157 0.451141
0.279938 0.644379 0.469971
0.428467 0.654999 0.492828
0.565643 0.670929 0.514954
0.691742 0.664063 0.518402
0.803558 0.666931 0.519562
0.899384 0.674713 0.543671
0.003906 0.756989 0.435303
0.166412 0.761139 0.439117
0.307800 0.768036 0.462585
0.458130 0.769623 0.470276
0.597626 0.786987 0.518311
0.707550 0.788330 0.533417
0.815399 0.783539 0.521484
0.909363 0.787689 0.538788
0.079498 0.880493 0.434479
0.224640 0.879578 0.439240
0.351715 0.877441 0.455170
0.489410 0.875458 0.456635
0.654266 0.882294 0.510468
0.733093 0.887756 0.545990
0.834717 0.886841 0.550354
0.926056 0.884338 0.546570
0.000000 0.004120 0.606354
0.116241 0.002930 0.608795
0.199036 0.001862 0.637665
0.286560 0.002167 0.651062
0.427643 0.000000 0.652679
0.571198 0.000000 0.659912
0.771423 0.000000 0.733368
0.893921 0.001923 0.726807
0.000000 0.097046 0.608124
0.125031 0.094910 0.620331
0.229950 0.098602 0.638275
0.300140 0.126831 0.651611
0.433594 0.129761 0.653107
0.576660 0.123505 0.660004
0.766083 0.120178 0.722565
0.874725 0.149139 0.712830
0.000000 0.220673 0.609589
0.120911 0.228210 0.614746
0.241852 0.240479 0.639160
0.352325 0.250580 0.638336
0.466583 0.269165 0.640045
0.597015 0.279205 0.650360
0.752045 0.298798 0.695313
0.853699 0.322174 0.693481
0.000000 0.343811 0.602936
0.134613 0.360596 0.611481
0.258484 0.382660 0.639221
0.389099 0.402374 0.643280
0.513580 0.402557 0.637085
0.642273 0.414642 0.643005
0.760773 0.449799 0.664154
0.874023 0.465881 0.664978
0.000000 0.480042 0.592407
0.139038 0.492340 0.608582
0.270020 0.516876 0.635162
0.414764 0.531830 0.639374
0.553101 0.545258 0.641571
0.677917 0.545135 0.647919
0.791443 0.550415 0.658325
0.896606 0.565887 0.663452
0.004211 0.611359 0.578308
0.158966 0.622650 0.589233
0.294861 0.645630 0.620453
0.437286 0.654358 0.633423
0.568237 0.667908 0.644257
0.695709 0.674713 0.647675
0.805115 0.676453 0.656036
0.902771 0.683441 0.666229
0.030762 0.748596 0.579498
0.195068 0.753906 0.584229
0.330505 0.763275 0.603760
0.467010 0.767792 0.612000
0.587128 0.784607 0.634155
0.712860 0.795197 0.653900
0.813171 0.792053 0.658569
0.906189 0.796112 0.666687
0.127991 0.872986 0.580933
0.242126 0.874603 0.585602
0.365509 0.878387 0.598114
0.489746 0.880188 0.606934
0.621460 0.878784 0.606415
0.752228 0.894806 0.646790
0.831238 0.894684 0.676483
0.922791 0.891418 0.673126
0.007874 0.003601 0.742096
0.140472 0.001190 0.741455
0.256775 0.000183 0.756073
0.310608 0.000519 0.776703
0.438019 0.000000 0.775177
0.577942 0.000000 0.769745
0.717896 0.000000 0.776337
0.894470 0.010742 0.838074
0.015808 0.092682 0.741180
0.156372 0.090790 0.751801
0.280518 0.084778 0.758636
0.333435 0.123383 0.772644
0.443542 0.141357 0.774994
0.579041 0.145905 0.770721
0.719177 0.144958 0.776886
0.875458 0.161102 0.822235
0.029633 0.233826 0.745209
0.153229 0.238586 0.744995
0.282074 0.251129 0.750824
0.380402 0.258301 0.760071
0.467865 0.284332 0.766052
0.588257 0.293518 0.765717
0.724213 0.297302 0.771667
0.852631 0.331573 0.796173
0.034027 0.360931 0.743469
0.152985 0.377075 0.743988
0.289825 0.398163 0.753357
0.413513 0.426239 0.754822
0.517944 0.422668 0.748901
0.626526 0.436462 0.747742
0.744537 0.446777 0.756714
0.858948 0.471130 0.784851
0.010406 0.488495 0.734192
0.166138 0.503387 0.738129
0.299042 0.525482 0.749481
0.437469 0.544891 0.755310
0.555206 0.563171 0.756256
0.663727 0.557739 0.753326
0.780792 0.566345 0.761292
0.882202 0.596100 0.771576
0.035217 0.620667 0.722046
0.184570 0.628784 0.725861
0.316284 0.646698 0.745148
0.450775 0.664520 0.753387
0.575439 0.677216 0.762024
0.700073 0.684113 0.763611
0.803284 0.685425 0.767609
0.900543 0.697205 0.776550
0.080261 0.746918 0.717224
0.220764 0.749969 0.716614
0.350861 0.760590 0.731598
0.475708 0.770538 0.744324
0.594147 0.782715 0.757172
0.715820 0.789398 0.766266
0.817413 0.798798 0.771820
0.911224 0.806366 0.783630
0.174835 0.867920 0.717010
0.266388 0.868896 0.720703
0.383087 0.871857 0.728760
0.500153 0.877991 0.737976
0.618011 0.881348 0.744598
0.734009 0.892151 0.750885
0.840607 0.906464 0.774231
0.919403 0.903259 0.785858
0.127350 0.002197 0.857666
0.196289 0.001312 0.857788
0.303955 0.000183 0.862366
0.376801 0.000000 0.882996
0.464905 0.000000 0.882599
0.589600 0.000397 0.877228
0.724670 0.004242 0.873291
0.852570 0.006927 0.876801
0.132446 0.091339 0.857605
0.206207 0.103668 0.857361
0.315704 0.104553 0.858643
0.399536 0.122375 0.869019
0.466522 0.140106 0.886902
0.592590 0.152252 0.880890
0.728455 0.156647 0.872711
0.849976 0.173645 0.871948
0.137695 0.245331 0.858490
0.209167 0.257294 0.849121
0.335449 0.289673 0.829498
0.429413 0.284851 0.847809
0.491760 0.292603 0.871765
0.596802 0.305359 0.873474
0.729401 0.315552 0.864929
0.849426 0.323303 0.867035
0.129364 0.390015 0.863068
0.200348 0.406921 0.852142
0.330444 0.431183 0.834625
0.450073 0.444366 0.848480
0.537720 0.435699 0.855133
0.628632 0.452484 0.856445
0.738220 0.464783 0.853912
0.851868 0.466980 0.860718
0.131256 0.507904 0.856537
0.217438 0.522644 0.849091
0.337189 0.548462 0.835785
0.457733 0.572784 0.848572
0.572601 0.585938 0.855103
0.670532 0.577362 0.849670
0.768280 0.589417 0.846832
0.872833 0.601318 0.855072
0.124603 0.633789 0.845795
0.230713 0.640289 0.839172
0.351166 0.656006 0.839630
0.471100 0.678101 0.853516
0.595276 0.693512 0.857300
0.707642 0.707642 0.857635
0.796021 0.704529 0.855804
0.895874 0.713196 0.861206
0.154358 0.760101 0.840576
0.251526 0.760590 0.835876
0.370911 0.767365 0.839142
0.491211 0.779785 0.849823
0.608765 0.792389 0.857422
0.721741 0.802002 0.865448
0.823914 0.809845 0.870117
0.909637 0.812469 0.872253
0.223145 0.867523 0.836945
0.290131 0.870850 0.838501
0.393250 0.875031 0.839935
0.506470 0.879944 0.845001
0.620178 0.885437 0.856293
0.733307 0.893738 0.868500
0.831818 0.901825 0.870178
0.925873 0.911652 0.880280
