tools/luts_backup/LAPARDIN-WEDLUTS-2.cube
#Created by: Adobe Photoshop Export Color Lookup Plugin
#Copyright: (C) 2017 Andrey Lapardin. vk.com-3dluts
TITLE "Andrey Lapardin. vk.com-3dluts"
#LUT size
LUT_3D_SIZE 5
#data domain
#LUT data points
DOMAIN_MIN 0.000000 0.000000 0.000000
DOMAIN_MAX 0.903226 0.903226 0.903226
0.004974 0.009521 0.009827
0.174988 0.019409 0.016998
0.406555 0.004150 0.017242
0.656555 0.000000 0.008484
0.898895 0.000000 0.000000
0.000000 0.184540 0.004761
0.183838 0.175354 0.012604
0.424255 0.183350 0.007080
0.661804 0.173492 0.005554
0.891724 0.176300 0.000000
0.000000 0.438873 0.000000
0.184937 0.425446 0.000000
0.435974 0.413391 0.000000
0.685669 0.415070 0.000000
0.897552 0.412781 0.000000
0.000000 0.691193 0.000000
0.214539 0.691864 0.000000
0.456177 0.668060 0.000000
0.687775 0.654938 0.000000
0.903168 0.670044 0.000000
0.083527 0.912170 0.000000
0.314758 0.910248 0.000000
0.488434 0.895935 0.000000
0.727936 0.887878 0.000000
0.901978 0.882874 0.000000
0.013458 0.007202 0.172729
0.164642 0.012177 0.184052
0.405609 0.000427 0.209534
0.648376 0.000000 0.210724
0.892090 0.000000 0.193939
0.007782 0.168304 0.155853
0.206635 0.204407 0.189148
0.444305 0.195862 0.191040
0.681244 0.211151 0.204407
0.859100 0.253265 0.242889
0.000000 0.415009 0.136200
0.222961 0.445984 0.170410
0.471771 0.445557 0.175751
0.712189 0.444092 0.184692
0.887634 0.445129 0.237091
0.000000 0.676941 0.106445
0.245300 0.702148 0.115509
0.494995 0.698792 0.169647
0.721710 0.674438 0.197083
0.903412 0.682251 0.233276
0.043823 0.900848 0.075104
0.344299 0.884247 0.163879
0.559387 0.886139 0.183533
0.738708 0.881500 0.219238
0.914734 0.882385 0.234741
0.000000 0.006287 0.404510
0.135559 0.010254 0.436005
0.363495 0.000000 0.451019
0.661896 0.000000 0.511353
0.889191 0.000000 0.491608
0.000000 0.179077 0.392914
0.198273 0.201965 0.430237
0.417877 0.214386 0.444763
0.663544 0.247864 0.485992
0.854279 0.277924 0.494720
0.000000 0.404877 0.371765
0.221222 0.442322 0.419312
0.475586 0.462708 0.442108
0.705292 0.459839 0.450012
0.896149 0.484924 0.481598
0.000000 0.656647 0.363770
0.237152 0.680237 0.388885
0.508728 0.697479 0.445465
0.725677 0.692932 0.447083
0.901733 0.706512 0.470428
0.073975 0.883362 0.362427
0.316772 0.876831 0.383911
0.597687 0.880890 0.438599
0.756989 0.887268 0.482086
0.921967 0.885254 0.484253
0.000580 0.004059 0.639343
0.206238 0.001465 0.658875
0.361755 0.000000 0.688782
0.607727 0.000000 0.693939
0.894623 0.001068 0.758240
0.000793 0.196991 0.644623
0.225739 0.200958 0.665192
0.397369 0.230316 0.678284
0.621307 0.244324 0.688782
0.849884 0.287872 0.722809
0.000061 0.415039 0.632782
0.240784 0.444977 0.666016
0.473785 0.481476 0.669220
0.692993 0.482910 0.676483
0.881226 0.525696 0.692810
0.007202 0.644440 0.612427
0.275940 0.671875 0.642548
0.511139 0.694061 0.672180
0.730225 0.708099 0.681000
0.904114 0.717072 0.697388
0.142731 0.871521 0.615570
0.336243 0.876099 0.627899
0.553040 0.880646 0.642700
0.773682 0.898468 0.682831
0.920959 0.895660 0.704041
0.127350 0.002197 0.857666
0.280609 0.000000 0.858246
0.412323 0.000000 0.884033
0.623901 0.000763 0.875427
0.852570 0.006927 0.876801
0.138031 0.207825 0.857971
0.309357 0.252625 0.828156
0.449341 0.248779 0.868896
0.627472 0.270660 0.873688
0.850006 0.287415 0.868713
0.127533 0.447205 0.860657
0.302551 0.488007 0.833466
0.509033 0.517120 0.853210
0.676453 0.518951 0.851593
0.860809 0.534515 0.857208
0.131622 0.666595 0.844086
0.326080 0.679688 0.836975
0.536469 0.713440 0.856171
0.737579 0.733795 0.858856
0.897430 0.738037 0.863770
0.223145 0.867523 0.836945
0.366852 0.872314 0.839386
0.562317 0.880920 0.850189
0.758820 0.895721 0.869934
0.925873 0.911652 0.880280
