tools/luts_backup/LAPARDIN-WEDLUTS-BW.cube
#Created by: Adobe Photoshop Export Color Lookup Plugin
#Copyright: (C) 2017 Andrey Lapardin. vk.com-3dluts
TITLE "Andrey Lapardin. vk.com-3dluts"
#LUT size
LUT_3D_SIZE 8
#data domain
#LUT data points
DOMAIN_MIN 0.000000 0.000000 0.000000
DOMAIN_MAX 0.903226 0.903226 0.903226
0.065796 0.065979 0.065918
0.066071 0.066254 0.066193
0.079346 0.079529 0.079468
0.106628 0.106812 0.106750
0.163696 0.163818 0.163788
0.230408 0.230499 0.230469
0.299744 0.299805 0.299774
0.386230 0.386261 0.386261
0.076660 0.076843 0.076782
0.083618 0.083801 0.083740
0.109406 0.109589 0.109528
0.143250 0.143402 0.143341
0.192505 0.192596 0.192566
0.252533 0.252594 0.252594
0.322968 0.323029 0.322998
0.408295 0.408325 0.408325
0.141205 0.141388 0.141327
0.151703 0.151855 0.151794
0.164337 0.164459 0.164429
0.203308 0.203400 0.203369
0.241455 0.241547 0.241516
0.292694 0.292755 0.292725
0.356476 0.356506 0.356506
0.440491 0.440521 0.440521
0.241364 0.241455 0.241425
0.245789 0.245880 0.245850
0.257324 0.257416 0.257385
0.268158 0.268219 0.268188
0.314178 0.314240 0.314209
0.355316 0.355347 0.355347
0.406250 0.406311 0.406281
0.483978 0.484009 0.483978
0.357452 0.357483 0.357483
0.360168 0.360199 0.360199
0.366852 0.366913 0.366882
0.377869 0.377899 0.377899
0.387329 0.387390 0.387360
0.439514 0.439545 0.439545
0.489349 0.489380 0.489380
0.552765 0.552765 0.552765
0.484863 0.484894 0.484894
0.490936 0.490967 0.490967
0.498169 0.498199 0.498199
0.497528 0.497559 0.497528
0.514374 0.514404 0.514404
0.521149 0.521179 0.521149
0.585815 0.585846 0.585846
0.641998 0.641998 0.641998
0.623810 0.623840 0.623840
0.633575 0.633575 0.633575
0.642670 0.642700 0.642670
0.631500 0.631500 0.631500
0.638306 0.638336 0.638306
0.655670 0.655670 0.655670
0.662384 0.662384 0.662384
0.728638 0.728668 0.728668
0.770355 0.770355 0.770355
0.781067 0.781067 0.781067
0.788147 0.788177 0.788177
0.773224 0.773224 0.773224
0.773376 0.773407 0.773376
0.786530 0.786530 0.786530
0.796295 0.796326 0.796326
0.812805 0.812805 0.812805
0.067413 0.067596 0.067535
0.067841 0.068024 0.067963
0.080505 0.080688 0.080627
0.110687 0.110870 0.110809
0.176910 0.177032 0.176971
0.242432 0.242523 0.242493
0.311859 0.311920 0.311920
0.399445 0.399475 0.399475
0.074860 0.075043 0.074982
0.094696 0.094849 0.094788
0.122925 0.123108 0.123047
0.163605 0.163757 0.163696
0.216278 0.216370 0.216339
0.275482 0.275574 0.275543
0.340485 0.340546 0.340515
0.421295 0.421326 0.421326
0.146271 0.146423 0.146362
0.167297 0.167450 0.167389
0.182220 0.182343 0.182312
0.219330 0.219421 0.219391
0.258636 0.258698 0.258667
0.308472 0.308533 0.308502
0.369843 0.369873 0.369873
0.447693 0.447723 0.447723
0.246582 0.246674 0.246643
0.256897 0.256989 0.256958
0.269196 0.269257 0.269226
0.284729 0.284821 0.284790
0.328613 0.328674 0.328674
0.367859 0.367920 0.367889
0.419800 0.419830 0.419830
0.491608 0.491638 0.491608
0.360596 0.360657 0.360626
0.367676 0.367706 0.367706
0.378265 0.378296 0.378296
0.391357 0.391388 0.391388
0.402435 0.402466 0.402466
0.452240 0.452271 0.452271
0.503113 0.503143 0.503113
0.563385 0.563385 0.563385
0.489532 0.489563 0.489532
0.498383 0.498413 0.498383
0.509735 0.509766 0.509766
0.513611 0.513641 0.513611
0.528534 0.528564 0.528564
0.534851 0.534882 0.534851
0.597504 0.597504 0.597504
0.655548 0.655548 0.655548
0.629211 0.629211 0.629211
0.641266 0.641296 0.641296
0.652344 0.652374 0.652374
0.652832 0.652863 0.652863
0.651825 0.651855 0.651825
0.666290 0.666321 0.666321
0.675171 0.675171 0.675171
0.754700 0.754700 0.754700
0.773895 0.773895 0.773895
0.788757 0.788757 0.788757
0.799652 0.799683 0.799683
0.799988 0.799988 0.799988
0.797058 0.797089 0.797089
0.811951 0.811951 0.811951
0.828583 0.828583 0.828583
0.846283 0.846283 0.846283
0.075043 0.075226 0.075165
0.076294 0.076477 0.076416
0.079437 0.079620 0.079559
0.107391 0.107574 0.107513
0.181366 0.181488 0.181427
0.252075 0.252136 0.252136
0.323914 0.323975 0.323975
0.406799 0.406860 0.406830
0.081299 0.081482 0.081421
0.110596 0.110779 0.110718
0.127869 0.128052 0.127991
0.172302 0.172424 0.172363
0.224670 0.224762 0.224731
0.281738 0.281799 0.281769
0.345734 0.345795 0.345795
0.426727 0.426758 0.426727
0.136719 0.136902 0.136841
0.166840 0.166962 0.166931
0.200562 0.200653 0.200623
0.229431 0.229523 0.229492
0.271973 0.272064 0.272034
0.325836 0.325867 0.325867
0.383728 0.383789 0.383759
0.456268 0.456299 0.456299
0.243256 0.243347 0.243317
0.258179 0.258270 0.258240
0.285889 0.285950 0.285919
0.304077 0.304169 0.304138
0.341614 0.341644 0.341644
0.383881 0.383942 0.383911
0.438080 0.438141 0.438110
0.497620 0.497650 0.497650
0.352173 0.352234 0.352203
0.365479 0.365540 0.365540
0.391479 0.391510 0.391510
0.407471 0.407501 0.407501
0.424896 0.424957 0.424927
0.471741 0.471802 0.471771
0.520599 0.520630 0.520630
0.576324 0.576324 0.576324
0.480042 0.480072 0.480042
0.495850 0.495880 0.495880
0.520355 0.520386 0.520386
0.530762 0.530792 0.530792
0.546387 0.546417 0.546417
0.555725 0.555756 0.555725
0.613525 0.613556 0.613556
0.672546 0.672577 0.672577
0.627441 0.627441 0.627441
0.638031 0.638062 0.638062
0.658508 0.658539 0.658539
0.667542 0.667542 0.667542
0.670044 0.670074 0.670074
0.686829 0.686829 0.686829
0.700775 0.700775 0.700775
0.767639 0.767639 0.767639
0.775452 0.775452 0.775452
0.782745 0.782776 0.782776
0.798004 0.798035 0.798004
0.806427 0.806458 0.806458
0.816223 0.816223 0.816223
0.826721 0.826721 0.826721
0.843719 0.843719 0.843719
0.859467 0.859467 0.859467
0.083405 0.083557 0.083496
0.085510 0.085693 0.085632
0.088074 0.088257 0.088196
0.106537 0.106720 0.106659
0.176910 0.177063 0.177002
0.256592 0.256683 0.256653
0.330566 0.330627 0.330597
0.417511 0.417542 0.417542
0.115112 0.115295 0.115234
0.132019 0.132172 0.132111
0.149231 0.149384 0.149353
0.175537 0.175659 0.175629
0.228119 0.228210 0.228180
0.289642 0.289703 0.289703
0.355347 0.355408 0.355377
0.437592 0.437653 0.437622
0.161865 0.161987 0.161957
0.184753 0.184875 0.184845
0.219330 0.219421 0.219391
0.236267 0.236359 0.236328
0.282043 0.282104 0.282074
0.337830 0.337891 0.337891
0.397369 0.397400 0.397400
0.465576 0.465607 0.465607
0.239655 0.239746 0.239716
0.256073 0.256165 0.256134
0.286652 0.286713 0.286713
0.320679 0.320740 0.320740
0.349792 0.349854 0.349823
0.394684 0.394714 0.394714
0.454681 0.454712 0.454681
0.517792 0.517822 0.517822
0.358185 0.358215 0.358215
0.370636 0.370667 0.370667
0.390747 0.390778 0.390778
0.419464 0.419495 0.419495
0.437134 0.437164 0.437164
0.480286 0.480316 0.480286
0.534973 0.535004 0.535004
0.583221 0.583252 0.583252
0.485474 0.485504 0.485504
0.493378 0.493408 0.493378
0.513855 0.513885 0.513855
0.542572 0.542603 0.542603
0.557404 0.557434 0.557434
0.570557 0.570587 0.570557
0.629211 0.629211 0.629211
0.678528 0.678528 0.678528
0.623596 0.623596 0.623596
0.632050 0.632050 0.632050
0.646301 0.646301 0.646301
0.670105 0.670135 0.670135
0.682617 0.682617 0.682617
0.700470 0.700470 0.700470
0.716919 0.716919 0.716919
0.769867 0.769867 0.769867
0.771423 0.771423 0.771423
0.779205 0.779236 0.779236
0.794495 0.794495 0.794495
0.809998 0.809998 0.809998
0.819336 0.819336 0.819336
0.831696 0.831726 0.831726
0.847198 0.847198 0.847198
0.862213 0.862213 0.862213
0.099213 0.099365 0.099304
0.102234 0.102417 0.102356
0.109741 0.109924 0.109863
0.142975 0.143127 0.143066
0.181610 0.181763 0.181702
0.250275 0.250366 0.250336
0.339935 0.339996 0.339966
0.429230 0.429260 0.429260
0.152161 0.152313 0.152252
0.164154 0.164276 0.164246
0.180023 0.180176 0.180115
0.203003 0.203094 0.203064
0.230743 0.230835 0.230804
0.285645 0.285706 0.285675
0.365204 0.365265 0.365234
0.449097 0.449127 0.449127
0.203003 0.203094 0.203064
0.227661 0.227753 0.227722
0.247131 0.247192 0.247162
0.259613 0.259674 0.259644
0.289520 0.289581 0.289551
0.346436 0.346497 0.346466
0.410217 0.410248 0.410248
0.476990 0.477020 0.477020
0.263885 0.263947 0.263916
0.277374 0.277435 0.277405
0.303864 0.303925 0.303894
0.341217 0.341278 0.341248
0.358795 0.358856 0.358826
0.406830 0.406860 0.406860
0.472107 0.472137 0.472137
0.532532 0.532562 0.532562
0.355774 0.355835 0.355804
0.367950 0.367981 0.367981
0.388458 0.388489 0.388489
0.421448 0.421478 0.421478
0.457275 0.457306 0.457275
0.490875 0.490906 0.490875
0.540436 0.540466 0.540466
0.595337 0.595367 0.595337
0.494629 0.494659 0.494629
0.503754 0.503754 0.503754
0.520233 0.520264 0.520233
0.540558 0.540588 0.540558
0.564789 0.564819 0.564789
0.581482 0.581482 0.581482
0.633148 0.633148 0.633148
0.685242 0.685242 0.685242
0.634003 0.634033 0.634003
0.640228 0.640228 0.640228
0.648438 0.648438 0.648438
0.664246 0.664246 0.664246
0.687683 0.687683 0.687683
0.706696 0.706726 0.706726
0.723480 0.723480 0.723480
0.778046 0.778046 0.778046
0.775055 0.775055 0.775055
0.779846 0.779846 0.779846
0.789307 0.789307 0.789307
0.801147 0.801147 0.801147
0.820099 0.820129 0.820129
0.832031 0.832031 0.832031
0.850220 0.850220 0.850220
0.863220 0.863220 0.863220
0.130219 0.130371 0.130310
0.133636 0.133820 0.133759
0.158752 0.158905 0.158844
0.197693 0.197784 0.197754
0.228912 0.229004 0.228973
0.266113 0.266174 0.266174
0.338501 0.338562 0.338531
0.435242 0.435272 0.435272
0.195221 0.195343 0.195313
0.206329 0.206451 0.206421
0.221344 0.221436 0.221405
0.245148 0.245209 0.245209
0.268280 0.268341 0.268311
0.299652 0.299713 0.299713
0.363861 0.363922 0.363892
0.455994 0.456024 0.456024
0.256104 0.256165 0.256134
0.263885 0.263947 0.263916
0.283508 0.283569 0.283539
0.296844 0.296906 0.296875
0.319855 0.319916 0.319885
0.352722 0.352753 0.352753
0.403748 0.403809 0.403778
0.482635 0.482666 0.482666
0.300781 0.300873 0.300842
0.318817 0.318878 0.318848
0.356018 0.356049 0.356049
0.378967 0.379028 0.379028
0.387909 0.387939 0.387939
0.424072 0.424103 0.424103
0.484131 0.484161 0.484131
0.546234 0.546265 0.546234
0.382538 0.382599 0.382568
0.393829 0.393890 0.393860
0.414001 0.414063 0.414032
0.444733 0.444763 0.444763
0.483459 0.483490 0.483490
0.500214 0.500244 0.500244
0.551117 0.551147 0.551147
0.614197 0.614197 0.614197
0.485352 0.485382 0.485382
0.495697 0.495728 0.495728
0.511963 0.511993 0.511993
0.533112 0.533142 0.533112
0.566925 0.566956 0.566956
0.604523 0.604553 0.604553
0.639038 0.639069 0.639069
0.688110 0.688110 0.688110
0.639069 0.639099 0.639069
0.643555 0.643585 0.643555
0.650604 0.650604 0.650604
0.666504 0.666534 0.666504
0.686707 0.686707 0.686707
0.714478 0.714508 0.714478
0.732422 0.732452 0.732422
0.785095 0.785095 0.785095
0.777802 0.777802 0.777802
0.781952 0.781952 0.781952
0.790558 0.790558 0.790558
0.798676 0.798676 0.798676
0.812347 0.812378 0.812378
0.834229 0.834229 0.834229
0.854126 0.854126 0.854126
0.869202 0.869232 0.869232
0.193665 0.193756 0.193726
0.206116 0.206238 0.206177
0.232452 0.232544 0.232513
0.266388 0.266479 0.266449
0.291687 0.291748 0.291718
0.322937 0.322998 0.322968
0.369507 0.369537 0.369537
0.450195 0.450226 0.450226
0.249634 0.249725 0.249695
0.262970 0.263031 0.263000
0.279144 0.279205 0.279205
0.302765 0.302826 0.302795
0.324646 0.324707 0.324677
0.351929 0.351959 0.351959
0.394714 0.394775 0.394745
0.468658 0.468689 0.468689
0.310455 0.310516 0.310516
0.316498 0.316589 0.316559
0.333649 0.333710 0.333679
0.349152 0.349213 0.349182
0.373718 0.373779 0.373749
0.399384 0.399414 0.399414
0.433594 0.433624 0.433624
0.490387 0.490417 0.490387
0.377014 0.377045 0.377045
0.388763 0.388794 0.388794
0.407593 0.407654 0.407623
0.433929 0.433960 0.433929
0.440430 0.440491 0.440460
0.466125 0.466156 0.466156
0.497559 0.497589 0.497559
0.541687 0.541718 0.541718
0.424530 0.424561 0.424561
0.435852 0.435883 0.435852
0.459808 0.459839 0.459839
0.502441 0.502441 0.502441
0.532166 0.532196 0.532166
0.538971 0.539001 0.538971
0.572723 0.572754 0.572754
0.624115 0.624115 0.624115
0.532196 0.532227 0.532227
0.541016 0.541046 0.541016
0.551788 0.551819 0.551819
0.568420 0.568451 0.568451
0.596283 0.596313 0.596313
0.631927 0.631927 0.631927
0.647217 0.647247 0.647217
0.700592 0.700623 0.700592
0.626678 0.626709 0.626678
0.632111 0.632141 0.632111
0.640900 0.640930 0.640930
0.658661 0.658661 0.658661
0.679596 0.679596 0.679596
0.716217 0.716248 0.716217
0.753571 0.753601 0.753601
0.791260 0.791260 0.791260
0.782959 0.782959 0.782959
0.785950 0.785950 0.785950
0.793091 0.793091 0.793091
0.798309 0.798309 0.798309
0.811279 0.811279 0.811279
0.833313 0.833313 0.833313
0.861877 0.861877 0.861877
0.880127 0.880127 0.880127
0.304871 0.304932 0.304901
0.314758 0.314819 0.314789
0.333618 0.333679 0.333679
0.364166 0.364227 0.364197
0.388641 0.388702 0.388672
0.415039 0.415100 0.415070
0.449341 0.449402 0.449371
0.505524 0.505554 0.505554
0.336700 0.336761 0.336731
0.352753 0.352783 0.352783
0.366730 0.366791 0.366791
0.391663 0.391724 0.391693
0.416199 0.416229 0.416229
0.440552 0.440582 0.440582
0.472229 0.472260 0.472229
0.523590 0.523621 0.523621
0.389130 0.389160 0.389160
0.392853 0.392883 0.392883
0.407684 0.407715 0.407684
0.429443 0.429474 0.429474
0.458252 0.458282 0.458282
0.483917 0.483978 0.483948
0.511963 0.511993 0.511993
0.551392 0.551422 0.551422
0.461456 0.461487 0.461487
0.466431 0.466461 0.466461
0.479706 0.479736 0.479706
0.505585 0.505615 0.505615
0.511780 0.511810 0.511810
0.536621 0.536652 0.536621
0.560150 0.560181 0.560181
0.590881 0.590912 0.590912
0.514130 0.514130 0.514130
0.525146 0.525177 0.525177
0.537323 0.537354 0.537354
0.574677 0.574707 0.574707
0.592987 0.592987 0.592987
0.597961 0.597992 0.597961
0.620880 0.620911 0.620911
0.647339 0.647339 0.647339
0.586884 0.586914 0.586884
0.593597 0.593597 0.593597
0.600311 0.600311 0.600311
0.613342 0.613342 0.613342
0.651367 0.651367 0.651367
0.684113 0.684143 0.684113
0.693054 0.693085 0.693085
0.721771 0.721771 0.721771
0.690094 0.690094 0.690094
0.695679 0.695679 0.695679
0.705658 0.705658 0.705658
0.709839 0.709839 0.709839
0.723053 0.723053 0.723053
0.747955 0.747986 0.747955
0.781921 0.781952 0.781921
0.796539 0.796570 0.796570
0.768433 0.768433 0.768433
0.784424 0.784424 0.784424
0.797241 0.797241 0.797241
0.796539 0.796539 0.796539
0.806152 0.806152 0.806152
0.826996 0.826996 0.826996
0.862823 0.862823 0.862823
0.895416 0.895447 0.895416
