tools/luts_backup/LAPARDIN-WEDLUTS-2.cube
#Created by: Adobe Photoshop Export Color Lookup Plugin
#Copyright: (C) 2017 Andrey Lapardin. vk.com-3dluts
TITLE "Andrey Lapardin. vk.com-3dluts"
#LUT size
LUT_3D_SIZE 32
#data domain
DOMAIN_MIN 0.0 0.0 0.0
DOMAIN_MAX 1.0 1.0 1.0
#LUT data points
0.004974 0.009521 0.009827
0.020294 0.011719 0.012482
0.043732 0.013580 0.013489
0.069336 0.014557 0.013824
0.093689 0.015991 0.013428
0.120941 0.015625 0.016602
0.147522 0.017151 0.017975
0.174988 0.019409 0.016998
0.205231 0.019562 0.016724
0.235809 0.018707 0.017120
0.265778 0.014740 0.020050
0.299774 0.010834 0.019562
0.335632 0.008484 0.019318
0.371948 0.007385 0.019257
0.406555 0.004150 0.017242
0.442261 0.002533 0.017273
0.477539 0.001556 0.016418
0.512024 0.001617 0.013947
0.549042 0.000580 0.014191
0.584442 0.000549 0.012146
0.620575 0.000000 0.010559
0.656555 0.000000 0.008484
0.696564 0.000000 0.003937
0.731079 0.000000 0.005981
0.765839 0.000000 0.001495
0.800934 0.000000 0.000458
0.834778 0.000000 0.000000
0.868103 0.000000 0.000000
0.898895 0.000000 0.000000
0.929718 0.000000 0.000000
0.958221 0.000000 0.000000
0.986359 0.000000 0.000000
0.007538 0.026703 0.011932
0.023254 0.025085 0.012085
0.048309 0.028442 0.013153
0.071960 0.031158 0.013641
0.096344 0.033661 0.013397
0.123505 0.034424 0.016235
0.148987 0.035034 0.017395
0.176697 0.037628 0.016235
0.204590 0.041016 0.016998
0.234528 0.041321 0.017487
0.265106 0.038879 0.019928
0.302185 0.036194 0.019318
0.337952 0.032318 0.019348
0.373627 0.027679 0.019562
0.408783 0.022614 0.018219
0.442841 0.018890 0.017944
0.477478 0.015564 0.016815
0.513672 0.010254 0.014069
0.548737 0.003784 0.013214
0.584778 0.003967 0.011322
0.621246 0.002289 0.010315
0.657410 0.000000 0.009186
0.696136 0.000000 0.005676
0.732727 0.000000 0.003204
0.765259 0.000000 0.001953
0.801300 0.000000 0.000946
0.834961 0.000000 0.000366
0.868530 0.000000 0.000092
0.899292 0.000580 0.000000
0.928558 0.000122 0.000000
0.960175 0.000000 0.000000
0.987213 0.000000 0.000000
0.009918 0.050781 0.012482
0.028351 0.049194 0.012726
0.046661 0.050781 0.012421
0.071838 0.055084 0.013153
0.098206 0.053955 0.013519
0.125275 0.055450 0.015778
0.150635 0.056885 0.016571
0.178741 0.058167 0.015503
0.206726 0.060760 0.016235
0.236877 0.061920 0.017334
0.267334 0.060516 0.019379
0.303833 0.058807 0.019287
0.339783 0.056793 0.019135
0.374725 0.049225 0.019592
0.409668 0.045166 0.018860
0.444031 0.042603 0.018585
0.479187 0.037354 0.017700
0.515350 0.029633 0.014801
0.549988 0.027924 0.013214
0.585449 0.023682 0.011017
0.621124 0.021667 0.009033
0.657684 0.016632 0.008606
0.696350 0.014862 0.006256
0.731903 0.012573 0.003143
0.766418 0.007507 0.001678
0.800110 0.005219 0.000977
0.833405 0.000000 0.000458
0.867126 0.000000 0.000122
0.899414 0.003510 0.000000
0.929321 0.008392 0.000000
0.960724 0.012451 0.000000
0.988068 0.017517 0.000000
0.009735 0.076385 0.011627
0.027130 0.074585 0.011841
0.049530 0.075500 0.011780
0.074127 0.077789 0.012024
0.100281 0.078156 0.012207
0.126221 0.079132 0.013763
0.151489 0.081757 0.014587
0.180084 0.083313 0.013916
0.208740 0.083008 0.016083
0.239471 0.084045 0.016418
0.270752 0.083954 0.016571
0.307465 0.080200 0.018738
0.342590 0.079254 0.018555
0.375854 0.075348 0.018127
0.410065 0.073700 0.018890
0.444366 0.072723 0.018768
0.479492 0.068726 0.018066
0.517029 0.058197 0.015564
0.551025 0.065277 0.012726
0.585785 0.060638 0.010284
0.620972 0.057709 0.007690
0.657593 0.052460 0.006073
0.698120 0.052246 0.007385
0.731598 0.052643 0.003021
0.766846 0.045410 0.000916
0.800659 0.046082 0.000214
0.833832 0.046509 0.000000
0.868073 0.043762 0.000000
0.899719 0.043396 0.000000
0.929932 0.042755 0.000000
0.960754 0.047028 0.000000
0.987488 0.054718 0.000000
0.009735 0.100922 0.011047
0.026306 0.100647 0.011230
0.052002 0.099670 0.011292
0.076416 0.100464 0.011322
0.098938 0.100830 0.011597
0.124084 0.102783 0.013367
0.154602 0.104797 0.014313
0.182373 0.106812 0.014008
0.209961 0.106445 0.015747
0.241577 0.107147 0.016663
0.273438 0.108734 0.015930
0.309845 0.105774 0.017303
0.345856 0.102386 0.018158
0.377777 0.101776 0.017181
0.411713 0.100037 0.017395
0.446045 0.100250 0.017792
0.480621 0.098694 0.017303
0.518890 0.086823 0.015076
0.552460 0.091888 0.013123
0.586945 0.091553 0.010223
0.621918 0.089691 0.008240
0.658417 0.083466 0.005981
0.698090 0.082367 0.006805
0.731812 0.085907 0.003326
0.766479 0.083466 0.001251
0.800385 0.079376 0.000244
0.833435 0.082977 0.000000
0.868073 0.083008 0.000000
0.899628 0.086823 0.000000
0.930481 0.087585 0.000000
0.960541 0.092896 0.000000
0.986603 0.102875 0.000000
0.007599 0.125671 0.008118
0.024200 0.126709 0.008026
0.048950 0.127441 0.008118
0.077606 0.125610 0.009003
0.101257 0.125549 0.010071
0.123749 0.125397 0.011139
0.154968 0.127289 0.012665
0.184326 0.127289 0.015015
0.213104 0.129059 0.014038
0.245087 0.130829 0.014679
0.277466 0.133362 0.016052
0.311462 0.132538 0.014679
0.347473 0.129303 0.015594
0.380402 0.127991 0.015900
0.413910 0.125610 0.013428
0.449402 0.125732 0.014160
0.484528 0.124359 0.013947
0.521118 0.118073 0.012268
0.553894 0.118530 0.012115
0.588867 0.118805 0.009216
0.623962 0.116608 0.007050
0.660156 0.113922 0.005798
0.697571 0.109039 0.005066
0.731293 0.114136 0.003204
0.765381 0.115143 0.000946
0.799591 0.114929 0.000000
0.831757 0.116547 0.000000
0.866791 0.114502 0.000000
0.898041 0.121490 0.000000
0.929840 0.125397 0.000000
0.961945 0.127960 0.000000
0.988312 0.133301 0.000000
0.006866 0.152283 0.007599
0.022369 0.153534 0.007324
0.049500 0.156097 0.007355
0.080383 0.154541 0.008209
0.106171 0.151642 0.009705
0.130371 0.152771 0.010651
0.152710 0.150604 0.012177
0.183655 0.149536 0.015961
0.214447 0.151581 0.014496
0.246796 0.154297 0.013000
0.279419 0.157745 0.014252
0.314331 0.158539 0.013367
0.349640 0.156128 0.013489
0.383667 0.155334 0.013824
0.418304 0.153687 0.010803
0.452881 0.152466 0.011505
0.488007 0.153534 0.009674
0.523682 0.149933 0.008270
0.556458 0.148163 0.009796
0.591461 0.146698 0.009094
0.625793 0.144318 0.007080
0.661255 0.144562 0.006622
0.697998 0.139984 0.005432
0.731110 0.140259 0.003326
0.763916 0.143890 0.001221
0.798248 0.144073 0.000000
0.829742 0.145996 0.000000
0.863373 0.144470 0.000000
0.895447 0.148926 0.000000
0.925934 0.153839 0.000000
0.959351 0.156281 0.000000
0.987335 0.161987 0.000000
0.000000 0.184540 0.004761
0.012512 0.186127 0.004395
0.045898 0.186584 0.004150
0.080353 0.184204 0.004700
0.106659 0.181152 0.005768
0.130585 0.180756 0.008057
0.157379 0.180786 0.009857
0.183838 0.175354 0.012604
0.215118 0.176544 0.011475
0.247467 0.179291 0.009918
0.281158 0.182526 0.008453
0.317169 0.185699 0.008911
0.352661 0.184387 0.009583
0.386444 0.181915 0.010071
0.424255 0.183350 0.007080
0.458099 0.181458 0.008484
0.492218 0.181915 0.006744
0.526245 0.182129 0.003052
0.559662 0.176849 0.006683
0.595367 0.176056 0.007324
0.629578 0.174103 0.006653
0.661804 0.173492 0.005554
0.698486 0.174957 0.005280
0.731628 0.170685 0.005035
0.763947 0.172150 0.003723
0.796906 0.172302 0.001770
0.828339 0.172607 0.000305
0.860077 0.173981 0.000000
0.891724 0.176300 0.000000
0.921814 0.181305 0.000000
0.954193 0.181702 0.000000
0.983459 0.186462 0.000000
0.000000 0.217407 0.000977
0.006439 0.219116 0.000977
0.038422 0.218384 0.001038
0.075714 0.216705 0.001709
0.103210 0.213257 0.002594
0.128662 0.211975 0.004211
0.159546 0.210999 0.007050
0.190521 0.209534 0.008850
0.215729 0.204285 0.008728
0.249054 0.206085 0.007019
0.282837 0.209259 0.004944
0.318115 0.211975 0.005859
0.354858 0.214813 0.005127
0.389069 0.212250 0.005768
0.426544 0.212372 0.004425
0.460266 0.212616 0.003815
0.494598 0.211151 0.004791
0.529144 0.212830 0.001648
0.564117 0.210602 0.003723
0.598053 0.207947 0.004639
0.633514 0.206268 0.004852
0.665344 0.204803 0.003387
0.700714 0.206085 0.003387
0.733276 0.204681 0.003632
0.764862 0.203125 0.003296
0.797028 0.203918 0.002838
0.828125 0.203033 0.002350
0.858948 0.202209 0.001404
0.889679 0.204041 0.000549
0.919220 0.208923 0.000122
0.950745 0.208344 0.000000
0.979065 0.212616 0.000000
0.000000 0.253510 0.000519
0.001953 0.252655 0.000488
0.017700 0.251953 0.000580
0.062317 0.250580 0.000824
0.101532 0.248016 0.000977
0.127533 0.245758 0.000000
0.157867 0.243774 0.001617
0.192169 0.242554 0.004272
0.224518 0.242035 0.002869
0.250885 0.236481 0.002075
0.284302 0.237976 0.000122
0.319550 0.240204 0.001526
0.355743 0.242615 0.001495
0.391602 0.245270 0.000122
0.428375 0.243469 0.001373
0.462524 0.243378 0.001038
0.496368 0.243469 0.001068
0.531342 0.242615 0.001221
0.568573 0.244171 0.001587
0.602173 0.241852 0.002106
0.635437 0.240112 0.002472
0.670349 0.238007 0.001892
0.704010 0.238098 0.002594
0.735962 0.236938 0.003082
0.767273 0.236694 0.003387
0.798553 0.237701 0.003418
0.829468 0.236328 0.003296
0.859589 0.234100 0.002502
0.889618 0.233337 0.001495
0.919006 0.236786 0.001312
0.950073 0.236786 0.001068
0.977356 0.240875 0.000610
0.000000 0.288422 0.000000
0.001038 0.288055 0.000000
0.005737 0.285065 0.000000
0.054749 0.285614 0.000000
0.094055 0.284027 0.000000
0.126678 0.282349 0.000000
0.157440 0.278748 0.000000
0.192535 0.276093 0.000916
0.223419 0.275604 0.001129
0.257965 0.275482 0.000671
0.285706 0.269836 0.000122
0.322266 0.272491 0.000641
0.358978 0.273468 0.001678
0.395203 0.275208 0.000946
0.429016 0.276611 0.001343
0.467194 0.274261 0.001862
0.500549 0.275635 0.002045
0.534485 0.276123 0.001984
0.569916 0.275848 0.002380
0.607056 0.273102 0.002899
0.639221 0.274048 0.003174
0.673645 0.273285 0.001801
0.708618 0.271576 0.001831
0.739044 0.271057 0.001007
0.768982 0.269501 0.001068
0.799316 0.269531 0.001007
0.830688 0.268646 0.001038
0.860229 0.267548 0.001129
0.890167 0.267029 0.000671
0.919830 0.269928 0.000671
0.949310 0.268982 0.000580
0.976898 0.272736 0.000183
0.000000 0.328491 0.000000
0.000000 0.328308 0.000000
0.003174 0.325073 0.000000
0.045593 0.324249 0.000000
0.087677 0.322937 0.000000
0.120789 0.320801 0.000000
0.154144 0.317780 0.000000
0.190033 0.313660 0.000000
0.227234 0.311493 0.000000
0.259308 0.311371 0.000000
0.294983 0.311554 0.000183
0.323273 0.305939 0.000305
0.360596 0.307343 0.000519
0.397797 0.308044 0.000854
0.431671 0.310883 0.000916
0.467316 0.310547 0.000641
0.504547 0.309509 0.000824
0.538269 0.311859 0.000702
0.573364 0.311615 0.000885
0.608826 0.309357 0.001129
0.642914 0.308990 0.000946
0.677734 0.309998 0.000702
0.713348 0.307983 0.000671
0.742004 0.308075 0.000671
0.773193 0.304016 0.000793
0.802399 0.303223 0.000153
0.833252 0.302887 0.000153
0.861786 0.302277 0.000916
0.890381 0.303375 0.000275
0.920502 0.306152 0.000305
0.949585 0.306030 0.000000
0.975647 0.307434 0.000641
0.000000 0.366241 0.000000
0.000000 0.366852 0.000000
0.001648 0.364410 0.000000
0.036163 0.363129 0.000000
0.082031 0.361969 0.000000
0.115448 0.359985 0.000000
0.149811 0.356323 0.000000
0.185577 0.353363 0.000000
0.226990 0.349792 0.000000
0.263977 0.348877 0.000031
0.297607 0.349213 0.000092
0.331635 0.349518 0.000153
0.360596 0.342194 0.000336
0.398254 0.343018 0.000458
0.434570 0.346191 0.000336
0.468811 0.347229 0.000122
0.505432 0.346649 0.000397
0.541992 0.346405 0.000061
0.578125 0.348175 0.000214
0.611847 0.346558 0.000397
0.645325 0.346069 0.000092
0.680359 0.346436 0.000153
0.717896 0.345154 0.000214
0.745636 0.346191 0.000275
0.776764 0.342957 0.000427
0.808228 0.338684 0.000092
0.837494 0.339630 0.000122
0.864655 0.339325 0.000641
0.891785 0.340546 0.000214
0.920441 0.341400 0.000244
0.950714 0.345123 0.000000
0.977234 0.347351 0.000519
0.000000 0.402588 0.000000
0.000000 0.402252 0.000000
0.000092 0.402283 0.000000
0.022034 0.400696 0.000000
0.071869 0.399597 0.000000
0.109863 0.397430 0.000000
0.145874 0.393066 0.000000
0.185852 0.389221 0.000000
0.221680 0.386292 0.000000
0.259918 0.385712 0.000122
0.297180 0.386475 0.000122
0.334778 0.387665 0.000183
0.369629 0.385315 0.000000
0.398224 0.377441 0.000275
0.435425 0.379608 0.000305
0.470337 0.380615 0.000153
0.507629 0.380219 0.000488
0.544098 0.379822 0.000092
0.578278 0.380493 0.000244
0.613251 0.380524 0.000397
0.648132 0.379944 0.000000
0.683624 0.381042 0.000000
0.718658 0.381195 0.000000
0.749176 0.377502 0.000000
0.779388 0.378906 0.000000
0.808350 0.378113 0.000000
0.836761 0.377869 0.000000
0.867798 0.376526 0.000000
0.895569 0.376373 0.000000
0.922882 0.376648 0.000000
0.951721 0.380920 0.000000
0.978485 0.384033 0.000000
0.000000 0.438873 0.000000
0.000000 0.438141 0.000000
0.000092 0.440338 0.000000
0.000305 0.440735 0.000000
0.065796 0.439240 0.000000
0.112213 0.435394 0.000000
0.147644 0.429810 0.000000
0.184937 0.425446 0.000000
0.222992 0.422852 0.000000
0.257202 0.421967 0.000000
0.296143 0.421661 0.000000
0.337952 0.421112 0.000000
0.374756 0.419373 0.000000
0.408417 0.419556 0.000000
0.435974 0.413391 0.000000
0.472107 0.412964 0.000000
0.507935 0.414154 0.000000
0.544495 0.413727 0.000000
0.579590 0.413849 0.000000
0.615234 0.414825 0.000000
0.649689 0.414490 0.000000
0.685669 0.415070 0.000000
0.720306 0.416504 0.000000
0.750458 0.416199 0.000000
0.781464 0.413696 0.000000
0.810608 0.414459 0.000000
0.839905 0.413818 0.000000
0.867889 0.412048 0.000000
0.897552 0.412781 0.000000
0.925049 0.412903 0.000000
0.953674 0.415619 0.000000
0.979950 0.418640 0.000000
0.000000 0.475739 0.000000
0.000000 0.474426 0.000000
0.000000 0.474915 0.000000
0.000000 0.475311 0.000000
0.056305 0.477631 0.000000
0.107361 0.474182 0.000000
0.145508 0.468536 0.000000
0.181671 0.463531 0.000000
0.220551 0.460693 0.000000
0.258331 0.457581 0.000000
0.295807 0.457764 0.000000
0.340790 0.456055 0.000000
0.376282 0.454773 0.000000
0.412354 0.453888 0.000000
0.446014 0.455078 0.000000
0.473419 0.446686 0.000000
0.508881 0.447418 0.000000
0.544281 0.448517 0.000000
0.580933 0.448151 0.000000
0.617096 0.449524 0.000000
0.651703 0.449127 0.000000
0.686066 0.448639 0.000000
0.721344 0.449982 0.000000
0.751648 0.451691 0.000000
0.783081 0.452118 0.000000
0.812225 0.451477 0.000000
0.842926 0.450653 0.000000
0.869965 0.447937 0.000000
0.899017 0.448456 0.000000
0.927399 0.450287 0.000000
0.955322 0.451355 0.000000
0.981293 0.451660 0.000000
0.000000 0.512787 0.000000
0.000000 0.512085 0.000000
0.000000 0.511810 0.000000
0.000000 0.512146 0.000000
0.062927 0.511780 0.000000
0.110168 0.513062 0.000000
0.148590 0.507690 0.000000
0.182037 0.501282 0.000000
0.217377 0.498230 0.000000
0.254883 0.495819 0.000000
0.297180 0.492462 0.000000
0.342926 0.492462 0.000000
0.377747 0.491730 0.000000
0.412964 0.490662 0.000000
0.447601 0.489990 0.000000
0.481384 0.489349 0.000000
0.508240 0.482391 0.000000
0.543671 0.484131 0.000000
0.581329 0.483856 0.000000
0.618134 0.484497 0.000000
0.651978 0.484436 0.000000
0.686096 0.484161 0.000000
0.722443 0.483063 0.000000
0.752869 0.485291 0.000000
0.784363 0.487030 0.000000
0.814667 0.488342 0.000000
0.844147 0.489380 0.000000
0.871643 0.486542 0.000000
0.901184 0.485382 0.000000
0.931519 0.486847 0.000000
0.957947 0.487823 0.000000
0.984894 0.485931 0.000000
0.000000 0.548431 0.000000
0.000000 0.549042 0.000000
0.000000 0.549316 0.000000
0.000000 0.549652 0.000000
0.065521 0.548584 0.000000
0.120178 0.547943 0.000000
0.156006 0.546051 0.000000
0.185669 0.540009 0.000000
0.217712 0.533478 0.000000
0.251312 0.531555 0.000000
0.291840 0.530304 0.000000
0.336761 0.527466 0.000000
0.378723 0.527679 0.000000
0.415222 0.526672 0.000000
0.449524 0.525909 0.000000
0.485840 0.525726 0.000000
0.519531 0.525635 0.000000
0.545715 0.518036 0.000000
0.580414 0.518341 0.000000
0.616730 0.518768 0.000000
0.652008 0.519775 0.000000
0.687317 0.520386 0.000000
0.723572 0.520142 0.000000
0.755096 0.520630 0.000000
0.785095 0.521912 0.000000
0.814606 0.523163 0.000000
0.843964 0.524231 0.000000
0.872406 0.525818 0.000000
0.902466 0.524109 0.000000
0.933807 0.522888 0.000000
0.961853 0.523224 0.000000
0.987183 0.523712 0.000000
0.000000 0.583954 0.000000
0.000000 0.584595 0.000000
0.000000 0.584961 0.000000
0.000000 0.585358 0.000000
0.057678 0.586304 0.000000
0.117401 0.585358 0.000000
0.161285 0.583160 0.000000
0.193420 0.577576 0.000000
0.225677 0.571930 0.000000
0.255463 0.567932 0.000000
0.292877 0.565826 0.000000
0.334412 0.562653 0.000000
0.377747 0.563263 0.000000
0.416107 0.563263 0.000000
0.451691 0.562744 0.000000
0.487885 0.562378 0.000000
0.521149 0.561096 0.000000
0.556854 0.559418 0.000000
0.581970 0.551666 0.000000
0.617340 0.553131 0.000000
0.649567 0.553986 0.000000
0.687286 0.555145 0.000000
0.724182 0.555084 0.000000
0.757172 0.554932 0.000000
0.786346 0.557678 0.000000
0.815857 0.558258 0.000000
0.846039 0.559204 0.000000
0.876038 0.561554 0.000000
0.903564 0.562836 0.000000
0.933899 0.561127 0.000000
0.962952 0.559021 0.000000
0.988647 0.561096 0.000000
0.000000 0.619598 0.000000
0.000000 0.620300 0.000000
0.000000 0.620728 0.000000
0.000000 0.621246 0.000000
0.047668 0.621796 0.000000
0.116852 0.620483 0.000000
0.166107 0.619751 0.000000
0.197235 0.615204 0.000000
0.225494 0.609009 0.000000
0.255859 0.604248 0.000000
0.292908 0.602264 0.000000
0.334625 0.600098 0.000000
0.377625 0.598480 0.000000
0.416168 0.598907 0.000000
0.453003 0.598572 0.000000
0.488586 0.597809 0.000000
0.524628 0.595764 0.000000
0.559753 0.595062 0.000000
0.594666 0.593719 0.000000
0.619446 0.586700 0.000000
0.651001 0.588013 0.000000
0.685699 0.589172 0.000000
0.723083 0.589874 0.000000
0.757050 0.589447 0.000000
0.785828 0.591156 0.000000
0.814911 0.593414 0.000000
0.845306 0.594421 0.000000
0.875244 0.597290 0.000000
0.904297 0.598389 0.000000
0.932648 0.598877 0.000000
0.961700 0.597198 0.000000
0.988373 0.597626 0.000000
0.000000 0.655426 0.000000
0.000000 0.656128 0.000000
0.000000 0.656586 0.000000
0.000000 0.656830 0.000000
0.047302 0.656250 0.000000
0.114716 0.656525 0.000000
0.170746 0.656158 0.000000
0.204742 0.653900 0.000000
0.232239 0.646179 0.000000
0.258148 0.640137 0.000000
0.291779 0.637329 0.000000
0.336823 0.637238 0.000000
0.378387 0.634735 0.000000
0.417664 0.633545 0.000000
0.453705 0.633362 0.000000
0.487000 0.632843 0.000000
0.526611 0.630676 0.000000
0.561615 0.630157 0.000000
0.596039 0.629425 0.000000
0.627838 0.628357 0.000000
0.652527 0.621338 0.000000
0.687531 0.622772 0.000000
0.722961 0.624115 0.000000
0.756134 0.623749 0.000000
0.786133 0.625244 0.000000
0.815613 0.627045 0.000000
0.845520 0.629425 0.000000
0.875671 0.632813 0.000000
0.903107 0.634766 0.000000
0.931519 0.635864 0.000000
0.959839 0.636078 0.000000
0.987000 0.635651 0.000000
0.000000 0.691193 0.000000
0.000000 0.691956 0.000000
0.000000 0.692535 0.000000
0.000000 0.693024 0.000000
0.063538 0.692841 0.000000
0.128204 0.691162 0.000000
0.181244 0.691772 0.000000
0.214539 0.691864 0.000000
0.237152 0.686340 0.000000
0.264191 0.678284 0.000000
0.298096 0.673004 0.000000
0.336365 0.672211 0.000000
0.377441 0.670227 0.000000
0.418243 0.668823 0.000000
0.456177 0.668060 0.000000
0.491425 0.667511 0.000000
0.528839 0.667023 0.000000
0.562805 0.666321 0.000000
0.596924 0.665314 0.000000
0.629578 0.663818 0.000000
0.661987 0.662140 0.000000
0.687775 0.654938 0.000000
0.723206 0.655731 0.000000
0.755768 0.657257 0.000000
0.786194 0.659180 0.000000
0.815338 0.661621 0.000000
0.846863 0.663818 0.000000
0.876465 0.667206 0.000000
0.903168 0.670044 0.000000
0.930725 0.672943 0.000000
0.958740 0.674530 0.000000
0.985748 0.673950 0.000000
0.000000 0.726440 0.000000
0.000000 0.727173 0.000000
0.000519 0.727661 0.000000
0.004333 0.728027 0.000000
0.080688 0.728271 0.000000
0.146973 0.727234 0.000000
0.200043 0.725830 0.000000
0.230682 0.726715 0.000000
0.251709 0.723663 0.000000
0.271515 0.719269 0.000000
0.302399 0.713898 0.000000
0.342346 0.709473 0.000000
0.378387 0.707184 0.000000
0.419434 0.706146 0.000000
0.458313 0.706024 0.000000
0.494690 0.706024 0.000000
0.528900 0.704803 0.000000
0.565948 0.703064 0.000000
0.601044 0.702271 0.000000
0.633423 0.701477 0.000000
0.666779 0.700592 0.000000
0.698303 0.699921 0.000000
0.724091 0.691986 0.000000
0.755066 0.692200 0.000000
0.787537 0.693817 0.000000
0.816132 0.697510 0.000000
0.845428 0.701233 0.000000
0.875763 0.702179 0.000000
0.902954 0.704926 0.000000
0.930481 0.708099 0.000000
0.959412 0.710846 0.000000
0.985504 0.710297 0.000000
0.000000 0.761627 0.000000
0.000000 0.760864 0.000000
0.000824 0.761322 0.000000
0.004486 0.760956 0.000000
0.087799 0.760895 0.000000
0.151123 0.761169 0.000000
0.201874 0.760681 0.000000
0.243195 0.759949 0.000000
0.266144 0.759460 0.000000
0.284210 0.753510 0.000000
0.311462 0.747559 0.000000
0.347107 0.743256 0.000000
0.384003 0.742126 0.000000
0.420410 0.739441 0.000000
0.458801 0.739105 0.000000
0.495758 0.739197 0.000000
0.533020 0.738129 0.000000
0.568329 0.739044 0.000000
0.604004 0.737762 0.000000
0.638000 0.735565 0.000000
0.671143 0.733459 0.000000
0.703094 0.732086 0.000000
0.732178 0.730713 0.000000
0.754486 0.724792 0.000000
0.784851 0.726685 0.000000
0.816467 0.728333 0.000000
0.844971 0.732239 0.000000
0.875824 0.733490 0.000000
0.903412 0.736450 0.000000
0.930878 0.739746 0.000000
0.958984 0.742401 0.000000
0.984894 0.741974 0.000000
0.000000 0.794189 0.000000
0.000000 0.794495 0.000000
0.001190 0.794922 0.000000
0.026001 0.793396 0.000000
0.100677 0.793304 0.000000
0.168121 0.793549 0.000000
0.215759 0.793457 0.000000
0.253021 0.792908 0.000000
0.279541 0.792236 0.000000
0.298828 0.786652 0.000000
0.324219 0.780487 0.000000
0.354645 0.776001 0.000000
0.387482 0.774506 0.000000
0.424683 0.774200 0.000000
0.463135 0.771484 0.000000
0.500580 0.771484 0.000000
0.538483 0.770630 0.000000
0.573151 0.770477 0.000000
0.608215 0.770844 0.000000
0.643341 0.768707 0.000000
0.676849 0.765686 0.000000
0.708954 0.763977 0.000000
0.735840 0.762756 0.000000
0.763580 0.761108 0.000000
0.787109 0.757599 0.000000
0.814758 0.760162 0.000000
0.843567 0.762909 0.000000
0.875488 0.763550 0.000000
0.903473 0.767212 0.000000
0.930267 0.769562 0.000000
0.958344 0.771942 0.000000
0.986969 0.772949 0.000000
0.000000 0.824646 0.000000
0.000000 0.825317 0.000000
0.003387 0.825836 0.000000
0.048401 0.825348 0.000000
0.118958 0.825256 0.000000
0.181824 0.825500 0.000000
0.231140 0.823883 0.000000
0.266693 0.823883 0.000000
0.292419 0.824402 0.000000
0.314819 0.821350 0.000000
0.336212 0.814178 0.000000
0.364807 0.808716 0.000000
0.393738 0.806152 0.000000
0.428925 0.805511 0.000000
0.465271 0.805542 0.000000
0.506317 0.803101 0.000000
0.542725 0.802460 0.000000
0.577637 0.800812 0.000000
0.613281 0.801178 0.000000
0.647430 0.800964 0.000000
0.683319 0.797394 0.000000
0.715668 0.795441 0.000000
0.741302 0.794556 0.000000
0.766388 0.793091 0.000000
0.791931 0.792297 0.000000
0.815002 0.790497 0.000000
0.843536 0.792908 0.000000
0.874573 0.792755 0.000000
0.902924 0.795929 0.000000
0.929962 0.799652 0.000000
0.957275 0.801422 0.000000
0.985748 0.802734 0.000000
0.009552 0.854279 0.000000
0.020416 0.854889 0.000000
0.028625 0.855377 0.000000
0.090271 0.855835 0.000000
0.143677 0.855927 0.000000
0.198456 0.855286 0.000000
0.245941 0.854462 0.000000
0.282654 0.853119 0.000000
0.308929 0.853912 0.000000
0.332947 0.853394 0.000000
0.351776 0.847534 0.000000
0.373932 0.842194 0.000000
0.404083 0.837738 0.000000
0.438324 0.836060 0.000000
0.472046 0.835663 0.000000
0.505951 0.835388 0.000000
0.544678 0.833893 0.000000
0.580811 0.831421 0.000000
0.617706 0.831055 0.000000
0.651581 0.831635 0.000000
0.685852 0.830048 0.000000
0.719910 0.825897 0.000000
0.744598 0.825439 0.000000
0.768402 0.824127 0.000000
0.793549 0.822083 0.000000
0.819641 0.821686 0.000000
0.845490 0.820831 0.000000
0.874664 0.822449 0.000000
0.903015 0.824677 0.000000
0.930603 0.827576 0.000000
0.956390 0.830109 0.000000
0.983704 0.831146 0.000000
0.023499 0.884369 0.000000
0.050140 0.883911 0.000000
0.064026 0.884338 0.000000
0.141510 0.884705 0.000000
0.177429 0.884796 0.000000
0.219177 0.883423 0.000000
0.262726 0.882660 0.000000
0.298920 0.882355 0.000000
0.327057 0.882172 0.000000
0.352814 0.881805 0.000000
0.372772 0.877808 0.000000
0.391724 0.871765 0.000000
0.417023 0.867615 0.000000
0.445343 0.867523 0.000000
0.477966 0.866425 0.000000
