tools/luts_backup/LAPARDIN-WEDLUTS-15.cube
#Created by: Adobe Photoshop Export Color Lookup Plugin
#Copyright: (C) 2017 Andrey Lapardin. vk.com-3dluts
TITLE "Andrey Lapardin. vk.com-3dluts"
#LUT size
LUT_3D_SIZE 5
#data domain
#LUT data points
DOMAIN_MIN 0.000000 0.000000 0.000000
DOMAIN_MAX 0.903226 0.903226 0.903226
0.047546 0.050873 0.051636
0.174011 0.056366 0.058289
0.432159 0.053986 0.055084
0.694214 0.052612 0.044861
0.886749 0.040985 0.059753
0.040619 0.200531 0.048157
0.166901 0.196411 0.056763
0.455383 0.231903 0.052094
0.690979 0.218170 0.066223
0.870148 0.210846 0.101715
0.039520 0.472321 0.051178
0.148438 0.459778 0.092041
0.391388 0.454926 0.123596
0.684570 0.465637 0.101837
0.854401 0.422760 0.147308
0.097534 0.667419 0.190277
0.282196 0.669037 0.205414
0.426788 0.653778 0.231140
0.598785 0.647522 0.256836
0.805908 0.678558 0.261292
0.275452 0.831177 0.304779
0.415985 0.832977 0.309967
0.515717 0.823456 0.330231
0.663544 0.825806 0.340546
0.782715 0.825684 0.358978
0.044495 0.048096 0.178009
0.172913 0.049591 0.191833
0.421295 0.047485 0.242218
0.675690 0.048737 0.264252
0.869049 0.051056 0.257996
0.046112 0.193420 0.182526
0.222900 0.227081 0.216919
0.480927 0.220795 0.224609
0.700439 0.240479 0.250763
0.830933 0.297943 0.311340
0.049957 0.449615 0.215668
0.230865 0.476715 0.253387
0.442169 0.482605 0.274445
0.699799 0.476990 0.267944
0.837799 0.462555 0.330566
0.139191 0.654846 0.303284
0.327667 0.670166 0.329437
0.486389 0.672913 0.364319
0.636841 0.660980 0.384399
0.812347 0.686859 0.395569
0.276123 0.819183 0.393158
0.438965 0.810211 0.420502
0.563385 0.817444 0.433777
0.673584 0.820526 0.449402
0.796814 0.826630 0.464142
0.038940 0.040436 0.409668
0.179596 0.039734 0.447083
0.383942 0.042480 0.470306
0.672455 0.041107 0.531677
0.850525 0.090851 0.497864
0.044159 0.190582 0.415558
0.193634 0.199127 0.462097
0.441345 0.209320 0.477783
0.668152 0.283569 0.507233
0.806732 0.348969 0.515869
0.055145 0.440125 0.410797
0.251038 0.474976 0.458466
0.494537 0.491425 0.479553
0.680695 0.489685 0.488861
0.829376 0.510345 0.520996
0.224091 0.641876 0.444824
0.364227 0.657013 0.470642
0.524628 0.669220 0.513275
0.658966 0.670593 0.519897
0.820099 0.693268 0.529785
0.295807 0.807495 0.490540
0.426575 0.803497 0.509094
0.595215 0.813538 0.547607
0.696777 0.825897 0.575531
0.812653 0.829712 0.583527
0.033173 0.035126 0.635437
0.222076 0.035126 0.651398
0.349854 0.045624 0.669586
0.581360 0.045807 0.675323
0.840057 0.045197 0.725464
0.032623 0.178772 0.642487
0.199951 0.178467 0.660004
0.369354 0.211395 0.667816
0.593353 0.239838 0.671509
0.799622 0.313904 0.694855
0.052582 0.407623 0.628998
0.248993 0.439667 0.654510
0.468109 0.480896 0.658173
0.659851 0.489929 0.660248
0.810455 0.535645 0.666809
0.201447 0.632935 0.613129
0.354523 0.650726 0.635559
0.522308 0.665619 0.656464
0.684998 0.676331 0.664612
0.833160 0.683197 0.678131
0.302399 0.803406 0.630920
0.434875 0.807678 0.642883
0.576477 0.813568 0.659149
0.723267 0.836670 0.691559
0.831085 0.841156 0.710327
0.031647 0.035126 0.811218
0.225494 0.035126 0.811829
0.343750 0.045044 0.831909
0.546051 0.053558 0.823364
0.766388 0.055359 0.820953
0.031647 0.166077 0.811951
0.232971 0.211090 0.785980
0.369263 0.204041 0.818420
0.548645 0.235809 0.821136
0.767029 0.280731 0.813568
0.041443 0.394592 0.807526
0.257538 0.445953 0.785706
0.449890 0.477142 0.804535
0.612701 0.488159 0.799957
0.784058 0.513306 0.803528
0.183319 0.618195 0.788208
0.346069 0.633606 0.783203
0.508484 0.663757 0.802612
0.675659 0.680725 0.808075
0.827271 0.687561 0.812469
0.274261 0.803345 0.786774
0.406921 0.808411 0.790314
0.552307 0.819153 0.801086
0.705963 0.835571 0.822968
0.861938 0.860321 0.843811
