tools/luts_backup/LAPARDIN-WEDLUTS-19.cube
#Created by: Adobe Photoshop Export Color Lookup Plugin
#Copyright: (C) 2017 Andrey Lapardin. vk.com-3dluts
TITLE "Andrey Lapardin. vk.com-3dluts"
#LUT size
LUT_3D_SIZE 8
#data domain
#LUT data points
DOMAIN_MIN 0.000000 0.000000 0.000000
DOMAIN_MAX 0.903226 0.903226 0.903226
0.023224 0.044861 0.056671
0.054871 0.046295 0.058167
0.135773 0.043335 0.059692
0.286652 0.000458 0.061066
0.493256 0.000000 0.061859
0.686462 0.000000 0.067841
0.842834 0.000000 0.082336
0.975616 0.000000 0.112793
0.020660 0.077515 0.062592
0.058075 0.083801 0.061310
0.162292 0.082367 0.060608
0.317169 0.059235 0.061432
0.518280 0.000000 0.063202
0.698822 0.000000 0.069763
0.849091 0.000000 0.084259
0.975983 0.173401 0.118042
0.000000 0.182495 0.075531
0.011353 0.186157 0.079102
0.163910 0.205566 0.066650
0.357086 0.212555 0.055725
0.565826 0.204803 0.055298
0.720337 0.222076 0.065826
0.859619 0.269135 0.086578
0.975708 0.339691 0.135834
0.000000 0.369354 0.107269
0.000000 0.371002 0.115082
0.126434 0.382111 0.110107
0.351410 0.399994 0.076508
0.559418 0.413605 0.040649
0.728577 0.434570 0.061340
0.871490 0.455841 0.115692
0.975739 0.488892 0.191467
0.000000 0.551849 0.187469
0.000031 0.551758 0.195251
0.199066 0.552216 0.210938
0.380096 0.558502 0.191040
0.546967 0.565063 0.158173
0.705139 0.574158 0.130341
0.854553 0.600708 0.190826
0.968292 0.632355 0.283295
0.208649 0.697784 0.326355
0.254578 0.697693 0.332306
0.338531 0.697540 0.347107
0.440430 0.700073 0.348541
0.560425 0.704651 0.329102
0.694672 0.707977 0.301056
0.824127 0.712463 0.274933
0.937958 0.740875 0.361359
0.418182 0.816650 0.475555
0.438110 0.816437 0.479523
0.484100 0.815826 0.490112
0.551117 0.815125 0.507324
0.629883 0.816681 0.495148
0.720947 0.818237 0.478546
0.817047 0.819885 0.456390
0.916870 0.824127 0.434448
0.617218 0.904846 0.657288
0.626465 0.904724 0.660278
0.648773 0.904327 0.668121
0.683746 0.903900 0.681366
0.726257 0.904572 0.686584
0.778473 0.906372 0.678741
0.841309 0.908386 0.668335
0.909607 0.911011 0.654968
0.021423 0.046631 0.077728
0.054443 0.046906 0.082825
0.141632 0.044464 0.089417
0.295197 0.011444 0.099792
0.499084 0.000000 0.111359
0.687439 0.000000 0.125885
0.841614 0.000000 0.145538
0.972900 0.082672 0.177307
0.021729 0.082611 0.089966
0.065765 0.086823 0.093811
0.165039 0.089386 0.099152
0.321838 0.075043 0.106537
0.521454 0.000000 0.116577
0.698273 0.000000 0.130371
0.847412 0.043274 0.149414
0.973206 0.200378 0.183319
0.000000 0.193878 0.121216
0.050354 0.196167 0.121185
0.178131 0.210632 0.116730
0.368896 0.217743 0.113068
0.565277 0.215546 0.121887
0.718475 0.236023 0.136353
0.857269 0.282898 0.157990
0.972961 0.350037 0.202057
0.000000 0.378601 0.154022
0.000000 0.380005 0.160675
0.161835 0.387146 0.165924
0.364563 0.404266 0.141907
0.566284 0.418640 0.126801
0.733337 0.439026 0.147888
0.869141 0.459412 0.189331
0.972900 0.492981 0.251648
0.000000 0.555786 0.232452
0.028351 0.555664 0.239349
0.236176 0.555237 0.257263
0.393646 0.560883 0.244385
0.552032 0.567383 0.216064
0.708801 0.577393 0.197693
0.855804 0.603668 0.251953
0.967865 0.635345 0.332062
0.238892 0.699921 0.357880
0.278809 0.699799 0.363464
0.355652 0.699707 0.376373
0.450684 0.701538 0.383026
0.565308 0.706055 0.364807
0.696655 0.709259 0.339020
0.824738 0.714386 0.318329
0.937744 0.742554 0.394379
0.431702 0.817261 0.494263
0.451141 0.816986 0.498260
0.495453 0.816376 0.508484
0.560486 0.815582 0.526764
0.635437 0.817017 0.517456
0.723114 0.818665 0.500214
0.817383 0.820313 0.477631
0.916443 0.824310 0.455200
0.621429 0.905029 0.666870
0.630524 0.904877 0.669830
0.652496 0.904541 0.677124
0.687012 0.904114 0.689728
0.729095 0.904602 0.697113
0.780029 0.906433 0.689240
0.841675 0.908478 0.678925
0.909241 0.911102 0.665558
0.000000 0.049774 0.145630
0.032562 0.049713 0.154297
0.143677 0.042664 0.173981
0.306641 0.004700 0.189667
0.508789 0.000000 0.206970
0.688110 0.000000 0.228607
0.837006 0.000000 0.257141
0.966370 0.151001 0.293060
0.007294 0.091125 0.164246
0.052277 0.091461 0.172882
0.167877 0.092163 0.189362
0.330658 0.082397 0.201874
0.526184 0.040314 0.217682
0.695099 0.045471 0.238129
0.842010 0.124054 0.263336
0.966431 0.235565 0.300354
0.000000 0.203156 0.199432
0.063019 0.208649 0.203461
0.203522 0.220764 0.213440
0.376678 0.227173 0.222351
0.561371 0.233459 0.235291
0.712372 0.258301 0.253387
0.850861 0.303680 0.279846
0.965973 0.366028 0.321136
0.000000 0.394897 0.250854
0.086700 0.396942 0.257996
0.224762 0.400879 0.263306
0.389832 0.413513 0.254822
0.581512 0.428345 0.255463
0.734589 0.444916 0.280243
0.862183 0.466187 0.314484
0.965607 0.500916 0.362213
0.137268 0.563721 0.332977
0.174866 0.564453 0.327698
0.298492 0.563751 0.341705
0.421539 0.566315 0.347839
0.562195 0.572998 0.324524
0.716858 0.584869 0.319458
0.858612 0.610443 0.363464
0.962097 0.640137 0.418549
0.291931 0.705170 0.420563
0.324463 0.704987 0.424438
0.390991 0.704865 0.434570
0.476379 0.705078 0.451477
0.578064 0.709473 0.435577
0.702087 0.712280 0.412994
0.827087 0.719177 0.401001
0.937683 0.746765 0.463013
0.460663 0.818726 0.537659
0.478577 0.818420 0.541595
0.519592 0.817810 0.550995
0.579865 0.817047 0.567780
0.647797 0.817963 0.568970
0.727814 0.819824 0.551422
0.818054 0.821472 0.527985
0.915466 0.825500 0.506439
0.630310 0.905609 0.688324
0.639191 0.905426 0.690887
0.660492 0.905121 0.697449
0.694153 0.904694 0.708649
0.736023 0.904694 0.721161
0.783630 0.906647 0.713287
0.842590 0.908752 0.702728
0.908539 0.911407 0.689087
0.000000 0.053497 0.270691
0.000000 0.053192 0.280609
0.115204 0.044922 0.303986
0.312775 0.000000 0.334778
0.519562 0.000000 0.355408
0.691071 0.000000 0.377197
0.837311 0.000000 0.405212
0.959686 0.183777 0.436493
0.000000 0.096863 0.292419
0.000000 0.098175 0.299957
0.146790 0.098450 0.319977
0.337677 0.079590 0.348114
0.535370 0.036469 0.366364
0.696716 0.059845 0.386536
0.839050 0.151215 0.412537
0.957642 0.262207 0.441589
0.000000 0.214325 0.317139
0.052094 0.221161 0.324768
0.195435 0.226959 0.346924
0.381866 0.234253 0.373932
0.560547 0.247162 0.388794
0.704376 0.279724 0.405853
0.839935 0.326599 0.427948
0.953094 0.385223 0.454651
0.000000 0.400543 0.377106
0.025787 0.404907 0.380981
0.249268 0.414276 0.390106
0.423584 0.428253 0.405029
0.580444 0.439117 0.416321
0.718445 0.454956 0.431396
0.848755 0.476410 0.451599
0.953888 0.511017 0.479828
0.172791 0.575470 0.438507
0.247955 0.575409 0.442200
0.367279 0.575684 0.452515
0.465637 0.577087 0.460388
0.578430 0.582733 0.450714
0.730896 0.597290 0.456238
0.860687 0.619507 0.486145
0.951324 0.646149 0.519135
0.386322 0.710876 0.518066
0.415466 0.710938 0.522430
0.442047 0.712708 0.515472
0.514709 0.712952 0.525848
0.601593 0.714996 0.529297
0.711609 0.717590 0.507202
0.831848 0.727509 0.505524
0.937134 0.754303 0.563873
0.504974 0.820862 0.607941
0.511597 0.821289 0.605347
0.547516 0.820801 0.612061
0.603271 0.820038 0.625885
0.665802 0.819946 0.642120
0.734192 0.822113 0.625183
0.818726 0.823517 0.601563
0.914337 0.829742 0.590149
0.639709 0.907013 0.718292
0.648407 0.906860 0.720490
0.669464 0.906494 0.726013
0.702667 0.906006 0.735504
0.744781 0.905701 0.749237
0.789398 0.907166 0.748047
0.844147 0.909393 0.737122
0.907898 0.911987 0.723022
0.000000 0.058899 0.433716
0.000000 0.058044 0.441132
0.000763 0.048798 0.458862
0.298248 0.000000 0.486115
0.526306 0.000000 0.512268
0.692474 0.000000 0.527466
0.837677 0.000031 0.547058
0.955872 0.204224 0.568207
0.000000 0.106812 0.449097
0.000000 0.107849 0.455353
0.088928 0.106567 0.470215
0.326233 0.088867 0.494537
0.541199 0.037292 0.518921
0.697754 0.079529 0.532745
0.838837 0.168732 0.551056
0.953583 0.276520 0.571747
0.000000 0.237488 0.468475
0.000000 0.235413 0.475189
0.176971 0.236145 0.488159
0.374634 0.243164 0.509125
0.563690 0.254608 0.532135
0.705109 0.289001 0.544250
0.838898 0.335999 0.560150
0.948364 0.394073 0.580658
0.000000 0.401947 0.492249
0.113892 0.406586 0.494720
0.274506 0.417999 0.500946
0.422699 0.430115 0.525146
0.578888 0.446472 0.549255
0.713226 0.463745 0.561310
0.838837 0.485931 0.576630
0.941040 0.520050 0.598083
0.195160 0.572235 0.542664
0.256042 0.573822 0.544922
0.361664 0.577698 0.550720
0.480743 0.585480 0.560913
0.603302 0.597656 0.576172
0.730652 0.606903 0.587433
0.841949 0.623505 0.604218
0.935913 0.649109 0.628296
0.353302 0.722534 0.602234
0.385620 0.722534 0.604584
0.455750 0.722504 0.610687
0.550995 0.722443 0.622467
0.633575 0.723572 0.632324
0.722687 0.725555 0.619843
0.838409 0.739685 0.632355
0.937286 0.762726 0.675903
0.533051 0.824677 0.685516
0.549835 0.824432 0.687500
0.588684 0.823975 0.692963
0.630676 0.824524 0.694183
0.683624 0.824860 0.701874
0.743958 0.826019 0.703339
0.820770 0.826935 0.682281
0.914703 0.836060 0.683228
0.672668 0.907288 0.770935
0.676239 0.907532 0.769714
0.685059 0.908203 0.766876
0.708405 0.908600 0.767975
0.751892 0.908020 0.780060
0.797668 0.908264 0.791962
0.846497 0.910553 0.780151
0.907654 0.912964 0.764740
0.000000 0.067230 0.580902
0.000000 0.064911 0.585846
0.000000 0.052368 0.597992
0.306366 0.000000 0.618835
0.532654 0.000000 0.648285
0.699951 0.000000 0.672089
0.836670 0.061218 0.686737
0.949005 0.230255 0.706055
0.000000 0.119995 0.589844
0.000000 0.120117 0.594238
0.052856 0.117249 0.605560
0.334900 0.101227 0.625214
0.543945 0.065125 0.653412
0.704224 0.099854 0.676300
0.836975 0.191528 0.690033
0.946472 0.295502 0.708466
0.000000 0.241486 0.604614
0.000000 0.243744 0.608765
0.179138 0.248688 0.619110
0.382263 0.254669 0.637054
0.559998 0.268066 0.662994
0.709167 0.300690 0.685120
0.835510 0.348114 0.697388
0.941162 0.405304 0.714325
0.051422 0.423981 0.613739
0.160492 0.427765 0.618988
0.296844 0.436005 0.632416
0.422363 0.434631 0.650757
0.569641 0.450684 0.675079
0.714661 0.469727 0.697662
0.834106 0.492584 0.709045
0.933685 0.527954 0.724457
0.243225 0.570038 0.649902
0.287720 0.571533 0.651733
0.373413 0.575348 0.655762
0.478058 0.582520 0.662567
0.591919 0.594269 0.689362
0.725647 0.612000 0.713806
0.831116 0.628510 0.723602
0.924347 0.651581 0.736328
0.356293 0.715942 0.702087
0.385040 0.716736 0.703369
0.448181 0.718903 0.706573
0.536682 0.722565 0.712280
0.638672 0.728607 0.721100
0.739746 0.738739 0.734192
0.835632 0.746918 0.743561
0.923248 0.759888 0.756958
0.506317 0.833344 0.751648
0.524323 0.833160 0.752563
0.566376 0.832642 0.754944
0.628326 0.832123 0.759613
0.701385 0.831848 0.767822
0.763489 0.832855 0.775391
0.827972 0.832825 0.763275
0.919098 0.846100 0.776306
0.658264 0.912140 0.812714
0.667297 0.911987 0.813751
0.689728 0.911591 0.816498
0.726135 0.910950 0.821594
0.766022 0.910919 0.825653
0.806610 0.911377 0.832214
0.851318 0.912659 0.833466
0.907898 0.914581 0.816742
0.000000 0.077728 0.744110
0.000000 0.073639 0.746979
0.000000 0.056091 0.754181
0.348022 0.000000 0.766113
0.545593 0.000000 0.782166
0.709442 0.000000 0.801544
0.845734 0.125214 0.813080
0.944824 0.260834 0.818695
0.000000 0.139160 0.748199
0.000000 0.138367 0.750916
0.109802 0.133087 0.757599
0.370544 0.119385 0.768707
0.553497 0.113953 0.784058
0.711609 0.146179 0.802704
0.844635 0.225189 0.813995
0.942352 0.318390 0.819519
0.000000 0.263519 0.754791
0.000000 0.264862 0.757111
0.211151 0.268036 0.763062
0.403900 0.274658 0.773163
0.562958 0.291718 0.787140
0.713165 0.321899 0.804596
0.841125 0.366699 0.815857
0.937317 0.419250 0.821930
0.131714 0.450562 0.757629
0.194000 0.448608 0.760406
0.278839 0.435181 0.767334
0.428070 0.444366 0.776642
0.569855 0.458893 0.789948
0.715424 0.477570 0.807007
0.837585 0.503235 0.819672
0.929688 0.538025 0.826233
0.273438 0.582092 0.758698
0.308411 0.583160 0.760468
0.381195 0.586456 0.766754
0.479553 0.591644 0.777771
0.588470 0.593811 0.792755
0.720367 0.612579 0.810089
0.831940 0.635468 0.825226
0.920288 0.658051 0.832733
0.378967 0.714844 0.787476
0.402954 0.715240 0.787872
0.456848 0.716156 0.788971
0.535797 0.717773 0.790894
0.628540 0.721008 0.793854
0.728149 0.732422 0.814575
0.831879 0.749847 0.835205
0.915344 0.761505 0.843506
0.510010 0.826080 0.822693
0.525482 0.826263 0.823273
0.562408 0.826752 0.824890
0.618439 0.828094 0.827881
0.687256 0.830750 0.832703
0.763428 0.835693 0.840118
0.842743 0.844635 0.851776
0.916779 0.852112 0.860382
0.634979 0.918427 0.865509
0.644836 0.918274 0.866058
0.668671 0.917908 0.867340
0.707489 0.917328 0.869659
0.758118 0.916656 0.873474
0.815247 0.916229 0.879456
0.863068 0.917053 0.885376
0.910828 0.917542 0.875305
0.000000 0.111603 0.880493
0.000000 0.107635 0.881805
0.251984 0.096283 0.885162
0.433014 0.081970 0.890839
0.584961 0.089996 0.898712
0.729309 0.134949 0.908356
0.858551 0.213776 0.918976
0.953400 0.316711 0.922729
0.000000 0.178497 0.881470
0.049164 0.177246 0.882721
0.278748 0.174286 0.885925
0.442719 0.175293 0.891327
0.587921 0.190857 0.898926
0.729462 0.225494 0.908264
0.856140 0.283905 0.918549
0.950867 0.362091 0.922485
0.019470 0.304688 0.882416
0.166809 0.305756 0.883606
0.312775 0.309601 0.886505
0.454071 0.318695 0.891541
0.590515 0.336365 0.898651
0.727997 0.362396 0.907471
0.850769 0.399048 0.917633
0.945282 0.449188 0.921997
0.147400 0.456360 0.881714
0.220276 0.457672 0.882843
0.334045 0.461365 0.885681
0.461060 0.468475 0.890594
0.594269 0.479523 0.897583
0.727600 0.495453 0.906403
0.844086 0.522156 0.916351
0.935974 0.559265 0.921204
0.322632 0.610870 0.877533
0.349518 0.610291 0.878754
0.409546 0.608673 0.881866
0.476440 0.593933 0.888733
0.603241 0.604065 0.895782
0.725800 0.620361 0.904572
0.834259 0.644226 0.914581
0.924744 0.670135 0.920776
0.413727 0.732178 0.881104
0.432404 0.731689 0.881042
0.476318 0.730438 0.880951
0.544434 0.729248 0.883270
0.631958 0.729706 0.891205
0.724762 0.731934 0.902313
0.829102 0.749298 0.913696
0.917480 0.767517 0.922272
0.532928 0.832825 0.899353
0.545074 0.832611 0.899445
0.574219 0.832031 0.899628
0.620514 0.831146 0.899963
0.679840 0.830078 0.900391
0.748169 0.829163 0.900818
0.831635 0.837189 0.913635
0.915009 0.853882 0.926361
0.641113 0.915131 0.918549
0.649261 0.915100 0.918762
0.669464 0.915039 0.919250
0.703217 0.914978 0.920197
0.748810 0.915222 0.921692
0.802948 0.916199 0.924072
0.861359 0.919098 0.927979
0.923828 0.926239 0.935272
