tools/luts_backup/LAPARDIN-WEDLUTS-10.cube
#Created by: Adobe Photoshop Export Color Lookup Plugin
#Copyright: (C) 2017 Andrey Lapardin. vk.com-3dluts
TITLE "Andrey Lapardin. vk.com-3dluts"
#LUT size
LUT_3D_SIZE 32
#data domain
DOMAIN_MIN 0.0 0.0 0.0
DOMAIN_MAX 1.0 1.0 1.0
#LUT data points
0.012024 0.034332 0.042480
0.031891 0.038177 0.046082
0.059937 0.040771 0.048309
0.088837 0.042969 0.050323
0.116882 0.045288 0.052399
0.143860 0.048157 0.054291
0.170563 0.051270 0.056061
0.197418 0.055023 0.057953
0.224792 0.058197 0.059753
0.252777 0.060516 0.061188
0.281494 0.061981 0.062408
0.310699 0.062805 0.063568
0.341705 0.063416 0.064453
0.374420 0.063751 0.065613
0.407349 0.064301 0.066772
0.440460 0.064453 0.067841
0.473694 0.064545 0.068268
0.506805 0.064270 0.068848
0.539703 0.063690 0.069031
0.572479 0.062866 0.069061
0.605499 0.061584 0.068970
0.638916 0.059692 0.068848
0.671967 0.057617 0.068665
0.705231 0.055267 0.068512
0.738678 0.053040 0.068085
0.772614 0.050903 0.067810
0.807495 0.048828 0.067688
0.842133 0.047607 0.067535
0.874298 0.046875 0.069000
0.905243 0.046539 0.070801
0.935669 0.046783 0.073090
0.964691 0.050171 0.076172
0.012451 0.052734 0.045593
0.030670 0.053589 0.045837
0.058777 0.058563 0.047546
0.088623 0.061371 0.048950
0.116913 0.063385 0.050690
0.143738 0.065826 0.052399
0.170380 0.068726 0.054474
0.197144 0.071991 0.056488
0.224426 0.074829 0.058289
0.252350 0.077118 0.059875
0.280853 0.078705 0.061401
0.310211 0.079559 0.062897
0.341492 0.080505 0.064148
0.373688 0.081329 0.065430
0.406311 0.082031 0.066711
0.439301 0.082458 0.067596
0.472382 0.082855 0.068359
0.505402 0.082916 0.068817
0.538605 0.082672 0.069061
0.571625 0.082123 0.068970
0.604645 0.081055 0.068878
0.638062 0.079590 0.068695
0.671204 0.077545 0.068573
0.704498 0.075348 0.068176
0.738098 0.073059 0.067780
0.771973 0.070892 0.067383
0.806732 0.069000 0.067230
0.841217 0.067505 0.067078
0.873535 0.066193 0.068176
0.904327 0.065582 0.069977
0.934662 0.065491 0.072235
0.963806 0.068268 0.075317
0.011017 0.075287 0.046143
0.032196 0.076111 0.046539
0.055634 0.076752 0.047272
0.085022 0.081146 0.049194
0.114319 0.083832 0.050018
0.142487 0.085358 0.051117
0.169830 0.087250 0.052673
0.197174 0.089386 0.054535
0.224701 0.091492 0.056458
0.252594 0.093201 0.058289
0.280945 0.094696 0.060150
0.310516 0.095886 0.062195
0.341431 0.096954 0.063965
0.373138 0.097931 0.065460
0.405396 0.098907 0.067017
0.438049 0.099854 0.068268
0.471008 0.100433 0.069214
0.503967 0.101013 0.069763
0.537201 0.101379 0.070068
0.570587 0.101318 0.070129
0.603821 0.101044 0.069946
0.637299 0.100433 0.069427
0.670563 0.099274 0.068939
0.704010 0.097717 0.068359
0.737732 0.096008 0.067749
0.771515 0.094055 0.067169
0.805878 0.092285 0.066711
0.840240 0.090668 0.066376
0.872681 0.089203 0.067108
0.903229 0.087952 0.069061
0.933350 0.087250 0.071045
0.962250 0.089203 0.073975
0.010010 0.096832 0.046448
0.032227 0.097473 0.047058
0.056976 0.097961 0.047913
0.081573 0.098969 0.049072
0.110321 0.103088 0.051178
0.138519 0.105896 0.052521
0.167450 0.107239 0.052917
0.196350 0.107788 0.053589
0.224335 0.108856 0.055237
0.252686 0.109863 0.057037
0.281342 0.111053 0.059021
0.311096 0.112152 0.061340
0.341492 0.113159 0.063416
0.372650 0.114014 0.065430
0.404327 0.115082 0.067322
0.437073 0.116058 0.068970
0.470123 0.116943 0.070343
0.503326 0.117645 0.071167
0.536682 0.118286 0.071899
0.570251 0.118927 0.072052
0.603912 0.119446 0.071869
0.637512 0.119720 0.071320
0.670471 0.119629 0.070526
0.703461 0.119263 0.069550
0.736603 0.118378 0.068451
0.769714 0.117371 0.067322
0.802643 0.115906 0.066223
0.836548 0.114838 0.065460
0.869751 0.113800 0.065277
0.900208 0.112305 0.067108
0.930115 0.111298 0.068970
0.958679 0.112640 0.071655
0.009796 0.117950 0.047729
0.032074 0.118561 0.048187
0.058380 0.119049 0.049133
0.083618 0.119781 0.050568
0.107452 0.120239 0.052307
0.136383 0.124512 0.054749
0.166138 0.127930 0.056183
0.196381 0.129486 0.056366
0.226746 0.129883 0.056122
0.256317 0.129974 0.056885
0.287170 0.131226 0.058502
0.318054 0.132111 0.060669
0.349091 0.132843 0.062958
0.380646 0.133606 0.065399
0.412354 0.134247 0.067535
0.444183 0.134796 0.069641
0.476257 0.135223 0.071320
0.508545 0.135437 0.072876
0.541016 0.135834 0.073608
0.573700 0.136200 0.074249
0.606354 0.136719 0.074402
0.639282 0.137299 0.073914
0.671875 0.137665 0.073395
0.704559 0.138092 0.072113
0.737793 0.138367 0.070740
0.771423 0.138275 0.069366
0.805145 0.138336 0.067963
0.838898 0.138458 0.066681
0.873169 0.138580 0.065796
0.905304 0.138153 0.066620
0.935699 0.137665 0.068695
0.964783 0.139832 0.071869
0.009521 0.139374 0.049652
0.031830 0.139984 0.050018
0.059052 0.140320 0.050934
0.085693 0.140961 0.052612
0.110596 0.141357 0.054596
0.133423 0.140747 0.056824
0.162506 0.144653 0.059509
0.192810 0.147888 0.060303
0.223785 0.149933 0.059448
0.255737 0.151245 0.058716
0.287079 0.151276 0.058746
0.317963 0.151581 0.060089
0.349304 0.152161 0.061981
0.381042 0.152588 0.064117
0.412689 0.152954 0.066437
0.444336 0.153290 0.068665
0.476105 0.153442 0.070618
0.507904 0.153473 0.072601
0.540192 0.153412 0.074005
0.572540 0.153290 0.075287
0.604919 0.153351 0.076050
0.637573 0.153625 0.076263
0.669769 0.153961 0.075958
0.702240 0.154266 0.075256
0.735199 0.154907 0.074066
0.768677 0.155701 0.072601
0.802307 0.156372 0.071136
0.835846 0.157227 0.069550
0.868958 0.157990 0.068085
0.902405 0.158691 0.066895
0.934753 0.159149 0.067291
0.964478 0.162079 0.069763
0.009857 0.160095 0.051025
0.030426 0.160553 0.051208
0.057922 0.160522 0.052124
0.085358 0.161011 0.053894
0.110504 0.160950 0.056427
0.134705 0.161224 0.059296
0.158173 0.160095 0.061371
0.189545 0.165283 0.064209
0.221130 0.169128 0.063965
0.253082 0.171936 0.062988
0.285187 0.173065 0.061707
0.317230 0.172729 0.060730
0.348633 0.172272 0.061646
0.380951 0.172791 0.063141
0.413177 0.173126 0.064941
0.444916 0.173370 0.066956
0.476654 0.173340 0.069061
0.508179 0.173279 0.071045
0.540039 0.172882 0.072998
0.572052 0.172455 0.074677
0.604004 0.172119 0.076019
0.636353 0.171844 0.076965
0.668274 0.171631 0.077545
0.700287 0.171661 0.077576
0.732941 0.171875 0.077148
0.765991 0.172394 0.076355
0.799225 0.173096 0.075287
0.832306 0.174072 0.073914
0.864990 0.174957 0.072693
0.897278 0.175720 0.071228
0.929138 0.176392 0.070679
0.960449 0.180084 0.070892
0.009369 0.181976 0.051788
0.028717 0.182373 0.051971
0.055481 0.182037 0.052887
0.083588 0.182190 0.054932
0.108948 0.182159 0.058075
0.134003 0.182312 0.061340
0.160461 0.183197 0.064178
0.185303 0.182129 0.065765
0.218170 0.187775 0.067657
0.250122 0.191803 0.067413
0.282349 0.194305 0.066071
0.315125 0.195282 0.064331
0.347961 0.194946 0.062927
0.380188 0.193970 0.062897
0.412689 0.194275 0.064178
0.445160 0.194733 0.065369
0.477173 0.194794 0.067017
0.508881 0.194763 0.068909
0.540466 0.194336 0.070770
0.572266 0.193848 0.072723
0.604034 0.193237 0.074371
0.636047 0.192657 0.075928
0.667725 0.192078 0.077087
0.699554 0.191681 0.078003
0.731659 0.191620 0.078430
0.764069 0.191498 0.078491
0.796539 0.191650 0.078430
0.828857 0.191895 0.077911
0.860870 0.192108 0.077301
0.892487 0.192413 0.076630
0.923767 0.192657 0.076569
0.954773 0.196350 0.076202
0.009125 0.205383 0.052399
0.026489 0.205963 0.052399
0.052002 0.205536 0.053162
0.080658 0.204865 0.055511
0.106720 0.204620 0.059143
0.131866 0.204590 0.062714
0.158905 0.205139 0.065674
0.187744 0.206573 0.067810
0.213043 0.205353 0.069153
0.247040 0.211426 0.070740
0.279510 0.215393 0.070526
0.312164 0.217560 0.068542
0.345459 0.218292 0.066589
0.379333 0.217987 0.064575
0.411987 0.216858 0.063568
0.444153 0.216522 0.064484
0.476685 0.216949 0.065674
0.508972 0.217072 0.066833
0.540894 0.216858 0.068115
0.572662 0.216583 0.069733
0.604370 0.215973 0.071625
0.636322 0.215302 0.073212
0.667786 0.214722 0.074707
0.699341 0.214172 0.076172
0.731079 0.213806 0.077209
0.762848 0.213501 0.078217
0.794556 0.212982 0.078918
0.825958 0.212463 0.079346
0.857178 0.211792 0.079803
0.888062 0.211365 0.079895
0.918518 0.210907 0.080414
0.948761 0.213684 0.080597
0.009033 0.234650 0.052490
0.025055 0.234650 0.052490
0.047180 0.233704 0.053284
0.078430 0.232056 0.055603
0.105621 0.231384 0.059448
0.130951 0.230713 0.063599
0.158356 0.230682 0.066772
0.187805 0.231659 0.069153
0.218109 0.233521 0.070831
0.243103 0.231323 0.071960
0.278229 0.237762 0.073883
0.312805 0.242310 0.073334
0.346741 0.244293 0.070953
0.381073 0.244995 0.068390
0.415161 0.244629 0.065948
0.448761 0.243347 0.063354
0.480316 0.241760 0.064087
0.513153 0.242126 0.064941
0.545807 0.242371 0.065826
0.578278 0.242310 0.066711
0.609802 0.241882 0.068085
0.641296 0.240906 0.069550
0.671692 0.239868 0.071198
0.702240 0.239014 0.072601
0.732880 0.238403 0.073914
0.763672 0.237854 0.075439
0.794464 0.237335 0.076691
0.825073 0.236511 0.077972
0.855469 0.235596 0.078918
0.885406 0.234436 0.079926
0.914124 0.233215 0.080780
0.943939 0.234772 0.081818
0.008911 0.258575 0.052094
0.025177 0.259857 0.052032
0.043335 0.259003 0.052643
0.073242 0.257050 0.054901
0.101593 0.255219 0.058838
0.127411 0.254608 0.063507
0.154724 0.254669 0.066925
0.184631 0.255493 0.069489
0.215637 0.257172 0.071198
0.246521 0.259430 0.072754
0.273407 0.258301 0.073975
0.308990 0.264252 0.075958
0.344177 0.268616 0.075287
0.378326 0.270172 0.072327
0.412567 0.270569 0.069366
0.446930 0.269989 0.066315
0.480499 0.268738 0.063538
0.512482 0.266968 0.062836
0.544678 0.266541 0.063324
0.577332 0.266876 0.064026
0.609589 0.266754 0.064453
0.641418 0.266174 0.065399
0.672241 0.265259 0.066620
0.703003 0.264374 0.067932
0.733765 0.263702 0.069519
0.764648 0.263428 0.071350
0.795502 0.263306 0.073151
0.826202 0.263123 0.074707
0.856964 0.262726 0.076355
0.887543 0.262299 0.078217
0.918060 0.261780 0.080292
0.948456 0.263000 0.082336
0.009125 0.282440 0.051514
0.025696 0.283966 0.051300
0.043121 0.283234 0.051666
0.068054 0.281219 0.053680
0.097809 0.278748 0.057739
0.123077 0.277527 0.062592
0.149963 0.277344 0.066650
0.179504 0.278046 0.069458
0.210785 0.279724 0.071136
0.242371 0.282135 0.072693
0.274078 0.284943 0.074310
0.301849 0.283966 0.075439
0.339203 0.290771 0.077148
0.375549 0.295319 0.076813
0.410065 0.296753 0.073273
0.444702 0.297028 0.069855
0.478882 0.296509 0.066284
0.512390 0.295410 0.063019
0.544891 0.293671 0.061188
0.576294 0.292267 0.062378
0.608459 0.292328 0.063629
0.640747 0.292145 0.065125
0.672272 0.291534 0.066559
0.703491 0.290771 0.067871
0.734314 0.290039 0.069336
0.765106 0.289734 0.070984
0.795746 0.289856 0.072876
0.826080 0.290131 0.074829
0.856262 0.290314 0.076996
0.886200 0.290253 0.079071
0.916229 0.290009 0.081085
0.946136 0.290894 0.083435
0.009674 0.306488 0.050751
0.026398 0.308289 0.050507
0.044189 0.307770 0.050476
0.063293 0.305847 0.052155
0.093048 0.303375 0.055878
0.118774 0.301147 0.061096
0.144928 0.300507 0.065857
0.173676 0.300995 0.069061
0.205048 0.302551 0.071167
0.237579 0.305145 0.072479
0.270203 0.308136 0.073944
0.302734 0.311646 0.075409
0.331360 0.310822 0.076569
0.370300 0.318268 0.077850
0.407410 0.323029 0.077759
0.442230 0.324371 0.073792
0.476715 0.324615 0.069458
0.510803 0.324127 0.065430
0.544189 0.323090 0.062683
0.577148 0.321747 0.064087
0.608124 0.319519 0.065521
0.639832 0.318756 0.067017
0.671936 0.318787 0.068420
0.703705 0.318512 0.069824
0.735107 0.317902 0.070984
0.765961 0.317596 0.072266
0.796417 0.317474 0.073822
0.826508 0.317810 0.075623
0.856201 0.318237 0.077545
0.885620 0.318542 0.079559
0.915131 0.318695 0.081451
0.943756 0.319122 0.083862
0.011871 0.335358 0.049500
0.028320 0.335236 0.049194
0.046295 0.334412 0.049072
0.062836 0.332825 0.050140
0.086578 0.330170 0.053528
0.114685 0.326965 0.058716
0.139404 0.324982 0.064178
0.167755 0.324829 0.068420
0.198669 0.326172 0.070679
0.231934 0.328644 0.072205
0.265472 0.331848 0.073425
0.298859 0.335449 0.074738
0.332550 0.339355 0.076172
0.361023 0.337799 0.077209
0.400604 0.345642 0.078430
0.439484 0.351715 0.078583
0.474518 0.353058 0.073792
0.509308 0.353424 0.068848
0.543579 0.353119 0.065063
0.577118 0.352509 0.066071
0.609863 0.351349 0.067719
0.642029 0.349548 0.069397
0.671753 0.346985 0.070587
0.703278 0.347015 0.071960
0.734467 0.346741 0.073029
0.765137 0.346313 0.073975
0.795441 0.345764 0.074951
0.825134 0.345551 0.076202
0.854553 0.345764 0.077850
0.883118 0.345825 0.079559
0.911652 0.345795 0.081360
0.939636 0.346252 0.083557
0.014496 0.358612 0.048309
0.032074 0.360962 0.048187
0.050354 0.360443 0.048065
0.067474 0.359070 0.048157
0.082672 0.356720 0.050507
0.108612 0.353424 0.055695
0.134338 0.350220 0.061768
0.160980 0.349243 0.066742
0.191711 0.350128 0.070007
0.225372 0.352417 0.071716
0.259918 0.355652 0.072845
0.294373 0.359528 0.073853
0.328461 0.363647 0.075256
0.363129 0.368225 0.076569
0.393158 0.367828 0.077667
0.433014 0.375610 0.078766
0.474304 0.383392 0.079102
0.509430 0.384613 0.073486
0.544220 0.384796 0.068054
0.578186 0.384399 0.068085
0.610992 0.383575 0.069733
0.643585 0.382568 0.071503
0.675140 0.381073 0.073273
0.705536 0.379028 0.074585
0.735413 0.377289 0.075562
0.766815 0.377441 0.076416
0.798126 0.377411 0.077301
0.829102 0.377411 0.078247
0.859894 0.377594 0.079437
0.890442 0.378143 0.081085
0.920929 0.378815 0.082886
0.949921 0.379761 0.085602
0.018555 0.382935 0.047333
0.036194 0.385376 0.047211
0.054596 0.385040 0.046997
0.072174 0.383545 0.046997
0.086761 0.382172 0.047394
0.100281 0.379089 0.051727
0.127808 0.375549 0.058258
0.153473 0.372650 0.064270
0.183685 0.373016 0.068451
0.216980 0.374969 0.070740
0.252319 0.378204 0.071869
0.287598 0.382233 0.072723
0.322357 0.386627 0.073669
0.357086 0.391327 0.074982
0.392365 0.396362 0.076263
0.422913 0.396179 0.077362
0.463074 0.403992 0.078033
0.505859 0.413177 0.078979
0.540802 0.414185 0.072754
0.575226 0.414368 0.069550
0.608673 0.414093 0.071136
0.641815 0.413818 0.072968
0.673920 0.413483 0.074768
0.705566 0.412842 0.076538
0.737000 0.411713 0.077972
0.766968 0.409698 0.078949
0.797333 0.408447 0.079407
0.828430 0.408417 0.080017
0.859344 0.408325 0.080872
0.890289 0.408325 0.081787
0.921234 0.408386 0.083252
0.949707 0.408447 0.085602
0.021881 0.407684 0.045746
0.039063 0.410339 0.045471
0.057556 0.410126 0.045532
0.075836 0.408722 0.045410
0.091705 0.407562 0.045471
0.104218 0.405945 0.047150
0.121277 0.401978 0.053894
0.147003 0.398010 0.060944
0.175659 0.396576 0.066132
0.208618 0.398132 0.068970
0.244080 0.401123 0.070526
0.280121 0.405182 0.071228
0.315582 0.409729 0.072083
0.350677 0.414490 0.072906
0.385834 0.419525 0.073914
0.421692 0.424927 0.075195
0.452728 0.424835 0.076416
0.493469 0.433136 0.076782
0.536469 0.442566 0.077728
0.571899 0.444366 0.072266
0.606140 0.444855 0.072510
0.640198 0.445435 0.074219
0.673035 0.445953 0.076141
0.705170 0.446350 0.078033
0.736908 0.446381 0.079834
0.768280 0.445770 0.081238
0.799011 0.444305 0.082062
0.828430 0.441589 0.082428
0.858551 0.439911 0.082428
0.889435 0.439270 0.082855
0.919617 0.438141 0.083466
0.949524 0.437500 0.085297
0.026489 0.433777 0.043945
0.042816 0.434296 0.043762
0.061188 0.434021 0.043701
0.079865 0.433319 0.043701
0.096436 0.432617 0.043701
0.110046 0.432159 0.043701
0.119690 0.429230 0.048706
0.139435 0.424683 0.056580
0.167450 0.420837 0.063110
0.199921 0.421570 0.067108
0.235291 0.424225 0.068939
0.271606 0.428223 0.069641
0.307922 0.432953 0.070007
0.343872 0.437988 0.070709
0.379456 0.443176 0.071472
0.415283 0.448639 0.072449
0.451904 0.454437 0.073486
0.481812 0.453094 0.074738
0.523102 0.461945 0.074738
0.566895 0.472565 0.076141
0.603363 0.475769 0.073944
0.638397 0.477295 0.075470
0.672119 0.478546 0.077179
0.704803 0.479736 0.079071
0.736847 0.480713 0.081146
0.768402 0.481262 0.082977
0.799561 0.480957 0.084229
0.830353 0.479614 0.084930
0.860077 0.476471 0.084991
0.889008 0.472534 0.084442
0.918793 0.469666 0.084381
0.948242 0.468414 0.085876
0.030304 0.458954 0.041687
0.047577 0.461548 0.041229
0.066040 0.461639 0.041107
0.084503 0.460388 0.041046
0.101379 0.459045 0.041168
0.115784 0.458099 0.041199
0.126953 0.456665 0.043182
0.136230 0.451965 0.051361
0.159088 0.447113 0.058929
0.190582 0.445190 0.064148
0.225891 0.447479 0.066772
0.262573 0.451447 0.067444
0.299652 0.456421 0.067505
0.336456 0.461761 0.067688
0.372925 0.467407 0.068176
0.409424 0.473206 0.068878
0.446136 0.479218 0.069977
0.483551 0.485626 0.070953
0.515442 0.486115 0.072144
0.556885 0.495453 0.073212
0.602142 0.507813 0.075684
0.639282 0.511932 0.077240
0.672913 0.513214 0.078583
0.705658 0.514404 0.080322
0.737732 0.515778 0.082184
0.769470 0.517029 0.084137
0.800873 0.517914 0.085815
0.832153 0.517975 0.087097
0.863342 0.516815 0.087677
0.894867 0.514069 0.087677
0.925812 0.509918 0.087311
0.954834 0.506042 0.088593
0.034546 0.484955 0.039520
0.051636 0.487549 0.039551
0.070038 0.487640 0.039551
0.088562 0.486481 0.039429
0.105835 0.485138 0.039246
0.120911 0.484192 0.039063
0.133240 0.483490 0.039063
0.142059 0.479462 0.045044
0.149841 0.474152 0.053925
0.180023 0.469849 0.060455
0.215637 0.470856 0.063477
0.252686 0.474487 0.064667
0.290344 0.479431 0.064484
0.327820 0.484985 0.064240
0.365021 0.490814 0.064331
0.401978 0.496704 0.064972
0.438843 0.502655 0.067047
0.475800 0.508820 0.069244
0.513428 0.515503 0.071564
0.545074 0.516113 0.073151
0.585632 0.525269 0.075409
0.631836 0.538971 0.078094
0.669617 0.544983 0.079926
0.703094 0.547058 0.081268
0.735962 0.549011 0.083069
0.768280 0.551147 0.084930
0.800049 0.552917 0.086761
0.831238 0.554077 0.088257
0.862183 0.554016 0.089325
0.892517 0.551788 0.089539
0.922607 0.547852 0.089478
0.952301 0.543518 0.090790
0.039154 0.511963 0.040558
0.055939 0.514587 0.040802
0.074310 0.514771 0.040802
0.093018 0.513733 0.040680
0.110626 0.512543 0.040497
0.126312 0.511505 0.040344
0.139465 0.510895 0.040192
0.149292 0.508545 0.042786
0.156738 0.502808 0.049500
0.170013 0.497559 0.055084
0.203918 0.495392 0.058929
0.242401 0.498627 0.060760
0.280884 0.503387 0.061310
0.318939 0.508911 0.062439
0.356812 0.514771 0.063721
0.394318 0.520813 0.065155
0.431641 0.526886 0.066956
0.468872 0.533081 0.069122
0.506226 0.539642 0.071320
0.543854 0.546692 0.073792
0.575195 0.547607 0.075562
0.615479 0.556946 0.077942
0.660950 0.571198 0.080627
0.700500 0.579773 0.082794
0.734009 0.582397 0.084229
0.766785 0.584930 0.085846
0.798645 0.587128 0.087555
0.829254 0.588501 0.089081
0.858795 0.588593 0.090240
0.888000 0.587219 0.091034
0.917480 0.584534 0.091644
0.947327 0.580872 0.092926
0.043610 0.540253 0.041809
0.059998 0.541687 0.041962
0.078339 0.542084 0.041962
0.097260 0.541901 0.041901
0.115204 0.541473 0.041840
0.131470 0.540833 0.041718
0.145447 0.540375 0.041656
0.156525 0.539551 0.042419
0.164246 0.534088 0.048737
0.172729 0.528168 0.054779
0.190948 0.523651 0.058502
0.231628 0.524994 0.060760
0.271484 0.529663 0.062103
0.310852 0.535553 0.063324
0.349792 0.542053 0.064392
0.388550 0.548889 0.065643
0.427155 0.555664 0.067261
0.465240 0.562317 0.069244
0.503113 0.568970 0.071503
0.540619 0.575714 0.073853
0.577850 0.582764 0.076447
0.606812 0.581421 0.078033
0.646454 0.591064 0.080627
0.690796 0.604828 0.083344
0.732483 0.616089 0.085754
0.766266 0.619568 0.087280
0.799408 0.622894 0.088745
0.832031 0.626190 0.090607
0.863037 0.628052 0.092194
0.893402 0.628967 0.093872
0.923309 0.628174 0.095154
0.953094 0.625214 0.097107
0.048615 0.570740 0.043274
0.065125 0.572937 0.043457
0.083374 0.573181 0.043457
0.102081 0.572449 0.043365
0.119934 0.571381 0.043274
0.136536 0.570374 0.043152
0.151123 0.569580 0.043060
0.163177 0.569092 0.042969
0.171997 0.565460 0.047394
0.179840 0.559113 0.053986
0.189911 0.554016 0.058502
0.217957 0.551971 0.061005
0.260803 0.556458 0.062897
0.301544 0.562317 0.063934
0.341583 0.568878 0.065002
0.381226 0.575897 0.066071
0.420654 0.583130 0.067474
0.459808 0.590302 0.069183
0.498596 0.597382 0.071259
0.536682 0.604309 0.073486
0.573669 0.610992 0.076050
0.610168 0.617645 0.078766
0.641022 0.619049 0.080902
0.679230 0.627747 0.083588
0.721283 0.639526 0.086151
0.763397 0.651550 0.088562
0.798340 0.656738 0.090149
0.830322 0.659515 0.091461
0.861176 0.661652 0.093018
0.890656 0.662750 0.094757
0.919434 0.662567 0.096405
0.948517 0.660004 0.098450
0.053314 0.601379 0.044617
0.069672 0.603607 0.044769
0.087921 0.603760 0.044769
0.106659 0.602875 0.044678
0.124603 0.601837 0.044586
0.141571 0.600800 0.044495
0.156982 0.600067 0.044403
0.169891 0.599792 0.044342
0.179932 0.598450 0.046021
0.187469 0.591919 0.052826
0.196503 0.585938 0.058319
0.209381 0.581848 0.061493
0.247314 0.583832 0.063324
0.290710 0.589417 0.064575
0.332245 0.595917 0.065460
0.372986 0.602936 0.066467
0.413300 0.610168 0.067719
0.453186 0.617493 0.069092
0.492798 0.624603 0.070801
0.531403 0.631439 0.072693
0.568481 0.638000 0.075043
0.604492 0.644287 0.078033
0.639435 0.650421 0.080963
0.670166 0.652161 0.083344
0.708191 0.660919 0.086029
0.748718 0.671417 0.088348
0.791595 0.684601 0.090881
0.827454 0.691284 0.092682
0.858093 0.693329 0.093872
0.887329 0.694641 0.095337
0.915741 0.694733 0.096924
0.944489 0.692780 0.099182
0.057312 0.632690 0.045868
0.073792 0.636047 0.046112
0.092102 0.636200 0.046112
0.110962 0.635132 0.045990
0.129059 0.633972 0.045868
0.146393 0.632965 0.045807
0.162445 0.632233 0.045746
0.176178 0.631866 0.045715
0.187195 0.631744 0.045715
0.195404 0.627136 0.051514
0.203735 0.620239 0.057922
0.214813 0.615204 0.061920
0.232147 0.613098 0.063843
0.277832 0.618256 0.065155
0.322205 0.624481 0.066193
0.364380 0.631348 0.067047
0.405701 0.638550 0.067993
0.446594 0.645416 0.069092
0.486694 0.652313 0.070282
0.525940 0.658966 0.072021
0.563599 0.665405 0.074249
0.599487 0.671478 0.076874
0.633606 0.677155 0.080048
0.667480 0.682922 0.083282
0.699005 0.685669 0.085815
0.736908 0.694305 0.088318
0.775635 0.703094 0.090332
0.818176 0.716187 0.092865
0.853333 0.722717 0.094574
0.882965 0.724487 0.095825
0.911865 0.725189 0.097168
0.940918 0.723877 0.099457
0.062683 0.674316 0.047455
0.078766 0.676300 0.047485
0.097168 0.676666 0.047485
0.116333 0.676147 0.047485
0.134735 0.675446 0.047485
0.152405 0.674561 0.047485
0.169098 0.673737 0.047424
0.183655 0.673431 0.047424
0.195435 0.673584 0.047455
0.204407 0.671448 0.050537
0.212006 0.663513 0.057709
0.222137 0.657684 0.062653
0.235321 0.654175 0.065125
0.261993 0.656982 0.066345
0.312561 0.663605 0.067291
0.358490 0.670837 0.068024
0.402802 0.678345 0.068787
0.445953 0.685760 0.069855
0.488190 0.692963 0.070831
0.529053 0.699707 0.072418
0.567596 0.705780 0.074371
0.603699 0.710938 0.076721
0.636536 0.714722 0.079803
0.668182 0.718292 0.083252
0.700806 0.722351 0.086456
0.731689 0.723816 0.088745
0.770233 0.732697 0.091217
0.809570 0.742035 0.093353
0.851807 0.754486 0.096161
0.887482 0.761932 0.098389
0.918365 0.764435 0.100189
0.947754 0.763428 0.102478
0.066528 0.711029 0.048431
0.082733 0.713440 0.048553
0.101135 0.713348 0.048553
0.120209 0.711945 0.048462
0.138519 0.710571 0.048370
0.156311 0.709595 0.048309
0.173309 0.708954 0.048248
0.188507 0.708649 0.048218
0.200989 0.708954 0.048218
0.211060 0.709320 0.048920
0.218872 0.703369 0.056030
0.228149 0.696686 0.061798
0.240540 0.692444 0.065094
0.255585 0.691284 0.066498
0.296417 0.697113 0.067596
0.347351 0.703766 0.068268
0.394196 0.710663 0.069122
0.438934 0.717560 0.069977
0.482330 0.724457 0.070831
0.524261 0.730865 0.072052
0.563782 0.736725 0.073730
0.600372 0.741699 0.076050
0.633514 0.745850 0.079010
0.664917 0.749390 0.082550
0.696655 0.753204 0.086151
0.729950 0.757782 0.089233
0.763855 0.761780 0.091553
0.801086 0.768890 0.093750
0.838013 0.775696 0.095734
0.876801 0.784851 0.098053
0.912689 0.791901 0.100677
0.943787 0.793091 0.103333
0.069397 0.746368 0.049194
0.085449 0.748718 0.049255
0.103882 0.748230 0.049225
0.123108 0.746704 0.049194
0.141663 0.745697 0.049164
0.159637 0.745331 0.049133
0.177063 0.745422 0.049133
0.192902 0.745789 0.049133
0.206268 0.746460 0.049133
0.217255 0.747559 0.049164
0.226288 0.745117 0.053619
0.235077 0.738098 0.060211
0.246429 0.733215 0.064545
0.260437 0.730255 0.066742
0.280487 0.732971 0.067749
