tools/luts_backup/LAPARDIN-WEDLUTS-21.cube
#Created by: Adobe Photoshop Export Color Lookup Plugin
#Copyright: (C) 2017 Andrey Lapardin. vk.com-3dluts
TITLE "Andrey Lapardin. vk.com-3dluts"
#LUT size
LUT_3D_SIZE 5
#data domain
#LUT data points
DOMAIN_MIN 0.000000 0.000000 0.000000
DOMAIN_MAX 0.903226 0.903226 0.903226
0.003326 0.006348 0.006927
0.134094 0.018402 0.018219
0.344055 0.027405 0.030548
0.599762 0.027832 0.048065
0.890717 0.045746 0.101074
0.000000 0.148438 0.034576
0.147522 0.151031 0.030212
0.352325 0.169434 0.052826
0.603424 0.189758 0.077087
0.867188 0.209656 0.121948
0.000000 0.428558 0.134094
0.129242 0.406952 0.155029
0.431549 0.433136 0.102509
0.665314 0.419922 0.132690
0.867218 0.412262 0.178436
0.000000 0.730011 0.316956
0.186157 0.733276 0.346252
0.423584 0.713135 0.327820
0.720947 0.736816 0.281677
0.955322 0.737152 0.313843
0.431488 0.950928 0.589417
0.508911 0.949951 0.608734
0.593079 0.938171 0.622681
0.741669 0.947632 0.608032
0.898651 0.950684 0.584473
0.006744 0.003296 0.151184
0.164703 0.000122 0.157562
0.374176 0.000000 0.198090
0.608429 0.000000 0.209900
0.872925 0.000000 0.220123
0.000000 0.152008 0.142090
0.181702 0.179077 0.170746
0.398529 0.182770 0.182922
0.637909 0.208618 0.211243
0.838684 0.257385 0.270508
0.000092 0.401520 0.218201
0.212952 0.430664 0.258698
0.473999 0.466370 0.245483
0.682281 0.438782 0.253265
0.867310 0.443634 0.308075
0.000000 0.704865 0.357025
0.275848 0.728882 0.405060
0.508728 0.753387 0.447937
0.767761 0.762573 0.417053
0.952515 0.752075 0.443481
0.419128 0.934784 0.589050
0.535889 0.928619 0.623138
0.660919 0.933807 0.658630
0.768341 0.941071 0.652649
0.919037 0.948792 0.639679
0.000000 0.000000 0.386932
0.170868 0.000000 0.420654
0.399536 0.000000 0.423706
0.670624 0.000000 0.496887
0.923157 0.000000 0.499207
0.000000 0.190826 0.377716
0.141083 0.167358 0.424500
0.441223 0.150055 0.422607
0.686859 0.204681 0.486847
0.878571 0.254395 0.497894
0.000000 0.400818 0.374542
0.195709 0.444916 0.428375
0.481476 0.462311 0.449707
0.692993 0.454834 0.454803
0.897919 0.479340 0.495422
0.285309 0.686493 0.497406
0.401337 0.717621 0.531128
0.577911 0.735077 0.586853
0.775940 0.765137 0.583435
0.931641 0.754883 0.588226
0.479340 0.919891 0.641693
0.557251 0.919952 0.665161
0.729889 0.925690 0.732910
0.821533 0.940765 0.752655
0.940094 0.948029 0.740021
0.000000 0.000000 0.652649
0.225861 0.000000 0.671631
0.399841 0.000000 0.685638
0.669098 0.000000 0.671265
0.928711 0.000000 0.741852
0.000000 0.161194 0.662811
0.131134 0.145905 0.684387
0.399017 0.156097 0.686523
0.670593 0.091095 0.667297
0.877869 0.197327 0.705811
0.000000 0.466125 0.654846
0.021667 0.485352 0.691040
0.439880 0.462677 0.689575
0.730011 0.437805 0.673553
0.929291 0.509949 0.701752
0.000000 0.675232 0.647736
0.277374 0.700867 0.676849
0.528748 0.719788 0.701843
0.760742 0.730255 0.710449
0.921814 0.724640 0.712982
0.489502 0.916870 0.741089
0.594482 0.920502 0.762085
0.743896 0.922363 0.792877
0.866577 0.941193 0.837799
0.954926 0.950806 0.841187
0.000000 0.000000 0.875275
0.213623 0.000000 0.874664
0.393433 0.000000 0.896423
0.660278 0.000000 0.877655
0.921539 0.000000 0.860382
0.000000 0.139404 0.879852
0.145233 0.176697 0.846558
0.397430 0.130768 0.878571
0.641083 0.071716 0.873077
0.912964 0.000000 0.852478
0.000000 0.462616 0.872253
0.011383 0.495941 0.851074
0.398987 0.466492 0.872223
0.673523 0.436920 0.856995
0.916565 0.414001 0.848969
0.000000 0.702240 0.858490
0.129944 0.712646 0.852814
0.487366 0.750305 0.876678
0.727112 0.721924 0.873108
0.944885 0.708405 0.866821
0.240356 0.902924 0.862732
0.415039 0.909668 0.867950
0.627136 0.921783 0.880737
0.812561 0.928070 0.893768
0.953033 0.939911 0.904663
