tools/luts_backup/LAPARDIN-WEDLUTS-5.cube
#Created by: Adobe Photoshop Export Color Lookup Plugin
#Copyright: (C) 2017 Andrey Lapardin. vk.com-3dluts
TITLE "Andrey Lapardin. vk.com-3dluts"
#LUT size
LUT_3D_SIZE 8
#data domain
#LUT data points
DOMAIN_MIN 0.000000 0.000000 0.000000
DOMAIN_MAX 0.903226 0.903226 0.903226
0.079559 0.080261 0.081116
0.084045 0.080627 0.082001
0.223236 0.067780 0.087616
0.426697 0.062744 0.088379
0.657135 0.062744 0.095520
0.834473 0.062744 0.110046
0.921570 0.062744 0.139282
0.921570 0.062744 0.187683
0.081055 0.110870 0.088287
0.104156 0.109497 0.089905
0.229797 0.124725 0.087799
0.448029 0.100769 0.084747
0.660950 0.062744 0.090027
0.822815 0.062744 0.105591
0.921570 0.062744 0.140045
0.921570 0.062744 0.194641
0.062744 0.271667 0.087738
0.166779 0.247467 0.104279
0.248535 0.231720 0.086517
0.416016 0.247375 0.081940
0.627045 0.243774 0.085663
0.794861 0.196075 0.104095
0.918060 0.115143 0.142181
0.921570 0.062744 0.197388
0.103180 0.475616 0.185394
0.267487 0.455475 0.208344
0.333282 0.411804 0.219757
0.430695 0.395905 0.145599
0.605499 0.398560 0.116394
0.761719 0.388550 0.130768
0.896393 0.354309 0.172333
0.921570 0.322845 0.227875
0.300079 0.621399 0.350983
0.385803 0.618958 0.364624
0.425262 0.588013 0.365753
0.500427 0.568024 0.349579
0.598328 0.553986 0.273193
0.738678 0.535583 0.248108
0.861237 0.524261 0.250763
0.921570 0.508209 0.292999
0.461304 0.730682 0.493958
0.506744 0.730927 0.504242
0.536591 0.719177 0.505188
0.582855 0.701080 0.507172
0.647552 0.697266 0.484314
0.731689 0.687561 0.416809
0.835663 0.667511 0.395203
0.921570 0.663239 0.406952
0.607971 0.819061 0.626801
0.630219 0.818542 0.631866
0.657318 0.817352 0.637909
0.673279 0.804077 0.632935
0.722870 0.798737 0.643799
0.767273 0.799408 0.612579
0.827484 0.795502 0.567352
0.904907 0.783386 0.547089
0.739899 0.887146 0.749634
0.751160 0.886993 0.752777
0.766510 0.885864 0.755981
0.773621 0.880280 0.751923
0.796722 0.875610 0.754181
0.826477 0.874237 0.753418
0.851807 0.874664 0.732330
0.894592 0.876312 0.704742
0.078430 0.084839 0.096222
0.080261 0.083771 0.094666
0.203644 0.072662 0.101227
0.397308 0.062744 0.100647
0.612061 0.062744 0.113586
0.794952 0.062744 0.104553
0.921570 0.062744 0.130310
0.921570 0.062744 0.178711
0.069916 0.101624 0.100128
0.102051 0.103210 0.104553
0.207306 0.109406 0.114532
0.410400 0.097229 0.118408
0.627838 0.067719 0.113373
0.800110 0.062744 0.104858
0.921570 0.062744 0.135803
0.921570 0.062744 0.185516
0.062744 0.221466 0.122681
0.149139 0.207336 0.156097
0.214539 0.207214 0.148438
0.388214 0.243195 0.151398
0.613525 0.245972 0.142914
0.790222 0.209320 0.129639
0.915283 0.163544 0.143768
0.921570 0.143311 0.198364
0.062744 0.416565 0.209442
0.246124 0.405945 0.263000
0.323639 0.388275 0.272949
0.410431 0.378693 0.225067
0.584808 0.399994 0.223175
0.754883 0.396088 0.217133
0.900757 0.363129 0.200348
0.921570 0.339600 0.229248
0.246155 0.594177 0.358826
0.374054 0.595856 0.394836
0.440155 0.585693 0.403625
0.509705 0.567657 0.394165
0.592987 0.546722 0.329315
0.730316 0.543335 0.325287
0.855682 0.540314 0.328888
0.921570 0.522095 0.329163
0.453674 0.719147 0.507294
0.513153 0.729156 0.529144
0.561646 0.724609 0.536591
0.603668 0.711273 0.541290
0.660461 0.702515 0.517853
0.737427 0.691711 0.459991
0.836273 0.678833 0.452209
0.921265 0.672852 0.462891
0.603607 0.813293 0.631714
0.646637 0.825562 0.655731
0.679565 0.824219 0.662964
0.699951 0.814423 0.661530
0.732697 0.803070 0.663208
0.776184 0.803650 0.636688
0.835815 0.799438 0.592377
0.901825 0.786682 0.579437
0.732574 0.882935 0.746857
0.756775 0.888184 0.761566
0.774414 0.887024 0.765228
0.789703 0.882111 0.764160
0.797943 0.873199 0.758392
0.824707 0.870270 0.756348
0.855865 0.873169 0.736969
0.897064 0.876862 0.716339
0.062744 0.100586 0.186890
0.062744 0.100922 0.188843
0.136169 0.079803 0.174561
0.324280 0.062744 0.211426
0.562653 0.062744 0.256287
0.766449 0.062744 0.260986
0.917267 0.062744 0.235596
0.921570 0.062744 0.176544
0.062744 0.111755 0.188690
0.089020 0.100128 0.186676
0.178741 0.094940 0.176788
0.338287 0.097290 0.221100
0.559296 0.062744 0.253784
0.754059 0.062744 0.255493
0.905182 0.062744 0.236053
0.921570 0.062744 0.212402
0.062744 0.194397 0.173035
0.094849 0.191284 0.179016
0.207825 0.211548 0.210266
0.370544 0.210663 0.217499
0.585022 0.213867 0.239441
0.765686 0.213104 0.259247
0.888550 0.222656 0.279388
0.921570 0.240540 0.310211
0.062744 0.383392 0.234985
0.160034 0.372772 0.254974
0.304199 0.383514 0.306091
0.389709 0.374390 0.287170
0.563507 0.394012 0.290894
0.740662 0.397491 0.304108
0.877136 0.389313 0.320160
0.921570 0.388275 0.347412
0.159698 0.572815 0.344727
0.317627 0.564117 0.388947
0.430511 0.570435 0.429260
0.503113 0.558624 0.441223
0.585175 0.548035 0.386871
0.722870 0.554840 0.390930
0.834808 0.559326 0.411896
0.921570 0.555023 0.432068
0.414032 0.707886 0.495239
0.482239 0.703857 0.525726
0.560577 0.717743 0.555878
0.610901 0.711945 0.569794
0.670197 0.706329 0.557831
0.731537 0.686218 0.502563
0.818939 0.687714 0.516663
0.907349 0.694824 0.535858
0.589142 0.808655 0.631287
0.620026 0.806152 0.644653
0.672241 0.814667 0.667145
0.709229 0.812317 0.677307
0.745087 0.806396 0.686096
0.784485 0.806671 0.662323
0.836182 0.801819 0.629913
0.897522 0.796936 0.631653
0.730103 0.881531 0.751343
0.729431 0.873535 0.743073
0.756134 0.872101 0.751892
0.783142 0.869659 0.757019
0.810669 0.875885 0.774109
0.832367 0.873108 0.771698
0.860352 0.875336 0.755524
0.901367 0.878265 0.735321
0.062744 0.144104 0.341705
0.062744 0.147614 0.351044
0.062744 0.106812 0.360168
0.247772 0.062744 0.337860
0.495850 0.062744 0.387451
0.694092 0.062744 0.412109
0.876862 0.062744 0.401154
0.921570 0.062744 0.373260
0.062744 0.142761 0.337982
0.062744 0.086090 0.356689
0.156586 0.069580 0.361053
0.318909 0.062744 0.349976
0.510864 0.062744 0.391449
0.689606 0.062744 0.418091
0.868317 0.062744 0.415558
0.921570 0.062744 0.395477
0.062744 0.241974 0.327789
0.062744 0.223053 0.328796
0.167694 0.201385 0.340485
0.327271 0.178741 0.315338
0.510468 0.217621 0.361542
0.705139 0.222839 0.398102
0.846802 0.242798 0.420349
0.921570 0.252747 0.430481
0.062744 0.342621 0.299072
0.062744 0.340576 0.309326
0.196533 0.350586 0.328705
0.351685 0.349762 0.346008
0.530457 0.355072 0.358856
0.708557 0.377808 0.394836
0.840240 0.416840 0.443390
0.921570 0.434692 0.471832
0.062744 0.545227 0.369720
0.192627 0.543518 0.389191
0.337982 0.538849 0.415924
0.469604 0.537445 0.464203
0.547241 0.527710 0.445404
0.687103 0.543610 0.459595
0.815186 0.568115 0.496246
0.921570 0.570984 0.515533
0.320404 0.695068 0.479156
0.401978 0.693909 0.504608
0.514130 0.691803 0.551025
0.599823 0.698883 0.588593
0.656921 0.693756 0.598114
0.716003 0.683838 0.556366
0.810883 0.697205 0.574280
0.896423 0.711182 0.598450
0.537598 0.803223 0.612701
0.581879 0.802338 0.634827
0.641541 0.793732 0.660248
0.703735 0.797699 0.686218
0.742676 0.802002 0.704254
0.783142 0.802887 0.693939
0.833984 0.799957 0.663055
0.891144 0.804596 0.679169
0.695892 0.879303 0.734253
0.709930 0.873138 0.739990
0.744110 0.868896 0.753967
0.787140 0.871338 0.772644
0.815308 0.875458 0.786957
0.840240 0.876343 0.795654
0.865417 0.877777 0.776917
0.902557 0.879761 0.761536
0.062744 0.209412 0.508331
0.062744 0.209412 0.508270
0.062744 0.219788 0.537720
0.066345 0.078888 0.531342
0.399048 0.062744 0.515656
0.654968 0.062744 0.553162
0.822632 0.062744 0.549011
0.921570 0.062744 0.533112
0.062744 0.209473 0.508423
0.062744 0.152161 0.521851
0.062744 0.091370 0.538635
0.211456 0.062744 0.538544
0.441040 0.062744 0.522522
0.666840 0.062744 0.554504
0.823730 0.062744 0.555328
0.921570 0.062744 0.541748
0.062744 0.242188 0.500031
0.062744 0.193909 0.512238
0.062744 0.158783 0.535065
0.315674 0.139740 0.509857
0.483459 0.116150 0.486145
0.656982 0.157745 0.519653
0.789307 0.262024 0.539124
0.920654 0.254822 0.551727
0.062744 0.401459 0.492523
0.062744 0.396088 0.500061
0.100739 0.391724 0.506653
0.327667 0.349609 0.484192
0.489258 0.327576 0.460602
0.655457 0.384827 0.503418
0.806641 0.417786 0.539917
0.921570 0.438477 0.558655
0.062744 0.501862 0.439667
0.062744 0.502747 0.451477
0.188416 0.509796 0.472961
0.360718 0.503235 0.479706
0.505859 0.498230 0.489777
0.672424 0.518707 0.517365
0.818298 0.548584 0.556366
0.921570 0.576569 0.595093
0.142365 0.675842 0.502533
0.283783 0.679565 0.521576
0.401154 0.682617 0.545959
0.511566 0.674988 0.570892
0.635193 0.682587 0.622681
0.694824 0.675812 0.606415
0.801270 0.694550 0.624939
0.896057 0.714417 0.654083
0.434387 0.803192 0.601685
0.492096 0.801361 0.616974
0.562805 0.801819 0.644928
0.674194 0.791931 0.690521
0.741882 0.804352 0.726776
0.782867 0.806732 0.737000
0.828796 0.805969 0.711639
0.890930 0.810669 0.721802
0.610901 0.883606 0.702209
0.652679 0.880249 0.720337
0.710541 0.875519 0.748779
0.771973 0.869904 0.776855
0.819916 0.874573 0.800659
0.843170 0.877563 0.814789
0.868439 0.879944 0.807007
0.903595 0.881104 0.788940
0.062744 0.271271 0.653290
0.062744 0.270325 0.651154
0.062744 0.282867 0.679291
0.062744 0.159241 0.691376
0.264954 0.062805 0.674744
0.554993 0.062744 0.653625
0.809479 0.062744 0.698334
0.921570 0.062744 0.665588
0.062744 0.271912 0.654816
0.062744 0.256958 0.665924
0.062744 0.173309 0.683350
0.062744 0.109558 0.696075
0.328339 0.062744 0.680847
0.578766 0.062744 0.658691
0.814270 0.062744 0.694397
0.921570 0.062744 0.660339
0.062744 0.260773 0.660980
0.062744 0.178223 0.671722
0.062744 0.113739 0.692932
0.187897 0.067200 0.684784
0.446930 0.062744 0.667633
0.630402 0.062744 0.649384
0.826630 0.062744 0.679230
0.919708 0.062744 0.654419
0.062744 0.395294 0.655853
0.062744 0.394470 0.653931
0.062744 0.391541 0.667633
0.262451 0.356354 0.663055
0.481964 0.329712 0.630859
0.641174 0.314880 0.605347
0.773468 0.392548 0.629822
0.903412 0.456787 0.650269
0.062744 0.555389 0.630463
0.062744 0.556274 0.636414
0.062744 0.565277 0.653076
0.344971 0.555176 0.645111
0.506134 0.514557 0.621155
0.647675 0.494110 0.602661
0.782745 0.551117 0.643372
0.917114 0.577972 0.670654
0.062744 0.650513 0.581268
0.062744 0.652039 0.585876
0.191895 0.664368 0.612366
0.392975 0.656281 0.618622
0.540771 0.654358 0.628143
0.656311 0.643646 0.630524
0.799988 0.674622 0.667877
0.909943 0.705841 0.705078
0.234924 0.795837 0.626617
0.349792 0.794800 0.637573
0.453339 0.795929 0.659637
0.576202 0.791779 0.681702
0.682770 0.800964 0.720123
0.776154 0.806946 0.762695
0.818146 0.804443 0.752350
0.887878 0.817261 0.766571
0.492554 0.888275 0.694122
0.546539 0.886780 0.708588
0.619019 0.885345 0.731934
0.703857 0.882996 0.763184
0.804016 0.875641 0.809570
0.851135 0.884216 0.835571
0.872192 0.886108 0.842255
0.901001 0.885468 0.826172
0.062744 0.335693 0.783447
0.062744 0.335144 0.782440
0.062744 0.335114 0.791504
0.062744 0.296570 0.808411
0.062744 0.151215 0.799896
0.453552 0.062744 0.777863
0.703674 0.062744 0.765320
0.921570 0.062744 0.809052
0.062744 0.335175 0.782471
0.062744 0.340698 0.792023
0.062744 0.281677 0.794495
0.062744 0.236603 0.811127
0.062744 0.144684 0.802765
0.479889 0.062744 0.780548
0.719971 0.062744 0.766052
0.920166 0.062744 0.796448
0.062744 0.338654 0.788544
0.062744 0.319855 0.790222
0.062744 0.225250 0.796722
0.062744 0.160828 0.801849
0.228302 0.114441 0.797668
0.526764 0.062744 0.781677
0.745605 0.062744 0.766388
0.921570 0.062744 0.782501
0.062744 0.350800 0.791534
0.062744 0.341339 0.789063
0.062744 0.316772 0.799042
0.073181 0.307983 0.790894
0.411316 0.267914 0.774292
0.607239 0.257385 0.752686
0.778473 0.218781 0.743530
0.921112 0.189819 0.763702
0.062744 0.543060 0.777252
0.062744 0.547607 0.774414
0.062744 0.562469 0.781372
0.340149 0.574310 0.775604
0.482574 0.540161 0.765228
0.640900 0.501801 0.741852
0.788757 0.491486 0.728668
0.893860 0.573425 0.744690
0.062744 0.699768 0.756165
0.062744 0.698975 0.753235
0.062744 0.704865 0.764923
0.351807 0.713196 0.770172
0.542603 0.701599 0.765533
0.669220 0.664978 0.749298
0.786102 0.656494 0.738434
0.891418 0.707825 0.771515
0.062744 0.797760 0.721222
0.062744 0.790039 0.715912
0.216339 0.792572 0.730286
0.438477 0.791138 0.742828
0.590637 0.788208 0.753540
0.703827 0.784393 0.760132
0.793396 0.781921 0.768829
0.896393 0.813721 0.805389
0.144836 0.894379 0.717102
0.320404 0.892395 0.728577
0.470184 0.889648 0.747711
0.604980 0.886932 0.772919
0.724091 0.883820 0.800751
0.819550 0.887573 0.836304
0.879059 0.893219 0.868774
0.899811 0.893677 0.864502
0.062744 0.405548 0.879517
0.062744 0.404816 0.878723
0.062744 0.404510 0.878510
0.062744 0.392273 0.893250
0.062744 0.291504 0.894531
0.278534 0.228546 0.883911
0.616089 0.139343 0.867584
0.845795 0.075897 0.856903
0.062744 0.405243 0.879150
0.062744 0.406067 0.880005
0.062744 0.391113 0.877594
0.062744 0.341980 0.886444
0.062744 0.298187 0.900513
0.294830 0.237823 0.889282
0.628815 0.146088 0.871124
0.851563 0.073700 0.855652
0.062744 0.408508 0.882416
0.062744 0.403778 0.877716
0.062744 0.317657 0.860748
0.062744 0.251740 0.875519
0.062744 0.264191 0.892639
0.330444 0.230347 0.886871
0.647217 0.133209 0.868774
0.865204 0.063538 0.854767
0.062744 0.414948 0.888672
0.062744 0.407410 0.881439
0.062744 0.336639 0.870880
0.062744 0.253876 0.882751
0.106964 0.234558 0.882599
0.450928 0.198608 0.877747
0.687195 0.108307 0.864868
0.889038 0.076996 0.855804
0.062744 0.463654 0.886200
0.062744 0.482239 0.880249
0.062744 0.531830 0.864990
0.152283 0.551727 0.870911
0.317444 0.473663 0.879272
0.560577 0.425018 0.866119
0.743988 0.419220 0.851257
0.920502 0.382446 0.846252
0.062744 0.651794 0.873169
0.062744 0.663635 0.866089
0.062744 0.681030 0.862885
0.105591 0.696655 0.871643
0.520630 0.712036 0.868561
0.658691 0.692505 0.861877
0.775787 0.660400 0.848907
0.910645 0.654816 0.842377
0.062744 0.817078 0.861115
0.062744 0.815979 0.854889
0.062744 0.816406 0.855225
0.247833 0.820313 0.860931
0.545074 0.823730 0.863281
0.704376 0.821075 0.868683
0.805450 0.803467 0.864685
0.891968 0.798950 0.856537
0.062744 0.917725 0.819458
0.062744 0.912720 0.821991
0.062744 0.904419 0.823639
0.391174 0.896393 0.830688
0.597534 0.892517 0.847321
0.737976 0.888611 0.861023
0.837830 0.890106 0.872589
0.900177 0.896393 0.889252
