tools/luts_backup/LAPARDIN-WEDLUTS-4.cube
#Created by: Adobe Photoshop Export Color Lookup Plugin
#Copyright: (C) 2017 Andrey Lapardin. vk.com-3dluts
TITLE "Andrey Lapardin. vk.com-3dluts"
#LUT size
LUT_3D_SIZE 8
#data domain
#LUT data points
DOMAIN_MIN 0.000000 0.000000 0.000000
DOMAIN_MAX 0.903226 0.903226 0.903226
0.002930 0.005127 0.006256
0.073303 0.007324 0.009735
0.184784 0.003448 0.007843
0.343292 0.000000 0.004272
0.518097 0.000000 0.000000
0.684265 0.000000 0.000000
0.849274 0.000000 0.000000
0.985626 0.000000 0.000000
0.005127 0.070862 0.007782
0.073242 0.076508 0.008057
0.192047 0.078735 0.006195
0.353668 0.055389 0.001251
0.523010 0.012146 0.000000
0.686218 0.004913 0.000000
0.845795 0.000000 0.000000
0.984344 0.000244 0.000000
0.000000 0.193420 0.000000
0.065155 0.194824 0.001038
0.194733 0.188477 0.000000
0.362915 0.197906 0.000000
0.531067 0.189697 0.000000
0.688019 0.175385 0.000000
0.838623 0.157593 0.000000
0.970764 0.152283 0.000000
0.000000 0.361755 0.000000
0.026337 0.359406 0.000000
0.201813 0.356476 0.000000
0.363495 0.353943 0.000000
0.532166 0.355591 0.000000
0.691345 0.356171 0.000000
0.838562 0.350677 0.000000
0.960754 0.349884 0.000000
0.000000 0.521729 0.000000
0.024933 0.524139 0.000000
0.195770 0.515289 0.000000
0.381927 0.518036 0.000000
0.530304 0.510498 0.000000
0.687408 0.514252 0.000000
0.832764 0.515900 0.000000
0.954132 0.517670 0.000000
0.000000 0.671509 0.000000
0.075378 0.675049 0.000000
0.238312 0.671417 0.000000
0.387299 0.667053 0.000000
0.551788 0.666687 0.000000
0.685608 0.658142 0.000000
0.822754 0.664734 0.000000
0.940582 0.674438 0.000000
0.066040 0.806854 0.000000
0.198090 0.809235 0.000000
0.322693 0.814941 0.000000
0.418762 0.801971 0.000000
0.568420 0.804504 0.000000
0.710297 0.803955 0.000000
0.818542 0.795074 0.000000
0.930756 0.803802 0.000000
0.274719 0.916260 0.000641
0.327087 0.918335 0.000336
0.419067 0.921356 0.000000
0.491638 0.914795 0.000000
0.605225 0.911560 0.000122
0.736511 0.911743 0.000000
0.834045 0.907471 0.000000
0.925446 0.904755 0.001587
0.002472 0.004761 0.081818
0.066040 0.006439 0.080750
0.183502 0.001526 0.090240
0.343262 0.000000 0.090088
0.511108 0.000000 0.084076
0.671143 0.000000 0.073120
0.832520 0.000000 0.032501
0.978851 0.000000 0.000000
0.003906 0.070038 0.067566
0.081604 0.081360 0.084229
0.202881 0.081696 0.088470
0.370850 0.052460 0.084869
0.538788 0.024902 0.073792
0.692719 0.007111 0.055603
0.844543 0.000549 0.027771
0.970947 0.000244 0.016510
0.000000 0.185181 0.068390
0.081238 0.202942 0.083679
0.215149 0.212189 0.075378
0.383972 0.219055 0.057739
0.552277 0.204346 0.047028
0.707184 0.185974 0.032013
0.849091 0.182220 0.028442
0.961151 0.212646 0.027588
0.000000 0.349701 0.048065
0.044037 0.360931 0.058838
0.229218 0.368408 0.060089
0.391083 0.369049 0.040039
0.552338 0.377167 0.029053
0.709869 0.374023 0.021637
0.852783 0.363983 0.014954
0.958893 0.367065 0.016418
0.000000 0.513458 0.018463
0.034302 0.522766 0.011627
0.238037 0.534729 0.014465
0.410614 0.535187 0.023590
0.555176 0.525909 0.033539
0.705475 0.529419 0.023315
0.845306 0.532227 0.011719
0.949432 0.530212 0.006042
0.000000 0.665314 0.002258
0.093689 0.680908 0.001129
0.285889 0.687286 0.000000
0.418823 0.685974 0.025787
0.576538 0.681671 0.016937
0.706238 0.672455 0.019836
0.838287 0.677979 0.014709
0.939636 0.677979 0.032532
0.067444 0.800171 0.033417
0.218903 0.819611 0.020874
0.360992 0.825775 0.006592
0.466187 0.817688 0.022430
0.583252 0.812561 0.048889
0.724243 0.811218 0.045746
0.834290 0.801544 0.047119
0.932434 0.805328 0.060211
0.255737 0.908081 0.076660
0.341827 0.919037 0.103302
0.451996 0.921387 0.071594
0.548401 0.917786 0.094147
0.615906 0.906616 0.146667
0.737396 0.904358 0.136627
0.845856 0.904175 0.129272
0.932617 0.905334 0.139618
0.000000 0.000916 0.207184
0.028259 0.000916 0.215729
0.157837 0.000000 0.222687
0.347046 0.000000 0.250458
0.516266 0.000000 0.250244
0.676910 0.000000 0.243347
0.836945 0.000000 0.232971
0.977417 0.000000 0.206238
0.000000 0.072021 0.190369
0.057617 0.077850 0.213867
0.197021 0.071442 0.222351
0.364624 0.050323 0.237152
0.528015 0.030975 0.242035
0.688019 0.005493 0.239990
0.837555 0.000000 0.226593
0.961700 0.000000 0.212524
0.000000 0.182220 0.174408
0.066315 0.201385 0.196198
0.223083 0.226929 0.221161
0.398071 0.216156 0.215973
0.564148 0.207092 0.213959
0.716217 0.208435 0.216919
0.841309 0.226074 0.230957
0.939728 0.265625 0.265381
0.000000 0.343079 0.165527
0.047638 0.355438 0.184601
0.238556 0.387360 0.214966
0.403595 0.392639 0.209229
0.569946 0.391052 0.196533
0.724457 0.387146 0.200958
0.855621 0.384125 0.215668
0.955078 0.396851 0.250183
0.000000 0.502960 0.155365
0.024750 0.514984 0.183838
0.263885 0.540710 0.214844
0.417969 0.550873 0.222198
0.575684 0.547028 0.204407
0.722198 0.551270 0.194366
0.846771 0.549591 0.218597
0.944183 0.549286 0.249359
0.000000 0.656830 0.163147
0.070923 0.663574 0.193665
0.303802 0.688660 0.205475
0.439056 0.692841 0.233032
0.597687 0.695831 0.219940
0.723267 0.681976 0.225586
0.835571 0.686523 0.250702
0.937073 0.693329 0.262939
0.045135 0.796234 0.191376
0.196228 0.794861 0.214264
0.377655 0.811615 0.225464
0.495117 0.816162 0.237823
0.612671 0.816315 0.252747
0.743927 0.814178 0.242035
0.839874 0.807159 0.265778
0.932556 0.813538 0.289429
0.262299 0.903015 0.239594
0.316681 0.890808 0.248657
0.455780 0.893494 0.283264
0.573212 0.895477 0.271454
0.652649 0.909149 0.291138
0.754181 0.906830 0.286316
0.850861 0.906311 0.297150
0.937103 0.906006 0.306000
0.000000 0.000000 0.373047
0.000000 0.000000 0.389832
0.078827 0.000000 0.406281
0.286194 0.000000 0.412384
0.516632 0.000000 0.459991
0.680145 0.000000 0.461151
0.837982 0.000000 0.436340
0.973938 0.000000 0.424591
0.000000 0.061462 0.358002
0.002930 0.056030 0.384399
0.144104 0.052765 0.399414
0.321075 0.029968 0.407837
0.515869 0.010315 0.442780
0.677856 0.000000 0.451477
0.832428 0.000000 0.438446
0.953796 0.000000 0.426666
0.000000 0.190033 0.338013
0.018890 0.203918 0.365143
0.206055 0.218872 0.394958
0.387543 0.216827 0.398132
0.553192 0.216553 0.406860
0.703339 0.225525 0.414246
0.832794 0.255005 0.426971
0.937378 0.276855 0.431702
0.000000 0.342590 0.316254
0.020111 0.364227 0.345062
0.221649 0.392273 0.373779
0.408142 0.404114 0.387634
0.572998 0.389374 0.379211
0.721191 0.391388 0.383759
0.842285 0.415588 0.412048
0.951233 0.431274 0.429230
0.000000 0.502563 0.310577
0.017853 0.519897 0.329529
0.254486 0.534027 0.351959
0.418579 0.557770 0.385529
0.574982 0.558319 0.381256
0.722992 0.553741 0.375854
0.842346 0.559784 0.397400
0.955597 0.561798 0.409851
0.000000 0.655273 0.305023
0.073303 0.663910 0.323395
0.291779 0.670990 0.346863
0.458008 0.692932 0.392914
0.590363 0.698792 0.403351
0.724304 0.693481 0.388306
0.835510 0.698029 0.393402
0.932648 0.708008 0.416412
0.026581 0.790314 0.310486
0.199707 0.792969 0.340271
0.350952 0.785980 0.363831
0.526337 0.798676 0.408478
0.619049 0.809845 0.430054
0.748413 0.812897 0.420502
0.845032 0.808807 0.410919
0.930054 0.817352 0.442322
0.260040 0.895294 0.346710
0.322357 0.887970 0.378387
0.432709 0.884186 0.382050
0.586151 0.893433 0.424774
0.671234 0.903931 0.440033
0.759888 0.910522 0.450714
0.858917 0.908569 0.436310
0.938751 0.906372 0.459320
0.000000 0.000000 0.533508
0.000000 0.000000 0.540894
0.018555 0.000000 0.573792
0.250031 0.000000 0.577332
0.443878 0.000000 0.580444
0.681854 0.000000 0.647339
0.838409 0.000000 0.638214
0.969360 0.000000 0.616882
0.000000 0.036560 0.526672
0.000000 0.019958 0.546539
0.088715 0.008484 0.567078
0.277740 0.022339 0.575226
0.458466 0.005249 0.578461
0.674927 0.000000 0.632843
0.829773 0.000000 0.632751
0.948761 0.000000 0.612122
0.000000 0.182343 0.507782
0.001617 0.193481 0.528595
0.164703 0.207916 0.562073
0.352783 0.209076 0.558197
0.516113 0.213226 0.561920
0.681549 0.245087 0.595306
0.815704 0.270538 0.596893
0.926788 0.288544 0.597321
0.000000 0.345825 0.489349
0.001923 0.364471 0.512299
0.208984 0.385925 0.542175
0.389648 0.399017 0.552368
0.563354 0.396088 0.557251
0.713379 0.400787 0.557281
0.832458 0.431061 0.567169
0.944061 0.449402 0.570251
0.000000 0.500549 0.464081
0.002594 0.519531 0.488464
0.243561 0.544525 0.522614
0.412262 0.560638 0.539276
0.575012 0.568054 0.542816
0.721619 0.561249 0.541656
0.845551 0.564301 0.550323
0.949738 0.580505 0.570282
0.000000 0.655365 0.463043
0.050598 0.667419 0.477722
0.283020 0.679749 0.497314
0.453491 0.686096 0.526733
0.594208 0.703064 0.553925
0.722626 0.701569 0.546906
0.839386 0.704865 0.543793
0.936523 0.713379 0.565582
0.015656 0.791931 0.465546
0.203217 0.792175 0.471893
0.346680 0.796082 0.500946
0.501892 0.792969 0.514435
0.634491 0.813690 0.563995
0.739685 0.819885 0.572144
0.842163 0.819122 0.556030
0.929596 0.822235 0.570190
0.244568 0.896606 0.482635
0.325714 0.893616 0.489441
0.433838 0.889496 0.507050
0.555267 0.885925 0.513428
0.697845 0.898193 0.561218
0.766846 0.905884 0.594788
0.860107 0.908234 0.592621
0.937408 0.908020 0.586273
0.000000 0.000000 0.687988
0.000000 0.000000 0.689911
0.005829 0.000000 0.720886
0.222137 0.000000 0.731110
0.433990 0.000000 0.725616
0.609589 0.000000 0.727722
0.834625 0.000000 0.798248
0.964172 0.000000 0.785278
0.000000 0.001862 0.687012
0.000000 0.000000 0.699646
0.104126 0.000000 0.717194
0.255554 0.007477 0.729828
0.442261 0.000000 0.724335
0.615356 0.000000 0.725830
0.826599 0.000000 0.785217
0.943085 0.000000 0.769623
0.000000 0.183228 0.677063
0.000000 0.187653 0.685913
0.149750 0.190125 0.715576
0.336243 0.198639 0.711334
0.482300 0.225189 0.705597
0.638580 0.229034 0.708893
0.809296 0.245880 0.754120
0.915558 0.285065 0.743134
0.000000 0.346222 0.653534
0.000000 0.364014 0.666718
0.189514 0.384949 0.697754
0.377136 0.401733 0.706329
0.535370 0.400604 0.692841
0.685394 0.411865 0.692780
0.811432 0.452667 0.711273
0.929169 0.470154 0.708221
0.000000 0.506805 0.631805
0.002380 0.521027 0.648285
0.227875 0.547455 0.678650
0.410278 0.560638 0.685760
0.569580 0.571136 0.689056
0.714508 0.569427 0.690704
0.835907 0.572784 0.698853
0.939148 0.592773 0.699677
0.000000 0.649475 0.612946
0.059479 0.662262 0.623627
0.282898 0.683990 0.657227
0.449554 0.692719 0.669891
0.591614 0.705902 0.682007
0.724701 0.712585 0.685272
0.838348 0.712494 0.688934
0.935852 0.719452 0.699951
0.002899 0.788727 0.614319
0.191254 0.791718 0.619415
0.350739 0.799103 0.642059
0.497711 0.801300 0.651154
0.624786 0.813965 0.675781
0.740692 0.825897 0.699860
0.836609 0.825378 0.697327
0.923462 0.830872 0.701874
0.226135 0.898438 0.622375
0.314331 0.897339 0.628174
0.427338 0.898407 0.640930
0.548889 0.897736 0.655640
0.669525 0.893646 0.658722
0.781433 0.911133 0.696899
0.849457 0.915802 0.720642
0.931580 0.913574 0.715912
0.000000 0.000000 0.833832
0.000000 0.000000 0.832733
0.135223 0.000000 0.843719
0.248871 0.000000 0.863525
0.439728 0.000000 0.857452
0.608307 0.000000 0.846863
0.771179 0.000000 0.846863
0.959412 0.000000 0.897766
0.000000 0.000000 0.832764
0.000000 0.000000 0.842682
0.200043 0.000000 0.846893
0.292847 0.000000 0.858917
0.446625 0.000000 0.854004
0.614105 0.000000 0.842560
0.774658 0.000000 0.843719
0.937897 0.000000 0.880585
0.000000 0.182129 0.826050
0.000000 0.181427 0.826416
0.213013 0.188965 0.833191
0.355896 0.198425 0.840698
0.474701 0.229523 0.840820
0.620789 0.241425 0.832703
0.776642 0.237762 0.833313
0.909882 0.283356 0.851501
0.000000 0.355865 0.808075
0.004028 0.373138 0.810699
0.218750 0.395355 0.823364
0.397522 0.423981 0.825043
0.532257 0.416504 0.815186
0.660217 0.431702 0.807648
0.793152 0.443359 0.810272
0.908783 0.471039 0.833984
0.000000 0.512817 0.784302
0.014252 0.526947 0.790497
0.249481 0.549652 0.804413
0.425323 0.568848 0.811401
0.565399 0.586456 0.813416
0.694916 0.577484 0.804535
0.821106 0.585968 0.805969
0.921234 0.617401 0.812592
0.000000 0.659149 0.766388
0.096405 0.666595 0.769196
0.298706 0.685272 0.787476
0.452637 0.702606 0.795013
0.590454 0.712585 0.802521
0.725708 0.715729 0.807281
0.834991 0.716553 0.805237
0.927643 0.728912 0.811798
0.008789 0.786926 0.756042
0.198242 0.790161 0.755371
0.359314 0.798340 0.768127
0.495575 0.808502 0.782196
0.621490 0.816772 0.795654
0.742035 0.824921 0.801636
0.838623 0.829956 0.804871
0.926208 0.837738 0.815155
0.224670 0.897430 0.755737
0.309570 0.899200 0.759399
0.426453 0.900208 0.767151
0.543579 0.902618 0.775787
0.663116 0.902527 0.783173
0.766052 0.908691 0.791626
0.857300 0.923248 0.812225
0.925903 0.924042 0.819061
0.000000 0.000000 0.949585
0.010803 0.000000 0.949707
0.241577 0.000000 0.948730
0.354126 0.000000 0.964996
0.475983 0.000000 0.961029
0.626007 0.000000 0.948273
0.779846 0.000000 0.937592
0.914703 0.000000 0.936005
0.000000 0.000000 0.947083
0.030914 0.000000 0.945923
0.269867 0.000000 0.941681
0.390228 0.000000 0.948486
0.478424 0.000000 0.962280
0.630707 0.000000 0.951294
0.781433 0.000885 0.938416
0.911774 0.002197 0.930023
0.000000 0.173889 0.939758
0.029449 0.192261 0.934052
0.295929 0.235229 0.908936
0.424042 0.219940 0.925903
0.506470 0.226471 0.943848
0.631836 0.246094 0.940125
0.779602 0.257263 0.925842
0.905151 0.267212 0.921173
0.000000 0.381012 0.928467
0.038147 0.399445 0.917816
0.284790 0.428986 0.903076
0.441620 0.437500 0.915985
0.554749 0.422943 0.920776
0.660431 0.441833 0.915283
0.781128 0.457947 0.907593
0.899170 0.460724 0.908539
0.000000 0.528137 0.908752
0.101196 0.543671 0.902191
0.300262 0.573608 0.888519
0.449982 0.595734 0.901398
0.579529 0.604553 0.909576
0.696289 0.592102 0.899597
0.803131 0.605591 0.892609
0.907166 0.619812 0.895111
0.014282 0.669067 0.885529
0.169952 0.678253 0.879700
0.338165 0.692108 0.880280
0.474640 0.714111 0.892029
0.606171 0.727631 0.896729
0.725708 0.738098 0.896637
0.821777 0.732452 0.892090
0.919495 0.741364 0.892487
0.121918 0.800140 0.873077
0.253113 0.799133 0.868713
0.386200 0.804871 0.870300
0.512115 0.816803 0.878998
0.632111 0.827118 0.884491
0.742676 0.833679 0.895721
0.843079 0.838196 0.898407
0.924316 0.841034 0.898895
0.254761 0.900665 0.866852
0.329163 0.900513 0.868469
0.434692 0.902924 0.868286
0.544464 0.906158 0.871155
0.655090 0.909760 0.881897
0.759949 0.915131 0.890930
0.849792 0.921692 0.894318
0.928986 0.930145 0.900970
