tools/luts_backup/LAPARDIN-WEDLUTS-8.cube
#Created by: Adobe Photoshop Export Color Lookup Plugin
#Copyright: (C) 2017 Andrey Lapardin. vk.com-3dluts
TITLE "Andrey Lapardin. vk.com-3dluts"
#LUT size
LUT_3D_SIZE 32
#data domain
DOMAIN_MIN 0.0 0.0 0.0
DOMAIN_MAX 1.0 1.0 1.0
#LUT data points
0.032196 0.038361 0.039825
0.047363 0.040924 0.042175
0.063995 0.042053 0.043091
0.081390 0.042694 0.043610
0.100708 0.043243 0.044189
0.120605 0.044281 0.044952
0.142670 0.045898 0.046021
0.167450 0.047699 0.047180
0.195190 0.049164 0.048279
0.224670 0.049500 0.049164
0.255798 0.050018 0.049896
0.288330 0.050720 0.050537
0.322784 0.051300 0.050964
0.359100 0.051788 0.051300
0.397034 0.052185 0.051422
0.436096 0.052521 0.051270
0.475647 0.052734 0.050781
0.515167 0.052856 0.049896
0.554413 0.052765 0.048859
0.593048 0.052429 0.047913
0.630890 0.051697 0.046906
0.668030 0.050537 0.045807
0.703613 0.049042 0.044708
0.738281 0.047302 0.043610
0.772095 0.045380 0.042480
0.805603 0.043274 0.041260
0.838470 0.041077 0.040161
0.864410 0.038788 0.039307
0.883453 0.036530 0.039856
0.902191 0.034210 0.041046
0.920898 0.032288 0.042694
0.939148 0.032196 0.045197
0.034546 0.052551 0.041626
0.047394 0.052887 0.041779
0.064087 0.055603 0.042786
0.082336 0.057037 0.043457
0.101837 0.058044 0.044067
0.122711 0.059174 0.044861
0.145111 0.060699 0.045776
0.169769 0.062347 0.046753
0.197266 0.063629 0.047760
0.226288 0.064026 0.048584
0.257019 0.064148 0.049377
0.289215 0.064758 0.050079
0.323181 0.065399 0.050568
0.359131 0.065979 0.050903
0.396698 0.066467 0.050995
0.435455 0.066925 0.050812
0.474915 0.067291 0.050415
0.514465 0.067535 0.049805
0.553619 0.067627 0.049011
0.592072 0.067474 0.048065
0.629700 0.066925 0.046967
0.666534 0.066010 0.045807
0.701935 0.064728 0.044556
0.736450 0.063141 0.043304
0.770294 0.061310 0.041931
0.803894 0.059296 0.040649
0.836792 0.057129 0.039551
0.864410 0.054871 0.038605
0.883514 0.052582 0.038910
0.902222 0.050262 0.040009
0.920929 0.048248 0.041473
0.939178 0.047974 0.043823
0.035553 0.069000 0.041534
0.050110 0.069244 0.041779
0.064148 0.069489 0.042145
0.083252 0.072479 0.043121
0.102997 0.074280 0.043915
0.123840 0.075714 0.044708
0.146210 0.077057 0.045532
0.170929 0.078247 0.046356
0.198151 0.079132 0.047211
0.226868 0.079376 0.048096
0.257080 0.078949 0.049072
0.288788 0.077759 0.049957
0.322357 0.078217 0.050812
0.357910 0.078888 0.051361
0.395111 0.079529 0.051666
0.433594 0.080139 0.051697
0.472900 0.080688 0.051422
0.512543 0.081177 0.050964
0.552002 0.081573 0.050171
0.590546 0.081818 0.049164
0.627838 0.081818 0.047882
0.664337 0.081482 0.046448
0.699799 0.080841 0.044891
0.734406 0.079803 0.043274
0.768860 0.078461 0.041656
0.802582 0.076813 0.040161
0.835754 0.074951 0.038849
0.863983 0.072906 0.037811
0.883606 0.070801 0.037811
0.902283 0.068481 0.038757
0.920959 0.066437 0.040161
0.939209 0.066040 0.042389
0.034729 0.088257 0.042480
0.050598 0.088898 0.042755
0.065979 0.089142 0.043091
0.083099 0.089264 0.043213
0.102875 0.091827 0.044067
0.123535 0.093445 0.044922
0.145966 0.094574 0.045654
0.170807 0.095215 0.046326
0.198334 0.095367 0.046997
0.227234 0.095062 0.047821
0.257446 0.094147 0.048828
0.289032 0.092651 0.049957
0.322388 0.091400 0.050995
0.357605 0.091187 0.051819
0.394470 0.091675 0.052368
0.432495 0.092255 0.052673
0.471405 0.092834 0.052673
0.510559 0.093384 0.052429
0.549713 0.093903 0.051819
0.588074 0.094421 0.050873
0.625458 0.094879 0.049652
0.661896 0.095215 0.048065
0.697174 0.095276 0.046204
0.731934 0.095032 0.044220
0.766449 0.094452 0.042175
0.800232 0.093536 0.040253
0.833496 0.092346 0.038574
0.863068 0.090912 0.037140
0.883667 0.089325 0.036438
0.902283 0.087402 0.037262
0.920959 0.085541 0.038544
0.939178 0.085236 0.040802
0.034790 0.107422 0.043640
0.051422 0.108246 0.043457
0.067963 0.108643 0.043518
0.085541 0.108551 0.043762
0.103058 0.107819 0.044403
0.123535 0.109772 0.045563
0.145844 0.111145 0.046509
0.170776 0.112030 0.047058
0.198059 0.112396 0.047424
0.227142 0.112061 0.048004
0.257690 0.111084 0.048859
0.289490 0.109436 0.049896
0.323029 0.107056 0.050964
0.358063 0.105469 0.051880
0.394592 0.105011 0.052643
0.432129 0.105011 0.053162
0.470398 0.105103 0.053497
0.509094 0.105438 0.053589
0.547638 0.105774 0.053314
0.585541 0.106171 0.052643
0.622589 0.106659 0.051605
0.659149 0.107178 0.050140
0.694611 0.107574 0.048370
0.729462 0.107849 0.046234
0.764008 0.107941 0.043945
0.798065 0.107758 0.041626
0.831146 0.107422 0.039520
0.861420 0.106842 0.037659
0.883270 0.106049 0.036072
0.902374 0.104828 0.035797
0.921021 0.103424 0.036926
0.939209 0.103485 0.039154
0.035278 0.127167 0.044708
0.052887 0.128174 0.044098
0.070160 0.128571 0.043945
0.087830 0.128418 0.044220
0.106232 0.127472 0.045319
0.123505 0.125427 0.046478
0.145660 0.126801 0.047791
0.170624 0.128265 0.048462
0.198090 0.129395 0.048676
0.227020 0.129761 0.048889
0.257019 0.129272 0.049347
0.289154 0.127808 0.050079
0.322906 0.125580 0.050964
0.358124 0.122498 0.051758
0.394562 0.119354 0.052490
0.431915 0.118347 0.053101
0.469696 0.118073 0.053589
0.507629 0.118134 0.053925
0.545807 0.118164 0.053986
0.583374 0.118225 0.053741
0.620148 0.118378 0.053131
0.656555 0.118591 0.052094
0.691956 0.118896 0.050629
0.726898 0.119202 0.048798
0.761688 0.119476 0.046661
0.795563 0.119720 0.044250
0.829071 0.119873 0.041962
0.860199 0.119934 0.039825
0.881897 0.119873 0.038086
0.901703 0.119476 0.036560
0.921143 0.118774 0.036560
0.939545 0.119537 0.038605
0.035858 0.149323 0.045624
0.054077 0.150360 0.044525
0.071686 0.150757 0.043976
0.089020 0.150330 0.044617
0.107697 0.148773 0.046173
0.127045 0.147003 0.047882
0.145721 0.143463 0.049042
0.170807 0.144714 0.050049
0.198608 0.146759 0.050354
0.227631 0.148193 0.050354
0.257721 0.148560 0.050537
0.289246 0.147705 0.050842
0.323029 0.145844 0.051331
0.358612 0.143158 0.051849
0.395203 0.139923 0.052307
0.432220 0.136780 0.052673
0.469849 0.134705 0.053070
0.507324 0.133606 0.053467
0.544891 0.132111 0.053680
0.582001 0.131561 0.053741
0.618378 0.131348 0.053497
0.654541 0.131226 0.053223
0.689911 0.131104 0.052582
0.724182 0.131073 0.051575
0.758423 0.131104 0.050110
0.791718 0.131195 0.048309
0.824036 0.131287 0.046143
0.855591 0.131439 0.044006
0.879974 0.131561 0.042023
0.899567 0.131531 0.040100
0.919220 0.131256 0.039398
0.938446 0.132813 0.039856
0.036072 0.175751 0.046356
0.054718 0.176819 0.044556
0.072693 0.177002 0.043610
0.089355 0.176086 0.044708
0.107117 0.174042 0.046661
0.127686 0.171448 0.048798
0.150421 0.169037 0.050415
0.171539 0.164551 0.051239
0.199615 0.165527 0.052185
0.228943 0.167999 0.052612
0.259186 0.169312 0.052551
0.290436 0.169373 0.052429
0.323608 0.168213 0.052429
0.358643 0.166107 0.052429
0.395477 0.163483 0.052551
0.432709 0.160370 0.052612
0.470215 0.156525 0.052704
0.507477 0.153839 0.052734
0.544586 0.152222 0.052826
0.581268 0.150543 0.053070
0.617279 0.148956 0.053162
0.653046 0.147705 0.053223
0.687988 0.146545 0.053101
0.722260 0.145660 0.052765
0.755615 0.144897 0.052368
0.788086 0.144196 0.051544
0.819733 0.143829 0.050354
0.850494 0.143555 0.048859
0.877869 0.143311 0.047119
0.897217 0.143036 0.045135
0.916504 0.142670 0.043915
0.935699 0.144379 0.043884
0.036072 0.204102 0.046356
0.055084 0.205231 0.044098
0.073639 0.205109 0.042969
0.089905 0.203827 0.044342
0.104828 0.201782 0.046661
0.125793 0.198853 0.049164
0.150299 0.196228 0.051239
0.177460 0.194366 0.052826
0.200592 0.189178 0.053497
0.230225 0.190094 0.054535
0.260651 0.192078 0.054352
0.292114 0.192963 0.054077
0.324768 0.192810 0.053680
0.358185 0.191620 0.053223
0.394012 0.189941 0.052856
0.431152 0.187866 0.052582
0.468872 0.185364 0.052368
0.506226 0.182343 0.052063
0.543304 0.178802 0.051849
0.579803 0.174774 0.052032
0.615753 0.170593 0.052399
0.651642 0.166595 0.052887
0.686646 0.163727 0.053314
0.720367 0.162292 0.053650
0.753143 0.160858 0.053741
0.784912 0.159332 0.053589
0.815979 0.158295 0.053162
0.846191 0.157532 0.052490
0.873291 0.156769 0.051605
0.895325 0.156067 0.050476
0.914215 0.155396 0.049438
0.933167 0.156738 0.048615
0.035980 0.234711 0.046143
0.055298 0.235840 0.043427
0.074554 0.235687 0.042328
0.091156 0.234406 0.044006
0.105530 0.232300 0.046875
0.121613 0.229706 0.049835
0.147858 0.226898 0.052460
0.177765 0.224731 0.054443
0.208191 0.222961 0.055725
0.232208 0.216797 0.056305
0.262939 0.217468 0.057465
0.294739 0.219116 0.056885
0.327606 0.219757 0.055817
0.361176 0.219513 0.054565
0.395172 0.218506 0.053589
0.429565 0.217194 0.052856
0.466736 0.215942 0.052399
0.504150 0.214417 0.052063
0.541229 0.212494 0.052094
0.577759 0.210419 0.052460
0.613800 0.207977 0.052734
0.649658 0.205139 0.053070
0.684357 0.202301 0.053375
0.717773 0.200195 0.053741
0.750153 0.198334 0.054047
0.781494 0.196564 0.054291
0.812042 0.194519 0.054413
0.841919 0.192047 0.054352
0.869690 0.189331 0.054108
0.894165 0.186493 0.053650
0.912811 0.184113 0.053162
0.931488 0.184723 0.052643
0.035828 0.267792 0.046448
0.055420 0.269043 0.042603
0.075439 0.268951 0.041718
0.092743 0.267792 0.043640
0.106812 0.265686 0.047241
0.120453 0.263123 0.050842
0.142700 0.260590 0.053986
0.175201 0.258301 0.056335
0.209076 0.256317 0.057770
0.241364 0.254608 0.058838
0.266205 0.247650 0.059479
0.298279 0.248016 0.060455
0.331665 0.249207 0.059326
0.365723 0.249603 0.057465
0.399963 0.249115 0.055695
0.434204 0.248169 0.054108
0.468567 0.247009 0.053375
0.503937 0.246277 0.052887
0.541687 0.246124 0.052887
0.578400 0.245697 0.053253
0.614319 0.244965 0.053467
0.649597 0.243896 0.053619
0.683655 0.242126 0.053680
0.716492 0.239838 0.053772
0.748260 0.237854 0.053986
0.779022 0.235962 0.054260
0.808929 0.234100 0.054565
0.838043 0.231903 0.054871
0.866638 0.229340 0.055023
0.893127 0.226501 0.055023
0.912109 0.223724 0.054901
0.930603 0.223877 0.054901
0.035614 0.303131 0.046539
0.055481 0.304291 0.041382
0.076233 0.304413 0.040588
0.094513 0.303497 0.042664
0.108917 0.301514 0.047119
0.121643 0.298859 0.051819
0.136627 0.296570 0.055695
0.168915 0.294220 0.058502
0.206848 0.292145 0.060089
0.243042 0.290344 0.061127
0.276581 0.288544 0.062164
0.302338 0.280762 0.062683
0.335785 0.280701 0.063293
0.370453 0.281494 0.061676
0.405243 0.281677 0.059021
0.439972 0.281128 0.056519
0.474487 0.280304 0.054749
0.508392 0.279480 0.053925
0.542755 0.279053 0.053650
0.578888 0.279572 0.054169
0.615051 0.280457 0.054443
0.650665 0.280975 0.054535
0.684601 0.280884 0.054443
0.717133 0.280365 0.054291
0.748932 0.279358 0.054169
0.779541 0.278320 0.054169
0.809082 0.277618 0.054382
0.837769 0.276886 0.054718
0.865967 0.276062 0.055023
0.892792 0.274933 0.055267
0.912079 0.273529 0.055328
0.930359 0.273743 0.055664
0.035400 0.339996 0.046478
0.055359 0.341217 0.040558
0.076874 0.341553 0.039520
0.096222 0.340912 0.041260
0.111237 0.338837 0.046143
0.123718 0.336029 0.052368
0.136871 0.333557 0.057495
0.158051 0.331818 0.060822
0.199860 0.329529 0.062744
0.241302 0.327820 0.063690
0.278778 0.326111 0.064606
0.313690 0.324463 0.065521
0.339935 0.315521 0.065979
0.374603 0.315186 0.066284
0.410248 0.315857 0.064056
0.445435 0.315887 0.060455
0.480286 0.315338 0.057404
0.514465 0.314606 0.055573
0.547699 0.314026 0.054321
0.580627 0.313782 0.054840
0.614136 0.314331 0.055359
0.649658 0.315765 0.055664
0.683441 0.316650 0.055634
0.715698 0.316803 0.055298
0.746826 0.316559 0.054901
0.777252 0.316010 0.054504
0.806915 0.315582 0.054352
0.835754 0.315613 0.054443
0.863922 0.315674 0.054657
0.891022 0.315735 0.054993
0.912659 0.315460 0.055176
0.930664 0.316071 0.055695
0.035126 0.380859 0.049133
0.055145 0.382294 0.042328
0.077179 0.382751 0.040222
0.097656 0.382446 0.041138
0.113647 0.380249 0.045532
0.126160 0.376526 0.052521
0.138367 0.373199 0.059204
0.153351 0.370789 0.063690
0.187683 0.369080 0.065826
0.235474 0.367157 0.066986
0.278412 0.365540 0.067566
0.316925 0.364075 0.068390
0.353149 0.362366 0.069183
0.379913 0.352570 0.069519
0.415375 0.352173 0.069458
0.451202 0.352539 0.066559
0.486053 0.352173 0.061798
0.520233 0.351410 0.058441
0.553345 0.350555 0.056335
0.585632 0.349976 0.055267
0.617340 0.349854 0.056000
0.649872 0.350525 0.056549
0.682251 0.351685 0.056824
0.714478 0.352997 0.056702
0.745728 0.353607 0.056213
0.776001 0.353851 0.055511
0.805634 0.353760 0.054871
0.834595 0.353485 0.054443
0.862885 0.353607 0.054352
0.890656 0.353973 0.054474
0.913696 0.354309 0.054657
0.931458 0.355194 0.055328
0.034790 0.421265 0.055664
0.054749 0.422516 0.048035
0.077057 0.422974 0.044464
0.098602 0.423676 0.043854
0.115845 0.422455 0.046448
0.128815 0.418518 0.053192
0.140381 0.414185 0.061005
0.153625 0.410980 0.067047
0.175537 0.409302 0.070007
0.224579 0.407562 0.071259
0.274750 0.405792 0.071777
0.317627 0.404022 0.072296
0.356323 0.402161 0.072968
0.392700 0.400238 0.073547
0.419067 0.389771 0.073547
0.454498 0.389008 0.073395
0.489746 0.388763 0.069641
0.523529 0.387909 0.063721
0.556610 0.386719 0.059845
0.588989 0.385895 0.057251
0.620544 0.385590 0.056366
0.651581 0.385651 0.057190
0.681763 0.385986 0.057770
0.711884 0.386719 0.058014
0.742706 0.388031 0.057770
0.772827 0.388977 0.057037
0.802460 0.389282 0.056061
0.831390 0.389160 0.055115
0.860138 0.388916 0.054413
0.888611 0.389191 0.054108
0.914856 0.389679 0.054077
0.932739 0.390656 0.054749
0.034454 0.459595 0.064758
0.054291 0.460693 0.056244
0.076721 0.461121 0.050781
0.098938 0.461456 0.049896
0.117615 0.461884 0.049774
0.131592 0.458130 0.054901
0.142914 0.452576 0.063171
0.155060 0.448822 0.070770
0.170349 0.446991 0.075256
0.208740 0.446228 0.076691
0.266785 0.444458 0.077332
0.314758 0.442749 0.077637
0.356720 0.440857 0.078003
0.394928 0.438873 0.078552
0.430939 0.436798 0.079010
0.456909 0.426270 0.078705
0.492004 0.425140 0.078613
0.524689 0.423035 0.074066
0.557465 0.421692 0.066956
0.590027 0.420746 0.061890
0.621796 0.420319 0.058838
0.652863 0.420380 0.057495
0.682587 0.420685 0.058258
0.711395 0.421021 0.058868
0.740356 0.421631 0.059052
0.768951 0.422089 0.058655
0.798431 0.422852 0.057678
0.827271 0.423126 0.056396
0.856049 0.422974 0.055115
0.885223 0.422791 0.054077
0.913208 0.423065 0.053528
0.934296 0.423767 0.054077
0.034180 0.497650 0.075897
0.053833 0.498962 0.067627
0.076294 0.499603 0.060425
0.098999 0.499908 0.059387
0.118744 0.500732 0.058777
0.134308 0.500305 0.060455
0.145996 0.495056 0.068604
0.157257 0.488281 0.076874
0.170898 0.484558 0.082428
0.202026 0.482635 0.084717
0.255859 0.481476 0.084961
0.309418 0.479675 0.085022
0.354675 0.477936 0.085114
0.395111 0.476013 0.085388
0.432373 0.473938 0.085785
0.467682 0.471771 0.086182
0.492249 0.460388 0.085175
0.526642 0.458984 0.085480
0.560181 0.458130 0.080322
0.592468 0.457153 0.072052
0.624115 0.456299 0.065399
0.656647 0.457397 0.061829
0.686279 0.457489 0.059479
0.714996 0.457947 0.059204
0.743011 0.458435 0.059753
0.770477 0.458618 0.059875
0.797882 0.458557 0.059265
0.825897 0.458618 0.058014
0.854645 0.458710 0.056366
0.883942 0.458557 0.054596
0.913086 0.458374 0.053284
0.936707 0.458649 0.053253
0.033966 0.533203 0.087585
0.053528 0.534363 0.080292
0.075897 0.535004 0.072754
0.098877 0.535370 0.070770
0.119476 0.535950 0.070160
0.136505 0.536957 0.069885
0.149231 0.533417 0.075134
0.160034 0.527405 0.084015
0.172424 0.523315 0.091583
0.201782 0.521393 0.095642
0.251099 0.520630 0.096649
0.306610 0.519623 0.096466
0.355377 0.518127 0.096283
0.398346 0.516357 0.096161
0.437256 0.514343 0.096405
0.473419 0.511993 0.096710
0.507874 0.509583 0.096771
0.531006 0.497589 0.094635
0.565002 0.496277 0.096008
0.597351 0.495270 0.090210
0.628662 0.494354 0.080780
0.661041 0.494995 0.072754
0.690399 0.494537 0.066589
0.718689 0.494568 0.062836
0.746368 0.494995 0.059967
0.773529 0.495422 0.060455
0.800354 0.495453 0.060364
0.827026 0.495148 0.059479
0.854095 0.494293 0.057861
0.883148 0.494293 0.055664
0.913239 0.493958 0.053619
0.937988 0.493927 0.053284
0.033905 0.567841 0.100708
0.053345 0.569946 0.095520
0.075623 0.572968 0.090424
0.098755 0.573547 0.087524
0.119934 0.574158 0.087250
0.138031 0.575195 0.087006
0.152283 0.574249 0.088409
0.163086 0.565735 0.094055
0.174408 0.559631 0.101898
0.203644 0.556152 0.106628
0.247345 0.554688 0.108276
0.301056 0.554504 0.108185
0.351685 0.553314 0.107880
0.396698 0.551819 0.107605
0.437531 0.550110 0.107483
0.475220 0.548126 0.107727
0.510590 0.545990 0.108185
0.544434 0.543854 0.108459
0.568085 0.533203 0.105957
0.600739 0.531677 0.108643
0.631714 0.530579 0.102875
0.662201 0.529724 0.093292
0.691528 0.529022 0.083893
0.719910 0.528778 0.075775
0.747620 0.529175 0.068817
0.774780 0.529877 0.065155
0.801636 0.530579 0.060852
0.828308 0.530884 0.060425
0.855164 0.530609 0.059204
0.882629 0.529572 0.057037
0.911407 0.528625 0.054718
0.937469 0.528809 0.054138
0.033936 0.602020 0.116089
0.053284 0.603333 0.111145
0.075500 0.605042 0.105316
0.098602 0.605896 0.101715
0.120239 0.606354 0.101501
0.139130 0.606964 0.101349
0.154633 0.607666 0.101349
0.166046 0.602234 0.106354
0.176636 0.594666 0.113281
0.207581 0.590668 0.119232
0.250427 0.588684 0.121887
0.302032 0.588135 0.122284
0.349457 0.587921 0.121643
0.395386 0.586761 0.121216
0.437561 0.585297 0.120941
0.476318 0.583405 0.120941
0.512543 0.581238 0.121033
0.546631 0.578979 0.121368
0.579437 0.576904 0.121521
0.602844 0.567230 0.118622
0.633820 0.565582 0.121826
0.663788 0.564392 0.117554
0.692932 0.563751 0.109344
0.721252 0.563354 0.100067
0.748993 0.563385 0.091187
0.776093 0.564056 0.083282
0.802887 0.564941 0.075287
0.829437 0.565826 0.068268
0.856232 0.566254 0.061310
0.883575 0.565979 0.058624
0.911621 0.565063 0.056458
0.936768 0.564148 0.055817
0.034088 0.633179 0.130402
0.053345 0.634399 0.126129
0.075500 0.635529 0.120941
0.098572 0.636475 0.116974
0.120392 0.636993 0.116364
0.139954 0.636505 0.114777
0.156342 0.637207 0.114716
0.168884 0.634247 0.116425
0.179077 0.625763 0.121613
0.212524 0.621887 0.129913
0.255981 0.620209 0.134766
0.304474 0.619568 0.136108
0.348999 0.619598 0.135773
0.393311 0.619110 0.135223
0.435883 0.617920 0.134674
0.475494 0.616333 0.134338
0.512512 0.614380 0.134277
0.547302 0.612213 0.134369
0.580322 0.610138 0.134705
0.611938 0.608276 0.135071
0.635101 0.599731 0.132294
0.664703 0.598022 0.135773
0.693176 0.596893 0.133545
0.721313 0.596466 0.126984
0.749054 0.596405 0.118561
0.776306 0.596832 0.110321
0.803131 0.597839 0.102295
0.829620 0.598999 0.094238
0.856201 0.600067 0.084991
0.883057 0.600647 0.075653
0.910583 0.600433 0.065063
0.936157 0.599548 0.059235
0.034332 0.662384 0.143951
0.053528 0.663544 0.140472
0.075562 0.664581 0.136139
0.098602 0.665436 0.131927
0.120544 0.665894 0.130585
0.140594 0.666168 0.130402
0.158020 0.666718 0.130280
0.178131 0.666321 0.130707
0.189789 0.658417 0.134064
0.223846 0.651886 0.139893
0.261505 0.649536 0.145813
0.306671 0.648621 0.148163
0.349365 0.648529 0.148499
0.390472 0.648712 0.147888
0.432678 0.647919 0.147308
0.472778 0.646729 0.146912
0.510681 0.645203 0.146667
0.546265 0.643555 0.146942
0.580109 0.641754 0.147614
0.612183 0.640106 0.148621
0.642670 0.638733 0.149811
0.665771 0.631317 0.147308
0.693878 0.629883 0.151215
0.721191 0.628754 0.151093
0.748901 0.628693 0.146332
0.776245 0.629120 0.138580
0.803314 0.630157 0.131378
0.829926 0.631592 0.124542
0.856354 0.633057 0.117401
0.882813 0.634430 0.109497
0.909973 0.635376 0.101013
0.935516 0.634766 0.091553
0.034607 0.693481 0.163055
0.053741 0.694458 0.160187
0.075745 0.695251 0.156464
0.098724 0.696014 0.152313
0.120758 0.696350 0.150177
0.141602 0.696503 0.149841
0.178894 0.696838 0.149597
0.216400 0.697388 0.149658
0.238251 0.693054 0.152985
0.251770 0.685211 0.156860
0.282562 0.681671 0.162994
0.319550 0.680023 0.166046
0.358063 0.679565 0.166779
0.396667 0.679688 0.166473
0.435303 0.679657 0.165863
0.474640 0.678833 0.165375
0.512390 0.677704 0.164978
0.548218 0.676300 0.164886
0.582306 0.674683 0.165253
0.614563 0.673065 0.166138
0.644806 0.671509 0.167419
0.673767 0.670074 0.168884
0.696320 0.663696 0.166718
0.723145 0.662415 0.170502
0.749542 0.661224 0.171722
0.776703 0.661438 0.168579
0.803802 0.662506 0.161743
0.830658 0.664032 0.155518
0.857239 0.665863 0.149933
0.883606 0.667938 0.144867
0.910156 0.669586 0.139587
0.935577 0.669525 0.133179
0.036957 0.721497 0.178680
0.056335 0.722351 0.176178
0.079315 0.723083 0.173096
0.104492 0.723785 0.169800
0.134918 0.724213 0.167267
0.177734 0.724365 0.166687
0.217072 0.724609 0.166565
0.248199 0.725189 0.166656
0.270416 0.723999 0.167999
0.284454 0.717255 0.173126
0.305389 0.712585 0.179230
0.335480 0.710449 0.183533
0.369629 0.709717 0.185089
0.405121 0.709686 0.185120
0.440826 0.709900 0.184662
0.477722 0.709625 0.184082
0.514709 0.708740 0.183533
0.550323 0.707642 0.183136
0.584442 0.706177 0.183075
0.616699 0.704590 0.183411
0.646790 0.702972 0.184479
0.675232 0.701355 0.185974
0.702087 0.699829 0.187683
0.724426 0.694550 0.186401
0.750641 0.693512 0.189484
0.776306 0.692352 0.191376
0.803009 0.692902 0.190063
0.829865 0.694458 0.183960
0.856567 0.696442 0.178741
0.882904 0.698883 0.174561
0.909393 0.701141 0.171082
0.935272 0.701569 0.166870
0.096252 0.749786 0.196655
0.118011 0.750763 0.194946
0.141663 0.751434 0.192535
0.165710 0.752045 0.189728
0.189484 0.752441 0.186798
0.220154 0.752533 0.185791
0.251190 0.752625 0.185425
0.278381 0.752930 0.185242
0.300415 0.753540 0.185333
0.313293 0.748230 0.189636
0.327209 0.742249 0.194733
0.351318 0.739288 0.199463
0.381012 0.738129 0.201599
0.413757 0.737946 0.202057
0.447449 0.738159 0.201874
0.481415 0.738464 0.201355
0.517212 0.737915 0.200836
0.552429 0.737091 0.200439
0.586456 0.736053 0.200226
0.618774 0.734711 0.200256
0.648834 0.733246 0.200928
0.676910 0.731689 0.202362
0.702972 0.730011 0.204315
0.728210 0.728455 0.206238
0.750732 0.724182 0.205322
0.776855 0.723694 0.207611
0.802124 0.722748 0.209900
0.828400 0.723633 0.210754
0.855103 0.725739 0.205780
0.881561 0.728394 0.201874
0.908020 0.730927 0.198792
0.934479 0.731659 0.195679
0.130402 0.776520 0.211365
0.151001 0.777344 0.209961
0.174225 0.778015 0.208008
0.198151 0.778595 0.205750
0.220947 0.779053 0.203186
0.247589 0.779236 0.201874
0.276306 0.779297 0.201630
0.301971 0.779633 0.201538
0.323303 0.780212 0.201599
0.338165 0.777863 0.204102
0.348663 0.771271 0.209106
0.368744 0.767853 0.215088
0.394989 0.766418 0.218292
0.424927 0.766052 0.219299
0.456512 0.766235 0.219360
0.488647 0.766510 0.218933
0.521790 0.766541 0.218323
0.556000 0.765900 0.217804
0.589569 0.765106 0.217377
0.621735 0.764130 0.217316
0.651764 0.762970 0.217773
0.679474 0.761566 0.218994
0.704742 0.759949 0.221008
0.728943 0.758301 0.223358
0.753357 0.756866 0.225159
0.776550 0.753815 0.224426
0.802856 0.753876 0.225861
0.827728 0.753143 0.228088
0.853424 0.754089 0.230865
0.879944 0.756897 0.227325
0.906372 0.759552 0.224335
0.932800 0.760712 0.222046
0.156677 0.802979 0.225403
0.176819 0.803741 0.224274
0.199860 0.804413 0.222687
0.223816 0.804962 0.220917
0.246796 0.805450 0.218933
0.271149 0.805725 0.217224
0.298370 0.805908 0.217194
0.323547 0.806213 0.217285
0.344757 0.806763 0.217529
0.361633 0.806915 0.218384
0.368469 0.799866 0.221252
0.384430 0.795532 0.227234
0.408447 0.793915 0.232239
0.436005 0.793427 0.234283
0.465637 0.793518 0.234772
0.496338 0.793762 0.234619
0.527527 0.794098 0.234192
0.560181 0.793823 0.233643
0.593018 0.793243 0.233154
0.624786 0.792511 0.232849
0.654694 0.791656 0.233063
0.682220 0.790558 0.234253
0.707092 0.789215 0.236511
0.730377 0.787659 0.239197
0.753662 0.786194 0.241638
0.777832 0.785156 0.243134
0.802185 0.783508 0.242706
0.828644 0.784210 0.243530
0.853088 0.783508 0.245331
0.878204 0.784546 0.248871
0.904388 0.786926 0.246429
0.930786 0.788544 0.245148
0.180511 0.829681 0.239929
0.200745 0.830505 0.239166
0.223938 0.831146 0.238037
0.248199 0.831787 0.236816
0.271637 0.832367 0.235504
0.295135 0.832916 0.234192
0.321899 0.833252 0.234619
0.347076 0.833679 0.235229
0.368591 0.834351 0.235901
0.387085 0.835327 0.236816
0.398407 0.831665 0.239746
0.408417 0.825745 0.243439
0.427063 0.822937 0.248047
0.450928 0.821686 0.250580
0.478302 0.821533 0.251770
