tools/luts_backup/LAPARDIN-WEDLUTS-9.cube
#Created by: Adobe Photoshop Export Color Lookup Plugin
#Copyright: (C) 2017 Andrey Lapardin. vk.com-3dluts
TITLE "Andrey Lapardin. vk.com-3dluts"
#LUT size
LUT_3D_SIZE 8
#data domain
#LUT data points
DOMAIN_MIN 0.000000 0.000000 0.000000
DOMAIN_MAX 0.903226 0.903226 0.903226
0.032196 0.038361 0.039795
0.101135 0.042725 0.044678
0.198334 0.049042 0.046112
0.331879 0.051483 0.046326
0.493530 0.053162 0.043762
0.653381 0.050781 0.041351
0.790283 0.042664 0.041901
0.892242 0.032776 0.046082
0.035248 0.104736 0.047638
0.102539 0.104584 0.047058
0.198456 0.110657 0.049500
0.326385 0.105316 0.052338
0.480286 0.103516 0.053833
0.640991 0.105011 0.050018
0.782654 0.108032 0.042542
0.890228 0.104248 0.042053
0.036438 0.199402 0.055237
0.109589 0.197845 0.052155
0.204681 0.186951 0.057251
0.332458 0.193359 0.056366
0.482849 0.185272 0.054199
0.634399 0.168671 0.054443
0.776001 0.161407 0.055115
0.890533 0.173431 0.049530
0.036285 0.339844 0.071777
0.113617 0.338959 0.059448
0.219727 0.334625 0.069489
0.355255 0.312195 0.072418
0.500732 0.317902 0.062103
0.636963 0.318329 0.059021
0.767212 0.320709 0.060486
0.886475 0.328400 0.063965
0.036469 0.503174 0.103729
0.118347 0.507080 0.082397
0.198303 0.499542 0.093781
0.395050 0.489563 0.100159
0.522858 0.459595 0.097412
0.652466 0.468903 0.075226
0.763550 0.469513 0.067841
0.872253 0.473846 0.067902
0.036621 0.640594 0.150208
0.118225 0.649658 0.131775
0.224487 0.640930 0.139771
0.408630 0.630371 0.158966
0.563263 0.623199 0.158508
0.664520 0.600220 0.150482
0.768066 0.607666 0.141815
0.863403 0.612091 0.126495
0.111298 0.758087 0.213440
0.207947 0.770020 0.204010
0.319244 0.764679 0.207886
0.444366 0.746429 0.232300
0.572266 0.740417 0.234894
0.690308 0.737061 0.234558
0.771393 0.723663 0.232635
0.870636 0.740021 0.249664
0.215363 0.868073 0.272919
0.307922 0.879486 0.269867
0.397980 0.871521 0.280121
0.493286 0.854645 0.300507
0.597107 0.851929 0.306549
0.701141 0.850922 0.309082
0.792786 0.847595 0.319489
0.883575 0.849701 0.318634
0.037842 0.041107 0.103699
0.098969 0.045105 0.102325
0.193756 0.047638 0.107361
0.324188 0.048309 0.108795
0.469086 0.051544 0.108887
0.621002 0.051239 0.105682
0.770264 0.043365 0.101837
0.890900 0.032288 0.103088
0.036316 0.104492 0.103821
0.114227 0.115356 0.113647
0.214508 0.117676 0.116760
0.345093 0.114288 0.114807
0.492401 0.111237 0.110016
0.637573 0.114624 0.107635
0.776611 0.111755 0.105560
0.884369 0.111084 0.112579
0.039948 0.196503 0.119751
0.121826 0.212250 0.128723
0.223663 0.214539 0.125824
0.353790 0.214661 0.119171
0.506531 0.202393 0.116425
0.652557 0.192352 0.113281
0.776642 0.203339 0.115906
0.879944 0.214142 0.124603
0.040680 0.331482 0.143982
0.114227 0.348755 0.150543
0.235626 0.356171 0.151428
0.381744 0.345978 0.146973
0.524475 0.345642 0.130890
0.661987 0.342438 0.119537
0.788025 0.345856 0.120117
0.885132 0.346405 0.130676
0.039185 0.499176 0.187836
0.116058 0.515015 0.188721
0.219635 0.520294 0.183502
0.412842 0.516113 0.188019
0.548462 0.490417 0.183533
0.664185 0.490997 0.175049
0.775238 0.488586 0.140228
0.892395 0.483551 0.126221
0.037689 0.641174 0.237396
0.127930 0.655151 0.238342
0.266235 0.660583 0.227631
0.424255 0.652893 0.245911
0.578613 0.644073 0.243347
0.673645 0.618317 0.248688
0.776001 0.624756 0.244019
0.893616 0.628510 0.196106
0.135712 0.761169 0.295166
0.239075 0.773956 0.291748
0.340881 0.778381 0.281891
0.464081 0.770691 0.298126
0.582916 0.756866 0.311035
0.696808 0.748535 0.325928
0.787903 0.745483 0.314606
0.898560 0.763123 0.312012
0.225525 0.870667 0.347931
0.323730 0.880096 0.348907
0.415741 0.885101 0.344116
0.516785 0.886261 0.353821
0.615601 0.885529 0.376587
0.727600 0.885071 0.381927
0.824860 0.883972 0.387177
0.910492 0.883301 0.390442
0.038788 0.043060 0.182495
0.100769 0.046967 0.184692
0.177521 0.048523 0.183563
0.321442 0.044342 0.198120
0.483032 0.044800 0.200348
0.639099 0.043945 0.190216
0.777374 0.040283 0.187012
0.890900 0.031189 0.173126
0.039429 0.113953 0.183594
0.117188 0.124207 0.198242
0.208893 0.131989 0.201355
0.346832 0.129181 0.210602
0.503845 0.113617 0.207336
0.646362 0.113373 0.196655
0.777618 0.112457 0.188263
0.882690 0.113800 0.179688
0.039886 0.197479 0.191223
0.122375 0.211029 0.203522
0.238159 0.233185 0.220337
0.374725 0.222229 0.211456
0.527649 0.213409 0.206665
0.668182 0.216431 0.203064
0.779877 0.222717 0.202911
0.874237 0.248657 0.220947
0.046051 0.325531 0.217407
0.114624 0.342896 0.222992
0.240601 0.377319 0.238190
0.393616 0.371613 0.236420
0.535431 0.358063 0.216980
0.677338 0.360107 0.217010
0.788147 0.363495 0.220306
0.887146 0.348145 0.230377
0.048157 0.482574 0.242798
0.117432 0.503937 0.261200
0.243530 0.533417 0.272552
0.418274 0.532959 0.281616
0.559662 0.515442 0.270996
0.678955 0.509979 0.253204
0.787140 0.502991 0.238800
0.896759 0.488312 0.238129
0.046661 0.627014 0.286804
0.153137 0.643646 0.313904
0.290619 0.666687 0.320801
0.437653 0.662964 0.331909
0.582733 0.656738 0.337830
0.692413 0.639496 0.329132
0.794220 0.646729 0.334930
0.894928 0.638824 0.306274
0.142059 0.754822 0.353363
0.255646 0.763367 0.370392
0.363312 0.776154 0.375122
0.479828 0.777496 0.376740
0.592926 0.776001 0.392700
0.715515 0.773499 0.391968
0.810425 0.769592 0.405396
0.897247 0.768890 0.410645
0.228241 0.868652 0.409790
0.325531 0.880524 0.418091
0.429810 0.887146 0.427399
0.532501 0.889343 0.428406
0.627686 0.889191 0.441467
0.724762 0.887634 0.456238
0.825623 0.886139 0.467072
0.908539 0.884216 0.463165
0.038605 0.044281 0.285217
0.099915 0.047333 0.295563
0.168732 0.058167 0.301331
0.286407 0.060150 0.309845
0.480530 0.055450 0.348663
0.646179 0.038086 0.347015
0.787750 0.035492 0.339905
0.892242 0.030731 0.331512
0.039978 0.122101 0.284119
0.117767 0.133545 0.304443
0.206696 0.148895 0.313477
0.321655 0.165222 0.327057
0.492249 0.182678 0.359863
0.651764 0.144501 0.361877
0.786987 0.112885 0.350342
0.883820 0.115570 0.348053
0.042175 0.214264 0.297668
0.126129 0.220734 0.308899
0.237885 0.245667 0.335083
0.369904 0.261047 0.342377
0.531494 0.257477 0.351715
0.679169 0.252136 0.360413
0.790558 0.255890 0.367645
0.880859 0.258698 0.369324
0.041412 0.332581 0.309906
0.114960 0.346497 0.323578
0.242950 0.374268 0.351868
0.403625 0.392456 0.365356
0.552185 0.374908 0.347321
0.682739 0.378052 0.351135
0.789703 0.390442 0.369537
0.892639 0.382080 0.371094
0.046753 0.492432 0.356781
0.119049 0.503693 0.364532
0.263733 0.519318 0.377258
0.414703 0.539276 0.395782
0.557770 0.527008 0.392181
0.677429 0.515686 0.370514
0.794739 0.518127 0.370453
0.901703 0.495331 0.370789
0.047821 0.631500 0.392090
0.171112 0.638031 0.398956
0.302582 0.649414 0.412415
0.449585 0.664215 0.431641
0.583191 0.664886 0.445679
0.694733 0.654358 0.431366
0.793579 0.657837 0.429138
0.892731 0.642120 0.412659
0.138519 0.752686 0.432892
0.248322 0.756439 0.441742
0.364288 0.766022 0.453949
0.493011 0.778534 0.469360
0.602478 0.778717 0.484619
0.716736 0.777283 0.487823
0.811646 0.771942 0.481201
0.890411 0.771362 0.502594
0.216797 0.865570 0.478363
0.313293 0.873810 0.489075
0.420868 0.881073 0.497406
0.539307 0.888977 0.514954
0.638855 0.887909 0.521637
0.728577 0.889252 0.537415
0.825378 0.887909 0.543030
0.908447 0.885345 0.548615
0.038818 0.045929 0.407715
0.111877 0.049744 0.421844
0.148682 0.069427 0.448334
0.286560 0.095276 0.461914
0.433167 0.105194 0.472687
0.638855 0.113403 0.525238
0.776703 0.127289 0.520416
0.893555 0.113098 0.521606
0.038635 0.136993 0.407715
0.117523 0.145416 0.430084
0.197754 0.161713 0.450989
0.314209 0.192200 0.467651
0.453827 0.215881 0.484894
0.637207 0.232025 0.532196
0.771759 0.238647 0.534637
0.879669 0.236237 0.534912
0.045135 0.215881 0.410553
0.125580 0.234070 0.433380
0.238220 0.265686 0.468140
0.361481 0.292358 0.475739
0.501740 0.322174 0.496826
0.650299 0.360840 0.529266
0.765045 0.362488 0.543671
0.867126 0.358887 0.552002
0.046021 0.346680 0.439911
0.116638 0.355621 0.449402
0.245728 0.375458 0.475006
0.404053 0.410767 0.497925
0.544739 0.432587 0.512024
0.675537 0.433380 0.515289
0.787109 0.439636 0.526672
0.885925 0.445801 0.545959
0.041412 0.494659 0.466187
0.117828 0.503540 0.477264
0.266907 0.516632 0.492615
0.413025 0.535065 0.515411
0.561462 0.545502 0.521576
0.685120 0.531586 0.505920
0.795929 0.530243 0.507904
0.896942 0.529755 0.523010
0.044098 0.636780 0.505585
0.170227 0.642365 0.514526
0.305603 0.650238 0.527344
0.440826 0.655609 0.535004
0.574371 0.667236 0.550201
0.688477 0.660767 0.545563
0.790985 0.655823 0.529083
0.895813 0.648285 0.524414
0.120056 0.755310 0.535156
0.234283 0.757599 0.542938
0.348328 0.762726 0.552216
0.475067 0.768005 0.558960
0.605164 0.777863 0.573792
0.711273 0.780273 0.583435
0.804932 0.776154 0.572968
0.889893 0.778168 0.584076
0.187073 0.867859 0.567688
0.286285 0.873657 0.576904
0.397003 0.874603 0.584167
0.517975 0.878571 0.588715
0.639618 0.885345 0.606537
0.733734 0.886841 0.621002
0.828613 0.889191 0.624146
0.907990 0.884277 0.628815
0.039185 0.055389 0.547180
0.122345 0.062256 0.557129
0.155457 0.088318 0.589874
0.292175 0.118164 0.604004
0.439392 0.162415 0.613373
0.591888 0.173981 0.630219
0.763580 0.190430 0.673340
0.870972 0.219971 0.673676
0.038147 0.155273 0.544739
0.126709 0.164734 0.568298
0.208862 0.181061 0.591217
0.314056 0.215729 0.608948
0.454010 0.259186 0.619629
0.600952 0.273773 0.637421
0.761139 0.287048 0.676636
0.856873 0.317902 0.674316
0.042938 0.241150 0.550446
0.134064 0.260010 0.568604
0.241882 0.289001 0.604095
0.360138 0.314301 0.605927
0.493317 0.363983 0.619507
0.620331 0.384155 0.640228
0.750641 0.399353 0.667511
0.848572 0.418304 0.676971
0.048035 0.347626 0.564026
0.117615 0.355133 0.570587
0.245819 0.385132 0.601440
0.401184 0.431000 0.617737
0.532898 0.463409 0.623962
0.654907 0.484406 0.640656
0.766632 0.512909 0.660645
0.863373 0.510956 0.675690
0.047974 0.501617 0.593170
0.120056 0.508728 0.600769
0.253113 0.520844 0.606537
0.404449 0.531433 0.618958
0.561096 0.561432 0.634033
0.678741 0.573792 0.645996
0.786072 0.576569 0.652374
0.883972 0.587128 0.664856
0.041412 0.634125 0.610901
0.156403 0.639679 0.620850
0.292023 0.645630 0.628143
0.431885 0.651489 0.635468
0.567566 0.665100 0.648865
0.692169 0.674500 0.653656
0.796234 0.665558 0.644745
0.895996 0.665436 0.649902
0.109192 0.759918 0.644104
0.222748 0.759247 0.650024
0.340851 0.763000 0.658691
0.465057 0.765869 0.661133
0.588196 0.771149 0.664001
0.704956 0.785706 0.679565
0.801300 0.783386 0.675659
0.892334 0.782196 0.670044
0.181763 0.868500 0.670135
0.276276 0.874420 0.677826
0.380859 0.873474 0.679932
0.493591 0.873260 0.680328
0.614380 0.878448 0.684052
0.735077 0.886047 0.702454
0.825531 0.890808 0.710022
0.906708 0.887177 0.706177
0.037689 0.081818 0.687103
0.138214 0.095917 0.693176
0.230408 0.121216 0.719971
0.325653 0.158234 0.731873
0.462524 0.198944 0.735748
0.594879 0.247803 0.737976
0.724152 0.237946 0.753448
0.867462 0.247101 0.790253
0.035614 0.179230 0.685211
0.166626 0.194214 0.700897
0.265778 0.216644 0.718292
0.343719 0.250244 0.732849
0.473877 0.290588 0.737183
0.606598 0.335815 0.739746
0.730194 0.325623 0.755951
0.854980 0.339722 0.778931
0.037598 0.281464 0.693054
0.164490 0.295227 0.701294
0.287048 0.326599 0.716095
0.383057 0.350189 0.721619
0.496338 0.385620 0.738983
0.624512 0.425385 0.745911
0.737885 0.417999 0.758392
0.849915 0.432861 0.772400
0.043823 0.366852 0.694031
0.124054 0.384003 0.698822
0.276917 0.419037 0.711548
0.415649 0.461853 0.725525
0.533356 0.484619 0.727875
0.651581 0.522003 0.739990
0.751831 0.522064 0.758240
0.855072 0.530273 0.771790
0.046570 0.507141 0.708618
0.123566 0.513519 0.710754
0.241638 0.519745 0.711060
0.389862 0.533936 0.725494
0.557953 0.578827 0.735596
0.675720 0.605255 0.743988
0.774292 0.616547 0.756348
0.868774 0.634308 0.769836
0.046539 0.646576 0.726105
0.136566 0.650787 0.730072
0.273621 0.651398 0.733459
0.418427 0.656769 0.730957
0.552704 0.661896 0.739777
0.691864 0.688171 0.752808
0.793060 0.698395 0.762878
0.886017 0.703888 0.768402
0.107544 0.756470 0.733368
0.213562 0.758392 0.739349
0.321686 0.764954 0.752197
0.446838 0.764465 0.751801
0.575623 0.767914 0.753784
0.693756 0.782135 0.764679
0.804840 0.793182 0.771118
0.898834 0.788391 0.767059
0.172607 0.873596 0.767487
0.265717 0.882751 0.778625
0.372253 0.878357 0.780334
0.488403 0.874420 0.780029
0.602417 0.876556 0.777283
0.713318 0.883118 0.779114
0.821594 0.896210 0.796997
0.906372 0.894958 0.795013
0.096771 0.141724 0.813599
0.219849 0.156403 0.817535
0.315369 0.179077 0.833038
0.386841 0.216614 0.845032
0.499023 0.247131 0.845490
0.618835 0.278931 0.842010
0.729889 0.299561 0.841187
0.842072 0.287354 0.853546
0.105011 0.225891 0.811951
0.228973 0.245453 0.813873
0.331848 0.269745 0.820557
0.401245 0.298523 0.841248
0.508789 0.326721 0.854034
0.631805 0.357452 0.851593
0.743652 0.377930 0.851471
0.847961 0.367096 0.859070
0.106476 0.325775 0.816528
0.222443 0.338287 0.807098
0.344727 0.373749 0.810577
0.427246 0.391663 0.829712
0.521606 0.416168 0.848663
0.639771 0.445862 0.849457
0.750549 0.467224 0.848816
0.850647 0.453949 0.858643
0.044281 0.412689 0.819061
0.175720 0.425995 0.808594
0.322571 0.461761 0.812653
0.450836 0.496887 0.828003
0.547119 0.507721 0.835449
0.651489 0.536407 0.844269
0.759094 0.559998 0.846130
0.854645 0.545288 0.858246
0.043030 0.516937 0.826233
0.126343 0.523346 0.820068
0.223663 0.533691 0.813629
0.414093 0.563934 0.826721
0.568298 0.603363 0.837189
0.674225 0.621857 0.838531
0.774231 0.650421 0.845886
0.862274 0.644165 0.858368
0.045685 0.657166 0.837219
0.126740 0.662750 0.840881
0.271271 0.662262 0.835144
0.408875 0.663086 0.834778
0.540863 0.666473 0.840515
0.689148 0.704285 0.845642
0.792053 0.728607 0.853241
0.877472 0.736877 0.861389
0.124207 0.780182 0.848480
0.229950 0.788696 0.856964
0.337006 0.786011 0.856171
0.449005 0.778961 0.853241
0.567474 0.779083 0.851257
0.682800 0.783691 0.856750
0.804382 0.803894 0.865021
0.894287 0.816040 0.871216
0.187042 0.870697 0.844849
0.277344 0.897736 0.869904
0.373993 0.892639 0.870209
0.480103 0.883606 0.869568
0.590240 0.880463 0.869019
0.700897 0.884186 0.870850
0.805603 0.895752 0.878998
0.907898 0.902466 0.884338
