tools/luts_backup/LAPARDIN-WEDLUTS-5.cube
#Created by: Adobe Photoshop Export Color Lookup Plugin
#Copyright: (C) 2017 Andrey Lapardin. vk.com-3dluts
TITLE "Andrey Lapardin. vk.com-3dluts"
#LUT size
LUT_3D_SIZE 5
#data domain
#LUT data points
DOMAIN_MIN 0.000000 0.000000 0.000000
DOMAIN_MAX 0.903226 0.903226 0.903226
0.079559 0.080261 0.081116
0.175934 0.075226 0.087189
0.544861 0.062744 0.091370
0.870117 0.062744 0.115509
0.921570 0.062744 0.187683
0.062744 0.223206 0.089142
0.206512 0.196136 0.089264
0.533936 0.212494 0.082764
0.837708 0.103119 0.110687
0.921570 0.062744 0.195526
0.208832 0.553558 0.271240
0.360077 0.513550 0.292908
0.518951 0.478149 0.207977
0.784088 0.460419 0.180847
0.921570 0.419556 0.256683
0.491699 0.750244 0.521240
0.560822 0.749786 0.537720
0.638153 0.726166 0.546539
0.757904 0.715973 0.453033
0.921570 0.697937 0.445618
0.739899 0.887146 0.749634
0.762299 0.886108 0.754944
0.782196 0.877350 0.751434
0.832855 0.874786 0.748657
0.894592 0.876312 0.704742
0.063446 0.095154 0.155792
0.115936 0.082153 0.144440
0.463837 0.062744 0.207703
0.817017 0.062744 0.215363
0.921570 0.062744 0.177063
0.062744 0.167572 0.150757
0.172028 0.175385 0.174835
0.489166 0.180084 0.200195
0.807465 0.160889 0.220673
0.921570 0.171112 0.260437
0.064728 0.491364 0.273865
0.351807 0.486664 0.353943
0.502136 0.470459 0.318970
0.768036 0.483887 0.330780
0.921570 0.464935 0.358734
0.466675 0.737274 0.530884
0.579010 0.749512 0.578644
0.665863 0.740082 0.600220
0.769287 0.725708 0.532318
0.909607 0.719116 0.543762
0.731873 0.882080 0.750946
0.749573 0.872620 0.747772
0.795685 0.872620 0.762177
0.835876 0.872437 0.762848
0.900482 0.877686 0.729126
0.062744 0.176422 0.426147
0.062744 0.187103 0.453430
0.322754 0.062744 0.431152
0.718781 0.062744 0.483734
0.921570 0.062744 0.456177
0.062744 0.213135 0.415985
0.065186 0.135040 0.444733
0.405853 0.097107 0.410767
0.699951 0.199738 0.471222
0.921570 0.189301 0.489990
0.062744 0.422821 0.368591
0.132111 0.427094 0.394897
0.428680 0.423706 0.417847
0.721375 0.458862 0.467499
0.921570 0.505890 0.533295
0.330139 0.722321 0.517700
0.466278 0.726318 0.558960
0.645630 0.723175 0.633850
0.745575 0.719391 0.613953
0.892120 0.742157 0.645691
0.663574 0.880341 0.720673
0.723450 0.871826 0.750122
0.803894 0.872467 0.785919
0.847504 0.877136 0.804108
0.902710 0.880859 0.775879
0.062744 0.286682 0.687134
0.062744 0.289886 0.699066
0.062744 0.114502 0.719513
0.593262 0.062744 0.683167
0.921570 0.062744 0.700104
0.062744 0.290985 0.696350
0.062744 0.169189 0.718414
0.215576 0.069946 0.713196
0.645325 0.062744 0.686798
0.917175 0.062744 0.683350
0.062744 0.476440 0.682373
0.062744 0.486664 0.698669
0.398315 0.452698 0.671692
0.678925 0.402557 0.631073
0.899384 0.530853 0.678986
0.062744 0.688843 0.618378
0.127808 0.701569 0.643829
0.482758 0.696350 0.662292
0.690613 0.677124 0.663605
0.906158 0.734802 0.731232
0.448914 0.889374 0.696594
0.571716 0.886414 0.727020
0.732086 0.881958 0.779877
0.858765 0.887146 0.844757
0.900757 0.888367 0.837189
0.062744 0.405548 0.879517
0.062744 0.403717 0.877655
0.062744 0.359253 0.894775
0.387604 0.211700 0.880249
0.845795 0.075897 0.856903
0.062744 0.407196 0.881165
0.062744 0.345154 0.859802
0.062744 0.273010 0.888763
0.420593 0.214569 0.883484
0.860992 0.068054 0.855011
0.062744 0.414520 0.888214
0.062744 0.431122 0.866211
0.062744 0.282318 0.887634
0.564240 0.180969 0.872894
0.914551 0.081146 0.856476
0.062744 0.696411 0.870728
0.062744 0.713226 0.859894
0.378876 0.737579 0.869690
0.704315 0.725311 0.860687
0.905396 0.696228 0.845062
0.062744 0.917725 0.819458
0.062744 0.906708 0.823029
0.508392 0.894165 0.838531
0.766602 0.888550 0.864166
0.900177 0.896393 0.889252
