tools/luts_backup/LAPARDIN-WEDLUTS-17.cube
#Created by: Adobe Photoshop Export Color Lookup Plugin
#Copyright: (C) 2017 Andrey Lapardin. vk.com-3dluts
TITLE "Andrey Lapardin. vk.com-3dluts"
#LUT size
LUT_3D_SIZE 5
#data domain
#LUT data points
DOMAIN_MIN 0.000000 0.000000 0.000000
DOMAIN_MAX 0.903226 0.903226 0.903226
0.059631 0.062622 0.060608
0.168793 0.070313 0.066040
0.349670 0.075409 0.066528
0.584320 0.074371 0.055023
0.793427 0.059875 0.040375
0.056274 0.176208 0.059479
0.177765 0.173492 0.066345
0.367493 0.196320 0.064392
0.587830 0.203796 0.062378
0.782318 0.202240 0.054382
0.039520 0.393494 0.036224
0.184052 0.383850 0.051636
0.391022 0.385223 0.055969
0.601929 0.387604 0.058136
0.777374 0.377319 0.059479
0.039154 0.607269 0.036072
0.157562 0.609833 0.036926
0.370819 0.594452 0.056305
0.587006 0.590515 0.061005
0.769592 0.588928 0.063446
0.043274 0.774994 0.122406
0.238312 0.775391 0.130554
0.375977 0.766022 0.152893
0.574982 0.764648 0.152618
0.731842 0.759766 0.160980
0.061676 0.059937 0.167450
0.163910 0.064972 0.175110
0.350769 0.057617 0.204285
0.580566 0.048737 0.204315
0.786438 0.039642 0.182312
0.061310 0.170502 0.159393
0.192688 0.194427 0.181915
0.394592 0.193298 0.184265
0.606323 0.206879 0.190979
0.755493 0.238892 0.224976
0.049957 0.377258 0.145081
0.187286 0.403900 0.169434
0.421082 0.413879 0.163147
0.622101 0.406036 0.183746
0.770691 0.400696 0.231720
0.045563 0.595581 0.151703
0.174896 0.613770 0.170319
0.402191 0.618713 0.198334
0.614471 0.606689 0.201996
0.770050 0.599701 0.237762
0.057526 0.765533 0.228363
0.276978 0.755859 0.263397
0.442688 0.759766 0.277893
0.587860 0.759888 0.287903
0.745911 0.760040 0.294250
0.046051 0.055939 0.355408
0.165894 0.053986 0.387817
0.331940 0.044006 0.405701
0.587524 0.041107 0.463959
0.781433 0.039581 0.433105
0.044159 0.174957 0.352448
0.171661 0.178467 0.394836
0.375000 0.177460 0.407837
0.592072 0.211456 0.438049
0.747620 0.254425 0.436676
0.055145 0.371948 0.341187
0.155182 0.407074 0.384521
0.417542 0.423431 0.400116
0.608246 0.421936 0.407990
0.770294 0.438660 0.433746
0.060760 0.586090 0.333679
0.186188 0.603851 0.356720
0.422760 0.616058 0.406219
0.616486 0.618042 0.400452
0.762848 0.616669 0.425598
0.083588 0.755615 0.356354
0.268585 0.750305 0.381348
0.484802 0.755371 0.426453
0.610931 0.763000 0.454773
0.756012 0.761658 0.453857
0.037354 0.044617 0.571747
0.205048 0.036163 0.588287
0.317169 0.045624 0.607697
0.522217 0.045807 0.613312
0.773438 0.038025 0.667633
0.032623 0.167511 0.578339
0.174500 0.162842 0.597229
0.325562 0.179504 0.605774
0.530487 0.180298 0.610138
0.738800 0.218475 0.637024
0.052582 0.356079 0.563934
0.147919 0.379517 0.593048
0.384796 0.412079 0.597839
0.593079 0.416077 0.599548
0.755280 0.461334 0.600739
0.067047 0.576691 0.545990
0.183624 0.597351 0.570313
0.416199 0.613831 0.592041
0.614502 0.624146 0.596588
0.757233 0.629608 0.610077
0.110535 0.752319 0.537567
0.289856 0.754181 0.551117
0.472473 0.755524 0.571503
0.639130 0.769135 0.606171
0.758789 0.769318 0.621033
0.033447 0.035858 0.750488
0.208710 0.035126 0.750854
0.312805 0.045044 0.768005
0.495850 0.053558 0.760620
0.698822 0.053558 0.758423
0.031647 0.158813 0.750702
0.196472 0.185974 0.727478
0.327484 0.174957 0.756287
0.492096 0.182068 0.758728
0.698792 0.186798 0.752289
0.041443 0.344208 0.746765
0.160339 0.385071 0.727753
0.364838 0.409363 0.744415
0.536835 0.414337 0.740295
0.713745 0.433258 0.742432
0.062256 0.555115 0.728119
0.178375 0.570068 0.723236
0.404297 0.600311 0.738922
0.597076 0.623932 0.741241
0.747894 0.633026 0.742645
0.074646 0.748352 0.719421
0.259918 0.752411 0.721832
0.459656 0.759155 0.729462
0.632751 0.767822 0.744934
0.762512 0.781830 0.755280
