tools/luts_backup/LAPARDIN-WEDLUTS-14.cube
#Created by: Adobe Photoshop Export Color Lookup Plugin
#Copyright: (C) 2017 Andrey Lapardin. vk.com-3dluts
TITLE "Andrey Lapardin. vk.com-3dluts"
#LUT size
LUT_3D_SIZE 5
#data domain
#LUT data points
DOMAIN_MIN 0.000000 0.000000 0.000000
DOMAIN_MAX 0.903226 0.903226 0.903226
0.075134 0.068695 0.058502
0.212616 0.062653 0.060852
0.474548 0.057983 0.056030
0.729340 0.057251 0.052277
0.904388 0.050934 0.048309
0.050751 0.199310 0.050537
0.203644 0.194946 0.054657
0.487579 0.198883 0.056183
0.720917 0.203125 0.058197
0.901917 0.225647 0.055695
0.050140 0.439941 0.048340
0.212433 0.428558 0.055878
0.441467 0.429474 0.059052
0.708069 0.447693 0.060242
0.893921 0.432709 0.058990
0.108459 0.645966 0.048248
0.299591 0.642944 0.048706
0.465851 0.633209 0.059235
0.657318 0.635376 0.061798
0.873566 0.669128 0.061920
0.236450 0.848083 0.048248
0.378815 0.848083 0.048248
0.501587 0.835114 0.058014
0.686188 0.842133 0.058228
0.837952 0.845123 0.063141
0.051849 0.073761 0.203796
0.186432 0.065369 0.212006
0.481812 0.054474 0.223907
0.723175 0.055145 0.208130
0.902100 0.050201 0.167908
0.069977 0.196045 0.176971
0.254211 0.232666 0.213531
0.514862 0.213379 0.203705
0.733337 0.228546 0.194763
0.877533 0.277100 0.218140
0.055786 0.436310 0.163269
0.271576 0.454224 0.184143
0.488647 0.464630 0.184784
0.733002 0.466187 0.152008
0.888672 0.455597 0.187195
0.131470 0.643677 0.145630
0.329132 0.655487 0.134399
0.503052 0.656799 0.157684
0.688568 0.654633 0.200134
0.877441 0.676788 0.185181
0.231445 0.837860 0.120850
0.398651 0.821686 0.144806
0.552490 0.829102 0.111572
0.694183 0.836884 0.142609
0.852661 0.847534 0.160980
0.049805 0.070801 0.473053
0.091064 0.059357 0.506714
0.408295 0.052521 0.517273
0.725800 0.050995 0.559387
0.901855 0.050934 0.498566
0.052643 0.234009 0.448486
0.225983 0.246155 0.491425
0.473846 0.275269 0.498688
0.714844 0.304810 0.519989
0.871033 0.323334 0.501892
0.087555 0.446716 0.409088
0.306793 0.479614 0.455109
0.525208 0.493011 0.471741
0.725250 0.478790 0.461792
0.893524 0.487396 0.474823
0.214722 0.647888 0.398895
0.349487 0.658875 0.414520
0.526825 0.662323 0.441193
0.700897 0.672180 0.452332
0.880676 0.687103 0.452057
0.248016 0.828979 0.370514
0.378815 0.820221 0.384766
0.577850 0.825989 0.391113
0.711243 0.844452 0.439087
0.865387 0.852112 0.453247
0.046692 0.067200 0.693848
0.148834 0.058868 0.706879
0.382599 0.101837 0.722687
0.629822 0.170563 0.721832
0.889404 0.203156 0.770203
0.046387 0.261688 0.687653
0.247009 0.270538 0.704559
0.429718 0.313690 0.709259
0.639435 0.365051 0.711639
0.848145 0.391052 0.735352
0.099213 0.467468 0.656677
0.321716 0.497498 0.684235
0.516235 0.523956 0.689209
0.701538 0.540161 0.691864
0.874634 0.561951 0.691589
0.281342 0.654388 0.630890
0.412445 0.674683 0.656860
0.569305 0.690186 0.679474
0.730652 0.694916 0.679504
0.892090 0.692261 0.679413
0.351776 0.834534 0.634613
0.455017 0.837250 0.641815
0.579712 0.838867 0.640442
0.735840 0.857361 0.640411
0.878326 0.865753 0.678101
0.045868 0.137909 0.874664
0.260010 0.154816 0.873474
0.409515 0.210358 0.890442
0.609985 0.269104 0.878784
0.804901 0.332031 0.871948
0.075165 0.317017 0.869629
0.328552 0.355316 0.841248
0.460388 0.378113 0.873627
0.621643 0.421814 0.874084
0.807251 0.461639 0.863617
0.263153 0.528015 0.859131
0.399261 0.553284 0.834991
0.533508 0.569000 0.856232
0.675903 0.582397 0.850800
0.829987 0.608002 0.853882
0.285553 0.677704 0.837708
0.413147 0.687103 0.831604
0.561432 0.711792 0.851135
0.733154 0.733093 0.857178
0.876343 0.745819 0.859131
0.376465 0.843445 0.828857
0.481445 0.847443 0.831635
0.617981 0.857544 0.842407
0.770477 0.871521 0.862732
0.897736 0.888916 0.875763
