tools/luts_backup/LAPARDIN-WEDLUTS-14.cube
#Created by: Adobe Photoshop Export Color Lookup Plugin
#Copyright: (C) 2017 Andrey Lapardin. vk.com-3dluts
TITLE "Andrey Lapardin. vk.com-3dluts"
#LUT size
LUT_3D_SIZE 32
#data domain
DOMAIN_MIN 0.0 0.0 0.0
DOMAIN_MAX 1.0 1.0 1.0
#LUT data points
0.075134 0.068695 0.058502
0.082001 0.069855 0.059570
0.089508 0.070343 0.059998
0.098267 0.070526 0.060181
0.118866 0.069550 0.060303
0.150421 0.067566 0.060394
0.181091 0.065369 0.060638
0.212616 0.062653 0.060852
0.245728 0.059479 0.060883
0.280670 0.056763 0.060760
0.317047 0.056976 0.060303
0.354614 0.057312 0.059601
0.393524 0.057587 0.058655
0.433655 0.057800 0.057495
0.474548 0.057983 0.056030
0.515411 0.058136 0.054535
0.554840 0.058228 0.054047
0.592468 0.058289 0.053802
0.628784 0.058258 0.053497
0.663879 0.058105 0.053131
0.697479 0.057770 0.052734
0.729340 0.057251 0.052277
0.759338 0.056580 0.051788
0.788483 0.055786 0.051270
0.816986 0.054901 0.050659
0.845001 0.053955 0.049988
0.872040 0.052979 0.049286
0.895782 0.051941 0.048523
0.904388 0.050934 0.048309
0.912811 0.049866 0.048248
0.921265 0.049011 0.048248
0.929504 0.048950 0.048553
0.076202 0.075073 0.059326
0.082001 0.075226 0.059387
0.089539 0.076447 0.059845
0.102905 0.076538 0.060059
0.131561 0.074890 0.060150
0.161072 0.073334 0.060242
0.189514 0.072449 0.060242
0.218872 0.072235 0.060089
0.250183 0.071869 0.059784
0.283600 0.070526 0.059296
0.319122 0.067383 0.058716
0.356232 0.064667 0.057983
0.394806 0.063934 0.057037
0.434937 0.064209 0.055786
0.475983 0.064423 0.054810
0.516296 0.064636 0.054413
0.555267 0.064789 0.054260
0.592621 0.064911 0.054047
0.628662 0.064941 0.053741
0.663574 0.064880 0.053375
0.696777 0.064636 0.052948
0.728119 0.064209 0.052490
0.758057 0.063629 0.051971
0.787262 0.062927 0.051422
0.815765 0.062103 0.050781
0.843506 0.061188 0.050110
0.870453 0.060211 0.049377
0.895752 0.059204 0.048615
0.904419 0.058167 0.048309
0.912842 0.057098 0.048248
0.921295 0.059387 0.048248
0.929504 0.066833 0.048553
0.076477 0.082916 0.059265
0.082886 0.083344 0.059326
0.089203 0.083649 0.059448
0.108154 0.087280 0.059326
0.138611 0.088562 0.059052
0.165558 0.089111 0.058838
0.192444 0.089630 0.058624
0.221649 0.089630 0.058350
0.252686 0.088959 0.057983
0.285858 0.087280 0.057526
0.321136 0.084229 0.057037
0.357880 0.080139 0.056335
0.396484 0.075043 0.055450
0.436584 0.070831 0.055023
0.477112 0.070313 0.054871
0.516998 0.070587 0.054901
0.555603 0.070831 0.054871
0.592621 0.071045 0.054688
0.628510 0.071228 0.054443
0.663086 0.071350 0.054077
0.695679 0.071350 0.053619
0.726501 0.071198 0.053101
0.756195 0.070892 0.052490
0.785278 0.070435 0.051849
0.813721 0.070190 0.051147
0.841400 0.069763 0.050354
0.868469 0.068634 0.049561
0.894653 0.068024 0.048737
0.904449 0.074921 0.048309
0.912872 0.082123 0.048248
0.921295 0.087769 0.048248
0.929535 0.103882 0.048553
0.071350 0.101898 0.058167
0.077484 0.104065 0.058105
0.088257 0.105133 0.058014
0.109497 0.105560 0.057831
0.135345 0.109192 0.057587
0.163391 0.112488 0.057098
0.191803 0.111664 0.056854
0.222443 0.109741 0.056549
0.254395 0.107666 0.056122
0.287842 0.105408 0.055695
0.322876 0.102142 0.055237
0.359772 0.098236 0.054626
0.398468 0.093414 0.054749
0.438202 0.088135 0.055023
0.477966 0.082886 0.055328
0.517395 0.078369 0.055511
0.555542 0.078033 0.055603
0.592255 0.078796 0.055573
0.627777 0.079681 0.055420
0.662018 0.079773 0.055145
0.694397 0.080048 0.054718
0.725067 0.081848 0.054169
0.754456 0.084869 0.053467
0.783203 0.089966 0.052704
0.811401 0.089813 0.051880
0.838898 0.090973 0.050964
0.865753 0.098022 0.050018
0.892426 0.105896 0.049072
0.904480 0.112915 0.048340
0.912872 0.122314 0.048279
0.921295 0.132355 0.048248
0.929504 0.144775 0.048553
0.064240 0.124359 0.056824
0.072906 0.126495 0.056610
0.093079 0.126953 0.056213
0.114594 0.126984 0.056183
0.134247 0.126923 0.056335
0.157928 0.131226 0.056152
0.188873 0.136627 0.055206
0.220703 0.135406 0.054718
0.255035 0.132263 0.054169
0.291473 0.127258 0.053741
0.327728 0.123901 0.053772
0.365784 0.120026 0.054260
0.404877 0.115479 0.054749
0.444366 0.110870 0.055176
0.483673 0.106445 0.055573
0.521942 0.102631 0.055908
0.559021 0.099365 0.056183
0.594727 0.097260 0.056335
0.629242 0.096161 0.056366
0.662506 0.098022 0.056213
0.694275 0.101471 0.055939
0.724579 0.106659 0.055481
0.753540 0.114960 0.054871
0.781891 0.121643 0.054077
0.810028 0.125153 0.053162
0.837524 0.130341 0.052155
0.864380 0.139313 0.051056
0.890778 0.149231 0.049957
0.904297 0.154297 0.048859
0.912903 0.160645 0.048309
0.921326 0.168152 0.048248
0.929535 0.177551 0.048553
0.056396 0.147400 0.055237
0.072021 0.148956 0.054779
0.096619 0.148804 0.054321
0.118530 0.148804 0.054382
0.138336 0.148834 0.054657
0.156097 0.147491 0.055115
0.182190 0.152893 0.054657
0.216675 0.158844 0.053680
0.251556 0.158264 0.053650
0.288971 0.155487 0.053864
0.328369 0.150696 0.054108
0.367859 0.145630 0.054474
0.406921 0.141663 0.054901
0.446289 0.137665 0.055298
0.485168 0.133453 0.055695
0.523041 0.130005 0.056091
0.559479 0.127716 0.056458
0.594513 0.126953 0.056763
0.628693 0.127472 0.056976
0.661621 0.129333 0.057098
0.692963 0.132813 0.057037
0.722992 0.137756 0.056824
0.751740 0.143951 0.056396
0.779755 0.150208 0.055756
0.807220 0.156830 0.054962
0.834259 0.163055 0.053986
0.860992 0.169403 0.052887
0.887329 0.177704 0.051727
0.903687 0.185394 0.050537
0.912598 0.190002 0.049286
0.921387 0.195129 0.048492
0.929657 0.203522 0.048553
0.051300 0.172089 0.052948
0.072083 0.172668 0.052246
0.097321 0.172211 0.051910
0.119720 0.172150 0.052002
0.139618 0.171753 0.052734
0.158905 0.171326 0.053558
0.178253 0.169159 0.054047
0.208313 0.176239 0.054077
0.247742 0.184082 0.054352
0.285553 0.184235 0.054504
0.325226 0.182281 0.054688
0.366516 0.177429 0.054932
0.408020 0.171539 0.055237
0.447968 0.167908 0.055542
0.486755 0.165100 0.055847
0.524292 0.163116 0.056213
0.560333 0.162415 0.056580
0.595032 0.162598 0.056946
0.628754 0.163483 0.057281
0.661316 0.165100 0.057556
0.692169 0.167511 0.057709
0.721802 0.170441 0.057739
0.750244 0.173492 0.057617
0.777802 0.177429 0.057281
0.804810 0.182098 0.056763
0.831360 0.187561 0.056061
0.857666 0.193298 0.055145
0.883759 0.199585 0.054138
0.902802 0.205627 0.053040
0.911652 0.211578 0.051849
0.920502 0.217194 0.050812
0.929169 0.225494 0.050079
0.050751 0.199310 0.050537
0.069061 0.199615 0.050537
0.095215 0.199036 0.050781
0.118103 0.198578 0.051453
0.138672 0.198090 0.052460
0.158722 0.197510 0.053467
0.181396 0.197510 0.054260
0.203644 0.194946 0.054657
0.238129 0.203827 0.054993
0.280518 0.212891 0.055237
0.320679 0.213348 0.055420
0.362274 0.211426 0.055603
0.404907 0.207367 0.055786
0.447479 0.202179 0.055969
0.487579 0.198883 0.056183
0.525116 0.198425 0.056427
0.561035 0.198486 0.056732
0.595581 0.199066 0.057068
0.629059 0.199585 0.057404
0.661316 0.200989 0.057709
0.691742 0.201965 0.057983
0.720917 0.203125 0.058197
0.748962 0.204803 0.058289
0.776031 0.207245 0.058258
0.802643 0.209991 0.058075
0.828766 0.213348 0.057678
0.854675 0.217102 0.057159
0.880402 0.221252 0.056488
0.901917 0.225647 0.055695
0.910583 0.230316 0.054810
0.919281 0.234650 0.054016
0.927948 0.242371 0.053253
0.050720 0.229645 0.050293
0.062744 0.230164 0.050293
0.089783 0.229401 0.050568
0.114380 0.228302 0.051392
0.135406 0.227478 0.052582
0.156281 0.226593 0.053772
0.180542 0.226257 0.054688
0.207397 0.226868 0.055298
0.231659 0.223816 0.055511
0.269592 0.234039 0.055847
0.315369 0.244537 0.056122
0.357086 0.244965 0.056305
0.399963 0.243591 0.056396
0.443146 0.240631 0.056519
0.485260 0.236633 0.056641
0.524902 0.233551 0.056824
0.561218 0.233673 0.057068
0.595764 0.234406 0.057312
0.628967 0.235199 0.057587
0.660919 0.235962 0.057831
0.690948 0.236420 0.058075
0.719940 0.236847 0.058289
0.747559 0.237762 0.058502
0.774384 0.238953 0.058655
0.800629 0.240631 0.058685
0.826447 0.242645 0.058624
0.851990 0.244598 0.058411
0.877380 0.246826 0.058105
0.900391 0.249329 0.057709
0.909729 0.251953 0.057220
0.918243 0.254791 0.056732
0.926819 0.260986 0.056183
0.050659 0.266907 0.050018
0.059387 0.266632 0.049988
0.081085 0.265320 0.050262
0.108856 0.263336 0.051147
0.131470 0.262177 0.052490
0.154358 0.260590 0.053864
0.180359 0.259766 0.054932
0.208893 0.259918 0.055634
0.238892 0.260956 0.056091
0.263763 0.256866 0.056274
0.304077 0.267975 0.056610
0.353790 0.280396 0.056854
0.397186 0.281097 0.056976
0.440613 0.280243 0.057068
0.482819 0.277924 0.057129
0.523193 0.274567 0.057281
0.561981 0.270538 0.057465
0.596863 0.269897 0.057678
0.629791 0.270691 0.057892
0.661407 0.271393 0.058075
0.691254 0.271698 0.058228
0.720154 0.271820 0.058380
0.747681 0.271973 0.058533
0.774200 0.272369 0.058685
0.800110 0.273224 0.058807
0.825439 0.274170 0.058929
0.850433 0.275269 0.058990
0.875244 0.276276 0.058960
0.898651 0.277222 0.058838
0.909210 0.278351 0.058655
0.917603 0.279877 0.058411
0.926025 0.284088 0.058197
0.050598 0.301300 0.049683
0.059448 0.301758 0.049652
0.071106 0.300201 0.049866
0.101715 0.297638 0.050751
0.127686 0.296082 0.052246
0.153351 0.294464 0.053833
0.180176 0.293579 0.055084
0.209412 0.293579 0.055847
0.240387 0.294342 0.056366
0.271973 0.295746 0.056732
0.298370 0.292145 0.056915
0.339813 0.302795 0.057251
0.391541 0.316071 0.057465
0.434601 0.316376 0.057526
0.476898 0.315277 0.057587
0.517761 0.313232 0.057709
0.556915 0.310516 0.057892
0.594269 0.307373 0.058105
0.629303 0.305511 0.058289
0.660919 0.306335 0.058472
0.690796 0.306610 0.058563
0.719757 0.306519 0.058624
0.747192 0.306152 0.058655
0.773590 0.305817 0.058685
0.799286 0.305878 0.058777
0.824402 0.306244 0.058929
0.849152 0.306915 0.059052
0.873657 0.307526 0.059204
0.897461 0.308228 0.059265
0.908997 0.308960 0.059265
0.917297 0.309875 0.059204
0.925629 0.312469 0.059204
0.050507 0.335876 0.049347
0.059479 0.336365 0.049255
0.070587 0.334778 0.049408
0.097992 0.332214 0.050232
0.125732 0.330719 0.051758
0.152588 0.329193 0.053558
0.179901 0.327911 0.055084
0.209473 0.327515 0.056030
0.241028 0.328125 0.056580
0.273407 0.329285 0.056946
0.306122 0.330841 0.057312
0.333588 0.327026 0.057495
0.376251 0.337585 0.057770
0.427887 0.350769 0.057922
0.470764 0.351624 0.058014
0.511749 0.350769 0.058075
0.551331 0.349182 0.058197
0.589142 0.347198 0.058411
0.625488 0.344696 0.058655
0.659515 0.341736 0.058868
0.690125 0.340973 0.058990
0.719086 0.340698 0.059052
0.746368 0.339966 0.058990
0.772705 0.339081 0.058929
0.798218 0.338257 0.058868
0.823181 0.337982 0.058868
0.847687 0.338226 0.058960
0.871979 0.338867 0.059113
0.896027 0.339630 0.059265
0.909058 0.340393 0.059357
0.917297 0.341156 0.059387
0.925537 0.342987 0.059540
0.050415 0.370331 0.048950
0.059418 0.371155 0.048859
0.070496 0.369720 0.048889
0.098053 0.367157 0.049561
0.127228 0.365387 0.051086
0.153381 0.363861 0.053101
0.179993 0.362518 0.054901
0.209137 0.361786 0.056152
0.241272 0.361938 0.056793
0.274628 0.363037 0.057159
0.308197 0.364532 0.057495
0.341919 0.366241 0.057861
0.369751 0.362152 0.058014
0.412689 0.372131 0.058258
0.464264 0.386139 0.058380
0.505920 0.386932 0.058441
0.545563 0.386230 0.058533
0.583771 0.384857 0.058685
0.620056 0.383209 0.058899
0.654419 0.380524 0.059174
0.687103 0.376923 0.059418
0.717560 0.374146 0.059540
0.745056 0.373199 0.059540
0.771393 0.372040 0.059387
0.796906 0.370850 0.059204
0.821869 0.370026 0.059021
0.846466 0.369720 0.058960
0.870789 0.370087 0.058990
0.895142 0.370697 0.059113
0.909363 0.371674 0.059235
0.917542 0.372528 0.059326
0.925659 0.373779 0.059570
0.050293 0.407745 0.048523
0.059326 0.406738 0.048431
0.069244 0.404938 0.048401
0.097900 0.402832 0.048828
0.130066 0.400513 0.050232
0.156158 0.398621 0.052368
0.181580 0.396698 0.054535
0.209656 0.395386 0.056122
0.241333 0.395264 0.056976
0.275330 0.396149 0.057404
0.310211 0.397400 0.057709
0.344360 0.399048 0.058075
0.378571 0.400726 0.058411
0.405792 0.396149 0.058563
0.447937 0.405365 0.058746
0.499359 0.420715 0.058868
0.538940 0.420746 0.058868
0.577118 0.420044 0.058929
0.613708 0.418732 0.059113
0.648438 0.416748 0.059387
0.681335 0.414307 0.059692
0.713013 0.411102 0.059967
0.742798 0.406982 0.060089
0.769897 0.404938 0.060028
0.795471 0.403656 0.059814
0.820465 0.402466 0.059479
0.845062 0.401520 0.059204
0.869507 0.401031 0.058990
0.893890 0.401306 0.058960
0.909821 0.401947 0.059021
0.918030 0.402740 0.059113
0.926025 0.403870 0.059387
0.050140 0.439941 0.048340
0.059143 0.440796 0.048340
0.069214 0.439240 0.048340
0.099945 0.437653 0.048340
0.135101 0.435303 0.049286
0.162781 0.432739 0.051392
0.186584 0.430450 0.053864
0.212433 0.428558 0.055878
0.242828 0.427856 0.057098
0.276917 0.428284 0.057678
0.312286 0.429443 0.057983
0.347290 0.430786 0.058258
0.381195 0.432251 0.058594
0.414795 0.433838 0.058960
0.441467 0.429474 0.059052
0.481537 0.437622 0.059235
0.531616 0.452820 0.059296
0.570892 0.453735 0.059296
0.607697 0.452972 0.059357
0.642792 0.451660 0.059570
0.676086 0.449890 0.059875
0.708069 0.447693 0.060242
0.738098 0.444916 0.060516
0.766937 0.441345 0.060608
0.794708 0.437225 0.060516
0.820068 0.435791 0.060181
0.844879 0.434418 0.059723
0.869354 0.433319 0.059296
0.893921 0.432709 0.058990
0.910400 0.432770 0.058868
0.918671 0.433136 0.058838
0.926605 0.433899 0.059143
0.049988 0.472473 0.048309
0.058929 0.473419 0.048309
0.070984 0.472076 0.048279
0.106079 0.470306 0.048279
0.143677 0.469055 0.048462
0.172852 0.466095 0.050262
0.195343 0.463104 0.052948
0.218597 0.460632 0.055389
0.246521 0.459198 0.057037
0.279175 0.458954 0.057892
0.314453 0.459686 0.058258
0.349548 0.460938 0.058472
0.383667 0.462250 0.058777
0.416687 0.463654 0.059113
0.449280 0.465332 0.059479
0.475311 0.461121 0.059570
0.513611 0.468292 0.059692
0.561493 0.483093 0.059723
0.601440 0.485565 0.059723
0.636841 0.484802 0.059814
0.670471 0.483490 0.060028
0.702454 0.481873 0.060364
0.732635 0.479919 0.060730
0.761444 0.477570 0.061005
0.789459 0.474518 0.061066
0.816681 0.470764 0.060913
0.843140 0.466919 0.060455
0.868164 0.465118 0.059875
0.893097 0.463989 0.059296
0.911011 0.463318 0.058838
0.919373 0.463074 0.058594
0.927307 0.463165 0.058838
0.049866 0.503845 0.048279
0.058716 0.504883 0.048248
0.074829 0.503662 0.048248
0.117004 0.501953 0.048248
0.155518 0.500732 0.048279
0.185608 0.498993 0.048981
0.207733 0.495117 0.051727
0.228516 0.491974 0.054626
0.253052 0.489685 0.056793
0.283325 0.488922 0.057983
0.317383 0.489227 0.058502
0.352234 0.490265 0.058716
0.386322 0.491638 0.058929
0.419220 0.493073 0.059235
0.451294 0.494598 0.059601
0.483246 0.496338 0.059937
0.508453 0.491943 0.060028
0.544739 0.498077 0.060150
0.591309 0.512970 0.060181
0.630737 0.516388 0.060181
0.664459 0.515472 0.060272
0.696716 0.514313 0.060486
0.727020 0.512848 0.060791
0.756012 0.511322 0.061157
0.784119 0.509430 0.061401
0.811615 0.506927 0.061462
0.838745 0.503693 0.061188
0.865631 0.499695 0.060608
0.892303 0.495911 0.059875
0.911621 0.494263 0.059082
0.920074 0.493286 0.058472
0.928406 0.492462 0.058472
0.049774 0.532410 0.048248
0.058594 0.531891 0.048248
0.084717 0.530792 0.048248
0.129181 0.529572 0.048248
0.166901 0.528778 0.048248
0.197723 0.528259 0.048309
0.220459 0.525146 0.050385
0.239777 0.521149 0.053589
0.261536 0.518707 0.056274
0.288971 0.517578 0.057922
0.320923 0.517731 0.058685
0.354980 0.518738 0.058929
0.388794 0.520111 0.059082
0.421753 0.521606 0.059296
0.453674 0.523041 0.059601
0.484955 0.524414 0.059998
0.515991 0.525970 0.060364
0.540009 0.521454 0.060486
0.574799 0.526794 0.060608
0.619171 0.540833 0.060638
0.657990 0.545685 0.060608
0.690643 0.545105 0.060669
0.721436 0.544312 0.060852
0.750824 0.543488 0.061157
0.779266 0.542633 0.061493
0.807037 0.541321 0.061707
0.834442 0.539337 0.061676
0.861603 0.536560 0.061279
0.888947 0.532654 0.060547
0.911652 0.528198 0.059540
0.920685 0.524170 0.058624
0.928986 0.522583 0.058472
0.049744 0.561737 0.048248
0.062683 0.562347 0.048248
0.105408 0.561554 0.048248
0.148285 0.560272 0.048248
0.183014 0.559235 0.048248
0.213135 0.558563 0.048248
0.236877 0.557251 0.049042
0.254608 0.552246 0.052399
0.272980 0.548248 0.055573
0.296875 0.546265 0.057678
0.326294 0.546051 0.058716
0.358612 0.546844 0.059082
0.391785 0.548187 0.059204
0.424408 0.549622 0.059296
0.456238 0.550995 0.059540
0.487366 0.552246 0.059875
0.517761 0.553558 0.060333
0.547882 0.555054 0.060730
0.571198 0.550568 0.060852
0.604462 0.555634 0.061005
0.646088 0.568726 0.061005
0.685791 0.576019 0.060974
0.716949 0.575745 0.061035
0.746674 0.575226 0.061188
0.775208 0.574829 0.061493
0.802948 0.574219 0.061768
0.830353 0.573273 0.061890
0.857635 0.571686 0.061707
0.885162 0.569183 0.061157
0.912201 0.565430 0.060181
0.921082 0.560638 0.059113
0.929413 0.555878 0.058868
0.052673 0.591095 0.048248
0.087738 0.591736 0.048248
0.130432 0.591095 0.048248
0.168152 0.590057 0.048248
0.199677 0.589111 0.048248
0.228729 0.588348 0.048248
0.252960 0.587830 0.048340
0.270264 0.583557 0.051086
0.286072 0.578125 0.054657
0.306580 0.575165 0.057251
0.333038 0.574249 0.058624
0.363281 0.574677 0.059143
0.395325 0.575867 0.059265
0.427399 0.577240 0.059296
0.459137 0.578674 0.059418
0.490051 0.579895 0.059723
0.520203 0.581085 0.060120
0.549744 0.582184 0.060577
0.578888 0.583679 0.061005
0.601318 0.579315 0.061157
0.632599 0.583740 0.061340
0.671387 0.595673 0.061401
0.710876 0.605133 0.061401
0.741089 0.605377 0.061432
0.770020 0.605255 0.061584
0.798126 0.605255 0.061768
0.825806 0.605225 0.061920
0.853210 0.604828 0.061890
0.880951 0.603668 0.061584
0.909027 0.601379 0.060852
0.921265 0.597717 0.059906
0.929565 0.593262 0.059631
0.078705 0.619751 0.048248
0.118042 0.620483 0.048248
0.154724 0.619965 0.048248
0.187286 0.619019 0.048248
0.216125 0.618042 0.048248
0.243591 0.617218 0.048248
0.267517 0.616638 0.048248
0.285828 0.614258 0.049744
0.299957 0.608459 0.053558
0.317627 0.603912 0.056610
0.341156 0.602264 0.058350
0.369232 0.602386 0.059052
0.399872 0.603363 0.059265
0.431213 0.604767 0.059296
0.462372 0.606140 0.059326
0.493042 0.607422 0.059509
0.522949 0.608521 0.059814
0.552094 0.609436 0.060272
0.580566 0.610443 0.060760
0.608521 0.611694 0.061218
0.629974 0.607574 0.061462
0.659332 0.611176 0.061737
0.694916 0.621490 0.061859
0.733032 0.632507 0.061890
0.764679 0.634918 0.061859
0.793335 0.635406 0.061890
0.821381 0.636047 0.061920
0.849091 0.636627 0.061951
0.876770 0.636719 0.061829
0.904541 0.635773 0.061401
0.921234 0.633545 0.060791
0.929535 0.629852 0.060577
0.108459 0.645966 0.048248
0.141327 0.646057 0.048248
0.172852 0.645660 0.048248
0.202362 0.645172 0.048248
0.229584 0.644592 0.048248
0.256104 0.644073 0.048248
0.280151 0.643646 0.048248
0.299591 0.642944 0.048706
0.313446 0.637756 0.052277
0.329102 0.632416 0.055725
0.350006 0.629883 0.057892
0.375946 0.629608 0.058868
0.405060 0.630432 0.059204
0.435364 0.631744 0.059235
0.465851 0.633209 0.059235
0.496094 0.634583 0.059296
0.525909 0.635681 0.059509
0.554779 0.636658 0.059845
0.583038 0.637512 0.060333
0.610443 0.638489 0.060883
0.637054 0.639679 0.061432
0.657318 0.635376 0.061798
0.684814 0.638489 0.062164
0.717957 0.647400 0.062317
0.754547 0.659821 0.062317
0.789185 0.665649 0.062164
0.817963 0.667023 0.062042
0.846100 0.668335 0.061981
0.873566 0.669128 0.061920
0.900970 0.669373 0.061768
0.921173 0.668579 0.061493
0.929443 0.665894 0.061432
0.137299 0.673737 0.048248
0.164825 0.674042 0.048248
0.192657 0.673676 0.048248
0.219238 0.673187 0.048248
0.244446 0.672607 0.048248
0.269806 0.672028 0.048248
0.293488 0.671570 0.048248
0.313690 0.671387 0.048248
0.328278 0.667816 0.050751
0.341980 0.662018 0.054535
0.360291 0.657867 0.057190
0.383636 0.656921 0.058563
0.410919 0.657410 0.059052
0.439911 0.658539 0.059174
0.469543 0.659943 0.059143
0.499329 0.661377 0.059143
0.528809 0.662781 0.059235
0.557739 0.663940 0.059448
0.585968 0.664917 0.059845
0.613251 0.665833 0.060364
0.639374 0.666748 0.061005
0.664764 0.667755 0.061707
0.684906 0.664429 0.062195
0.710999 0.667206 0.062622
0.741455 0.674164 0.062744
0.776489 0.686615 0.062622
0.812683 0.695740 0.062378
0.841766 0.698059 0.062134
0.869629 0.699646 0.061981
0.896973 0.700928 0.061890
0.921234 0.701416 0.061829
0.929413 0.699554 0.061920
0.160492 0.701477 0.048248
0.184845 0.701874 0.048248
0.210297 0.701630 0.048248
0.235077 0.701233 0.048248
0.258759 0.700775 0.048248
0.283142 0.700134 0.048248
0.306549 0.699615 0.048248
0.327087 0.699402 0.048248
0.343414 0.697968 0.049194
0.355621 0.691986 0.053101
0.371277 0.686829 0.056274
0.392120 0.684509 0.058075
0.417297 0.684540 0.058838
0.445038 0.685455 0.059052
0.473755 0.686829 0.059052
0.502869 0.688385 0.059021
0.532104 0.689911 0.059021
0.560944 0.691284 0.059113
0.589203 0.692322 0.059387
0.616364 0.693207 0.059784
0.642090 0.693939 0.060394
0.666809 0.694550 0.061188
0.690399 0.695221 0.062012
0.710236 0.692322 0.062622
0.735718 0.695099 0.063019
0.764069 0.700562 0.063049
0.798462 0.712830 0.062775
0.834534 0.724609 0.062439
0.865753 0.729401 0.062134
0.893402 0.731567 0.061951
0.920410 0.732880 0.061859
0.929626 0.731812 0.062012
0.180359 0.729584 0.048248
0.202606 0.730103 0.048248
0.226105 0.729950 0.048248
0.249420 0.729584 0.048248
0.271881 0.729095 0.048248
0.295441 0.728516 0.048248
0.318726 0.727936 0.048248
0.339630 0.727631 0.048248
0.357056 0.727631 0.048279
0.369446 0.722748 0.051514
0.382843 0.716888 0.055206
0.401306 0.713104 0.057495
0.424438 0.712585 0.058594
0.450867 0.713318 0.058929
0.478668 0.714630 0.058960
0.507111 0.716125 0.058899
0.535767 0.717621 0.058868
0.564301 0.718994 0.058868
0.592499 0.720154 0.058990
0.619690 0.721039 0.059265
0.645386 0.721680 0.059753
0.669647 0.722137 0.060516
0.692444 0.722443 0.061462
0.714874 0.722870 0.062408
0.735138 0.720795 0.063019
0.760498 0.723755 0.063293
0.787689 0.728363 0.063171
0.820831 0.739838 0.062805
0.855438 0.752808 0.062378
0.889404 0.760895 0.062012
0.917053 0.763153 0.061798
0.929932 0.762726 0.061920
0.198181 0.759064 0.048248
0.218597 0.759552 0.048248
0.240906 0.759460 0.048248
0.263123 0.759125 0.048248
0.284668 0.758728 0.048248
0.307434 0.758240 0.048248
0.330597 0.757660 0.048248
0.351868 0.757355 0.048248
0.369629 0.757477 0.048248
0.383392 0.755157 0.049957
0.394989 0.748718 0.053986
0.411407 0.744110 0.056793
0.432739 0.742432 0.058228
0.457703 0.742889 0.058746
0.484650 0.744080 0.058868
0.512390 0.745514 0.058807
0.540649 0.747009 0.058746
0.569000 0.748505 0.058685
0.597168 0.749878 0.058716
0.624664 0.751099 0.058838
0.650635 0.752014 0.059174
0.674866 0.752563 0.059845
0.697021 0.752563 0.060822
0.718414 0.752502 0.061920
0.740265 0.752716 0.062866
0.761108 0.751282 0.063293
0.786743 0.754547 0.063385
0.813263 0.758636 0.063141
0.844574 0.768341 0.062714
0.877869 0.781464 0.062225
0.913391 0.792053 0.061829
0.930267 0.793732 0.061859
0.212524 0.787994 0.048248
0.231903 0.788544 0.048248
0.252930 0.788513 0.048248
0.274384 0.788269 0.048248
0.295258 0.788025 0.048248
0.317566 0.787598 0.048248
0.340424 0.787231 0.048248
0.362000 0.786957 0.048248
0.380371 0.787048 0.048248
0.395386 0.786926 0.048615
0.406555 0.780731 0.052582
0.420898 0.775421 0.055817
0.440582 0.772430 0.057678
0.463867 0.772308 0.058472
0.489685 0.773224 0.058716
0.516815 0.774536 0.058716
0.544617 0.776031 0.058624
0.572754 0.777527 0.058563
0.600769 0.778992 0.058472
0.628235 0.780243 0.058502
0.654388 0.781281 0.058685
0.678619 0.781769 0.059235
0.700500 0.781769 0.060181
0.721222 0.781494 0.061340
0.742126 0.781433 0.062439
0.764282 0.781952 0.063171
0.786835 0.782013 0.063416
0.812225 0.785065 0.063324
0.837982 0.788513 0.062988
0.867126 0.796143 0.062500
0.900635 0.809052 0.062042
0.930481 0.820313 0.061981
0.225250 0.817719 0.048248
0.243622 0.818268 0.048248
0.263916 0.818329 0.048248
0.284515 0.818237 0.048248
0.304932 0.818024 0.048248
0.326630 0.817719 0.048248
0.349091 0.817383 0.048248
0.370819 0.817108 0.048248
0.389954 0.817169 0.048248
0.406158 0.817657 0.048248
0.418823 0.814087 0.050690
0.431763 0.808167 0.054352
0.449249 0.804260 0.056763
0.470703 0.802917 0.058014
0.495148 0.803406 0.058472
