tools/luts_backup/LAPARDIN-WEDLUTS-21.cube
#Created by: Adobe Photoshop Export Color Lookup Plugin
#Copyright: (C) 2017 Andrey Lapardin. vk.com-3dluts
TITLE "Andrey Lapardin. vk.com-3dluts"
#LUT size
LUT_3D_SIZE 32
#data domain
DOMAIN_MIN 0.0 0.0 0.0
DOMAIN_MAX 1.0 1.0 1.0
#LUT data points
0.003326 0.006348 0.006927
0.014771 0.008453 0.009186
0.028290 0.009674 0.010559
0.046600 0.010895 0.011597
0.067291 0.012054 0.012878
0.088593 0.013824 0.014404
0.110748 0.015869 0.016296
0.134094 0.018402 0.018219
0.158905 0.021027 0.019745
0.185822 0.022797 0.021362
0.214569 0.024628 0.023041
0.244751 0.025391 0.025116
0.276398 0.026123 0.026733
0.309570 0.026825 0.028595
0.344055 0.027405 0.030548
0.379364 0.027618 0.032593
0.415192 0.028168 0.034637
0.451660 0.028320 0.036896
0.488220 0.028717 0.039368
0.525024 0.028656 0.042084
0.562103 0.028625 0.044708
0.599762 0.027832 0.048065
0.638245 0.027740 0.052094
0.678986 0.027679 0.057373
0.723633 0.029541 0.064178
0.767853 0.031891 0.072235
0.810638 0.035492 0.080658
0.852234 0.040680 0.090240
0.890717 0.045746 0.101074
0.927948 0.053680 0.113007
0.964783 0.064331 0.126160
0.994537 0.078339 0.139801
0.005188 0.016510 0.009979
0.013763 0.017273 0.009979
0.027069 0.020172 0.011292
0.046204 0.022461 0.012512
0.065338 0.023682 0.014160
0.087067 0.025909 0.015533
0.109650 0.028687 0.017273
0.133484 0.031952 0.018982
0.158783 0.035126 0.020355
0.185974 0.037598 0.022156
0.214722 0.039764 0.023834
0.245026 0.041901 0.026031
0.276764 0.043701 0.027893
0.310089 0.045380 0.029846
0.344696 0.047119 0.031860
0.380096 0.048828 0.033844
0.415955 0.050140 0.036194
0.452240 0.051575 0.038544
0.488678 0.052734 0.041199
0.525299 0.053619 0.043732
0.561859 0.054077 0.046661
0.598724 0.054291 0.049713
0.636475 0.054352 0.053741
0.676239 0.054932 0.058472
0.718689 0.056000 0.064667
0.761139 0.057709 0.071655
0.802734 0.059937 0.079559
0.843506 0.063812 0.088562
0.881439 0.067474 0.098999
0.917816 0.073090 0.109955
0.955078 0.081207 0.122620
0.986755 0.091644 0.136261
0.006378 0.029358 0.012695
0.015106 0.029938 0.013031
0.025452 0.031281 0.012512
0.045715 0.035797 0.013275
0.067474 0.039185 0.014130
0.087524 0.041199 0.016510
0.109100 0.043671 0.018585
0.133270 0.047180 0.020172
0.158813 0.050720 0.021545
0.185913 0.053802 0.023254
0.214508 0.056549 0.025299
0.244324 0.059631 0.027161
0.275574 0.061798 0.029510
0.308502 0.064514 0.031464
0.342865 0.066833 0.034027
0.378235 0.069366 0.036316
0.414215 0.071503 0.038971
0.450531 0.073914 0.041595
0.487000 0.076416 0.044128
0.523743 0.078339 0.046844
0.560608 0.079926 0.049683
0.597778 0.081451 0.052673
0.636902 0.083038 0.056732
0.677917 0.084381 0.061829
0.720215 0.086426 0.067383
0.762146 0.087646 0.074432
0.803131 0.089325 0.082123
0.842896 0.091766 0.090424
0.880646 0.094299 0.100342
0.916199 0.097168 0.110962
0.951019 0.101563 0.122375
0.983032 0.109528 0.135315
0.006073 0.047668 0.015961
0.014709 0.047882 0.016602
0.025787 0.049042 0.016205
0.043701 0.051575 0.014893
0.068024 0.057220 0.015228
0.091705 0.061615 0.016113
0.112610 0.062958 0.018890
0.134583 0.064301 0.021423
0.159912 0.067505 0.023132
0.186676 0.070374 0.024902
0.215393 0.073334 0.026855
0.245178 0.076660 0.028961
0.276489 0.079590 0.031525
0.309418 0.082611 0.034210
0.343506 0.085632 0.036682
0.378632 0.088440 0.039642
0.414398 0.091125 0.042267
0.450378 0.093689 0.045349
0.486725 0.096405 0.047943
0.523010 0.099152 0.050751
0.559540 0.101654 0.053986
0.597076 0.104462 0.057068
0.635590 0.107117 0.060852
0.675812 0.110291 0.065552
0.716705 0.112854 0.070862
0.757568 0.114929 0.076721
0.798157 0.117218 0.083740
0.838043 0.119446 0.091949
0.877045 0.121948 0.101532
0.913544 0.124481 0.112305
0.949951 0.128357 0.124390
0.982971 0.135284 0.137512
0.003693 0.068420 0.019501
0.013367 0.068176 0.021027
0.026855 0.069611 0.020874
0.045227 0.072083 0.019714
0.066559 0.074493 0.017944
0.094604 0.082214 0.017151
0.119141 0.085846 0.018646
0.141022 0.086304 0.021820
0.163666 0.086975 0.024902
0.187805 0.088531 0.027649
0.217010 0.092072 0.029053
0.247040 0.095551 0.031281
0.278625 0.098694 0.033936
0.311462 0.101837 0.036896
0.345306 0.104828 0.039764
0.379822 0.107758 0.042542
0.414948 0.110504 0.045654
0.450562 0.113068 0.048676
0.486481 0.115662 0.051788
0.522705 0.118164 0.054901
0.559204 0.121185 0.058105
0.597107 0.124634 0.061920
0.636078 0.128082 0.066071
0.676239 0.131989 0.071014
0.716797 0.136017 0.076294
0.757538 0.139465 0.081848
0.797882 0.142792 0.088470
0.837463 0.145966 0.096405
0.876678 0.149231 0.105286
0.913361 0.152100 0.115021
0.948029 0.154907 0.126251
0.981049 0.161438 0.139374
0.001190 0.089813 0.023315
0.010284 0.089539 0.025482
0.025543 0.090668 0.025879
0.045044 0.092957 0.025116
0.067566 0.095337 0.023285
0.090057 0.096893 0.021210
0.121948 0.105957 0.019135
0.147339 0.109161 0.020874
0.170502 0.110046 0.024475
0.194611 0.111389 0.028198
0.219727 0.112274 0.032257
0.247620 0.114716 0.035400
0.279480 0.118042 0.037445
0.312286 0.121552 0.040161
0.346283 0.124786 0.042938
0.380707 0.127838 0.045776
0.415649 0.130615 0.049042
0.450867 0.133209 0.052002
0.486755 0.135651 0.055389
0.522888 0.137848 0.059174
0.559479 0.140381 0.062683
0.597900 0.143646 0.066833
0.637451 0.147675 0.071503
0.677795 0.151917 0.076843
0.719116 0.156372 0.082825
0.760834 0.161072 0.089172
0.805267 0.166779 0.097107
0.850708 0.172852 0.107330
0.894165 0.178833 0.118164
0.936005 0.184814 0.130554
0.971924 0.190063 0.143433
0.996246 0.198395 0.158203
0.000275 0.115234 0.027863
0.006104 0.115082 0.030609
0.022034 0.115051 0.032684
0.043701 0.117065 0.031891
0.067413 0.118713 0.030365
0.091736 0.120605 0.028473
0.116699 0.121582 0.024902
0.153107 0.132477 0.020874
0.178070 0.134735 0.024414
0.203827 0.137238 0.028137
0.228790 0.137909 0.032898
0.254944 0.138763 0.037933
0.282837 0.139648 0.042297
0.315033 0.142792 0.044891
0.349121 0.146667 0.047241
0.383636 0.149872 0.049957
0.418396 0.152985 0.052826
0.453491 0.155518 0.056091
0.488800 0.157990 0.059204
0.524689 0.160065 0.063110
0.562042 0.162445 0.067505
0.599640 0.165161 0.071747
0.638519 0.168396 0.076813
0.677307 0.171936 0.082397
0.717072 0.175537 0.087921
0.757172 0.179413 0.094696
0.797211 0.183594 0.101410
0.838104 0.188446 0.109833
0.881134 0.194305 0.120056
0.923767 0.200623 0.131866
0.964905 0.206970 0.145142
0.998047 0.216614 0.159790
0.000000 0.148438 0.034576
0.002869 0.148102 0.037628
0.015289 0.147095 0.040802
0.040436 0.147186 0.041382
0.067078 0.147705 0.040466
0.092010 0.148346 0.038757
0.119781 0.150055 0.035553
0.147522 0.151031 0.030212
0.185516 0.161652 0.025421
0.213867 0.165161 0.028534
0.240234 0.166687 0.032806
0.265839 0.166748 0.038910
0.291565 0.166046 0.045105
0.320435 0.166901 0.049652
0.352325 0.169434 0.052826
0.387024 0.173309 0.055206
0.421997 0.176758 0.057617
0.457031 0.179688 0.060547
0.492493 0.182220 0.063904
0.528473 0.184631 0.067657
0.565094 0.186890 0.072052
0.603424 0.189758 0.077087
0.640839 0.192200 0.082245
0.677917 0.195007 0.087524
0.715668 0.197540 0.093353
0.753601 0.200317 0.099548
0.791748 0.203156 0.106140
0.829681 0.206207 0.113678
0.867188 0.209656 0.121948
0.903381 0.212952 0.130219
0.941620 0.217346 0.141510
0.977905 0.225464 0.153992
0.000000 0.179443 0.042603
0.000000 0.179199 0.045746
0.010895 0.177826 0.049561
0.031708 0.176544 0.052277
0.062073 0.175903 0.051727
0.089172 0.176025 0.050232
0.118042 0.177460 0.047577
0.149445 0.180664 0.043335
0.179382 0.182007 0.036652
0.216705 0.190796 0.031219
0.251007 0.197571 0.031738
0.277313 0.197357 0.037994
0.303772 0.196808 0.044739
0.330322 0.195435 0.051575
0.357086 0.194244 0.057861
0.389099 0.196716 0.061432
0.423889 0.200317 0.063812
0.459290 0.203827 0.066437
0.494781 0.207031 0.069397
0.531586 0.210205 0.073181
0.569092 0.213318 0.077606
0.606232 0.215790 0.082367
0.642334 0.217896 0.087219
0.678253 0.219971 0.092529
0.714691 0.222260 0.098267
0.751404 0.224487 0.104645
0.788300 0.226532 0.111206
0.825134 0.228729 0.118713
0.852509 0.227112 0.123077
0.888458 0.229492 0.131073
0.924530 0.232239 0.140656
0.957947 0.237946 0.150848
0.000000 0.213074 0.052490
0.000000 0.213013 0.055481
0.002991 0.211853 0.059723
0.022614 0.209503 0.063782
0.054901 0.207520 0.064972
0.085144 0.206635 0.063812
0.115540 0.207916 0.061279
0.147949 0.210724 0.057343
0.181732 0.214508 0.051819
0.212494 0.215057 0.043060
0.250793 0.223083 0.037567
0.289795 0.232086 0.035095
0.316498 0.230621 0.042389
0.343109 0.228638 0.049988
0.369446 0.226410 0.057343
0.395325 0.223999 0.064514
0.423920 0.223633 0.070221
0.458557 0.227142 0.073090
0.494904 0.231232 0.075775
0.530914 0.234711 0.079132
0.566895 0.237701 0.082825
0.602722 0.239899 0.086792
0.638031 0.241913 0.091034
0.673645 0.243958 0.096344
0.709595 0.246277 0.102020
0.745697 0.248566 0.108124
0.781921 0.250702 0.114777
0.818176 0.252747 0.122253
0.846161 0.251312 0.127075
0.881226 0.252899 0.135071
0.916595 0.255096 0.144135
0.951508 0.260132 0.154938
0.000000 0.249084 0.064148
0.000000 0.249298 0.067017
0.000000 0.248108 0.071198
0.016144 0.245300 0.076080
0.043732 0.242462 0.078461
0.078369 0.240723 0.078735
0.111633 0.241241 0.076752
0.145721 0.244019 0.072968
0.181183 0.247772 0.067932
0.217346 0.252258 0.061340
0.248840 0.251709 0.051208
0.290253 0.260834 0.044220
0.334198 0.271851 0.038971
0.361877 0.269348 0.047852
0.388855 0.266205 0.057159
0.415894 0.263336 0.065186
0.443115 0.260986 0.073853
0.470093 0.258850 0.081238
0.502655 0.260773 0.085754
0.538971 0.264618 0.088776
0.574310 0.267609 0.091949
0.608887 0.269592 0.095337
0.642578 0.270996 0.098969
0.676178 0.272247 0.103180
0.710052 0.273529 0.107941
0.743988 0.275177 0.113342
0.777802 0.276825 0.119354
0.811188 0.278290 0.125793
0.844879 0.279907 0.132874
0.878906 0.281372 0.140869
0.913300 0.283264 0.149811
0.948151 0.287445 0.160431
0.000000 0.287659 0.077454
0.000000 0.287689 0.080292
0.000000 0.286926 0.084106
0.004517 0.284637 0.089172
0.030609 0.281403 0.093384
0.071838 0.278168 0.095306
0.106995 0.277863 0.093781
0.143097 0.280182 0.090485
0.180298 0.283875 0.085602
0.218079 0.288391 0.079773
0.256317 0.293457 0.072449
0.289246 0.292389 0.060944
0.335815 0.303650 0.050201
0.383270 0.315460 0.044128
0.411926 0.312164 0.055511
0.439819 0.308441 0.065582
0.467468 0.304840 0.075348
0.494293 0.301453 0.084381
0.521301 0.298676 0.092316
0.549194 0.296844 0.099396
0.583923 0.299591 0.103790
0.619843 0.302582 0.107483
0.655121 0.304871 0.111237
0.690094 0.306610 0.115631
0.724731 0.308319 0.120453
0.758820 0.309998 0.126038
0.791992 0.311890 0.131805
0.824951 0.313690 0.138641
0.857788 0.315704 0.146149
0.890717 0.317719 0.154236
0.924194 0.319824 0.163574
0.957825 0.323547 0.174347
0.000000 0.327881 0.092194
0.000000 0.328308 0.094971
0.000000 0.327759 0.098694
0.000000 0.325806 0.103607
0.023254 0.321777 0.108551
0.061249 0.317749 0.111481
0.100494 0.316284 0.111786
0.138489 0.317932 0.109314
0.177246 0.321106 0.104828
0.217377 0.326050 0.099426
0.257660 0.331604 0.093018
0.298737 0.337830 0.084900
0.333038 0.335693 0.071564
0.385834 0.350433 0.057129
0.435516 0.362244 0.052094
0.464935 0.358063 0.065125
0.493225 0.353302 0.076447
0.520233 0.348389 0.086853
0.546051 0.343597 0.096619
0.570831 0.338898 0.105682
0.596893 0.335510 0.113037
0.624695 0.333344 0.119019
0.659546 0.335846 0.122650
0.693756 0.337646 0.126343
0.727600 0.339050 0.130585
0.761047 0.340485 0.135345
0.794403 0.342346 0.140961
0.827667 0.344757 0.148071
0.860809 0.347443 0.155792
0.894043 0.350281 0.164429
0.927826 0.353149 0.174225
0.961029 0.357269 0.185272
0.000000 0.377808 0.112061
0.000000 0.378662 0.114960
0.000000 0.378693 0.118927
0.000000 0.377380 0.123810
0.013916 0.372589 0.128174
0.046997 0.365540 0.131378
0.093903 0.360931 0.133087
0.134155 0.360657 0.130920
0.174591 0.363037 0.127197
0.216309 0.367401 0.122009
0.259369 0.373383 0.116058
0.302643 0.380157 0.109070
0.346649 0.387177 0.100677
0.383820 0.385498 0.086304
0.441833 0.402710 0.068420
0.490997 0.412506 0.064880
0.521759 0.407654 0.076782
0.548920 0.400879 0.088959
0.574280 0.393921 0.100281
0.598450 0.387207 0.110352
0.621429 0.380798 0.119446
0.644073 0.374847 0.128204
0.670624 0.371857 0.134521
0.700745 0.371307 0.139954
0.735291 0.373505 0.144318
0.769348 0.375458 0.149109
0.802887 0.377289 0.154694
0.835968 0.379303 0.160980
0.868652 0.381866 0.168488
0.901337 0.384766 0.177185
0.934631 0.388031 0.187378
0.966858 0.392090 0.198730
0.000000 0.428558 0.134094
0.000000 0.428925 0.136749
0.000000 0.428406 0.140137
0.000000 0.428406 0.145081
0.000000 0.425171 0.149841
0.034729 0.417572 0.153107
0.087097 0.409821 0.155518
0.129242 0.406952 0.155029
0.171509 0.408142 0.151550
0.215210 0.411743 0.147125
0.259949 0.417114 0.141205
0.304443 0.423004 0.134491
0.348419 0.429077 0.126862
0.393494 0.435333 0.117523
0.431549 0.433136 0.102509
0.491089 0.450073 0.083008
0.539001 0.457214 0.078918
0.570984 0.452545 0.088409
0.596161 0.443390 0.101227
0.620026 0.434692 0.112701
0.642700 0.426849 0.123260
0.665314 0.419922 0.132690
0.687469 0.413757 0.141388
0.710846 0.408875 0.149109
0.736969 0.405945 0.155701
0.768250 0.406677 0.160858
0.801605 0.408478 0.165771
0.834534 0.410217 0.171539
0.867218 0.412262 0.178436
0.900085 0.415070 0.186768
0.933502 0.418457 0.196808
0.965485 0.422485 0.208069
0.000000 0.473877 0.155151
0.000000 0.474121 0.157501
0.000000 0.473267 0.160370
0.000000 0.472351 0.164703
0.000000 0.471313 0.169495
0.029114 0.462158 0.171143
0.072906 0.450592 0.172028
0.119781 0.446442 0.174713
0.164124 0.448639 0.174286
0.209747 0.452515 0.170990
0.256073 0.457520 0.165741
0.301880 0.463165 0.159668
0.346832 0.468903 0.152679
0.391632 0.474670 0.144562
0.437439 0.480499 0.134766
0.476440 0.478149 0.119446
0.535980 0.493744 0.101135
0.577179 0.494324 0.091492
0.609070 0.489044 0.099121
0.633209 0.479034 0.111938
0.656403 0.470154 0.123779
0.679962 0.462891 0.134399
0.702972 0.456787 0.144653
0.725647 0.451324 0.153961
0.747833 0.445801 0.162323
0.770905 0.441162 0.169556
0.795593 0.437439 0.175446
0.826599 0.438171 0.180298
0.858673 0.439697 0.186066
0.891357 0.441742 0.193054
0.925018 0.444733 0.202454
0.957733 0.448853 0.213684
0.000000 0.523895 0.180328
0.000000 0.524933 0.183044
0.000000 0.524719 0.186096
0.000000 0.524200 0.190460
0.000000 0.524170 0.195648
0.027191 0.522217 0.200256
0.069611 0.511963 0.201630
0.117004 0.496490 0.199860
0.159729 0.492004 0.199432
0.203461 0.492218 0.195221
0.249512 0.495331 0.190247
0.295990 0.500061 0.184570
0.341400 0.505402 0.177948
0.386169 0.510773 0.170563
0.431183 0.516144 0.162231
0.476807 0.521423 0.152496
0.514191 0.516418 0.135223
0.571564 0.529724 0.118195
0.622375 0.538177 0.109283
0.655670 0.533691 0.116211
0.678314 0.522247 0.128967
0.708801 0.519104 0.145660
0.732025 0.511871 0.156738
0.755066 0.505890 0.167297
0.777679 0.500275 0.176880
0.799194 0.494293 0.185547
0.819611 0.487610 0.192841
0.840302 0.481079 0.199188
0.865356 0.477386 0.204865
0.897736 0.478821 0.211578
0.931854 0.481506 0.220642
0.966431 0.485596 0.233002
0.000000 0.567383 0.204071
0.000000 0.568054 0.206512
0.000000 0.567932 0.209320
0.000000 0.567474 0.213562
0.000000 0.567474 0.218567
0.008209 0.567963 0.224091
0.060425 0.560425 0.225922
0.119568 0.548859 0.226318
0.162750 0.544678 0.230194
0.207611 0.546570 0.229645
0.254303 0.550079 0.226074
0.301575 0.554657 0.221283
0.348541 0.560089 0.215668
0.394867 0.565369 0.209381
0.440399 0.570160 0.201630
0.485748 0.574402 0.192841
0.531860 0.578430 0.182709
0.567749 0.570740 0.163452
0.623718 0.581787 0.148163
0.677795 0.592255 0.138550
0.712341 0.588470 0.144836
0.742523 0.582611 0.162262
0.764465 0.572418 0.173187
0.786041 0.564026 0.183685
0.807556 0.557037 0.193787
0.828613 0.550507 0.203033
0.849152 0.543701 0.211365
0.868988 0.536499 0.218964
0.888916 0.528809 0.226044
0.910034 0.521729 0.233490
0.939606 0.520508 0.241913
0.972626 0.523712 0.253754
0.000000 0.611755 0.231079
0.000000 0.617401 0.237183
0.000000 0.627930 0.247772
0.000000 0.628326 0.252167
0.000000 0.628967 0.257660
0.030487 0.630188 0.263977
0.091614 0.626526 0.266815
0.131104 0.604675 0.258148
0.167267 0.592743 0.257813
0.207825 0.588684 0.258362
0.251587 0.589996 0.254578
0.297943 0.594055 0.250702
0.344482 0.599091 0.245911
0.390717 0.604309 0.240326
0.436646 0.609344 0.233978
0.482391 0.614136 0.226990
0.528534 0.618744 0.218781
0.575287 0.623230 0.209259
0.614014 0.618256 0.191925
0.667633 0.627411 0.179199
0.725189 0.641052 0.168579
0.760925 0.638092 0.174438
0.783203 0.626373 0.185455
0.804718 0.616333 0.196533
0.826324 0.608429 0.207184
0.847717 0.601624 0.217499
0.868927 0.595428 0.227478
0.889496 0.588837 0.236511
0.909790 0.581757 0.244995
0.930267 0.573792 0.252686
0.951843 0.566345 0.261902
0.975800 0.562195 0.273682
0.000000 0.659210 0.263763
0.000000 0.661530 0.267273
0.000000 0.666290 0.273407
0.000000 0.667542 0.278412
0.000000 0.667847 0.283569
0.033417 0.667999 0.288879
0.108032 0.668060 0.294067
0.148865 0.656158 0.291168
0.176361 0.639404 0.285858
0.215088 0.634460 0.289703
0.255951 0.634277 0.287903
0.299652 0.637207 0.284180
0.344910 0.641510 0.279938
0.390198 0.646240 0.275116
0.435577 0.650909 0.269440
0.480499 0.655029 0.262909
0.525421 0.658813 0.255554
0.570526 0.662354 0.247101
0.616241 0.666138 0.237976
0.654724 0.661621 0.221527
0.705353 0.669006 0.211090
0.765137 0.684875 0.200897
0.802521 0.684479 0.205200
0.825592 0.673950 0.215668
0.846710 0.663879 0.226196
0.867615 0.655762 0.236755
0.888367 0.648712 0.247070
0.908691 0.642090 0.257141
0.928986 0.635315 0.266388
0.949280 0.627838 0.275299
0.970093 0.619965 0.284576
0.986816 0.613586 0.296326
0.000000 0.697510 0.291626
0.000000 0.699738 0.295105
0.000000 0.701813 0.299408
0.000000 0.703430 0.304596
0.000000 0.704193 0.309662
0.046539 0.698425 0.309998
0.119232 0.698975 0.315399
0.157623 0.689697 0.312744
0.173218 0.667542 0.300751
0.215118 0.667450 0.309326
0.259857 0.671021 0.316681
0.301819 0.674500 0.315186
0.344574 0.678253 0.311615
0.388214 0.682678 0.307434
0.432129 0.686829 0.302490
0.475769 0.690582 0.296265
0.519287 0.693909 0.289520
0.562958 0.697021 0.282043
0.606934 0.700256 0.274078
0.651398 0.703796 0.265808
0.689087 0.700043 0.250580
0.736969 0.705841 0.241730
0.795197 0.722198 0.233429
0.835846 0.725403 0.235962
0.860992 0.717102 0.245117
0.881561 0.707214 0.255249
0.901855 0.698975 0.265533
0.921753 0.691711 0.275787
0.941528 0.684937 0.285797
0.961182 0.677826 0.295471
0.980713 0.669922 0.304993
0.993134 0.662598 0.316528
0.000000 0.730011 0.316956
0.000000 0.732056 0.320435
0.000000 0.733978 0.324432
0.000000 0.735260 0.329132
0.000000 0.735596 0.333740
0.072479 0.735413 0.338470
0.146210 0.735840 0.343872
0.186157 0.733276 0.346252
0.191467 0.710083 0.330597
0.214722 0.696136 0.326111
0.258148 0.697815 0.336151
0.299561 0.701080 0.338287
0.340210 0.704987 0.335693
0.381561 0.709015 0.332214
0.423584 0.713135 0.327820
0.465973 0.717224 0.323120
0.508789 0.721283 0.317719
0.552124 0.725586 0.312286
0.596100 0.730225 0.306854
0.640228 0.735077 0.301514
0.684296 0.740204 0.296051
0.720947 0.736816 0.281677
0.767151 0.743225 0.276001
0.822327 0.758392 0.270569
0.866730 0.765594 0.273071
0.895599 0.761383 0.281189
0.916016 0.752075 0.292114
0.935944 0.744263 0.303101
0.955322 0.737152 0.313843
0.974304 0.730438 0.324371
0.990570 0.724152 0.336182
0.997498 0.715668 0.346680
0.000000 0.779419 0.362610
0.000000 0.780762 0.365448
0.000000 0.781616 0.368469
0.007843 0.782013 0.372040
0.085205 0.781769 0.375977
0.152771 0.781250 0.380157
0.199707 0.781097 0.384888
0.235016 0.781403 0.389801
0.250519 0.771393 0.384949
0.253387 0.750061 0.370453
0.287170 0.747406 0.376923
0.323700 0.747131 0.381653
0.359955 0.749542 0.379974
0.397614 0.752960 0.376892
0.436127 0.756653 0.373291
0.475830 0.760406 0.369049
0.516052 0.764160 0.364349
0.557312 0.767883 0.359436
0.599030 0.771851 0.354401
0.641052 0.776123 0.349426
0.682800 0.780457 0.344879
0.724731 0.784943 0.340240
0.760101 0.782440 0.327698
0.803467 0.787964 0.323547
0.853516 0.799408 0.319824
0.899170 0.808472 0.321075
0.931488 0.808167 0.328491
0.950775 0.798798 0.338989
0.969604 0.790955 0.350006
0.988159 0.784302 0.361694
0.997620 0.777527 0.373199
1.000000 0.769165 0.384888
0.000000 0.812897 0.395630
0.001434 0.813873 0.398041
0.028107 0.814545 0.400848
0.099792 0.814941 0.404358
0.154938 0.814819 0.408173
0.200226 0.814484 0.412506
0.239227 0.814392 0.417297
0.271606 0.814819 0.422607
0.292084 0.811615 0.423523
0.296478 0.797485 0.413391
0.318420 0.791290 0.414795
0.352142 0.790741 0.422974
0.384979 0.792328 0.424103
0.418121 0.795013 0.421478
0.452728 0.798004 0.418091
0.488739 0.801086 0.414307
0.525940 0.804169 0.409973
0.564178 0.807190 0.405365
0.603058 0.810059 0.400146
0.642242 0.812897 0.395050
0.680878 0.815918 0.390259
0.719177 0.818878 0.385803
0.756927 0.821747 0.381134
0.790924 0.820068 0.370758
0.831360 0.824188 0.366364
0.876434 0.832245 0.362885
0.921570 0.841888 0.363831
0.957672 0.846100 0.370331
0.975922 0.836975 0.380829
0.992615 0.829590 0.392548
0.999573 0.822906 0.405060
1.000000 0.814148 0.416473
0.128632 0.850189 0.438568
0.150818 0.851410 0.441467
0.174561 0.851837 0.443848
0.201965 0.851532 0.446350
0.230469 0.850739 0.448822
0.260468 0.849609 0.451843
0.289551 0.848663 0.455322
0.316223 0.848083 0.459412
0.338318 0.848053 0.463684
0.344055 0.838745 0.457306
0.351501 0.827972 0.450806
0.377930 0.825470 0.456085
0.407623 0.824982 0.460663
0.436707 0.826904 0.459076
0.467712 0.829498 0.456360
0.500275 0.832336 0.453033
0.534454 0.835144 0.449524
0.569702 0.838043 0.445526
0.606262 0.840820 0.441071
0.643036 0.843384 0.436584
0.678894 0.845764 0.432037
0.714417 0.848236 0.428040
0.748840 0.850464 0.424133
0.783264 0.852448 0.419769
0.815735 0.851227 0.410309
0.853821 0.854675 0.406586
0.895081 0.860657 0.403778
0.938416 0.869904 0.404419
0.978149 0.878448 0.410645
0.994232 0.870117 0.421173
1.000000 0.862213 0.432098
1.000000 0.852692 0.442474
0.209229 0.876251 0.470001
0.222382 0.876984 0.472321
0.237823 0.877228 0.474518
0.257568 0.877014 0.476837
0.279572 0.876495 0.479523
0.304779 0.875793 0.482910
0.330536 0.875153 0.486847
0.354584 0.874878 0.491272
0.375031 0.874878 0.495514
0.386139 0.870972 0.494659
0.385986 0.859772 0.484924
0.408386 0.857605 0.490265
0.436890 0.857025 0.498077
0.463348 0.858124 0.499176
0.489929 0.860229 0.496674
0.518433 0.862366 0.493591
0.548676 0.864563 0.490021
0.580383 0.866852 0.486298
0.613647 0.869232 0.482239
0.647675 0.871582 0.478394
0.681030 0.873840 0.474487
0.713531 0.875854 0.471252
0.744812 0.877625 0.467896
0.775726 0.879120 0.464294
0.807465 0.880463 0.459839
0.838562 0.879791 0.451630
0.874268 0.882538 0.447937
0.911743 0.886688 0.445190
0.951965 0.894226 0.445190
0.991180 0.903992 0.451874
0.999390 0.898193 0.460541
1.000000 0.888367 0.469788
0.272034 0.899597 0.501068
0.281494 0.900146 0.503052
0.293549 0.900391 0.505157
0.309204 0.900299 0.507568
0.327759 0.900085 0.510468
0.349304 0.899658 0.514130
0.372101 0.899323 0.518341
0.394562 0.899261 0.523376
0.414093 0.899506 0.528107
0.429230 0.899048 0.531433
0.413116 0.884308 0.512085
0.428680 0.880463 0.513794
0.458679 0.881805 0.524902
0.486237 0.882599 0.531616
0.510284 0.884460 0.530701
0.535492 0.886383 0.528076
0.562408 0.888336 0.524994
0.590820 0.890320 0.521545
0.620850 0.892334 0.517853
0.651733 0.894379 0.514160
0.682587 0.896454 0.510895
0.712891 0.898499 0.508453
0.741882 0.900543 0.507019
0.769989 0.902100 0.504730
0.798584 0.903442 0.501862
0.828430 0.904663 0.498077
0.858673 0.904846 0.491669
0.891968 0.907166 0.488556
0.926025 0.909821 0.485443
0.962463 0.915375 0.484924
0.992310 0.924103 0.486969
1.000000 0.919739 0.495239
0.334259 0.922180 0.534546
0.342987 0.922974 0.537140
0.353577 0.923431 0.539703
0.367981 0.923859 0.543121
0.385040 0.924194 0.547150
0.406372 0.924957 0.552917
0.429138 0.925659 0.559265
0.451569 0.926483 0.566132
0.471375 0.927277 0.572632
0.490204 0.928650 0.579590
0.490082 0.923035 0.573395
0.483368 0.913116 0.561127
0.502258 0.911316 0.566437
0.525848 0.910583 0.573669
0.548004 0.911896 0.575775
