tools/luts_backup/LAPARDIN-WEDLUTS-20.cube
#Created by: Adobe Photoshop Export Color Lookup Plugin
#Copyright: (C) 2017 Andrey Lapardin. vk.com-3dluts
TITLE "Andrey Lapardin. vk.com-3dluts"
#LUT size
LUT_3D_SIZE 8
#data domain
#LUT data points
DOMAIN_MIN 0.000000 0.000000 0.000000
DOMAIN_MAX 0.903226 0.903226 0.903226
0.002228 0.004120 0.004547
0.063202 0.010651 0.010132
0.169952 0.022888 0.014313
0.291656 0.036835 0.017639
0.435303 0.054260 0.019928
0.599426 0.073059 0.017181
0.771301 0.088837 0.011414
0.931183 0.108185 0.011047
0.000824 0.061615 0.024017
0.059387 0.071503 0.015045
0.173492 0.091888 0.017517
0.293884 0.108154 0.022003
0.436523 0.126678 0.028595
0.599884 0.146973 0.027679
0.769135 0.166962 0.017456
0.930084 0.184204 0.013519
0.000000 0.169617 0.074127
0.011444 0.170807 0.061615
0.175140 0.183167 0.036438
0.311127 0.202972 0.035095
0.447632 0.214722 0.040436
0.606293 0.232849 0.038391
0.764679 0.245300 0.034851
0.915619 0.255920 0.038544
0.000000 0.319244 0.153442
0.000000 0.314606 0.146332
0.108582 0.318329 0.121490
0.329346 0.340790 0.066498
0.497894 0.358368 0.046387
0.622009 0.347076 0.055145
0.776031 0.360748 0.043976
0.914001 0.369598 0.053223
0.000000 0.508606 0.249756
0.000000 0.508118 0.247192
0.000000 0.496277 0.216858
0.256561 0.513580 0.177673
0.515900 0.534424 0.094391
0.708069 0.548553 0.039795
0.808807 0.516052 0.070496
0.920715 0.503601 0.089722
0.000000 0.702118 0.362701
0.000000 0.702789 0.362579
0.000000 0.691772 0.357544
0.022888 0.692993 0.304657
0.428802 0.708923 0.255219
0.682312 0.713348 0.171143
0.871429 0.727173 0.139923
0.956970 0.692078 0.173096
0.000000 0.845764 0.507416
0.000000 0.846436 0.512482
0.048462 0.845795 0.521759
0.105621 0.834412 0.481293
0.379547 0.844666 0.448578
0.602051 0.851227 0.399841
0.791992 0.848236 0.334747
0.974396 0.868500 0.322388
0.387817 0.938141 0.666718
0.417755 0.938263 0.672272
0.470245 0.936707 0.681549
0.497620 0.929749 0.679871
0.526001 0.934448 0.647003
0.633667 0.941193 0.621979
0.739807 0.942261 0.588470
0.870270 0.943237 0.550262
0.002319 0.006958 0.077698
0.079193 0.005585 0.076324
0.145294 0.029144 0.093658
0.276123 0.016937 0.102386
0.416809 0.017853 0.102631
0.572144 0.025696 0.108521
0.745483 0.038940 0.104706
0.916138 0.069702 0.096924
0.001587 0.068451 0.064728
0.081207 0.081238 0.078583
0.179260 0.092529 0.088715
0.299957 0.104889 0.097473
0.442596 0.124481 0.105743
0.598785 0.141357 0.109375
0.759674 0.153290 0.109833
0.907501 0.170197 0.114594
0.023254 0.165863 0.113983
0.086304 0.176208 0.123718
0.186218 0.195831 0.109589
0.319733 0.211395 0.106079
0.462097 0.220551 0.110382
0.619263 0.231689 0.113831
0.769775 0.247375 0.118225
0.901001 0.269928 0.128937
0.000000 0.305664 0.184570
0.032806 0.313751 0.190887
0.154572 0.327759 0.177612
0.355713 0.356567 0.139679
0.508362 0.368469 0.128693
0.636597 0.356537 0.125336
0.789673 0.364594 0.124420
0.907166 0.372772 0.147400
0.000000 0.495209 0.276825
0.000000 0.505829 0.278931
0.002686 0.516449 0.262482
0.296478 0.532013 0.231934
0.547791 0.549103 0.174652
0.716980 0.555481 0.153839
0.817627 0.523224 0.154785
0.915039 0.508850 0.172546
0.000000 0.692627 0.382690
0.000000 0.709045 0.392975
0.000000 0.710571 0.393494
0.142212 0.714447 0.357574
0.469604 0.723602 0.311279
0.709747 0.725800 0.248810
0.879578 0.733429 0.231903
0.951324 0.689880 0.247528
0.000000 0.837769 0.515442
0.064056 0.854858 0.542023
0.229492 0.853363 0.553406
0.283997 0.850555 0.525421
0.435303 0.849915 0.494446
0.633209 0.856049 0.450836
0.816467 0.852325 0.389954
0.971436 0.865936 0.383636
0.383698 0.931641 0.664124
0.450470 0.938812 0.685486
0.504822 0.937317 0.695618
0.528839 0.935608 0.683868
0.556702 0.929626 0.663025
0.649170 0.934357 0.638062
0.765778 0.938934 0.609131
0.883606 0.942627 0.582886
0.000000 0.004303 0.212799
0.095093 0.001587 0.216309
0.209747 0.000000 0.214783
0.266388 0.040497 0.212830
0.371796 0.073547 0.239349
0.548370 0.000244 0.246063
0.732819 0.000000 0.212311
0.906555 0.000000 0.204407
0.000000 0.102692 0.178101
0.068390 0.092712 0.194305
0.203888 0.088715 0.198944
0.258301 0.129669 0.207794
0.407593 0.121765 0.228027
0.578125 0.076324 0.218048
0.739563 0.066864 0.210754
0.887665 0.099976 0.211060
0.000000 0.172241 0.159790
0.081726 0.186584 0.177246
0.203094 0.205780 0.197357
0.323456 0.200439 0.192993
0.465454 0.207672 0.198853
0.619141 0.221222 0.207794
0.754028 0.242554 0.221436
0.870941 0.267151 0.249390
0.019745 0.298157 0.218750
0.131195 0.307800 0.231995
0.201813 0.337616 0.255127
0.355682 0.364716 0.230286
0.504852 0.359131 0.211395
0.644989 0.356781 0.213501
0.786591 0.366211 0.226074
0.899811 0.378052 0.253815
0.000000 0.473938 0.303070
0.015167 0.486359 0.317200
0.171082 0.515533 0.340668
0.316406 0.537506 0.320984
0.566254 0.567383 0.269623
0.723297 0.562195 0.247375
0.808411 0.524109 0.253571
0.908325 0.517700 0.277924
0.000000 0.674927 0.409546
0.000000 0.680573 0.423645
0.122589 0.707611 0.449066
0.278259 0.716919 0.440002
0.511841 0.732147 0.402100
0.735443 0.734192 0.349213
0.867218 0.734406 0.353058
0.941772 0.699921 0.356689
0.067474 0.828827 0.543030
0.140198 0.828064 0.551331
0.338654 0.841339 0.583008
0.409485 0.845581 0.578583
0.519867 0.851746 0.564270
0.672699 0.857819 0.522827
0.831146 0.854156 0.487213
0.965851 0.868347 0.494781
0.432831 0.927734 0.684021
0.439240 0.917542 0.675781
0.525146 0.915466 0.696930
0.563538 0.917816 0.690887
0.623901 0.931519 0.703186
0.691254 0.935272 0.683655
0.792297 0.938995 0.663818
0.903717 0.942078 0.641113
0.000000 0.003815 0.392883
0.077240 0.000000 0.407013
0.210022 0.000000 0.421051
0.374725 0.000000 0.416595
0.482635 0.000000 0.421906
0.515961 0.105804 0.399933
0.663513 0.075226 0.413818
0.864441 0.000000 0.414246
0.000000 0.120422 0.347717
0.013458 0.099670 0.375458
0.201996 0.096069 0.388062
0.365387 0.068634 0.391174
0.445007 0.120392 0.386017
0.501617 0.178955 0.391449
0.673157 0.139465 0.410217
0.848877 0.030396 0.403320
0.000000 0.220459 0.312531
0.000000 0.229370 0.335480
0.181885 0.222046 0.360504
0.369385 0.205963 0.357544
0.418457 0.235199 0.345947
0.567078 0.234009 0.367981
0.723267 0.223938 0.375366
0.862366 0.205719 0.364685
0.000000 0.305969 0.283386
0.000061 0.323700 0.305206
0.182404 0.345001 0.328430
0.352814 0.351318 0.338898
0.491943 0.334015 0.322510
0.635864 0.337189 0.328308
0.769653 0.359406 0.354218
0.896027 0.374176 0.373199
0.000000 0.470856 0.353149
0.098236 0.486511 0.373199
0.265289 0.499542 0.396027
0.363525 0.525269 0.423309
0.550995 0.553894 0.392487
0.685272 0.524384 0.362000
0.791687 0.513519 0.371094
0.918030 0.514496 0.384674
0.031555 0.658569 0.461884
0.139801 0.668549 0.474152
0.267700 0.680542 0.489655
0.412201 0.702393 0.530914
0.531281 0.717590 0.514099
0.730499 0.732086 0.470642
0.854675 0.728516 0.458282
0.928833 0.700348 0.459778
0.219147 0.815552 0.576843
0.305847 0.818726 0.592743
0.389618 0.812378 0.600769
0.522675 0.821655 0.638794
0.588745 0.838531 0.644165
0.705627 0.848846 0.617828
0.849670 0.854187 0.579834
0.953827 0.866150 0.597565
0.477417 0.920227 0.704437
0.501373 0.912994 0.707001
0.543091 0.909149 0.711639
0.641907 0.912903 0.746002
0.680389 0.925964 0.747742
0.739838 0.934937 0.746887
0.820190 0.938812 0.720825
0.917999 0.941071 0.709106
0.000000 0.003784 0.617065
0.022339 0.000000 0.619659
0.138092 0.000000 0.660583
0.376892 0.000000 0.656281
0.573578 0.000000 0.646637
0.747253 0.000000 0.680969
0.733276 0.041138 0.595612
0.784302 0.185669 0.586029
0.000000 0.122162 0.583130
0.000000 0.102997 0.607513
0.153717 0.096130 0.631500
0.354492 0.082825 0.633698
0.558014 0.006927 0.628693
0.716125 0.000000 0.650330
0.720062 0.151123 0.587372
0.771942 0.225159 0.578705
0.000000 0.272400 0.537750
0.000000 0.260681 0.559296
0.057495 0.242554 0.595428
0.371826 0.227478 0.581635
0.576874 0.201630 0.578430
0.626160 0.254547 0.552185
0.666748 0.303650 0.542053
0.784302 0.308380 0.562042
0.000000 0.377228 0.491791
0.000000 0.392334 0.520050
0.021637 0.406189 0.546814
0.339081 0.375916 0.541565
0.553680 0.355957 0.530304
0.582367 0.370758 0.497284
0.719055 0.380249 0.517151
0.872528 0.371613 0.512329
0.000000 0.469910 0.438232
0.000000 0.490540 0.462708
0.073761 0.515350 0.495789
0.336884 0.520782 0.504486
0.525879 0.518402 0.503448
0.663116 0.496552 0.484344
0.793396 0.496033 0.487549
0.912323 0.506134 0.507141
0.000000 0.655792 0.509155
0.015564 0.667358 0.527222
0.280273 0.677063 0.552246
0.467987 0.677887 0.582794
0.571167 0.699829 0.612732
0.721344 0.720825 0.588440
0.829590 0.696991 0.556091
0.912140 0.673767 0.551147
0.325500 0.806946 0.632874
0.400604 0.806854 0.643250
0.479767 0.811005 0.662262
0.555939 0.811157 0.672516
0.652374 0.831543 0.714050
0.723145 0.845764 0.707062
0.850525 0.857666 0.680054
0.945496 0.856384 0.673920
0.538055 0.915009 0.742493
0.559937 0.913452 0.745209
0.599274 0.911102 0.752502
0.649994 0.908020 0.760376
0.731781 0.919800 0.789001
0.778717 0.929321 0.801178
0.846619 0.936890 0.789124
0.933716 0.940704 0.771271
0.000000 0.012329 0.796967
0.000000 0.000854 0.794922
0.053070 0.000000 0.822632
0.307098 0.000000 0.826416
0.543182 0.000000 0.814148
0.748718 0.000000 0.806305
0.914642 0.000000 0.843536
0.913605 0.036865 0.764404
0.000000 0.130493 0.785278
0.000000 0.115173 0.795929
0.109497 0.100098 0.809570
0.288269 0.124207 0.816223
0.524597 0.064911 0.805359
0.738220 0.000000 0.796875
0.896240 0.000000 0.825043
0.887482 0.158813 0.744507
0.000000 0.299011 0.758575
0.000000 0.276093 0.764771
0.000000 0.265228 0.789917
0.326660 0.259277 0.781799
0.537292 0.256866 0.767517
0.737976 0.226563 0.763916
0.843750 0.256317 0.769196
0.844086 0.325439 0.711395
0.000000 0.441193 0.719910
0.000000 0.445190 0.728668
0.000000 0.446838 0.755737
0.295410 0.427612 0.750763
0.555786 0.403717 0.731018
0.740265 0.391846 0.716919
0.764648 0.432800 0.682129
0.803955 0.458191 0.666595
0.000000 0.547974 0.670654
0.000000 0.559845 0.687042
0.000000 0.582367 0.716125
0.317291 0.583221 0.711792
0.538971 0.558197 0.698517
0.708435 0.536285 0.679169
0.744507 0.531952 0.656067
0.866852 0.532196 0.656647
0.000000 0.648865 0.616638
0.000000 0.660156 0.625183
0.004669 0.686035 0.662170
0.335358 0.687592 0.669434
0.535889 0.688995 0.672241
0.695190 0.683105 0.667389
0.805267 0.662872 0.649811
0.908813 0.665222 0.654724
0.000000 0.808655 0.661591
0.084290 0.810028 0.670105
0.318298 0.814758 0.691620
0.526367 0.811157 0.712311
0.674805 0.818970 0.749786
0.749054 0.836975 0.774200
0.848785 0.851166 0.761047
0.928711 0.841309 0.744080
0.475098 0.917206 0.764893
0.529327 0.916260 0.773956
0.610657 0.915131 0.790924
0.695831 0.913879 0.809814
0.751038 0.913025 0.818604
0.818268 0.931122 0.847351
0.864929 0.938690 0.851685
0.941071 0.944183 0.838501
0.000000 0.071411 0.916748
0.000000 0.050751 0.915588
0.070526 0.019806 0.922546
0.226501 0.036865 0.934204
0.484711 0.000000 0.926788
0.697052 0.000000 0.913483
0.888245 0.000000 0.908112
1.000000 0.000000 0.927490
0.000000 0.153839 0.912628
0.000000 0.149597 0.919739
0.102417 0.132813 0.920685
0.241608 0.161652 0.925537
0.467590 0.154114 0.918884
0.688171 0.099304 0.907288
0.884979 0.006042 0.901245
0.994171 0.078766 0.916534
0.000000 0.313446 0.899689
0.000000 0.295532 0.899170
0.000000 0.298523 0.900909
0.304169 0.301636 0.905121
0.482574 0.318024 0.901642
0.680328 0.308899 0.892273
0.873444 0.276611 0.884979
0.948700 0.308228 0.874573
0.000000 0.463745 0.878693
0.000000 0.472168 0.877533
0.000732 0.483246 0.882446
0.327911 0.489288 0.876251
0.539490 0.470276 0.866425
0.712738 0.469147 0.854553
0.871307 0.461761 0.851318
0.916595 0.479797 0.840088
0.000000 0.595367 0.847229
0.000000 0.604858 0.849091
0.000000 0.622650 0.856476
0.353149 0.631104 0.855591
0.558380 0.628571 0.849304
0.727051 0.601990 0.837677
0.855530 0.589905 0.823883
0.873352 0.604218 0.789398
0.000000 0.702820 0.812653
0.000000 0.708038 0.813416
0.038361 0.722473 0.828186
0.374756 0.732697 0.829315
0.548309 0.727631 0.821381
0.717682 0.718842 0.820313
0.828766 0.703339 0.802368
0.857574 0.694611 0.783325
0.000000 0.807465 0.779816
0.000000 0.808197 0.776733
0.121979 0.815613 0.790283
0.405426 0.818939 0.798492
0.572693 0.818451 0.801605
0.712402 0.817017 0.801941
0.827240 0.817749 0.804352
0.909790 0.810303 0.797607
0.013519 0.921295 0.786530
0.232513 0.922211 0.794891
0.423248 0.923523 0.809601
0.578766 0.922119 0.826385
0.721985 0.917938 0.846466
0.829926 0.923004 0.873993
0.886322 0.939270 0.895264
0.939423 0.945313 0.892120
0.000000 0.126099 0.988007
0.000000 0.121216 0.988037
0.004730 0.102966 0.986816
0.231720 0.103363 0.993927
0.424286 0.103699 0.994202
0.631104 0.029968 0.986084
0.821381 0.000000 0.974335
0.995819 0.000000 0.969086
0.000000 0.183167 0.985199
0.000000 0.189148 0.984131
0.031860 0.178833 0.980713
0.280548 0.186890 0.983551
0.403687 0.197235 0.989594
0.619598 0.172577 0.980408
0.819580 0.143311 0.971619
0.990784 0.094269 0.965210
0.000000 0.318573 0.978119
0.000000 0.325043 0.971680
0.025604 0.350891 0.954529
0.336761 0.338928 0.964142
0.443665 0.346161 0.976044
0.615784 0.348999 0.970490
0.811584 0.340515 0.958893
0.974030 0.325958 0.951691
0.000000 0.483734 0.969177
0.000000 0.494568 0.958069
0.033691 0.517334 0.943390
0.358368 0.511932 0.948120
0.525848 0.501160 0.952454
0.661316 0.509094 0.947083
0.810242 0.503601 0.936676
0.955780 0.492493 0.934326
0.000000 0.606781 0.951385
0.000000 0.620300 0.943939
0.019196 0.643860 0.930237
0.375122 0.657257 0.935913
0.569733 0.665894 0.936646
0.704071 0.643646 0.927917
0.832031 0.640472 0.918915
0.944397 0.637177 0.913635
0.000000 0.712555 0.927277
0.000000 0.719727 0.920532
0.081024 0.730438 0.916077
0.379578 0.746765 0.921417
0.578217 0.764801 0.923431
0.730164 0.769806 0.920776
0.845490 0.755493 0.915771
0.933594 0.746521 0.903076
0.000000 0.819305 0.909851
0.000000 0.818909 0.903687
0.232697 0.824005 0.903839
0.443176 0.833466 0.908295
0.605042 0.844299 0.910248
0.738495 0.853607 0.916809
0.848969 0.851318 0.917236
0.921112 0.837585 0.902496
0.000000 0.916260 0.889648
0.044373 0.916931 0.890747
0.302673 0.920471 0.893280
0.492065 0.923615 0.897156
0.637787 0.924347 0.905090
0.755219 0.924133 0.910400
0.852325 0.922455 0.908905
0.930054 0.928223 0.917358
