tools/luts_backup/LAPARDIN-WEDLUTS-17.cube
#Created by: Adobe Photoshop Export Color Lookup Plugin
#Copyright: (C) 2017 Andrey Lapardin. vk.com-3dluts
TITLE "Andrey Lapardin. vk.com-3dluts"
#LUT size
LUT_3D_SIZE 8
#data domain
#LUT data points
DOMAIN_MIN 0.000000 0.000000 0.000000
DOMAIN_MAX 0.903226 0.903226 0.903226
0.059631 0.062622 0.060608
0.115692 0.066650 0.064056
0.189178 0.071960 0.066742
0.288239 0.074707 0.067596
0.417328 0.075958 0.064301
0.552429 0.075623 0.056976
0.675934 0.068176 0.049042
0.793427 0.059875 0.040375
0.060974 0.119354 0.061462
0.119354 0.121094 0.062958
0.195892 0.128967 0.065125
0.295776 0.135773 0.066284
0.422607 0.144257 0.065369
0.553680 0.150757 0.060211
0.675110 0.154907 0.050934
0.789337 0.155243 0.039001
0.054504 0.199432 0.057861
0.129181 0.198608 0.061707
0.201599 0.195862 0.066620
0.307739 0.211090 0.065521
0.436035 0.223145 0.062805
0.560577 0.226715 0.061493
0.673035 0.223999 0.061310
0.777679 0.219727 0.058838
0.040039 0.318115 0.044342
0.130676 0.317291 0.048981
0.215759 0.313995 0.060333
0.322266 0.315704 0.059784
0.452545 0.329742 0.055267
0.572052 0.331757 0.057861
0.678589 0.326233 0.058533
0.776428 0.321136 0.059753
0.039032 0.461090 0.036102
0.109833 0.462646 0.036102
0.199402 0.447815 0.051788
0.330750 0.448578 0.055725
0.449646 0.445435 0.057739
0.571289 0.444550 0.058197
0.680206 0.444275 0.060272
0.775604 0.436890 0.063171
0.038971 0.580719 0.036072
0.110596 0.583527 0.036072
0.175446 0.571075 0.045868
0.307526 0.567719 0.056335
0.444489 0.569336 0.057373
0.562164 0.563232 0.060364
0.676697 0.563232 0.061127
0.771637 0.560089 0.063385
0.039886 0.688568 0.043427
0.111603 0.689606 0.046814
0.190002 0.689911 0.050720
0.290680 0.675720 0.075256
0.427307 0.676361 0.071442
0.553467 0.675323 0.070282
0.656250 0.669861 0.071228
0.762146 0.671356 0.082672
0.043274 0.774994 0.122406
0.152496 0.775635 0.126282
0.262451 0.775482 0.132385
0.327606 0.768616 0.144501
0.433136 0.765656 0.153748
0.548828 0.765137 0.152252
0.639465 0.761444 0.157684
0.731842 0.759766 0.160980
0.063751 0.062256 0.114807
0.114624 0.065857 0.115997
0.188049 0.068512 0.125275
0.288300 0.066559 0.131073
0.414703 0.058075 0.131073
0.544891 0.053314 0.128479
0.666138 0.048920 0.121490
0.783691 0.041687 0.110809
0.062988 0.116241 0.110626
0.126282 0.125702 0.119934
0.203125 0.130188 0.124725
0.309143 0.132813 0.126343
0.437531 0.139435 0.126282
0.562866 0.144287 0.124756
0.677368 0.145294 0.123749
0.778381 0.149261 0.124664
0.057159 0.193878 0.115448
0.133759 0.204437 0.122803
0.214325 0.212097 0.121918
0.326935 0.223907 0.120178
0.455200 0.226807 0.121277
0.576782 0.224976 0.123077
0.683441 0.228821 0.127777
0.775024 0.239868 0.134644
0.042755 0.310120 0.110687
0.124542 0.319519 0.116180
0.224457 0.327393 0.120605
0.345428 0.334015 0.115601
0.473389 0.346008 0.114532
0.588806 0.341766 0.122040
0.694458 0.332916 0.127533
0.779602 0.332672 0.148804
0.039764 0.452576 0.099609
0.109985 0.461426 0.099213
0.212433 0.466492 0.105286
0.350128 0.467712 0.108856
0.472626 0.461243 0.110352
0.589996 0.459869 0.113098
0.693390 0.456055 0.129547
0.775055 0.447205 0.155853
0.039459 0.572052 0.093903
0.111603 0.583527 0.094177
0.206604 0.585724 0.098938
0.324799 0.582642 0.115997
0.462860 0.581360 0.115479
0.580902 0.575836 0.118103
0.689758 0.573883 0.123291
0.770538 0.561829 0.153717
0.041565 0.681641 0.115967
0.114685 0.696899 0.126892
0.230621 0.696838 0.129791
0.329437 0.689087 0.149750
0.440643 0.683136 0.160492
0.566650 0.681366 0.159821
0.670288 0.674469 0.155823
0.762939 0.671692 0.171326
0.050201 0.767700 0.171997
0.174255 0.776184 0.190674
0.288055 0.776123 0.193909
0.381958 0.771698 0.207947
0.447113 0.761871 0.232178
0.552734 0.759338 0.232330
0.652924 0.758484 0.231323
0.738068 0.759888 0.233398
0.059784 0.059540 0.187714
0.117432 0.062103 0.194183
0.182892 0.063721 0.200073
0.290802 0.060394 0.225250
0.419952 0.048370 0.241058
0.551758 0.047913 0.240662
0.673889 0.045593 0.230103
0.787048 0.039337 0.213287
0.059875 0.121552 0.181885
0.125793 0.125763 0.197754
0.203125 0.127655 0.205750
0.307709 0.132660 0.221313
0.434387 0.128113 0.230103
0.562469 0.119385 0.229492
0.675812 0.120880 0.223999
0.773315 0.135315 0.220795
0.058838 0.192230 0.178650
0.129669 0.205048 0.192230
0.219635 0.222260 0.207458
0.335968 0.218048 0.207703
0.467102 0.220062 0.210480
0.586456 0.228180 0.217560
0.678833 0.244568 0.230225
0.754883 0.265472 0.255859
0.050446 0.304718 0.179169
0.109802 0.317719 0.179352
0.215942 0.346741 0.199524
0.355347 0.354279 0.195465
0.485016 0.351563 0.197540
0.597046 0.346954 0.213837
0.694336 0.345856 0.229950
0.770538 0.350372 0.254517
0.051849 0.440674 0.155823
0.108582 0.451935 0.174805
0.213867 0.474640 0.196716
0.349609 0.479828 0.206635
0.486969 0.478455 0.193146
0.601715 0.472778 0.194305
0.691620 0.467407 0.232483
0.767914 0.462372 0.264374
0.050018 0.565216 0.163635
0.110046 0.570038 0.186554
0.215149 0.588531 0.198486
0.337189 0.590637 0.220856
0.477997 0.591339 0.216583
0.591980 0.580261 0.214874
0.685181 0.579803 0.235962
0.766968 0.575623 0.265869
0.049225 0.675629 0.197723
0.113708 0.676880 0.214325
0.248016 0.688751 0.230255
0.360901 0.688660 0.244049
0.463409 0.686920 0.254456
0.580658 0.684601 0.248138
0.676819 0.677673 0.260040
0.764160 0.677490 0.278595
0.067719 0.764587 0.248932
0.154419 0.754944 0.252777
0.306427 0.754913 0.283630
0.412109 0.754517 0.289459
0.480103 0.764191 0.306763
0.567688 0.761475 0.305603
0.661438 0.759857 0.311646
0.747986 0.760284 0.316010
0.049744 0.058014 0.292755
0.128113 0.054871 0.306000
0.183441 0.058380 0.320984
0.277374 0.052643 0.331940
0.428436 0.042603 0.382385
0.556152 0.042572 0.390930
0.672882 0.042999 0.373688
0.782745 0.039948 0.360718
0.043976 0.119202 0.290375
0.126801 0.118439 0.312683
0.195404 0.121735 0.326904
0.293427 0.121521 0.337921
0.431793 0.119324 0.374298
0.557434 0.112122 0.384064
0.671692 0.113495 0.372772
0.767792 0.130219 0.364746
0.047516 0.201447 0.289124
0.109741 0.204651 0.308258
0.203979 0.211456 0.331116
0.334595 0.208344 0.338379
0.465881 0.216248 0.349823
0.579041 0.236847 0.356750
0.672394 0.266388 0.368988
0.753235 0.285004 0.376221
0.052277 0.304321 0.279541
0.107544 0.322418 0.300537
0.197052 0.345917 0.324463
0.352112 0.356201 0.333801
0.480011 0.349213 0.333527
0.588959 0.353271 0.341888
0.678375 0.374695 0.367065
0.765350 0.385864 0.382263
0.055542 0.441528 0.277039
0.111298 0.455902 0.288940
0.200470 0.468079 0.300842
0.344757 0.483978 0.329559
0.483795 0.484497 0.327118
0.595123 0.474213 0.332947
0.683136 0.481293 0.365753
0.774078 0.476379 0.375122
0.058350 0.561218 0.268066
0.116943 0.570984 0.284821
0.212921 0.577454 0.298828
0.356567 0.589874 0.334656
0.475647 0.593323 0.347290
0.591919 0.588196 0.333496
0.686798 0.588013 0.340576
0.763855 0.589050 0.374908
0.061005 0.668030 0.279755
0.121429 0.671997 0.300446
0.240662 0.667175 0.313232
0.396515 0.676239 0.354034
0.478424 0.684326 0.372589
0.588562 0.684052 0.368439
0.685181 0.679871 0.358948
0.761322 0.682037 0.381714
0.080475 0.758362 0.317261
0.172546 0.751404 0.332001
0.286865 0.749054 0.339386
0.431976 0.754547 0.380188
0.505127 0.761353 0.395355
0.582642 0.764191 0.405243
0.673523 0.761963 0.397552
0.753815 0.761017 0.409851
0.042389 0.053040 0.421570
0.148407 0.047821 0.430328
0.184540 0.049835 0.457764
0.275604 0.046356 0.464600
0.384979 0.043213 0.472260
0.552765 0.040833 0.530853
0.674011 0.039551 0.526733
0.779724 0.038483 0.504486
0.036682 0.114777 0.422607
0.132996 0.110046 0.440125
0.194031 0.112305 0.458435
0.274872 0.118286 0.467346
0.389587 0.111481 0.475220
0.549774 0.107239 0.522156
0.669708 0.105927 0.523041
0.764648 0.112701 0.503113
0.044189 0.193542 0.418884
0.100769 0.192841 0.437500
0.187103 0.201019 0.462799
0.306732 0.202942 0.462769
0.431702 0.206421 0.470978
0.564758 0.229736 0.500641
0.662079 0.262970 0.497406
0.748016 0.284576 0.495148
0.052399 0.306000 0.412292
0.107025 0.315094 0.433746
0.175293 0.330475 0.459106
0.332245 0.342560 0.468048
0.474640 0.345001 0.473755
0.583862 0.357086 0.471008
0.670776 0.382721 0.477020
0.759277 0.399536 0.480042
0.058319 0.436310 0.402100
0.114502 0.451324 0.421112
0.194733 0.470612 0.447906
0.345612 0.481140 0.460175
0.478088 0.485992 0.461456
0.585236 0.481934 0.464172
0.680450 0.485168 0.471588
0.766968 0.495056 0.488525
0.061859 0.556732 0.392456
0.119690 0.566101 0.405304
0.233551 0.577057 0.422943
0.365540 0.585297 0.445587
0.475372 0.595123 0.462524
0.590271 0.595428 0.459290
0.686951 0.592224 0.463257
0.761353 0.596344 0.489716
0.064301 0.664520 0.397064
0.141907 0.665985 0.401276
0.255035 0.671173 0.419617
0.379913 0.671783 0.429260
0.493042 0.686310 0.469147
0.584045 0.689484 0.476624
0.683441 0.687592 0.463989
0.763000 0.684113 0.475433
0.097595 0.754578 0.407135
0.198334 0.753448 0.412903
0.301086 0.752197 0.428253
0.407471 0.749908 0.435120
0.533997 0.757141 0.476288
0.596527 0.762085 0.502777
0.682068 0.762726 0.503296
0.760284 0.761414 0.500244
0.037964 0.046478 0.542358
0.154053 0.041168 0.544800
0.202667 0.037415 0.570587
0.265533 0.044525 0.580658
0.375244 0.045868 0.580780
0.495758 0.044983 0.588623
0.660187 0.039215 0.646881
0.776215 0.037750 0.638428
0.032806 0.106415 0.545654
0.132416 0.101715 0.555969
0.209229 0.100861 0.570465
0.261108 0.115723 0.582123
0.371155 0.113068 0.582703
0.495911 0.107758 0.588043
0.655609 0.105804 0.638245
0.761078 0.111206 0.626343
0.037048 0.187927 0.546631
0.098846 0.189453 0.553772
0.182220 0.192230 0.575226
0.288147 0.196991 0.575653
0.394287 0.210907 0.574402
0.514679 0.215698 0.581696
0.650909 0.228271 0.616241
0.741302 0.262024 0.607178
0.048767 0.294373 0.537781
0.106415 0.301910 0.548126
0.161407 0.315613 0.572845
0.305878 0.335266 0.579346
0.433350 0.338562 0.572113
0.557404 0.352020 0.575531
0.660889 0.388794 0.590424
0.753296 0.408081 0.581207
0.058136 0.424194 0.529755
0.115021 0.434570 0.542725
0.176849 0.453125 0.565002
0.331146 0.465881 0.570313
0.464111 0.477509 0.571930
0.583801 0.478455 0.575928
0.678680 0.486725 0.579498
0.763153 0.503113 0.578979
0.065582 0.550018 0.517883
0.122986 0.559845 0.525391
0.216339 0.576904 0.551239
0.356171 0.583954 0.561768
0.474060 0.593933 0.570190
0.589569 0.598969 0.571320
0.682007 0.599274 0.578369
0.758911 0.604462 0.586670
0.067719 0.661133 0.510925
0.138092 0.664093 0.514709
0.259979 0.670319 0.531464
0.385437 0.674103 0.540039
0.495178 0.685577 0.561951
0.591309 0.694672 0.579132
0.682007 0.693146 0.577484
0.758026 0.692261 0.583405
0.118011 0.752777 0.512634
0.214325 0.753296 0.517792
0.316528 0.754700 0.529816
0.417480 0.755890 0.541870
0.516754 0.754089 0.545258
0.618927 0.766144 0.580383
0.684296 0.768585 0.599670
0.759918 0.766327 0.596619
0.036957 0.039307 0.655731
0.144135 0.035858 0.656952
0.226349 0.035126 0.668060
0.262054 0.044098 0.684204
0.366760 0.047485 0.682678
0.481812 0.050354 0.678192
0.600769 0.048920 0.683258
0.749512 0.041656 0.729645
0.031677 0.097473 0.658264
0.121094 0.094513 0.667297
0.228485 0.091522 0.671722
0.264984 0.108185 0.683105
0.359955 0.113098 0.682281
0.479919 0.113708 0.677551
0.602966 0.112762 0.681671
0.738892 0.114105 0.718719
0.031647 0.188446 0.661133
0.096191 0.187866 0.661407
0.198792 0.191376 0.666199
0.287323 0.194733 0.673523
0.371704 0.211945 0.676971
0.484558 0.218964 0.675385
0.606842 0.219177 0.677277
0.722595 0.242645 0.696350
0.042725 0.288177 0.655853
0.102264 0.298889 0.657623
0.160950 0.318085 0.666840
0.303162 0.343201 0.667999
0.414276 0.340668 0.663361
0.521912 0.357819 0.660797
0.629730 0.368744 0.665527
0.733521 0.387054 0.687134
0.055115 0.415375 0.644836
0.113800 0.425659 0.648895
0.175995 0.443268 0.659729
0.323303 0.461212 0.665009
0.445038 0.478546 0.666779
0.553436 0.475708 0.662140
0.661926 0.484222 0.665314
0.752228 0.511871 0.669952
0.064362 0.540741 0.634521
0.123932 0.548401 0.637634
0.213135 0.562561 0.652649
0.345459 0.576904 0.658997
0.460510 0.582916 0.663086
0.579742 0.592041 0.666992
0.679108 0.595398 0.669464
0.756500 0.607758 0.670959
0.068359 0.656281 0.627899
0.131805 0.659668 0.627533
0.252991 0.667877 0.639801
0.372894 0.675232 0.649933
0.485382 0.682678 0.658752
0.591400 0.689972 0.664856
0.682709 0.696045 0.669098
0.753723 0.702271 0.680115
0.080261 0.750946 0.614258
0.190796 0.752350 0.618378
0.306610 0.754608 0.626587
0.416016 0.756836 0.636963
0.523834 0.757629 0.646667
0.614807 0.764221 0.657166
0.696533 0.775238 0.677246
0.757477 0.775543 0.685638
0.033447 0.035858 0.750488
0.129883 0.035126 0.750763
0.231659 0.035126 0.752167
0.282867 0.037384 0.766632
0.357849 0.049255 0.767059
0.467133 0.052917 0.762115
0.581848 0.055237 0.756073
0.698822 0.053558 0.758423
0.031647 0.092987 0.750427
0.113861 0.097900 0.750488
0.228424 0.095978 0.749054
0.293671 0.102875 0.757019
0.348755 0.109161 0.769501
0.463806 0.113190 0.763855
0.583679 0.116882 0.757355
0.698700 0.118713 0.756104
0.031647 0.183716 0.750000
0.098267 0.190033 0.744385
0.218384 0.212860 0.728119
0.308136 0.203613 0.742615
0.361938 0.204254 0.759735
0.460541 0.211914 0.758759
0.583435 0.219147 0.751495
0.699371 0.223755 0.751038
0.032318 0.292511 0.751221
0.099823 0.305847 0.742218
0.175415 0.329834 0.730988
0.303619 0.336426 0.741486
0.400818 0.328430 0.746307
0.489655 0.343750 0.745697
0.593719 0.357574 0.741394
0.703674 0.363037 0.744995
0.048584 0.405609 0.742554
0.113739 0.419067 0.736572
0.179871 0.446564 0.727386
0.312317 0.465240 0.737793
0.429718 0.476471 0.743652
0.529541 0.470612 0.737946
0.624115 0.484314 0.734222
0.726654 0.497040 0.739014
0.060638 0.525391 0.730286
0.124756 0.534332 0.725586
0.197632 0.548157 0.725800
0.328156 0.564209 0.736420
0.453278 0.578949 0.740692
0.565491 0.596497 0.740814
0.652374 0.596039 0.738556
0.746094 0.607910 0.741089
0.064850 0.644012 0.724426
0.131683 0.645569 0.720428
0.245331 0.651947 0.722931
0.364746 0.663116 0.730652
0.481384 0.676819 0.735962
0.588226 0.687836 0.743774
0.680115 0.698242 0.747253
0.751678 0.702698 0.748260
0.074646 0.748352 0.719421
0.167145 0.749878 0.720795
0.289703 0.753540 0.722321
0.404633 0.757629 0.725586
0.512848 0.761292 0.734467
0.610352 0.766357 0.743347
0.693146 0.772644 0.747223
0.762512 0.781830 0.755280
