tools/luts_backup/LAPARDIN-WEDLUTS-BW.cube
#Created by: Adobe Photoshop Export Color Lookup Plugin
#Copyright: (C) 2017 Andrey Lapardin. vk.com-3dluts
TITLE "Andrey Lapardin. vk.com-3dluts"
#LUT size
LUT_3D_SIZE 5
#data domain
#LUT data points
DOMAIN_MIN 0.000000 0.000000 0.000000
DOMAIN_MAX 0.903226 0.903226 0.903226
0.065796 0.065979 0.065918
0.075928 0.076080 0.076019
0.132263 0.132416 0.132355
0.247162 0.247253 0.247223
0.386230 0.386261 0.386261
0.120636 0.120819 0.120758
0.142120 0.142273 0.142242
0.204376 0.204468 0.204437
0.296417 0.296478 0.296478
0.431732 0.431763 0.431763
0.298218 0.298309 0.298279
0.307648 0.307739 0.307709
0.326294 0.326355 0.326324
0.405945 0.406006 0.405975
0.515045 0.515076 0.515076
0.519135 0.519165 0.519165
0.533661 0.533691 0.533691
0.535919 0.535950 0.535919
0.555664 0.555695 0.555695
0.664429 0.664429 0.664429
0.770355 0.770355 0.770355
0.788849 0.788879 0.788849
0.770172 0.770172 0.770172
0.789948 0.789948 0.789948
0.812805 0.812805 0.812805
0.073334 0.073486 0.073425
0.076782 0.076965 0.076904
0.144653 0.144836 0.144775
0.268982 0.269043 0.269012
0.404297 0.404327 0.404327
0.114746 0.114929 0.114868
0.172882 0.173004 0.172974
0.232300 0.232391 0.232361
0.325317 0.325378 0.325348
0.444427 0.444458 0.444458
0.296387 0.296478 0.296448
0.327850 0.327911 0.327911
0.358765 0.358795 0.358795
0.432861 0.432922 0.432892
0.530090 0.530121 0.530121
0.519073 0.519104 0.519104
0.548950 0.548950 0.548950
0.564087 0.564117 0.564087
0.583832 0.583832 0.583832
0.694519 0.694519 0.694519
0.776062 0.776093 0.776093
0.795013 0.795013 0.795013
0.809998 0.809998 0.809998
0.829498 0.829498 0.829498
0.858673 0.858673 0.858673
0.090027 0.090179 0.090149
0.095032 0.095215 0.095154
0.141235 0.141388 0.141327
0.277069 0.277130 0.277130
0.422638 0.422668 0.422668
0.166901 0.167053 0.166992
0.210724 0.210815 0.210785
0.245972 0.246063 0.246033
0.345917 0.345947 0.345947
0.460724 0.460754 0.460754
0.296143 0.296204 0.296204
0.327026 0.327057 0.327057
0.386902 0.386932 0.386932
0.452759 0.452789 0.452789
0.554474 0.554474 0.554474
0.526123 0.526123 0.526123
0.544403 0.544434 0.544434
0.583221 0.583221 0.583221
0.611176 0.611206 0.611206
0.706360 0.706360 0.706360
0.772522 0.772522 0.772522
0.788361 0.788391 0.788361
0.815186 0.815186 0.815186
0.835999 0.835999 0.835999
0.862762 0.862762 0.862762
0.141998 0.142151 0.142090
0.164764 0.164886 0.164856
0.227692 0.227783 0.227753
0.289795 0.289856 0.289825
0.434021 0.434052 0.434052
0.253693 0.253784 0.253754
0.272827 0.272919 0.272888
0.305450 0.305511 0.305481
0.354553 0.354584 0.354584
0.471588 0.471649 0.471619
0.343903 0.343933 0.343933
0.379456 0.379517 0.379517
0.441986 0.442047 0.442017
0.478668 0.478699 0.478668
0.585114 0.585144 0.585144
0.520172 0.520203 0.520203
0.539886 0.539917 0.539886
0.575562 0.575592 0.575592
0.641541 0.641541 0.641541
0.713226 0.713257 0.713257
0.778290 0.778290 0.778290
0.788879 0.788879 0.788879
0.804749 0.804749 0.804749
0.839752 0.839752 0.839752
0.871826 0.871826 0.871826
0.304871 0.304932 0.304901
0.327393 0.327454 0.327423
0.377045 0.377106 0.377075
0.422760 0.422821 0.422791
0.505524 0.505554 0.505554
0.374542 0.374603 0.374573
0.389160 0.389221 0.389191
0.431580 0.431610 0.431610
0.479523 0.479553 0.479523
0.543549 0.543579 0.543579
0.495148 0.495178 0.495148
0.512360 0.512390 0.512390
0.549988 0.550018 0.549988
0.571320 0.571350 0.571350
0.616272 0.616302 0.616302
0.613525 0.613556 0.613556
0.625885 0.625885 0.625885
0.647003 0.647034 0.647034
0.707764 0.707794 0.707794
0.739197 0.739197 0.739197
0.768433 0.768433 0.768433
0.796997 0.796997 0.796997
0.799988 0.799988 0.799988
0.834290 0.834320 0.834320
0.895416 0.895447 0.895416
