tools/luts_backup/LAPARDIN-WEDLUTS-13.cube
#Created by: Adobe Photoshop Export Color Lookup Plugin
#Copyright: (C) 2017 Andrey Lapardin. vk.com-3dluts
TITLE "Andrey Lapardin. vk.com-3dluts"
#LUT size
LUT_3D_SIZE 5
#data domain
#LUT data points
DOMAIN_MIN 0.000000 0.000000 0.000000
DOMAIN_MAX 0.903226 0.903226 0.903226
0.026825 0.027863 0.028015
0.155945 0.027863 0.031189
0.479156 0.030975 0.027557
0.796997 0.122192 0.025726
0.890686 0.267212 0.056885
0.026093 0.136383 0.029968
0.185944 0.158539 0.028534
0.445557 0.192719 0.033569
0.753784 0.285889 0.053284
0.890167 0.384308 0.117676
0.026062 0.405304 0.068207
0.179504 0.413422 0.046844
0.481506 0.410522 0.031494
0.723694 0.463776 0.097321
0.890442 0.525177 0.215240
0.121185 0.664215 0.205841
0.273529 0.679108 0.194305
0.502960 0.665283 0.153564
0.746399 0.655579 0.035095
0.890411 0.691010 0.190674
0.362762 0.870453 0.434265
0.440247 0.877563 0.436798
0.562073 0.860504 0.390533
0.746979 0.860901 0.311096
0.894775 0.859375 0.163757
0.031891 0.036987 0.109253
0.155884 0.027130 0.146667
0.400146 0.028900 0.147369
0.764404 0.194427 0.246216
0.890228 0.327209 0.304962
0.044647 0.125183 0.121643
0.195282 0.190552 0.171143
0.471680 0.245026 0.206635
0.758911 0.342651 0.256256
0.886200 0.441498 0.364014
0.089996 0.384583 0.204010
0.225037 0.433868 0.225861
0.495575 0.450165 0.166382
0.732574 0.501984 0.278412
0.892578 0.554413 0.392181
0.180908 0.652466 0.303284
0.316040 0.702271 0.346924
0.515900 0.696564 0.316772
0.761902 0.685394 0.239899
0.896606 0.715088 0.357788
0.395050 0.869324 0.516327
0.483307 0.884491 0.537872
0.601959 0.888123 0.512543
0.761963 0.886475 0.461212
0.899750 0.882050 0.321045
0.026581 0.051086 0.273163
0.087463 0.041382 0.311798
0.371704 0.026672 0.388824
0.569946 0.036926 0.354156
0.890930 0.230804 0.474884
0.065155 0.165466 0.273102
0.192871 0.206604 0.337921
0.430267 0.203613 0.412231
0.607849 0.255096 0.403442
0.884033 0.415009 0.546112
0.186859 0.362610 0.340637
0.293823 0.401825 0.386444
0.464630 0.470428 0.445770
0.730927 0.545837 0.525726
0.892395 0.620239 0.628723
0.324738 0.644714 0.503937
0.380432 0.667389 0.510773
0.514740 0.702515 0.524811
0.751862 0.704742 0.455292
0.896240 0.734467 0.584808
0.437378 0.859192 0.622467
0.502808 0.868835 0.632782
0.617950 0.881927 0.641449
0.756195 0.885162 0.621490
0.899658 0.881104 0.544373
0.026642 0.100586 0.462494
0.137787 0.097565 0.515656
0.321747 0.093964 0.574524
0.649994 0.025940 0.672333
0.824463 0.076416 0.654602
0.081390 0.205872 0.469849
0.210815 0.239075 0.533020
0.356720 0.248932 0.582977
0.657623 0.212341 0.679108
0.803406 0.259338 0.651489
0.169647 0.374756 0.501953
0.251129 0.397858 0.529327
0.411011 0.449829 0.603943
0.682739 0.462646 0.679932
0.823212 0.468811 0.650909
0.313904 0.607697 0.609161
0.390472 0.624054 0.633728
0.528320 0.658417 0.672058
0.714508 0.720612 0.718323
0.884857 0.775269 0.776550
0.522614 0.838989 0.755280
0.585419 0.846924 0.765411
0.668732 0.859650 0.771576
0.765045 0.880005 0.769836
0.897339 0.880188 0.728943
0.184479 0.233917 0.755646
0.309937 0.227081 0.784515
0.430054 0.247864 0.821930
0.643280 0.184021 0.836853
0.888977 0.028168 0.875854
0.194794 0.312469 0.756439
0.299133 0.316467 0.748566
0.428589 0.337769 0.813293
0.646759 0.304779 0.841156
0.890442 0.212830 0.876343
0.166931 0.444183 0.746399
0.247284 0.451416 0.740936
0.431519 0.494385 0.792725
0.630798 0.481842 0.825775
0.891418 0.447968 0.867279
0.298370 0.653564 0.787628
0.367676 0.660583 0.793396
0.467255 0.658295 0.796631
0.648254 0.682861 0.827026
0.882294 0.706207 0.861145
0.484802 0.825378 0.821686
0.566864 0.850220 0.844574
0.642487 0.844025 0.846191
0.768402 0.859711 0.859344
0.885071 0.884796 0.874756
