tools/luts_backup/LAPARDIN-WEDLUTS-8.cube
#Created by: Adobe Photoshop Export Color Lookup Plugin
#Copyright: (C) 2017 Andrey Lapardin. vk.com-3dluts
TITLE "Andrey Lapardin. vk.com-3dluts"
#LUT size
LUT_3D_SIZE 5
#data domain
#LUT data points
DOMAIN_MIN 0.000000 0.000000 0.000000
DOMAIN_MAX 0.903226 0.903226 0.903226
0.032196 0.038361 0.039825
0.167450 0.047699 0.047180
0.397034 0.052185 0.051422
0.668030 0.050537 0.045807
0.883453 0.036530 0.039856
0.036072 0.175751 0.046356
0.171539 0.164551 0.051239
0.395477 0.163483 0.052551
0.653046 0.147705 0.053223
0.877869 0.143311 0.047119
0.034790 0.421265 0.055664
0.153625 0.410980 0.067047
0.419067 0.389771 0.073547
0.651581 0.385651 0.057190
0.860138 0.388916 0.054413
0.034332 0.662384 0.143951
0.178131 0.666321 0.130707
0.432678 0.647919 0.147308
0.665771 0.631317 0.147308
0.856354 0.633057 0.117401
0.208282 0.858154 0.258209
0.368896 0.861115 0.252563
0.494415 0.850403 0.269409
0.694061 0.850067 0.270477
0.854462 0.844574 0.280487
0.037048 0.037018 0.169647
0.147766 0.047241 0.169922
0.394348 0.044373 0.196350
0.657684 0.045868 0.181610
0.878387 0.034943 0.154694
0.042694 0.167725 0.167267
0.201355 0.201538 0.196503
0.436096 0.185150 0.188324
0.676208 0.180664 0.181183
0.846436 0.225494 0.194946
0.047333 0.399902 0.205048
0.191223 0.435394 0.224457
0.460999 0.431488 0.223816
0.679596 0.418518 0.183868
0.856995 0.421631 0.197479
0.042053 0.648499 0.279968
0.246918 0.670807 0.281586
0.480408 0.674225 0.304474
0.693481 0.650848 0.309143
0.858124 0.648651 0.296387
0.212311 0.845245 0.369385
0.397644 0.835480 0.387115
0.555176 0.843567 0.394440
0.704132 0.844696 0.406158
0.868134 0.846069 0.412781
0.034058 0.042023 0.362793
0.125916 0.053101 0.394775
0.329163 0.088623 0.411194
0.660004 0.116272 0.494446
0.877747 0.066101 0.462219
0.040344 0.176422 0.357971
0.195435 0.215698 0.406799
0.404114 0.263153 0.425598
0.661865 0.311157 0.481110
0.843811 0.306030 0.474854
0.053589 0.386780 0.370026
0.217743 0.432800 0.420441
0.475800 0.468079 0.448853
0.691772 0.453949 0.435974
0.875336 0.462402 0.446075
0.061768 0.636841 0.423889
0.282288 0.656677 0.450165
0.507233 0.674561 0.493469
0.696747 0.670135 0.491730
0.856598 0.669586 0.477386
0.212067 0.833252 0.481812
0.387299 0.827515 0.502838
0.591858 0.839813 0.535889
0.724182 0.852112 0.564789
0.878113 0.850494 0.564484
0.027130 0.062653 0.600555
0.168762 0.081146 0.624481
0.344147 0.135315 0.651794
0.582397 0.203369 0.662140
0.844513 0.230865 0.727875
0.026459 0.221497 0.607178
0.219696 0.246429 0.634766
0.389374 0.304138 0.650360
0.600647 0.369965 0.663055
0.805847 0.410370 0.701050
0.050507 0.380981 0.590088
0.188995 0.411407 0.624725
0.464569 0.487305 0.647369
0.666901 0.527344 0.662689
0.843689 0.561462 0.682220
0.067932 0.615662 0.602509
0.279816 0.641418 0.631531
0.499298 0.666870 0.660461
0.704041 0.690582 0.676819
0.871643 0.688049 0.676392
0.187592 0.830231 0.646698
0.364471 0.834717 0.657623
0.554352 0.840973 0.672668
0.744995 0.865417 0.706390
0.883331 0.864502 0.721405
0.092316 0.146820 0.823151
0.288940 0.169647 0.824188
0.420166 0.221252 0.847107
0.605682 0.273804 0.837891
0.793457 0.290558 0.836670
0.107147 0.292603 0.822052
0.310760 0.330811 0.792145
0.451050 0.367340 0.831757
0.613434 0.417419 0.837158
0.795105 0.439514 0.832153
0.039246 0.426208 0.815674
0.245850 0.462067 0.791138
0.490356 0.531250 0.819366
0.656982 0.569092 0.820770
0.814178 0.595154 0.829742
0.062164 0.619781 0.802368
0.232758 0.631927 0.796997
0.464569 0.663330 0.820526
0.700104 0.710907 0.832703
0.861389 0.740997 0.846283
0.171387 0.820465 0.814911
0.345001 0.826538 0.818573
0.531250 0.840607 0.830750
0.718109 0.861603 0.854340
0.893677 0.887726 0.871857
