tools/luts_backup/LAPARDIN-WEDLUTS-3.cube
#Created by: Adobe Photoshop Export Color Lookup Plugin
#Copyright: (C) 2017 Andrey Lapardin. vk.com-3dluts
TITLE "Andrey Lapardin. vk.com-3dluts"
#LUT size
LUT_3D_SIZE 8
#data domain
#LUT data points
DOMAIN_MIN 0.000000 0.000000 0.000000
DOMAIN_MAX 0.903226 0.903226 0.903226
0.004974 0.009521 0.009796
0.094360 0.015381 0.014099
0.208557 0.019196 0.014160
0.344849 0.008331 0.014343
0.490479 0.001801 0.009003
0.641113 0.000000 0.006226
0.785034 0.000000 0.001373
0.914032 0.000000 0.000000
0.010071 0.097473 0.015411
0.099640 0.096497 0.014038
0.210114 0.104309 0.017944
0.348846 0.099884 0.019379
0.489960 0.091644 0.017334
0.639130 0.081573 0.006622
0.785187 0.080261 0.000275
0.911133 0.086243 0.000000
0.000000 0.212952 0.006104
0.110229 0.209229 0.004822
0.220306 0.201172 0.010529
0.362518 0.214966 0.007172
0.507904 0.211700 0.006500
0.650055 0.204773 0.006256
0.788239 0.206299 0.004547
0.912903 0.225342 0.000000
0.000000 0.366119 0.000000
0.086121 0.361969 0.000000
0.245422 0.354095 0.000488
0.376984 0.339172 0.002075
0.526886 0.348267 0.001709
0.666351 0.348633 0.000610
0.797760 0.341644 0.001343
0.915680 0.352631 0.000458
0.000000 0.520569 0.000000
0.059692 0.518829 0.000000
0.250275 0.511475 0.000000
0.412659 0.501892 0.000000
0.539612 0.482574 0.000000
0.679779 0.493622 0.000000
0.805511 0.497406 0.000000
0.919220 0.500244 0.000000
0.000000 0.667328 0.000000
0.044678 0.674683 0.000000
0.267090 0.662964 0.000000
0.429626 0.645844 0.000000
0.577667 0.642914 0.000000
0.686859 0.624878 0.000000
0.807251 0.638519 0.000000
0.911316 0.647888 0.000000
0.000000 0.805115 0.000000
0.102722 0.815063 0.000000
0.296722 0.806549 0.000000
0.452972 0.781799 0.000000
0.592285 0.775024 0.000000
0.724304 0.770569 0.000000
0.810333 0.758118 0.000000
0.919800 0.783051 0.000000
0.103668 0.923309 0.000000
0.215240 0.933441 0.000000
0.350250 0.922150 0.000000
0.482300 0.900513 0.000000
0.613037 0.892426 0.000000
0.736603 0.889282 0.000000
0.834137 0.887238 0.000000
0.932892 0.888153 0.000519
0.014893 0.012695 0.089417
0.097076 0.015503 0.092224
0.204407 0.019348 0.099152
0.335510 0.003601 0.102539
0.475311 0.000763 0.102448
0.620544 0.000031 0.102997
0.771576 0.000000 0.092194
0.913574 0.000000 0.087738
0.013885 0.093903 0.087891
0.108032 0.104187 0.097443
0.222504 0.110992 0.102142
0.362061 0.106812 0.103790
0.504486 0.110321 0.101318
0.644012 0.105682 0.106689
0.784180 0.097321 0.103607
0.903564 0.103180 0.116974
0.003784 0.204651 0.083466
0.117249 0.221283 0.095795
0.237518 0.223267 0.095001
0.378326 0.229462 0.098236
0.525085 0.223816 0.104187
0.664490 0.220306 0.110229
0.789764 0.226929 0.120026
0.896851 0.239929 0.135590
0.000000 0.355347 0.061584
0.089752 0.368927 0.079285
0.252075 0.369690 0.089264
0.396362 0.365387 0.083374
0.542877 0.368744 0.091248
0.684113 0.364624 0.105957
0.808258 0.363495 0.115295
0.910797 0.367554 0.139954
0.000000 0.513947 0.020538
0.055420 0.527466 0.032349
0.262085 0.530060 0.048584
0.423706 0.524994 0.071655
0.560150 0.505920 0.079620
0.690399 0.512207 0.114960
0.814697 0.516083 0.117767
0.934845 0.510712 0.114380
0.000000 0.669128 0.015717
0.048981 0.682220 0.013947
0.280182 0.685211 0.009888
0.439453 0.671112 0.055695
0.592621 0.663940 0.079529
0.701569 0.643188 0.118622
0.816772 0.654938 0.136444
0.939270 0.664703 0.098633
0.000000 0.810059 0.003754
0.114502 0.822601 0.003967
0.313110 0.823395 0.001526
0.466492 0.810120 0.024933
0.604279 0.792114 0.096954
0.728821 0.781586 0.152893
0.829498 0.779572 0.129089
0.951935 0.804962 0.107391
0.087830 0.927612 0.007080
0.221863 0.935516 0.006683
0.360718 0.938354 0.005707
0.500702 0.933563 0.025024
0.629547 0.926514 0.101074
0.760193 0.923401 0.124298
0.867218 0.920288 0.146332
0.958984 0.918762 0.154266
0.014801 0.015228 0.188080
0.098419 0.016785 0.197113
0.200836 0.014160 0.203522
0.340454 0.004547 0.214233
0.481750 0.000000 0.216492
0.628082 0.000000 0.217896
0.775513 0.000000 0.226532
0.911804 0.000000 0.223541
0.014343 0.105835 0.187042
0.112396 0.112946 0.200104
0.221375 0.113861 0.206573
0.356934 0.115631 0.215698
0.498352 0.114929 0.221863
0.641174 0.107422 0.220764
0.779053 0.097382 0.225372
0.899780 0.114075 0.234100
0.002808 0.203796 0.182465
0.112579 0.215942 0.196411
0.244507 0.235382 0.214813
0.383759 0.230560 0.212830
0.531738 0.232422 0.217560
0.671082 0.242218 0.225372
0.787628 0.248138 0.240540
0.890991 0.277649 0.276642
0.000000 0.342499 0.185333
0.095612 0.357056 0.188080
0.251801 0.386505 0.204956
0.402649 0.383881 0.207672
0.551666 0.377716 0.213531
0.696014 0.378998 0.233521
0.808136 0.383484 0.253113
0.908447 0.372681 0.283997
0.000000 0.494904 0.160431
0.060730 0.514252 0.177490
0.267242 0.541046 0.199554
0.427704 0.538391 0.218109
0.569946 0.529297 0.209686
0.707153 0.530731 0.225098
0.826721 0.531525 0.250824
0.934601 0.516388 0.275848
0.000000 0.650208 0.144623
0.058319 0.668701 0.176544
0.276581 0.694611 0.190613
0.449524 0.685883 0.221588
0.599304 0.678528 0.238953
0.721771 0.662933 0.233734
0.836426 0.677979 0.264008
0.940735 0.675903 0.274536
0.000000 0.800232 0.156250
0.108887 0.810150 0.180267
0.323364 0.820984 0.197784
0.480560 0.819580 0.208344
0.614899 0.811920 0.245392
0.752533 0.807861 0.252136
0.854218 0.805573 0.277893
0.948578 0.808228 0.294464
0.093079 0.924469 0.166412
0.202515 0.936157 0.169769
0.373474 0.938110 0.202057
0.514221 0.937195 0.207947
0.638123 0.932037 0.244446
0.756409 0.925568 0.280426
0.868073 0.921051 0.300903
0.956360 0.918945 0.296814
0.000000 0.012054 0.318024
0.093506 0.013916 0.331390
0.187622 0.017029 0.339417
0.324646 0.004150 0.353516
0.488861 0.000000 0.375397
0.634766 0.000000 0.373596
0.780548 0.000000 0.376312
0.914612 0.000000 0.387634
0.002869 0.110260 0.307617
0.099518 0.117981 0.329163
0.215393 0.117920 0.338104
0.344849 0.120483 0.355438
0.494934 0.126648 0.376709
0.640076 0.114319 0.381378
0.780640 0.106812 0.382935
0.900391 0.124298 0.399017
0.000031 0.223907 0.315216
0.119568 0.227966 0.324402
0.241943 0.241364 0.349396
0.381317 0.241852 0.356110
0.524963 0.245300 0.361145
0.666748 0.258606 0.378693
0.788666 0.271912 0.400177
0.893219 0.286346 0.417450
0.000000 0.351471 0.310791
0.105835 0.359772 0.322815
0.246338 0.379608 0.348907
0.404358 0.391754 0.360321
0.550812 0.382202 0.356628
0.687592 0.390106 0.372864
0.801208 0.405121 0.400665
0.913330 0.406464 0.419159
0.000000 0.499512 0.319824
0.089966 0.509399 0.327667
0.253235 0.527069 0.339203
0.418213 0.542358 0.362274
0.567413 0.532898 0.363922
0.703278 0.531586 0.373688
0.827087 0.540741 0.394379
0.931366 0.523987 0.412750
0.000000 0.648529 0.319855
0.088928 0.658875 0.324432
0.261902 0.675568 0.338287
0.448822 0.686707 0.364166
0.594971 0.683167 0.383362
0.722168 0.677429 0.371948
0.834290 0.686707 0.390656
0.934174 0.677734 0.419647
0.000000 0.793762 0.320679
0.132813 0.799774 0.327545
0.293823 0.812378 0.336426
0.485443 0.817902 0.365265
0.619385 0.814941 0.391022
0.750641 0.810852 0.403259
0.854370 0.806763 0.395111
0.938202 0.808136 0.438995
0.092987 0.918823 0.331482
0.210266 0.925507 0.338959
0.345062 0.933136 0.337341
0.519165 0.935699 0.375610
0.647644 0.929138 0.390961
0.759186 0.925385 0.419281
0.865967 0.921539 0.429657
0.953979 0.919037 0.441864
0.000000 0.009491 0.452423
0.104767 0.006012 0.464142
0.168060 0.015411 0.487000
0.312134 0.003601 0.496124
0.461365 0.000000 0.508881
0.643921 0.000000 0.545654
0.787109 0.000000 0.539642
0.915588 0.000031 0.549744
0.000000 0.118866 0.445282
0.100067 0.117432 0.465515
0.204285 0.124268 0.482330
0.329071 0.127533 0.497162
0.474548 0.118408 0.511932
0.642792 0.111572 0.545929
0.786469 0.104187 0.547638
0.901367 0.128326 0.554840
0.000000 0.229126 0.448578
0.115479 0.237335 0.464050
0.241119 0.253754 0.491119
0.368866 0.251740 0.493439
0.513550 0.264008 0.510803
0.657623 0.287872 0.533905
0.781464 0.294220 0.550507
0.891174 0.299103 0.564514
0.000000 0.371246 0.466187
0.101685 0.378204 0.471710
0.258148 0.391510 0.492798
0.403961 0.400299 0.502197
0.544647 0.396545 0.507660
0.680115 0.402283 0.512299
0.805084 0.423523 0.536255
0.909302 0.435516 0.563416
0.000000 0.510712 0.466095
0.095947 0.518311 0.477325
0.261230 0.527527 0.491180
0.412292 0.539001 0.509094
0.564575 0.545135 0.513824
0.705353 0.538300 0.513611
0.819824 0.545319 0.526978
0.922424 0.552216 0.553436
0.000000 0.654419 0.475372
0.109375 0.661316 0.483643
0.279358 0.669006 0.496857
0.427368 0.676117 0.503571
0.584503 0.686310 0.521393
0.715363 0.678558 0.518005
0.830963 0.683167 0.528168
0.932404 0.684540 0.547333
0.000916 0.792877 0.481476
0.153503 0.794739 0.488342
0.304382 0.801453 0.498413
0.450623 0.807037 0.499908
0.617249 0.813416 0.522705
0.741455 0.811890 0.538177
0.846008 0.808960 0.526520
0.933960 0.813843 0.554901
0.126251 0.913788 0.489136
0.221588 0.919586 0.498413
0.346558 0.922089 0.502777
0.484528 0.925262 0.495178
0.644775 0.926575 0.526764
0.761230 0.922516 0.549866
0.864380 0.921692 0.553802
0.950470 0.914398 0.563995
0.000000 0.005402 0.588623
0.133789 0.004150 0.595337
0.184875 0.006348 0.624908
0.311249 0.002838 0.635895
0.458527 0.000000 0.643219
0.616272 0.000000 0.658783
0.795227 0.000000 0.699280
0.916565 0.002838 0.699249
0.000000 0.119232 0.583527
0.140961 0.113556 0.601654
0.218842 0.122192 0.623291
0.325104 0.139618 0.638031
0.468689 0.133331 0.645355
0.622925 0.106781 0.663239
0.795624 0.106842 0.702515
0.903198 0.139648 0.696411
0.000000 0.234497 0.592072
0.130859 0.244873 0.602081
0.246643 0.266083 0.633545
0.368073 0.268585 0.629089
0.498749 0.277527 0.638641
0.641235 0.281464 0.660431
0.785004 0.289673 0.685059
0.894226 0.302307 0.693573
0.000000 0.382080 0.608063
0.131897 0.386841 0.611084
0.272491 0.408630 0.635529
0.410034 0.423004 0.638824
0.534943 0.414856 0.636749
0.674438 0.430115 0.651215
0.799225 0.453583 0.665802
0.906189 0.454987 0.687286
0.000000 0.529907 0.621490
0.126587 0.536072 0.629456
0.277649 0.546234 0.631500
0.428680 0.553253 0.641266
0.569794 0.558746 0.644409
0.700073 0.551117 0.647858
0.816467 0.556946 0.655762
0.917877 0.579498 0.677246
0.000000 0.665955 0.620026
0.121246 0.670837 0.630432
0.283630 0.675690 0.637817
0.437103 0.677032 0.643402
0.578217 0.684448 0.651581
0.715576 0.691132 0.654175
0.827820 0.688568 0.657684
0.928162 0.694305 0.671722
0.037628 0.797333 0.628571
0.183685 0.795319 0.636658
0.321442 0.798431 0.647400
0.458252 0.802246 0.646820
0.593262 0.804840 0.647736
0.733002 0.814240 0.665466
0.837067 0.813568 0.661835
0.933533 0.817688 0.673248
0.168793 0.908936 0.636871
0.241180 0.914551 0.645782
0.357666 0.913757 0.647522
0.489349 0.913666 0.648102
0.613800 0.918945 0.643433
0.760345 0.920654 0.668671
0.858032 0.921387 0.679535
0.946991 0.917206 0.675446
0.008911 0.003143 0.728088
0.163910 0.001282 0.730103
0.243164 0.000336 0.755646
0.331024 0.000580 0.767975
0.471649 0.000000 0.770203
0.615631 0.000000 0.773041
0.767944 0.000000 0.788208
0.924286 0.008240 0.822632
0.029175 0.111053 0.721893
0.171082 0.112518 0.735107
0.267090 0.118073 0.752655
0.347931 0.143250 0.766357
0.482880 0.146088 0.771057
0.626251 0.144287 0.771088
0.777435 0.121460 0.791534
0.910217 0.151093 0.810852
0.035553 0.253632 0.733795
0.166748 0.259766 0.738129
0.290070 0.282837 0.750427
0.388245 0.287170 0.754059
0.499664 0.293457 0.771057
0.642914 0.295135 0.775543
0.782623 0.281616 0.790222
0.904327 0.306915 0.802368
0.030609 0.395905 0.744995
0.165039 0.407318 0.744507
0.308624 0.428894 0.752167
0.430695 0.450043 0.760406
0.539764 0.440094 0.755432
0.669281 0.448212 0.762756
0.791992 0.447296 0.783813
0.908447 0.454315 0.796692
0.030609 0.544678 0.755310
0.168060 0.553223 0.756256
0.312683 0.560699 0.754913
0.453766 0.575165 0.766479
0.578735 0.581909 0.762665
0.693726 0.575195 0.763153
0.809998 0.584045 0.775238
0.911102 0.600769 0.785004
0.057251 0.690094 0.760681
0.174286 0.695526 0.764771
0.319305 0.695892 0.766022
0.456451 0.697540 0.762390
0.592346 0.702606 0.774109
0.719055 0.703857 0.772308
0.823822 0.698364 0.774414
0.921356 0.709229 0.780975
0.118378 0.803528 0.753021
0.211548 0.805878 0.760742
0.325592 0.811859 0.774506
0.469727 0.808868 0.773560
0.599060 0.807098 0.772797
0.726196 0.811584 0.778076
0.837708 0.819946 0.782043
0.932098 0.821045 0.788025
0.214966 0.911499 0.764313
0.280060 0.918518 0.776581
0.379425 0.914581 0.778046
0.502533 0.910736 0.778870
0.620972 0.911102 0.774445
0.739502 0.915924 0.772522
0.851318 0.923920 0.789398
0.940125 0.922668 0.788055
0.124359 0.001373 0.848175
0.212830 0.001190 0.851501
0.303253 0.000092 0.868347
0.375092 0.000000 0.881775
0.501251 0.000000 0.882416
0.638611 0.001556 0.880219
0.776428 0.006958 0.880463
0.906433 0.021393 0.894135
0.129608 0.109863 0.847290
0.223328 0.119629 0.848633
0.321716 0.129944 0.857178
0.395294 0.142639 0.877106
0.510010 0.140045 0.891663
0.651855 0.145813 0.892273
0.790894 0.156464 0.890900
0.912872 0.162292 0.897095
0.133667 0.263336 0.856049
0.222595 0.275970 0.843628
0.340515 0.304474 0.846954
0.427155 0.299225 0.864075
0.524017 0.299194 0.883881
0.658081 0.307617 0.886139
0.793549 0.314636 0.885773
0.911621 0.306946 0.894745
0.131714 0.419830 0.861664
0.217773 0.432983 0.852081
0.344482 0.457916 0.851959
0.463837 0.471283 0.862274
0.554596 0.453827 0.868073
0.668518 0.462006 0.877075
0.796387 0.468140 0.876923
0.908966 0.457642 0.890472
0.135773 0.563293 0.869690
0.227386 0.571716 0.863342
0.348663 0.585022 0.856537
0.477753 0.600006 0.864044
0.595764 0.604767 0.867859
0.698700 0.596436 0.866394
0.806732 0.604370 0.871094
0.909180 0.601105 0.884979
0.144501 0.705170 0.874908
0.234650 0.709808 0.877716
0.357086 0.711029 0.871277
0.484741 0.713318 0.869507
0.616821 0.719086 0.874207
0.729370 0.726074 0.873016
0.823730 0.722382 0.872894
0.916992 0.729279 0.880524
0.204468 0.825409 0.873749
0.265656 0.834503 0.880737
0.375885 0.829865 0.880920
0.497406 0.823212 0.878662
0.621582 0.822266 0.877319
0.740112 0.826416 0.880798
0.840881 0.828552 0.883423
0.929077 0.826660 0.883698
0.249908 0.915253 0.859619
0.309784 0.940277 0.881714
0.394043 0.932648 0.883392
0.512238 0.923401 0.883881
0.626129 0.916199 0.882751
0.742523 0.917145 0.882965
0.841827 0.921844 0.888245
0.941376 0.926239 0.891571
