tools/luts_backup/LAPARDIN-WEDLUTS-6.cube
#Created by: Adobe Photoshop Export Color Lookup Plugin
#Copyright: (C) 2017 Andrey Lapardin. vk.com-3dluts
TITLE "Andrey Lapardin. vk.com-3dluts"
#LUT size
LUT_3D_SIZE 8
#data domain
#LUT data points
DOMAIN_MIN 0.000000 0.000000 0.000000
DOMAIN_MAX 0.903226 0.903226 0.903226
0.079559 0.080261 0.081116
0.084259 0.080658 0.082031
0.227356 0.066925 0.087616
0.438110 0.062744 0.088623
0.677094 0.062744 0.096558
0.854614 0.062744 0.112976
0.921570 0.062744 0.144775
0.921570 0.062744 0.192444
0.081390 0.106567 0.087769
0.102264 0.105560 0.089020
0.230560 0.122009 0.087708
0.454132 0.095490 0.084900
0.673767 0.062744 0.090851
0.841248 0.062744 0.108795
0.921570 0.062744 0.146423
0.921570 0.062744 0.199158
0.062744 0.265442 0.088318
0.169556 0.239868 0.105347
0.248627 0.225037 0.085449
0.425018 0.248016 0.082214
0.643555 0.242432 0.086548
0.812622 0.187164 0.107697
0.921570 0.106140 0.151093
0.921570 0.084503 0.211609
0.120667 0.460175 0.215576
0.269470 0.446198 0.224701
0.343323 0.412750 0.226074
0.433655 0.382050 0.143982
0.626038 0.399200 0.130127
0.784027 0.387024 0.136902
0.913788 0.351379 0.180725
0.921570 0.332397 0.244019
0.315125 0.624908 0.371521
0.391937 0.622345 0.381836
0.449066 0.595215 0.382233
0.524414 0.576050 0.356323
0.612854 0.538147 0.265564
0.760315 0.541809 0.267334
0.875610 0.532501 0.271057
0.921570 0.521423 0.309967
0.477905 0.738922 0.511566
0.519501 0.741241 0.521545
0.560516 0.730164 0.525421
0.613495 0.707153 0.527252
0.678101 0.704712 0.487610
0.748993 0.679138 0.411865
0.849640 0.677856 0.420532
0.921570 0.677948 0.440247
0.623627 0.826904 0.642517
0.654724 0.833618 0.657623
0.676941 0.827820 0.658783
0.699585 0.807434 0.648621
0.741577 0.801666 0.646118
0.790009 0.803619 0.614807
0.842438 0.794769 0.567169
0.913269 0.795929 0.577667
0.755737 0.893555 0.765228
0.774261 0.897278 0.776428
0.779694 0.892120 0.771362
0.785248 0.880096 0.758392
0.811188 0.875092 0.761536
0.836090 0.875641 0.753906
0.865540 0.876831 0.733612
0.910736 0.879730 0.707947
0.078766 0.084381 0.094238
0.082916 0.083069 0.091827
0.212585 0.070343 0.094421
0.403137 0.062744 0.095306
0.624664 0.062744 0.097778
0.811005 0.062744 0.106354
0.921570 0.062744 0.136261
0.921570 0.062744 0.188080
0.069672 0.102539 0.099976
0.102875 0.103119 0.103882
0.211517 0.109283 0.113220
0.423279 0.097992 0.114471
0.647156 0.066681 0.103943
0.816864 0.062744 0.104919
0.921570 0.062744 0.142639
0.921570 0.062744 0.193726
0.062744 0.220947 0.122528
0.149719 0.209198 0.156464
0.218018 0.209473 0.147034
0.396942 0.244019 0.150757
0.632965 0.243622 0.142731
0.808044 0.204620 0.131592
0.921570 0.161011 0.150818
0.921570 0.122864 0.205444
0.062958 0.420837 0.215027
0.246429 0.414703 0.269440
0.333984 0.397491 0.279938
0.424255 0.386841 0.227142
0.609100 0.405640 0.226044
0.776733 0.396362 0.224487
0.915710 0.367523 0.216522
0.921570 0.340210 0.243134
0.271301 0.605652 0.374603
0.382080 0.608429 0.410736
0.453827 0.597229 0.418701
0.528442 0.581482 0.408539
0.611115 0.547455 0.331085
0.745300 0.553619 0.345367
0.866852 0.553589 0.352600
0.921570 0.527740 0.336639
0.475922 0.733337 0.527466
0.524689 0.739868 0.545258
0.578400 0.740997 0.558685
0.628693 0.722961 0.562531
0.689972 0.717987 0.532837
0.747223 0.690308 0.471771
0.846100 0.695892 0.486938
0.921570 0.694702 0.487732
0.632568 0.829346 0.659760
0.664612 0.837097 0.675903
0.694763 0.837524 0.683990
0.725677 0.827820 0.685425
0.757233 0.814056 0.679352
0.795563 0.810822 0.649139
0.852295 0.811493 0.614410
0.921448 0.813690 0.618378
0.761414 0.895508 0.774994
0.778076 0.898102 0.783997
0.794250 0.898224 0.789093
0.813019 0.896179 0.792786
0.834717 0.893158 0.797821
0.857880 0.892731 0.793701
0.883484 0.894287 0.775055
0.919159 0.893860 0.747070
0.062744 0.097809 0.171600
0.062744 0.096710 0.172089
0.153259 0.079193 0.152863
0.352020 0.062744 0.192169
0.591064 0.062744 0.225983
0.792023 0.062744 0.225586
0.921570 0.062744 0.206055
0.921570 0.062744 0.186218
0.062744 0.121124 0.186401
0.092285 0.102661 0.176117
0.182373 0.098694 0.166565
0.360474 0.090637 0.208557
0.589600 0.062744 0.228760
0.781982 0.062744 0.218750
0.921570 0.062744 0.212860
0.921570 0.062744 0.200562
0.062744 0.199249 0.172791
0.095764 0.190094 0.174103
0.208099 0.208496 0.203522
0.378601 0.214996 0.213776
0.605896 0.218323 0.234650
0.788483 0.217590 0.252869
0.914368 0.198395 0.265594
0.921570 0.207672 0.297363
0.062744 0.387848 0.238617
0.157806 0.381805 0.258026
0.313690 0.391907 0.309845
0.400238 0.380432 0.285553
0.580902 0.397247 0.293732
0.765320 0.405365 0.316101
0.895782 0.399139 0.334778
0.921570 0.358368 0.344055
0.168793 0.582794 0.353241
0.335266 0.581909 0.404266
0.445496 0.590637 0.444794
0.521851 0.575195 0.452850
0.604462 0.558929 0.394714
0.747467 0.572968 0.413361
0.863617 0.577454 0.435059
0.921570 0.548645 0.434296
0.433258 0.720428 0.510223
0.508026 0.726166 0.549805
0.580597 0.741089 0.582336
0.637115 0.729218 0.592133
0.694153 0.724518 0.580261
0.757721 0.706665 0.526520
0.851837 0.716248 0.549713
0.921570 0.712616 0.555115
0.610565 0.823639 0.651672
0.654083 0.828735 0.677795
0.696777 0.835449 0.697083
0.736053 0.833069 0.706421
0.775055 0.828491 0.717651
0.814850 0.831055 0.694550
0.864929 0.828522 0.666016
0.919617 0.819824 0.661652
0.756073 0.894318 0.775787
0.779083 0.898926 0.790863
0.798492 0.899597 0.798920
0.818939 0.897797 0.803131
0.840546 0.895416 0.808807
0.860168 0.893829 0.808136
0.884644 0.895538 0.792084
0.917480 0.894897 0.765961
0.062744 0.134277 0.315063
0.062744 0.137939 0.325012
0.063690 0.082977 0.321289
0.283142 0.062744 0.299683
0.521545 0.062744 0.350647
0.742767 0.062744 0.369995
0.912384 0.062744 0.362305
0.921570 0.062744 0.345337
0.062744 0.139343 0.323517
0.062744 0.085052 0.333282
0.193573 0.068207 0.325745
0.331238 0.062744 0.315704
0.526917 0.062744 0.360809
0.733887 0.062744 0.386169
0.903198 0.062744 0.381165
0.921570 0.062744 0.376526
0.062744 0.258667 0.322052
0.062744 0.229218 0.310181
0.178558 0.205688 0.321655
0.335480 0.187134 0.301605
0.539703 0.212982 0.349487
0.740967 0.214935 0.386383
0.880798 0.219391 0.409973
0.921570 0.211029 0.422516
0.062744 0.368225 0.308289
0.062744 0.353455 0.307770
0.204681 0.355133 0.324219
0.358459 0.353363 0.343323
0.551025 0.364899 0.359894
0.734955 0.392761 0.402374
0.868103 0.417084 0.445007
0.921570 0.410553 0.464233
0.062744 0.566193 0.387329
0.198761 0.560211 0.402557
0.343781 0.555084 0.427002
0.484680 0.548889 0.473969
0.561249 0.533234 0.448639
0.712799 0.561035 0.476196
0.852234 0.584076 0.509155
0.921570 0.560150 0.516052
0.332825 0.717285 0.501770
0.415771 0.716675 0.524597
0.524750 0.719208 0.571411
0.623657 0.720490 0.610046
0.684265 0.716614 0.617981
0.748199 0.710236 0.579773
0.840454 0.722687 0.599030
0.921173 0.721497 0.613281
0.546265 0.825012 0.631744
0.601776 0.825562 0.658966
0.678741 0.829559 0.701263
0.736084 0.833466 0.724487
0.776764 0.829620 0.736694
0.813324 0.830566 0.724457
0.861450 0.827911 0.693848
0.912292 0.824493 0.704315
0.715454 0.896210 0.756561
0.751556 0.898773 0.779602
0.791931 0.899017 0.803497
0.820923 0.899261 0.815125
0.843292 0.896240 0.819611
0.863495 0.894592 0.824280
0.885406 0.896362 0.810455
0.915833 0.896210 0.790833
0.062744 0.199554 0.484283
0.062744 0.201904 0.489990
0.062744 0.187805 0.511566
0.176727 0.063629 0.502533
0.451294 0.062744 0.484497
0.692688 0.062744 0.513367
0.857635 0.062744 0.507538
0.921570 0.062744 0.504730
0.062744 0.200623 0.486786
0.062744 0.124481 0.501770
0.062744 0.082550 0.511932
0.289917 0.062744 0.510315
0.487671 0.062744 0.496277
0.701447 0.062744 0.524384
0.856445 0.062744 0.523315
0.921570 0.062744 0.521454
0.062744 0.268219 0.486816
0.062744 0.232788 0.489227
0.072113 0.192841 0.510437
0.334869 0.156189 0.486481
0.504028 0.137299 0.469025
0.684570 0.214264 0.505463
0.834473 0.239624 0.535797
0.921570 0.190430 0.547058
0.062744 0.436615 0.500916
0.062744 0.418610 0.490631
0.121460 0.403839 0.490784
0.340363 0.357849 0.472321
0.505371 0.340424 0.455963
0.686066 0.389404 0.500885
0.846588 0.419037 0.543518
0.921570 0.426636 0.571716
0.062744 0.544800 0.467834
0.062744 0.537018 0.471893
0.200470 0.523590 0.472900
0.374573 0.512634 0.482086
0.521515 0.507904 0.495056
0.699341 0.533905 0.525421
0.847809 0.563110 0.566132
0.921570 0.577759 0.600922
0.138458 0.713928 0.536896
0.284546 0.711060 0.550293
0.400482 0.708282 0.568359
0.528198 0.701813 0.592438
0.656311 0.699249 0.639099
0.716064 0.690308 0.617493
0.826752 0.713684 0.641907
0.921570 0.725250 0.665283
0.441284 0.831390 0.629456
0.495850 0.830353 0.644958
0.573456 0.831390 0.670746
0.686890 0.828278 0.717499
0.769775 0.828949 0.752991
0.808105 0.828308 0.756165
0.852722 0.828735 0.732635
0.908173 0.831268 0.744019
0.610046 0.905334 0.718781
0.654022 0.906067 0.739471
0.717560 0.902435 0.769409
0.805176 0.898590 0.817871
0.842926 0.897919 0.833099
0.865631 0.895172 0.839569
0.887085 0.897430 0.831970
0.913940 0.896790 0.815094
0.062744 0.263123 0.634949
0.062744 0.263275 0.635406
0.062744 0.270020 0.666595
0.062744 0.110291 0.674347
0.361298 0.062744 0.657928
0.621674 0.062744 0.640442
0.847931 0.062744 0.657654
0.921570 0.139465 0.638092
0.062744 0.262756 0.634247
0.062744 0.227081 0.649109
0.062744 0.158020 0.671692
0.062744 0.090546 0.680389
0.409607 0.062744 0.666077
0.645233 0.062744 0.650330
0.855255 0.062744 0.664551
0.921570 0.116913 0.641907
0.062744 0.234711 0.645538
0.062744 0.139648 0.659027
0.062744 0.105591 0.689056
0.258057 0.069611 0.672363
0.495819 0.062744 0.656586
0.684448 0.062744 0.650085
0.856995 0.062744 0.658905
0.921570 0.122253 0.648285
0.062744 0.438446 0.658295
0.062744 0.427979 0.649017
0.078857 0.431183 0.660645
0.307281 0.388092 0.651825
0.509094 0.342621 0.623199
0.674652 0.329865 0.608826
0.819794 0.416412 0.638367
0.921570 0.429688 0.662659
0.062744 0.605713 0.655273
0.062744 0.601501 0.655701
0.062744 0.596283 0.649109
0.363312 0.576263 0.644073
0.523804 0.524902 0.619629
0.670013 0.510376 0.606812
0.819366 0.561096 0.650085
0.921570 0.592651 0.683838
0.062744 0.704437 0.619293
0.062744 0.706268 0.631256
0.188019 0.701721 0.637085
0.411499 0.684937 0.636444
0.559296 0.670776 0.638306
0.680756 0.663300 0.645844
0.825348 0.695190 0.682556
0.921570 0.719940 0.717133
0.196655 0.837799 0.662262
0.315033 0.833832 0.673645
0.445923 0.832214 0.693054
0.584381 0.826782 0.714142
0.702057 0.822388 0.740814
0.797516 0.824921 0.781464
0.841034 0.825958 0.770233
0.906769 0.835449 0.782990
0.461212 0.913147 0.711548
0.518524 0.914276 0.727325
0.605988 0.910004 0.750458
0.706512 0.904846 0.781647
0.813995 0.899841 0.830841
0.865814 0.898010 0.855133
0.887665 0.898743 0.857544
0.911835 0.899139 0.843597
0.062744 0.328766 0.771027
0.062744 0.328827 0.771179
0.062744 0.339691 0.792297
0.062744 0.254486 0.800415
0.102051 0.123444 0.791443
0.539185 0.062744 0.773163
0.781525 0.062744 0.769562
0.921570 0.062744 0.776459
0.062744 0.328247 0.770142
0.062744 0.333893 0.780670
0.062744 0.282837 0.794586
0.062744 0.194824 0.805450
0.210297 0.114807 0.795349
0.571014 0.062744 0.776123
0.797913 0.062744 0.773743
0.921570 0.062744 0.766327
0.062744 0.334991 0.782227
0.062744 0.299683 0.787903
0.062744 0.205475 0.798859
0.062744 0.147827 0.795685
0.322784 0.098846 0.799011
0.611237 0.062744 0.784546
0.820068 0.062744 0.778564
0.921570 0.062744 0.760529
0.062744 0.407318 0.792877
0.062744 0.412109 0.788086
0.062744 0.398926 0.790222
0.115265 0.353027 0.791840
0.444214 0.294342 0.776947
0.662048 0.238129 0.766449
0.849518 0.078430 0.776001
0.921570 0.094055 0.756744
0.062744 0.605316 0.795654
0.062744 0.607269 0.792419
0.062744 0.606659 0.784149
0.347534 0.606598 0.784607
0.513824 0.561310 0.769775
0.674622 0.514587 0.749390
0.825928 0.511902 0.746277
0.921051 0.578888 0.756714
0.062744 0.768097 0.791718
0.062744 0.765930 0.792358
0.062744 0.756226 0.791138
0.354156 0.743439 0.778290
0.562866 0.724487 0.776001
0.689789 0.684113 0.757721
0.808350 0.678833 0.749573
0.915314 0.721039 0.780731
0.062744 0.845581 0.744110
0.062744 0.843353 0.752686
0.098633 0.845490 0.769745
0.427979 0.830658 0.770966
0.607727 0.814270 0.771423
0.728149 0.809967 0.780121
0.820801 0.810699 0.794037
0.913422 0.831970 0.819489
0.062744 0.921570 0.731873
0.067017 0.921570 0.743256
0.358124 0.920471 0.764832
0.575317 0.911499 0.790863
0.724945 0.904053 0.817749
0.828766 0.901855 0.850403
0.888763 0.901459 0.880859
0.910126 0.900360 0.872437
0.062744 0.399139 0.872803
0.062744 0.400146 0.873840
0.062744 0.409912 0.883789
0.062744 0.388367 0.892578
0.062744 0.267151 0.893616
0.420532 0.213745 0.883148
0.707367 0.119965 0.870697
0.915253 0.119965 0.868011
0.062744 0.399994 0.873749
0.062744 0.400238 0.873962
0.062744 0.385345 0.877258
0.062744 0.362823 0.893402
0.062744 0.282257 0.902954
0.443604 0.233246 0.893158
0.725952 0.152527 0.881287
0.919678 0.149933 0.874420
0.062744 0.407074 0.881012
0.062744 0.399231 0.872894
0.062744 0.347412 0.874359
0.062744 0.303345 0.888611
0.062744 0.275421 0.900940
0.469574 0.231171 0.893463
0.746063 0.146088 0.880127
0.921356 0.158752 0.875580
0.062744 0.415100 0.888763
0.062744 0.407471 0.881531
0.062744 0.370697 0.884338
0.062744 0.282043 0.895050
0.108307 0.254761 0.893860
0.501465 0.225403 0.892700
0.767120 0.147766 0.880402
0.921570 0.173035 0.877625
0.062744 0.527924 0.896698
0.062744 0.537781 0.892395
0.062744 0.559052 0.884094
0.173920 0.581238 0.883972
0.340759 0.486023 0.891052
0.579468 0.415375 0.883545
0.792175 0.356445 0.876740
0.921570 0.204895 0.880920
0.062744 0.717804 0.892731
0.062744 0.718628 0.895020
0.062744 0.719849 0.889709
0.062744 0.726532 0.884918
0.534454 0.734467 0.883484
0.679321 0.710297 0.876373
0.802673 0.670593 0.866669
0.921570 0.660400 0.862793
0.062744 0.878601 0.883545
0.062744 0.881622 0.888580
0.062744 0.875244 0.888367
0.062744 0.858337 0.884827
0.534698 0.849335 0.880493
0.722015 0.842804 0.881531
0.822144 0.822571 0.877472
0.908783 0.816162 0.867981
0.062744 0.921570 0.811340
0.062744 0.921570 0.826233
0.062744 0.921570 0.830444
0.068787 0.921570 0.848633
0.557922 0.917969 0.863647
0.746552 0.906281 0.873199
0.850647 0.905426 0.886932
0.907288 0.904175 0.898621
