tools/luts_backup/LAPARDIN-WEDLUTS-15.cube
#Created by: Adobe Photoshop Export Color Lookup Plugin
#Copyright: (C) 2017 Andrey Lapardin. vk.com-3dluts
TITLE "Andrey Lapardin. vk.com-3dluts"
#LUT size
LUT_3D_SIZE 32
#data domain
DOMAIN_MIN 0.0 0.0 0.0
DOMAIN_MAX 1.0 1.0 1.0
#LUT data points
0.047546 0.050873 0.051636
0.060150 0.053009 0.053589
0.073944 0.053925 0.054352
0.087952 0.054474 0.054779
0.102509 0.055023 0.055115
0.119751 0.055664 0.055756
0.142517 0.056366 0.056824
0.174011 0.056366 0.058289
0.206909 0.056458 0.059540
0.239502 0.055786 0.060577
0.274048 0.055176 0.060150
0.310486 0.055267 0.058716
0.349213 0.055176 0.057343
0.389954 0.054749 0.056396
0.432159 0.053986 0.055084
0.474426 0.054260 0.053497
0.515900 0.054443 0.051727
0.555603 0.054535 0.049835
0.593384 0.054474 0.048126
0.628998 0.054199 0.046783
0.662506 0.053558 0.045471
0.694214 0.052612 0.044861
0.723969 0.051361 0.045349
0.753052 0.049927 0.046661
0.781555 0.048309 0.048462
0.809906 0.046570 0.050781
0.836853 0.044739 0.053101
0.862732 0.042847 0.055328
0.886749 0.040985 0.059753
0.905487 0.039063 0.066284
0.921021 0.037476 0.074097
0.936157 0.039520 0.085968
0.049500 0.062653 0.053131
0.060181 0.062927 0.053253
0.074036 0.065155 0.054077
0.088074 0.066345 0.054596
0.104187 0.067261 0.054962
0.124603 0.068329 0.055328
0.149475 0.069458 0.055969
0.180969 0.070526 0.056580
0.212830 0.071747 0.056976
0.244934 0.072876 0.056854
0.278778 0.073120 0.056671
0.314423 0.073364 0.056305
0.352631 0.072906 0.055634
0.393311 0.071991 0.054565
0.435242 0.070618 0.053131
0.477173 0.069977 0.051422
0.518158 0.070343 0.049774
0.557465 0.070343 0.048126
0.594727 0.069946 0.046631
0.629852 0.069122 0.045502
0.662689 0.067749 0.044708
0.693817 0.066254 0.044525
0.723206 0.064667 0.045380
0.752197 0.063080 0.046814
0.780609 0.061554 0.049011
0.808289 0.059875 0.051300
0.834747 0.058075 0.053223
0.860352 0.056213 0.055054
0.884338 0.054321 0.059296
0.905334 0.052979 0.065491
0.921051 0.052795 0.074921
0.936188 0.055359 0.086639
0.050354 0.076263 0.053070
0.062408 0.076477 0.053253
0.074066 0.076630 0.053528
0.088379 0.079224 0.054138
0.105377 0.081818 0.054474
0.128906 0.085266 0.054535
0.156494 0.087067 0.054779
0.187439 0.089020 0.054962
0.218262 0.091095 0.055023
0.249573 0.093079 0.055023
0.282501 0.094696 0.054962
0.317596 0.096039 0.054688
0.355133 0.096954 0.054108
0.395172 0.097382 0.053223
0.436493 0.097412 0.052063
0.477783 0.097076 0.050568
0.518250 0.096588 0.049347
0.557251 0.095734 0.048431
0.594482 0.094421 0.047516
0.629578 0.092133 0.046783
0.662140 0.089142 0.045959
0.692871 0.085907 0.045715
0.722504 0.083313 0.046844
0.751617 0.081604 0.048706
0.780090 0.080353 0.050812
0.807495 0.079437 0.052704
0.833771 0.078461 0.054443
0.859161 0.077240 0.056244
0.883209 0.075897 0.060364
0.904510 0.073761 0.067749
0.921082 0.073456 0.077057
0.936218 0.080933 0.088837
0.050171 0.090912 0.052765
0.063019 0.091675 0.052887
0.075348 0.092285 0.053101
0.088684 0.093384 0.053467
0.106445 0.098511 0.053772
0.129852 0.104431 0.053772
0.161713 0.111328 0.053192
0.192383 0.112549 0.053314
0.222656 0.114197 0.053223
0.253937 0.115479 0.053223
0.286743 0.116577 0.053253
0.321625 0.118378 0.053040
0.358978 0.120087 0.052643
0.398438 0.121429 0.052155
0.438904 0.122375 0.051880
0.479492 0.122742 0.051605
0.519104 0.122528 0.051239
0.557404 0.121613 0.051086
0.594086 0.120483 0.050751
0.628754 0.118774 0.049927
0.661072 0.117035 0.048431
0.691589 0.114532 0.047943
0.721375 0.112610 0.049530
0.750214 0.111115 0.051727
0.778412 0.109558 0.053650
0.805450 0.108093 0.055267
0.831635 0.106720 0.056488
0.857117 0.105499 0.057892
0.881592 0.105042 0.061890
0.903473 0.105896 0.070190
0.921051 0.109467 0.080261
0.936188 0.118286 0.092377
0.045410 0.112640 0.052612
0.059998 0.114288 0.052216
0.074738 0.115662 0.051941
0.090210 0.116882 0.052399
0.105530 0.117859 0.053101
0.123840 0.123627 0.053772
0.153839 0.132416 0.053192
0.191254 0.140900 0.051758
0.225342 0.143311 0.051208
0.257721 0.141632 0.051422
0.291199 0.141663 0.051422
0.326477 0.143372 0.051117
0.363892 0.145325 0.050842
0.402863 0.147003 0.050629
0.442566 0.148193 0.050873
0.482025 0.148590 0.051697
0.520691 0.148285 0.052704
0.558075 0.147430 0.053497
0.593933 0.145966 0.054016
0.628052 0.143921 0.054108
0.660156 0.141968 0.053589
0.690735 0.140350 0.053040
0.720306 0.138916 0.053741
0.749420 0.138550 0.056000
0.777222 0.138367 0.058563
0.804016 0.138031 0.060303
0.829987 0.137909 0.061768
0.855255 0.137817 0.063660
0.880005 0.138275 0.066772
0.902893 0.139954 0.073425
0.921112 0.143158 0.083130
0.936218 0.150726 0.095062
0.041840 0.137939 0.051392
0.056061 0.140045 0.051392
0.073273 0.141663 0.050659
0.090912 0.142853 0.051361
0.107483 0.143524 0.052429
0.123291 0.142944 0.053650
0.144287 0.148132 0.054626
0.180237 0.158752 0.053131
0.218781 0.166840 0.051025
0.258667 0.172607 0.048859
0.293427 0.172058 0.048767
0.329926 0.170135 0.048798
0.367676 0.170807 0.049561
0.406403 0.172394 0.050293
0.445587 0.173553 0.051086
0.484375 0.174011 0.052246
0.522247 0.173523 0.053558
0.558807 0.172180 0.054901
0.594238 0.170227 0.056244
0.627869 0.167877 0.057343
0.659637 0.165649 0.058075
0.690277 0.163849 0.058929
0.719818 0.162781 0.060944
0.748596 0.162476 0.063385
0.776306 0.162689 0.065918
0.802979 0.163330 0.069000
0.829529 0.164490 0.072083
0.855713 0.166382 0.075378
0.881073 0.168945 0.079437
0.904266 0.172272 0.085510
0.921234 0.176453 0.094055
0.936493 0.185150 0.106171
0.040436 0.166962 0.050385
0.055634 0.168976 0.049255
0.071777 0.170074 0.049103
0.090363 0.170593 0.050262
0.107819 0.170410 0.051819
0.125641 0.170197 0.053589
0.143280 0.168213 0.054932
0.167633 0.173492 0.055969
0.208221 0.186035 0.053192
0.250824 0.196777 0.049744
0.294159 0.204163 0.048462
0.333405 0.204346 0.048859
0.372253 0.202484 0.049561
0.411621 0.200684 0.050385
0.450531 0.201294 0.051361
0.488586 0.201660 0.052551
0.525665 0.201263 0.053925
0.561310 0.199738 0.055573
0.595703 0.197388 0.057343
0.628662 0.194763 0.059265
0.660126 0.192017 0.061340
0.690125 0.189514 0.063477
0.719208 0.187531 0.066986
0.747101 0.186279 0.070862
0.774109 0.185547 0.074463
0.800232 0.185608 0.078156
0.825623 0.186218 0.082367
0.850647 0.187592 0.086884
0.875763 0.190033 0.091095
0.900146 0.193390 0.096252
0.919495 0.197723 0.103333
0.935577 0.206665 0.112732
0.040619 0.200531 0.048157
0.056091 0.202118 0.046204
0.071899 0.202606 0.047089
0.087677 0.202209 0.048737
0.106323 0.200867 0.050934
0.125397 0.199615 0.053253
0.146637 0.199036 0.055267
0.166901 0.196411 0.056763
0.195496 0.202606 0.058044
0.237396 0.216278 0.054657
0.287994 0.231720 0.051910
0.334045 0.239014 0.050446
0.375641 0.239105 0.050720
0.415802 0.235046 0.051331
0.455383 0.231903 0.052094
0.493347 0.231140 0.053009
0.529907 0.230743 0.054321
0.564911 0.229370 0.055847
0.598663 0.227051 0.057800
0.630737 0.224274 0.060059
0.661224 0.221130 0.062683
0.690979 0.218170 0.066223
0.719330 0.215546 0.071106
0.746307 0.213379 0.076202
0.772339 0.211670 0.081177
0.797607 0.210419 0.085938
0.822235 0.209869 0.090912
0.846405 0.209961 0.096283
0.870148 0.210846 0.101715
0.893524 0.212494 0.106964
0.915802 0.215485 0.113495
0.933289 0.222900 0.121063
0.040619 0.233612 0.043823
0.056396 0.234894 0.044006
0.071777 0.235107 0.045258
0.087219 0.234070 0.047455
0.103271 0.232178 0.050110
0.123199 0.230286 0.052887
0.146057 0.229401 0.055603
0.171631 0.229950 0.058563
0.193787 0.227203 0.060303
0.224792 0.233887 0.061829
0.267181 0.248352 0.058105
0.325043 0.266602 0.052948
0.374634 0.274414 0.052368
0.417023 0.273376 0.052582
0.456970 0.268311 0.053192
0.495605 0.263184 0.054016
0.532379 0.260498 0.055206
0.567200 0.259369 0.056610
0.600464 0.257416 0.058441
0.632294 0.254883 0.060577
0.662750 0.251892 0.063599
0.691833 0.248535 0.068115
0.719269 0.245422 0.073608
0.745453 0.242584 0.079468
0.770844 0.240112 0.085510
0.795441 0.238037 0.091644
0.819489 0.236420 0.097656
0.843079 0.235413 0.104095
0.864899 0.233612 0.108490
0.887909 0.233978 0.114471
0.910828 0.235443 0.121307
0.931000 0.241028 0.128296
0.040527 0.269409 0.041473
0.056549 0.270630 0.042419
0.072540 0.270874 0.044159
0.086334 0.269684 0.046936
0.099884 0.267487 0.050507
0.119965 0.265167 0.054047
0.144714 0.263947 0.057648
0.172516 0.264038 0.061310
0.200684 0.265015 0.064362
0.223297 0.261322 0.066101
0.256256 0.268738 0.067932
0.300110 0.283447 0.064789
0.362091 0.302551 0.054565
0.414703 0.311188 0.053192
0.456360 0.308411 0.054077
0.495178 0.302429 0.055023
0.532684 0.294525 0.056305
0.568146 0.290649 0.057800
0.601532 0.288177 0.059601
0.632751 0.285614 0.061676
0.662354 0.282471 0.064880
0.690765 0.278900 0.069550
0.717773 0.275208 0.075043
0.743622 0.271973 0.081146
0.768616 0.269165 0.087433
0.792786 0.266815 0.094238
0.816437 0.264801 0.101379
0.839600 0.263214 0.108643
0.861237 0.260925 0.114014
0.883881 0.260284 0.120789
0.906464 0.260895 0.128235
0.928345 0.265198 0.136353
0.040405 0.308350 0.041229
0.056671 0.309692 0.041809
0.073273 0.309906 0.043365
0.087646 0.308777 0.046875
0.100342 0.306335 0.051788
0.115509 0.303558 0.056244
0.141418 0.301941 0.060699
0.171539 0.301697 0.064880
0.202393 0.302368 0.068329
0.232025 0.303680 0.071686
0.255371 0.299286 0.073700
0.289520 0.306976 0.075745
0.334686 0.321198 0.072327
0.397980 0.338898 0.058868
0.454163 0.349121 0.054596
0.496704 0.346344 0.055145
0.534729 0.339294 0.056946
0.570862 0.330841 0.059021
0.604858 0.322357 0.061340
0.635712 0.318726 0.064240
0.664673 0.315430 0.068176
0.692322 0.311462 0.073242
0.718475 0.307373 0.078644
0.743530 0.303345 0.084320
0.767700 0.299896 0.090393
0.791199 0.297058 0.097015
0.814087 0.294800 0.104218
0.836487 0.292877 0.111511
0.858673 0.291443 0.118683
0.880859 0.290619 0.126038
0.903137 0.290710 0.133850
0.925110 0.293884 0.142761
0.040222 0.348877 0.041718
0.056702 0.350067 0.042114
0.073944 0.350403 0.043243
0.089111 0.349548 0.046875
0.101074 0.347260 0.052734
0.112488 0.344055 0.058777
0.135651 0.341736 0.064423
0.167847 0.341003 0.069336
0.201508 0.341309 0.073059
0.233826 0.342316 0.076630
0.264435 0.343658 0.080292
0.288879 0.339050 0.082428
0.323608 0.346649 0.085144
0.370422 0.360168 0.080566
0.434784 0.377045 0.066742
0.492615 0.387360 0.057068
0.535095 0.384003 0.057068
0.571259 0.375854 0.060089
0.605255 0.366272 0.063416
0.637207 0.356659 0.067505
0.666992 0.349243 0.072723
0.694702 0.345398 0.078979
0.720795 0.341339 0.085083
0.745697 0.337219 0.091187
0.769684 0.333435 0.097534
0.792786 0.330353 0.104370
0.815216 0.328125 0.111694
0.837128 0.326508 0.119446
0.858826 0.325592 0.127106
0.880463 0.325256 0.135010
0.902374 0.325623 0.143188
0.924011 0.328186 0.152740
0.040039 0.388855 0.042175
0.056610 0.390015 0.042480
0.074463 0.390442 0.043243
0.090515 0.389740 0.046509
0.102997 0.387299 0.053284
0.113647 0.384033 0.061279
0.128815 0.381348 0.068604
0.160553 0.380127 0.074524
0.197144 0.380157 0.078918
0.232758 0.381073 0.082672
0.265991 0.382355 0.086578
0.297729 0.383972 0.090973
0.322968 0.378815 0.093109
0.357483 0.385590 0.097046
0.405609 0.398163 0.091583
0.469086 0.413818 0.077026
0.525848 0.422485 0.064514
0.568298 0.419495 0.062408
0.602814 0.410675 0.065765
0.634674 0.400513 0.071716
0.665131 0.389832 0.078766
0.694000 0.380310 0.085388
0.720306 0.374420 0.091644
0.744904 0.370178 0.097748
0.768524 0.366119 0.103729
0.791473 0.362610 0.110107
0.813873 0.359985 0.117035
0.835785 0.358490 0.124817
0.857391 0.357849 0.132965
0.878906 0.358063 0.141418
0.900757 0.358917 0.150360
0.922150 0.361359 0.160370
0.039795 0.432526 0.042969
0.056427 0.433746 0.043945
0.074707 0.434265 0.045959
0.091736 0.434052 0.049591
0.105011 0.431305 0.056458
0.115387 0.426666 0.065491
0.126312 0.422791 0.074799
0.152405 0.420258 0.081879
0.190552 0.419342 0.087036
0.229584 0.419830 0.091156
0.265961 0.421082 0.095215
0.299866 0.422668 0.100006
0.332489 0.424225 0.105225
0.358398 0.418945 0.107452
0.392975 0.424805 0.112030
0.440643 0.435516 0.106323
0.500122 0.448364 0.089386
0.555176 0.455383 0.076141
0.598114 0.453247 0.070740
0.631378 0.444244 0.076019
0.661621 0.434052 0.085327
0.690826 0.423553 0.093475
0.718323 0.413574 0.100494
0.744202 0.405029 0.106720
0.768127 0.400452 0.113342
0.791077 0.396973 0.119629
0.813446 0.393982 0.126160
0.835297 0.391907 0.133301
0.856812 0.390991 0.141052
0.878204 0.391144 0.149506
0.899872 0.392151 0.158722
0.920837 0.394562 0.168884
0.039520 0.472321 0.051178
0.056091 0.473114 0.053650
0.074615 0.473358 0.056488
0.092499 0.473999 0.059448
0.106812 0.472565 0.064941
0.117584 0.468201 0.073730
0.127197 0.463196 0.083893
0.148438 0.459778 0.092041
0.184387 0.458160 0.097870
0.225800 0.457764 0.102600
0.264618 0.458252 0.106842
0.300415 0.458984 0.111481
0.333801 0.459747 0.116547
0.366028 0.460510 0.121765
0.391388 0.454926 0.123596
0.425171 0.459351 0.128754
0.470215 0.467804 0.124817
0.525024 0.477753 0.109650
0.579590 0.484741 0.092621
0.622955 0.483704 0.086121
0.654968 0.475128 0.092590
0.684570 0.465637 0.101837
0.712158 0.456085 0.110321
0.738708 0.446411 0.117126
0.763977 0.438019 0.123138
0.788239 0.430389 0.128052
0.810730 0.427124 0.134216
0.832672 0.424469 0.140442
0.854401 0.422760 0.147308
0.876068 0.422363 0.155243
0.898010 0.423065 0.164276
0.918854 0.425110 0.174469
0.039276 0.506531 0.066132
0.055725 0.507050 0.069031
0.074341 0.506989 0.071991
0.092804 0.507050 0.075134
0.108276 0.507141 0.078308
0.119904 0.503021 0.084290
0.129913 0.497101 0.092865
0.146851 0.493317 0.102753
0.180267 0.491791 0.109985
0.221954 0.491180 0.115356
0.262390 0.491241 0.119843
0.299408 0.491638 0.124176
0.333771 0.492004 0.128937
0.366150 0.492340 0.134064
0.397614 0.492676 0.139435
0.422577 0.487244 0.141083
0.455383 0.490356 0.146271
0.494415 0.494873 0.142548
0.545624 0.502899 0.130066
0.599670 0.510681 0.112305
0.641571 0.510132 0.106659
0.675476 0.504486 0.110535
0.704193 0.496521 0.118317
0.730835 0.488190 0.126892
0.756653 0.479706 0.133606
0.781616 0.470886 0.138672
0.805695 0.462769 0.142548
0.828735 0.456573 0.146576
0.850677 0.454102 0.152527
0.872772 0.452667 0.159180
0.895172 0.452545 0.167450
0.916290 0.453949 0.177643
0.039032 0.538818 0.087128
0.055359 0.539429 0.090210
0.074005 0.539490 0.093323
0.092834 0.539520 0.096252
0.109222 0.539978 0.099243
0.122162 0.539368 0.103729
0.137329 0.534393 0.111298
0.156525 0.527283 0.118713
0.185516 0.523651 0.125214
0.222931 0.521698 0.130096
0.262115 0.520935 0.134155
0.299042 0.520905 0.138153
0.333618 0.521027 0.142273
0.366180 0.521118 0.147034
0.397278 0.521149 0.151886
0.427582 0.521118 0.156891
0.450928 0.514893 0.157257
0.482300 0.516968 0.162354
0.519287 0.522095 0.163055
0.567169 0.529327 0.153809
0.618286 0.536163 0.139191
0.662598 0.539520 0.135315
0.697021 0.536469 0.135773
0.724823 0.529755 0.142273
0.750732 0.522736 0.150055
0.775665 0.515411 0.156677
0.800110 0.507629 0.160919
0.824066 0.499420 0.163727
0.848022 0.491211 0.166138
0.871155 0.487122 0.170746
0.894012 0.486298 0.178253
0.916351 0.487091 0.188599
0.038879 0.567047 0.108093
0.055084 0.567474 0.110809
0.073669 0.567505 0.113495
0.092743 0.567505 0.116150
0.109833 0.567780 0.118805
0.125671 0.568420 0.121918
0.150391 0.565155 0.127777
0.173981 0.559723 0.135834
0.202576 0.556183 0.144379
0.236389 0.554504 0.150970
0.272156 0.553741 0.155792
0.307373 0.553528 0.159821
0.341248 0.553619 0.163879
0.373535 0.553558 0.168121
0.404236 0.553284 0.172607
0.433685 0.552795 0.177155
0.462524 0.552246 0.181732
0.483765 0.545471 0.180573
0.513733 0.546783 0.185547
0.546600 0.551025 0.188934
0.590759 0.557373 0.182373
0.639923 0.565063 0.174255
0.682404 0.569000 0.166138
0.716614 0.567902 0.163849
0.744110 0.562836 0.168457
0.769714 0.557068 0.173676
0.794067 0.550690 0.179779
0.818115 0.544037 0.183838
0.842407 0.536591 0.186432
0.867035 0.528992 0.188416
0.892059 0.521973 0.191650
0.914734 0.520996 0.200500
0.038818 0.594208 0.130157
0.054932 0.595642 0.135040
0.073425 0.598083 0.142639
0.097229 0.598297 0.145355
0.133179 0.598633 0.148224
0.169159 0.599365 0.151489
0.194275 0.598297 0.154480
0.204681 0.590515 0.155823
0.224518 0.585083 0.162537
0.250458 0.582031 0.168152
0.281158 0.580627 0.172546
0.313782 0.580292 0.176483
0.346283 0.580322 0.180115
0.377808 0.580322 0.183899
0.408203 0.580200 0.188080
0.437500 0.579865 0.192627
0.466003 0.579407 0.197449
0.493774 0.579010 0.202209
0.514801 0.573059 0.202271
0.543121 0.574097 0.207184
0.572540 0.577698 0.212524
0.613190 0.583435 0.207672
0.655792 0.589020 0.199463
0.696960 0.594177 0.191315
0.731262 0.595245 0.188934
0.760956 0.593658 0.190491
0.786896 0.589447 0.193726
0.811096 0.584320 0.199524
0.835297 0.578766 0.203857
0.860016 0.572235 0.206573
0.885376 0.565430 0.209381
0.909882 0.559937 0.215271
0.038849 0.621033 0.154480
0.055725 0.621674 0.157562
0.086945 0.622711 0.161896
0.127411 0.623108 0.164825
0.163605 0.623352 0.167236
0.196167 0.623718 0.169861
0.222748 0.624115 0.172455
0.237122 0.619385 0.176147
0.248779 0.612701 0.180298
0.270294 0.609344 0.186920
0.296265 0.607574 0.191498
0.325470 0.606964 0.195221
0.355835 0.606964 0.198486
0.385864 0.606964 0.201752
0.415344 0.606873 0.205414
0.443756 0.606445 0.209320
0.471344 0.605835 0.213409
0.498138 0.605103 0.217773
0.524475 0.604584 0.222107
0.544189 0.598969 0.222229
0.570892 0.599792 0.226959
0.598969 0.603119 0.232391
0.633881 0.608185 0.231018
0.671936 0.613495 0.225769
0.710449 0.618774 0.219421
0.745514 0.622345 0.215851
0.777863 0.624512 0.214264
0.803619 0.621674 0.216370
0.828522 0.617737 0.220154
0.853058 0.612976 0.224396
0.878052 0.607574 0.228058
0.902527 0.602478 0.233917
0.056915 0.645020 0.173981
0.090332 0.645630 0.176666
0.126587 0.646118 0.179657
0.161865 0.646576 0.182495
0.193298 0.646851 0.184845
0.217133 0.646118 0.184509
0.242279 0.646545 0.186920
0.256897 0.643799 0.188324
0.262573 0.636322 0.189728
0.284363 0.633331 0.199493
0.310150 0.632080 0.206909
0.337128 0.631500 0.211151
0.365356 0.631378 0.214264
0.393951 0.631439 0.217224
0.422180 0.631378 0.220337
0.449799 0.631104 0.223694
0.476654 0.630524 0.227203
0.502686 0.629761 0.230988
0.528198 0.629089 0.235107
0.553162 0.628601 0.239349
0.571777 0.623474 0.239868
0.597229 0.624329 0.244720
0.623413 0.627350 0.250092
0.653961 0.631866 0.251404
0.687988 0.637115 0.248993
0.724152 0.642639 0.243958
0.758942 0.647888 0.239990
0.792725 0.652771 0.236359
0.819519 0.651947 0.238037
0.845428 0.649414 0.239014
0.870178 0.645599 0.242981
0.894562 0.641235 0.249237
0.097534 0.667419 0.190277
0.126648 0.668030 0.192688
0.157471 0.668488 0.195282
0.187592 0.668823 0.197723
0.215240 0.669037 0.199615
0.241180 0.669189 0.201508
0.264557 0.669525 0.203674
0.282196 0.669037 0.205414
0.285675 0.661957 0.205261
0.296906 0.656311 0.209442
0.320557 0.654572 0.217621
0.345734 0.653839 0.222443
0.372345 0.653656 0.225677
0.399567 0.653717 0.228424
0.426788 0.653778 0.231140
0.453796 0.653717 0.234100
0.480469 0.653442 0.237488
0.506531 0.653015 0.241425
0.532074 0.652588 0.245850
0.556885 0.652252 0.250732
0.580933 0.652130 0.255798
0.598785 0.647522 0.256836
0.622955 0.648651 0.262024
0.647797 0.651367 0.267517
0.675293 0.655731 0.270813
0.705872 0.661041 0.270874
0.739746 0.666992 0.267303
0.772919 0.672882 0.264374
0.805908 0.678558 0.261292
0.835297 0.681213 0.261230
0.862274 0.681061 0.262878
0.887512 0.677917 0.266266
0.148102 0.692566 0.215179
0.171570 0.693054 0.217072
0.197235 0.693329 0.218872
0.223206 0.693573 0.220551
0.247650 0.693634 0.221924
0.271149 0.693665 0.223328
0.293030 0.693848 0.225067
0.311676 0.694244 0.226898
0.321625 0.690369 0.229523
0.325714 0.683350 0.230286
0.344208 0.680542 0.237457
0.365997 0.679199 0.242157
0.389893 0.678772 0.245148
0.415222 0.678772 0.247681
0.440826 0.678894 0.250061
0.466553 0.678955 0.252563
0.492126 0.678894 0.255402
0.517303 0.678650 0.258606
0.542023 0.678253 0.262390
0.566040 0.677856 0.266632
0.589020 0.677490 0.271240
0.611389 0.677277 0.276123
0.628052 0.673065 0.277405
0.650726 0.674316 0.282257
0.674194 0.676758 0.286896
0.699310 0.680847 0.290863
0.726563 0.686279 0.293182
0.758240 0.692657 0.290985
0.789886 0.698944 0.289337
0.821289 0.705139 0.288177
0.852417 0.710602 0.287628
0.880981 0.711792 0.288757
0.176239 0.715027 0.231964
0.197510 0.715454 0.233490
0.221283 0.715698 0.234985
0.245667 0.715973 0.236420
0.268921 0.716064 0.237671
0.291656 0.716095 0.238983
0.313202 0.716248 0.240662
0.332031 0.716675 0.242462
0.345642 0.715546 0.244568
0.352448 0.709595 0.248230
0.366089 0.705688 0.254333
0.386169 0.704010 0.260223
0.407990 0.703400 0.263489
0.431335 0.703308 0.265747
0.455383 0.703430 0.267761
0.479767 0.703552 0.269806
0.504181 0.703613 0.272003
0.528442 0.703491 0.274475
0.552307 0.703125 0.277313
0.575378 0.702698 0.280579
0.597473 0.702240 0.284393
0.618713 0.701721 0.288635
0.638977 0.701355 0.292938
0.655243 0.697876 0.294861
0.676788 0.699097 0.298859
0.699097 0.701355 0.302490
0.722565 0.705292 0.306244
0.747345 0.710754 0.309906
0.777130 0.717377 0.308929
0.807343 0.724030 0.308258
0.837830 0.730530 0.308105
0.869446 0.735748 0.307495
0.205353 0.738525 0.251221
0.225616 0.739075 0.252777
0.247986 0.739380 0.253998
0.270874 0.739563 0.254944
0.292725 0.739594 0.255707
0.314240 0.739502 0.256531
0.334900 0.739471 0.257568
0.353210 0.739685 0.258728
0.368378 0.740082 0.259979
0.376343 0.735352 0.263702
0.384979 0.730072 0.268005
0.401917 0.727692 0.273712
0.421906 0.726715 0.277252
0.443817 0.726532 0.279419
0.466766 0.726654 0.281281
0.490234 0.726868 0.283020
0.513947 0.727051 0.284882
0.537689 0.727112 0.286987
0.561157 0.727020 0.289307
0.583984 0.726715 0.292023
0.605560 0.726318 0.295135
0.626099 0.725830 0.298950
0.645416 0.725250 0.303040
0.664215 0.724731 0.307037
0.680450 0.721985 0.308960
0.701385 0.723389 0.312347
0.723083 0.725677 0.315308
0.745605 0.729492 0.318665
0.769135 0.735138 0.323059
0.796967 0.741974 0.323547
0.826141 0.748749 0.323639
0.856567 0.754364 0.323608
0.223755 0.760529 0.264374
0.242950 0.761047 0.265564
0.264709 0.761353 0.266602
0.287018 0.761566 0.267395
0.308472 0.761627 0.268127
0.329773 0.761627 0.268951
0.350494 0.761627 0.269958
0.369080 0.761841 0.271118
0.384521 0.762268 0.272278
0.395081 0.760101 0.274994
0.401764 0.754150 0.279236
0.416840 0.751434 0.285797
0.436035 0.750305 0.290344
0.456818 0.750031 0.292755
0.478729 0.750122 0.294403
0.501221 0.750336 0.295837
0.524170 0.750519 0.297272
0.547241 0.750641 0.298920
0.570343 0.750702 0.300842
0.592865 0.750641 0.303009
0.614288 0.750458 0.305695
0.634338 0.750092 0.308899
0.652832 0.749481 0.312714
0.670624 0.748840 0.316681
0.688629 0.748383 0.320251
0.705353 0.746582 0.322021
0.725983 0.748169 0.324707
0.747131 0.750427 0.327118
0.768951 0.753937 0.329773
0.792328 0.760071 0.334106
0.818207 0.766602 0.336060
0.846924 0.772522 0.337006
0.239349 0.782593 0.276062
0.257965 0.783081 0.277039
0.279205 0.783417 0.277924
0.301208 0.783661 0.278717
0.322479 0.783844 0.279480
0.343658 0.783875 0.280365
0.364441 0.783966 0.281464
0.383545 0.784210 0.282715
0.399628 0.784698 0.283966
0.412384 0.784790 0.285492
0.415924 0.777893 0.287292
0.428223 0.774261 0.293488
0.447052 0.773254 0.299744
0.467285 0.772980 0.303009
0.488464 0.773041 0.304840
0.510468 0.773254 0.306244
0.532898 0.773468 0.307556
0.555511 0.773651 0.308899
0.578186 0.773834 0.310394
0.600464 0.773926 0.312134
0.621765 0.773926 0.314331
0.641754 0.773773 0.317322
0.660034 0.773438 0.321075
0.677216 0.772858 0.325165
0.694427 0.772339 0.329010
0.712311 0.772217 0.332123
0.730072 0.771576 0.333832
0.750488 0.773407 0.336060
0.771179 0.775604 0.337982
0.792389 0.778900 0.340149
0.815247 0.784515 0.343750
0.840454 0.790375 0.347748
0.254852 0.805359 0.288116
0.273224 0.805939 0.289154
0.294281 0.806366 0.290100
0.316406 0.806763 0.291107
0.337799 0.807098 0.292175
0.359314 0.807495 0.293488
0.380646 0.807861 0.295074
0.400543 0.808380 0.296783
0.417511 0.809052 0.298370
0.432129 0.810028 0.300110
0.440674 0.806488 0.302917
0.447662 0.800781 0.306152
0.462372 0.798462 0.311310
0.480713 0.797516 0.314850
0.500916 0.797455 0.317078
