tools/luts_backup/LAPARDIN-WEDLUTS-9.cube
#Created by: Adobe Photoshop Export Color Lookup Plugin
#Copyright: (C) 2017 Andrey Lapardin. vk.com-3dluts
TITLE "Andrey Lapardin. vk.com-3dluts"
#LUT size
LUT_3D_SIZE 32
#data domain
DOMAIN_MIN 0.0 0.0 0.0
DOMAIN_MAX 1.0 1.0 1.0
#LUT data points
0.032196 0.038361 0.039795
0.047394 0.040894 0.042236
0.064148 0.041840 0.043335
0.081696 0.042297 0.044067
0.101135 0.042725 0.044678
0.121094 0.043793 0.045105
0.143799 0.045624 0.045502
0.169556 0.047577 0.045837
0.198334 0.049042 0.046112
0.229065 0.049377 0.046326
0.261414 0.050079 0.046417
0.295563 0.050842 0.046448
0.331879 0.051483 0.046326
0.370392 0.052063 0.046021
0.410583 0.052551 0.045593
0.451843 0.052979 0.044800
0.493530 0.053162 0.043762
0.534912 0.053131 0.042725
0.575562 0.052734 0.042053
0.615173 0.051971 0.041687
0.653381 0.050781 0.041351
0.690094 0.049225 0.041168
0.724915 0.047302 0.041168
0.758209 0.045105 0.041473
0.790283 0.042664 0.041901
0.821625 0.040131 0.042572
0.851349 0.037598 0.043457
0.872162 0.035156 0.044586
0.892242 0.032776 0.046082
0.912415 0.030182 0.047943
0.931458 0.029572 0.049957
0.949646 0.030243 0.052521
0.034546 0.052399 0.041901
0.047424 0.052612 0.042114
0.064056 0.055054 0.043274
0.082275 0.056274 0.044189
0.101807 0.057220 0.044922
0.122864 0.058380 0.045532
0.145721 0.060059 0.045959
0.171265 0.061798 0.046234
0.199646 0.063141 0.046509
0.229736 0.063538 0.046661
0.261505 0.063690 0.046844
0.295044 0.064484 0.046997
0.330719 0.065155 0.046936
0.368530 0.065735 0.046722
0.408173 0.066284 0.046234
0.449066 0.066772 0.045471
0.490631 0.067108 0.044586
0.532104 0.067261 0.043701
0.572998 0.067108 0.042847
0.612793 0.066620 0.042145
0.651154 0.065735 0.041595
0.688019 0.064453 0.041199
0.722961 0.062805 0.040985
0.756226 0.060852 0.041077
0.788269 0.058533 0.041351
0.819794 0.056061 0.041992
0.850098 0.053528 0.042786
0.871918 0.051056 0.043884
0.890594 0.048584 0.045227
0.909241 0.045898 0.046875
0.927795 0.043488 0.048706
0.946075 0.042999 0.051239
0.035583 0.068085 0.042664
0.050110 0.068298 0.042908
0.064056 0.068268 0.043304
0.083008 0.070770 0.044464
0.102783 0.072510 0.045410
0.123718 0.074005 0.046204
0.146240 0.075409 0.046814
0.171448 0.076630 0.047180
0.199371 0.077576 0.047516
0.228851 0.077850 0.047882
0.259949 0.077576 0.048340
0.292786 0.076721 0.048798
0.327728 0.077179 0.049225
0.364990 0.077820 0.049377
0.404053 0.078400 0.049225
0.444824 0.078949 0.048676
0.486481 0.079437 0.047852
0.528473 0.079865 0.046753
0.569611 0.080170 0.045563
0.609680 0.080261 0.044434
0.647919 0.080139 0.043274
0.685028 0.079712 0.042297
0.720245 0.078857 0.041534
0.753876 0.077606 0.041107
0.786652 0.075897 0.041016
0.818512 0.073883 0.041443
0.848724 0.071564 0.042175
0.871765 0.069092 0.043121
0.890472 0.066589 0.044281
0.909088 0.063904 0.045776
0.927643 0.061523 0.047546
0.945923 0.061066 0.049866
0.035034 0.086304 0.044891
0.050751 0.086761 0.045044
0.066223 0.087097 0.045227
0.082733 0.086578 0.045135
0.102356 0.089264 0.046143
0.123077 0.091156 0.047028
0.145538 0.092438 0.047699
0.170654 0.093079 0.048187
0.198608 0.093231 0.048584
0.228088 0.092926 0.049103
0.259125 0.092072 0.049744
0.291595 0.090607 0.050507
0.326111 0.089874 0.051270
0.362640 0.089783 0.051880
0.401154 0.090149 0.052155
0.441284 0.090607 0.052032
0.482697 0.091003 0.051483
0.524689 0.091461 0.050598
0.566101 0.091949 0.049438
0.606018 0.092438 0.048065
0.644348 0.092987 0.046478
0.681610 0.093384 0.044891
0.717010 0.093628 0.043335
0.751038 0.093506 0.042084
0.784302 0.092926 0.041321
0.816315 0.091736 0.041138
0.846832 0.090027 0.041473
0.871582 0.087921 0.042175
0.890320 0.085602 0.043213
0.908936 0.083099 0.044678
0.927490 0.080902 0.046509
0.945801 0.080444 0.048889
0.035248 0.104736 0.047638
0.051422 0.105103 0.047211
0.068115 0.105743 0.046936
0.086029 0.105988 0.046844
0.102539 0.104584 0.047058
0.123169 0.107147 0.048096
0.145569 0.109039 0.048859
0.170746 0.110260 0.049255
0.198456 0.110657 0.049500
0.228027 0.110260 0.049927
0.259247 0.109222 0.050598
0.291901 0.107635 0.051422
0.326385 0.105316 0.052338
0.362549 0.103638 0.053131
0.400421 0.103302 0.053680
0.439728 0.103424 0.053925
0.480286 0.103516 0.053833
0.521515 0.103699 0.053375
0.562500 0.103973 0.052582
0.602386 0.104401 0.051514
0.640991 0.105011 0.050018
0.678589 0.105835 0.048279
0.714233 0.106750 0.046204
0.748840 0.107513 0.044159
0.782654 0.108032 0.042542
0.814758 0.108002 0.041473
0.845306 0.107361 0.041077
0.871429 0.106018 0.041290
0.890228 0.104248 0.042053
0.908844 0.102112 0.043335
0.927429 0.100159 0.045105
0.945709 0.099823 0.047424
0.035706 0.124023 0.050323
0.052643 0.123932 0.049408
0.069916 0.124695 0.048523
0.088806 0.124969 0.048370
0.107605 0.124603 0.048859
0.123535 0.121979 0.049347
0.145966 0.124512 0.050323
0.171204 0.126801 0.050720
0.198914 0.128265 0.050873
0.228363 0.128601 0.051086
0.259125 0.127991 0.051514
0.292206 0.126465 0.052185
0.326874 0.124268 0.052917
0.363007 0.121460 0.053619
0.400482 0.118347 0.054230
0.439392 0.117523 0.054626
0.479126 0.116913 0.054779
0.519562 0.116852 0.054688
0.559998 0.116821 0.054382
0.599640 0.116974 0.053802
0.638092 0.117310 0.052795
0.675903 0.117920 0.051300
0.712036 0.118805 0.049286
0.747589 0.119904 0.047028
0.781708 0.121094 0.044708
0.814911 0.122101 0.042786
0.845886 0.122650 0.041595
0.871490 0.122559 0.041077
0.890198 0.121796 0.041382
0.908783 0.120392 0.042389
0.927399 0.118866 0.044159
0.945679 0.118713 0.046722
0.036316 0.145477 0.052551
0.053711 0.144623 0.051056
0.071625 0.145416 0.049774
0.090363 0.145660 0.049774
0.110352 0.144989 0.050476
0.130157 0.144287 0.051514
0.146820 0.140259 0.051910
0.172302 0.143097 0.052765
0.200317 0.146027 0.052917
0.229736 0.147675 0.052917
0.260468 0.147888 0.053040
0.293304 0.146881 0.053314
0.328217 0.144897 0.053711
0.364899 0.142212 0.054169
0.402466 0.138885 0.054474
0.440765 0.136810 0.054596
0.480011 0.134796 0.054718
0.519501 0.133179 0.054749
0.559143 0.131256 0.054749
0.598267 0.130707 0.054596
0.636322 0.130707 0.054138
0.674103 0.130890 0.053467
0.710510 0.131317 0.052246
0.745972 0.132080 0.050507
0.779816 0.133240 0.048462
0.811920 0.134644 0.046295
0.842621 0.136047 0.044373
0.871429 0.137207 0.042938
0.890228 0.137756 0.041962
0.908813 0.137512 0.041504
0.927399 0.136749 0.042877
0.945679 0.136932 0.045258
0.036499 0.170990 0.054230
0.054199 0.169708 0.052094
0.072205 0.170380 0.050568
0.090851 0.170380 0.050659
0.111176 0.169708 0.051605
0.132660 0.168640 0.053101
0.155762 0.167450 0.054291
0.174133 0.162170 0.054443
0.202393 0.164429 0.055023
0.232086 0.167480 0.055206
0.263062 0.169128 0.055237
0.295349 0.169189 0.055115
0.330139 0.167877 0.055054
0.366821 0.165649 0.055054
0.404846 0.162933 0.054993
0.443298 0.159454 0.054779
0.482117 0.155060 0.054504
0.520905 0.153168 0.054169
0.559570 0.151184 0.054108
0.597748 0.149414 0.054291
0.635345 0.148041 0.054382
0.672913 0.147034 0.054352
0.709503 0.146454 0.054016
0.744476 0.146271 0.053314
0.777954 0.146484 0.052124
0.809967 0.147217 0.050507
0.840607 0.148712 0.048615
0.868896 0.150604 0.046661
0.890381 0.152222 0.044830
0.908905 0.153320 0.043304
0.927429 0.153717 0.042816
0.945709 0.154510 0.043518
0.036438 0.199402 0.055237
0.054443 0.197327 0.052704
0.073029 0.198059 0.050903
0.090698 0.198303 0.050903
0.109589 0.197845 0.052155
0.132263 0.196716 0.054108
0.157990 0.195251 0.055908
0.185059 0.193878 0.057098
0.204681 0.186951 0.057251
0.234650 0.189209 0.057739
0.265808 0.191833 0.057343
0.298462 0.193268 0.056824
0.332458 0.193359 0.056366
0.367188 0.192230 0.055878
0.405029 0.190491 0.055420
0.443848 0.188202 0.054901
0.482849 0.185272 0.054199
0.521362 0.181793 0.053528
0.559509 0.177673 0.053253
0.597198 0.173065 0.053619
0.634399 0.168671 0.054443
0.671967 0.165741 0.055176
0.708099 0.164063 0.055573
0.742737 0.162659 0.055573
0.776001 0.161407 0.055115
0.807983 0.161133 0.054260
0.838623 0.163940 0.053009
0.866089 0.168518 0.051422
0.890533 0.173431 0.049530
0.909088 0.175842 0.047455
0.927521 0.177277 0.045685
0.945801 0.179657 0.044708
0.036407 0.230194 0.057037
0.054596 0.227386 0.053741
0.073761 0.228302 0.051758
0.091919 0.229004 0.051575
0.109314 0.229126 0.052979
0.129730 0.228271 0.055237
0.157379 0.226654 0.057587
0.188049 0.224823 0.059387
0.217926 0.223236 0.060577
0.238037 0.214294 0.060455
0.269714 0.216614 0.060883
0.302734 0.219116 0.060089
0.336884 0.220490 0.058929
0.371887 0.220612 0.057678
0.407654 0.219788 0.056580
0.444031 0.218475 0.055573
0.482971 0.217041 0.054596
0.521545 0.215118 0.053955
0.559357 0.212616 0.053894
0.596588 0.209778 0.054321
0.633270 0.206726 0.055023
0.670044 0.204193 0.055847
0.705536 0.202484 0.056488
0.739746 0.201355 0.056915
0.772888 0.200378 0.057098
0.804718 0.199951 0.056946
0.835236 0.200165 0.056549
0.864014 0.201233 0.055756
0.890930 0.202789 0.054474
0.909271 0.206573 0.052643
0.927673 0.210266 0.050690
0.945892 0.216370 0.048798
0.036346 0.263763 0.060699
0.054718 0.260254 0.056274
0.074463 0.261475 0.053619
0.093292 0.262665 0.053253
0.109894 0.263245 0.054504
0.128418 0.262970 0.056824
0.153717 0.261505 0.059509
0.187866 0.259552 0.061768
0.221893 0.257599 0.063354
0.254181 0.255920 0.064301
0.274536 0.244781 0.064087
0.308044 0.247070 0.064087
0.342712 0.249420 0.062805
0.378082 0.250671 0.061066
0.413849 0.250763 0.059357
0.449646 0.250031 0.057617
0.486450 0.249115 0.056244
0.523773 0.248260 0.055420
0.561798 0.247498 0.055267
0.598572 0.246063 0.055481
0.634247 0.244415 0.055969
0.669495 0.242737 0.056610
0.703705 0.241211 0.057312
0.737183 0.240417 0.057922
0.769836 0.240112 0.058411
0.801483 0.240143 0.058777
0.832062 0.240814 0.059052
0.861542 0.242096 0.059113
0.889984 0.244873 0.058746
0.909485 0.249878 0.057709
0.927765 0.255219 0.056305
0.945953 0.261261 0.054321
0.036316 0.300934 0.065857
0.054749 0.296539 0.060120
0.075043 0.297974 0.056549
0.094635 0.299347 0.055847
0.111786 0.300171 0.056732
0.127838 0.300262 0.059021
0.148102 0.299377 0.061890
0.183929 0.297424 0.064453
0.222534 0.295135 0.066284
0.259064 0.292969 0.067505
0.294006 0.291199 0.068390
0.313904 0.277649 0.068054
0.349182 0.279907 0.067535
0.385132 0.282166 0.065765
0.421387 0.283295 0.063354
0.457489 0.283478 0.060760
0.493225 0.282898 0.058685
0.527954 0.282043 0.057312
0.564545 0.282043 0.056976
0.601074 0.282166 0.057098
0.636749 0.282227 0.057343
0.671417 0.281952 0.057739
0.704529 0.281921 0.058258
0.737061 0.281982 0.058838
0.769196 0.282440 0.059448
0.800476 0.283295 0.060120
0.830902 0.284515 0.060791
0.860260 0.286041 0.061432
0.889008 0.288055 0.061859
0.909515 0.291168 0.061798
0.927734 0.294739 0.061310
0.947296 0.296356 0.058502
0.036285 0.339844 0.071777
0.054749 0.334961 0.064880
0.075439 0.336578 0.060028
0.095764 0.338104 0.058929
0.113617 0.338959 0.059448
0.129333 0.339020 0.061615
0.146759 0.338379 0.064545
0.175415 0.336914 0.067352
0.219727 0.334625 0.069489
0.260803 0.332428 0.070862
0.299469 0.330383 0.071991
0.335236 0.327484 0.072815
0.355255 0.312195 0.072418
0.392151 0.314636 0.071442
0.428680 0.316620 0.068573
0.464966 0.317627 0.065308
0.500732 0.317902 0.062103
0.535309 0.317657 0.059479
0.568817 0.317200 0.058807
0.602173 0.317261 0.058868
0.636963 0.318329 0.059021
0.671295 0.319153 0.059265
0.703949 0.319397 0.059570
0.735657 0.319885 0.059967
0.767212 0.320709 0.060486
0.798187 0.322052 0.061157
0.828430 0.324005 0.062042
0.857727 0.326111 0.063049
0.886475 0.328400 0.063965
0.909149 0.331207 0.064697
0.927490 0.334106 0.065094
0.951080 0.330536 0.059113
0.036255 0.380981 0.078583
0.054718 0.375977 0.070740
0.075684 0.378143 0.064484
0.096680 0.380127 0.062683
0.115265 0.381226 0.062836
0.131531 0.381195 0.064697
0.146912 0.380157 0.067810
0.168884 0.378632 0.070892
0.213135 0.376556 0.073242
0.260223 0.374207 0.075012
0.302734 0.371918 0.076111
0.342834 0.369843 0.077057
0.377686 0.364563 0.077728
0.398956 0.349274 0.076996
0.436584 0.351257 0.075653
0.472443 0.352722 0.071503
0.507660 0.353546 0.067169
0.541840 0.353821 0.063354
0.574951 0.354034 0.060577
0.607178 0.354279 0.060669
0.638458 0.354492 0.060852
0.670959 0.355438 0.061066
0.703003 0.356293 0.061249
0.734344 0.356659 0.061432
0.765015 0.357391 0.061676
0.795319 0.358765 0.062164
0.825104 0.360870 0.062958
0.854126 0.363464 0.064087
0.882538 0.366211 0.065369
0.908630 0.369171 0.066681
0.927032 0.371857 0.067688
0.953186 0.367523 0.059784
0.036285 0.422913 0.086121
0.054718 0.418243 0.077789
0.075836 0.420593 0.070282
0.097290 0.422729 0.067505
0.116638 0.424011 0.067322
0.133636 0.423950 0.068756
0.149261 0.422607 0.071930
0.168579 0.420746 0.075470
0.203461 0.418823 0.078217
0.257141 0.416443 0.080170
0.303864 0.413940 0.081573
0.346893 0.411499 0.082520
0.387512 0.409149 0.083221
0.420105 0.401184 0.083557
0.442078 0.386353 0.082214
0.478790 0.387695 0.080292
0.513367 0.388885 0.075012
0.546875 0.389709 0.069855
0.579590 0.390594 0.065186
0.611603 0.391602 0.062439
0.642578 0.392426 0.062622
0.672668 0.392761 0.062958
0.701874 0.392578 0.063232
0.732117 0.392792 0.063324
0.762451 0.393097 0.063232
0.792358 0.394135 0.063293
0.821594 0.396362 0.063721
0.850220 0.399353 0.064789
0.878296 0.402527 0.066284
0.905426 0.406006 0.068115
0.927643 0.408508 0.068512
0.954163 0.405029 0.060608
0.036346 0.461853 0.093567
0.054749 0.457855 0.085449
0.075897 0.459839 0.077057
0.097687 0.461792 0.073425
0.117676 0.462982 0.072601
0.135406 0.463043 0.073578
0.151581 0.461884 0.076660
0.167938 0.460052 0.080811
0.195587 0.458374 0.084290
0.250519 0.456635 0.086792
0.302582 0.454254 0.088440
0.348389 0.451782 0.089508
0.391144 0.449188 0.090210
0.431305 0.446686 0.090912
0.461151 0.436707 0.090668
0.483307 0.422974 0.088654
0.518616 0.424194 0.086334
0.551666 0.425598 0.080078
0.584015 0.427002 0.073944
0.615692 0.428558 0.068390
0.646332 0.429932 0.064606
0.676147 0.430908 0.064819
0.704590 0.431061 0.065247
0.732117 0.430176 0.065460
0.760376 0.429382 0.065277
0.789520 0.429688 0.064880
0.818695 0.431366 0.064758
0.846832 0.434296 0.065430
0.874268 0.437897 0.066986
0.901123 0.442047 0.069336
0.927673 0.445068 0.069366
0.954529 0.442322 0.061462
0.036469 0.503174 0.103729
0.054840 0.500214 0.095703
0.075958 0.502960 0.087128
0.097870 0.505493 0.083221
0.118347 0.507080 0.082397
0.136780 0.507355 0.083099
0.153595 0.506012 0.085724
0.169739 0.502930 0.089783
0.198303 0.499542 0.093781
0.248444 0.496979 0.096558
0.302124 0.494476 0.098297
0.350647 0.492126 0.099487
0.395050 0.489563 0.100159
0.436584 0.487000 0.100616
0.475494 0.484619 0.101074
0.501495 0.472656 0.099792
0.522858 0.459595 0.097412
0.556915 0.461426 0.094971
0.589020 0.463409 0.088135
0.620178 0.465332 0.081055
0.652466 0.468903 0.075226
0.681915 0.470306 0.069458
0.709869 0.471008 0.067810
0.736938 0.470734 0.067810
0.763550 0.469513 0.067841
0.790161 0.468262 0.067230
0.817932 0.468506 0.066528
0.845276 0.470398 0.066559
0.872253 0.473846 0.067902
0.898132 0.478058 0.070496
0.927704 0.481689 0.070099
0.954987 0.482117 0.062714
0.036591 0.540192 0.113770
0.054871 0.538239 0.106232
0.075897 0.540955 0.098450
0.097839 0.543732 0.093658
0.118561 0.545746 0.092682
0.137665 0.546417 0.092926
0.155182 0.544800 0.094940
0.171783 0.541748 0.099091
0.203156 0.538574 0.104340
0.250336 0.536163 0.108673
0.305023 0.534546 0.111511
0.354828 0.532440 0.113068
0.400757 0.530243 0.113922
0.443115 0.527863 0.114258
0.482697 0.525391 0.114349
0.519684 0.523071 0.114319
0.542084 0.509613 0.111420
0.562256 0.497314 0.109009
0.594696 0.499359 0.106873
0.625427 0.501587 0.099884
0.656342 0.504517 0.092926
0.685638 0.506470 0.085632
0.712860 0.507294 0.079010
0.739197 0.507629 0.074219
0.765320 0.507263 0.070587
0.791443 0.506378 0.070404
0.817688 0.505768 0.069550
0.843628 0.506287 0.069000
0.868927 0.508118 0.069733
0.894257 0.511688 0.072083
0.926849 0.515900 0.070740
0.955566 0.518005 0.063416
0.036621 0.576111 0.125610
0.054871 0.575439 0.119293
0.075806 0.578827 0.112976
0.097656 0.582092 0.107452
0.118530 0.584412 0.106537
0.138062 0.585419 0.106537
0.156342 0.583862 0.107880
0.173553 0.580353 0.111511
0.208496 0.576111 0.117065
0.256439 0.572235 0.121948
0.307861 0.569824 0.125000
0.356995 0.568237 0.127258
0.403870 0.566467 0.128662
0.447083 0.564636 0.129242
0.487305 0.562653 0.129456
0.524994 0.560638 0.129425
0.560181 0.558777 0.129242
0.581238 0.546417 0.125580
0.601349 0.535736 0.124329
0.631683 0.537384 0.122375
0.660828 0.539337 0.115845
0.689209 0.541016 0.108887
0.716278 0.542450 0.102631
0.742432 0.543640 0.097107
0.766357 0.542664 0.088715
0.791779 0.542603 0.082153
0.817444 0.542542 0.075165
0.843048 0.542877 0.073059
0.868134 0.544159 0.073212
0.892303 0.546265 0.074768
0.925903 0.550079 0.071411
0.956512 0.553436 0.063995
0.036652 0.609741 0.138214
0.054810 0.609741 0.132721
0.075623 0.612762 0.126953
0.097412 0.616028 0.120850
0.118378 0.618439 0.119629
0.138245 0.618286 0.117493
0.157104 0.617371 0.118713
0.175415 0.614227 0.122620
0.216309 0.610168 0.129425
0.264832 0.605591 0.135162
0.313843 0.602509 0.139221
0.359741 0.600800 0.141754
0.405334 0.599060 0.143036
0.448395 0.597137 0.143585
0.488556 0.595215 0.143585
0.526215 0.593231 0.143158
0.561554 0.591400 0.142670
0.594452 0.589691 0.142120
0.614197 0.578064 0.137695
0.633392 0.568176 0.136444
0.662292 0.569794 0.135193
0.690491 0.571808 0.130219
0.717102 0.573486 0.124664
0.742493 0.574799 0.120087
0.767090 0.575806 0.115936
0.791382 0.576508 0.110870
0.816040 0.576965 0.103546
0.840942 0.577576 0.094604
0.865845 0.578644 0.086273
0.891632 0.580627 0.082031
0.927246 0.584961 0.074707
0.957977 0.588043 0.064606
0.036621 0.640594 0.150208
0.054718 0.641144 0.145508
0.075500 0.644165 0.140381
0.097229 0.647339 0.134521
0.118225 0.649658 0.131775
0.138336 0.650360 0.130463
0.157745 0.649445 0.130951
0.177246 0.645081 0.132568
0.224487 0.640930 0.139771
0.273865 0.636871 0.147919
0.322418 0.634094 0.154388
0.365326 0.632050 0.157440
0.408630 0.630371 0.158966
0.450989 0.628571 0.159668
0.490662 0.626801 0.159760
0.527954 0.624969 0.159302
0.563263 0.623199 0.158508
0.596313 0.621613 0.157776
0.627411 0.620270 0.157227
0.646271 0.609467 0.152100
0.664520 0.600220 0.150482
0.692352 0.601959 0.150482
0.718994 0.604156 0.147675
0.744110 0.606140 0.144135
0.768066 0.607666 0.141815
0.791260 0.608856 0.140045
0.814606 0.609772 0.137512
0.838654 0.610840 0.133179
0.863403 0.612091 0.126495
0.895142 0.615967 0.112671
0.929749 0.620392 0.096283
0.960083 0.623108 0.076324
0.036591 0.670288 0.163300
0.054626 0.671295 0.159515
0.075378 0.675049 0.156158
0.097137 0.679016 0.152405
0.118195 0.682098 0.149719
0.138519 0.683899 0.149994
0.167145 0.683319 0.150269
0.202148 0.679108 0.151031
0.242371 0.672943 0.154572
0.289948 0.668427 0.163269
0.333130 0.664520 0.169830
0.373444 0.661774 0.173523
0.412994 0.660309 0.175385
0.454315 0.658508 0.176422
0.493256 0.656799 0.176819
0.529968 0.655243 0.176788
0.564819 0.653839 0.176422
0.598053 0.652588 0.176025
0.629639 0.651520 0.175720
0.659515 0.650848 0.175568
0.677612 0.640961 0.169708
0.694855 0.632294 0.167389
0.721191 0.634521 0.169708
0.746643 0.637421 0.170624
0.770569 0.639954 0.170319
0.793274 0.641998 0.171509
0.815643 0.643555 0.172638
0.838531 0.644653 0.171661
0.866241 0.647278 0.164795
0.899536 0.651672 0.152466
0.933105 0.655182 0.135834
0.962799 0.658936 0.118134
0.038605 0.701782 0.181946
0.057129 0.702911 0.178589
0.079346 0.706177 0.175110
0.102783 0.709747 0.171143
0.125793 0.712555 0.167877
0.159271 0.714172 0.167023
0.199097 0.714020 0.167633
0.237579 0.711090 0.169647
0.274780 0.705994 0.174713
0.314209 0.701080 0.183563
0.353180 0.696991 0.191986
0.388550 0.693115 0.195251
0.424469 0.690765 0.196686
0.461365 0.689056 0.197510
0.498566 0.687256 0.197906
0.533905 0.685669 0.197906
0.567841 0.684235 0.197510
0.600311 0.682953 0.196930
0.631500 0.681793 0.196289
0.661224 0.680939 0.195709
0.689301 0.680481 0.195282
0.706970 0.671631 0.188812
0.723297 0.664032 0.186768
0.747467 0.666229 0.191101
0.770905 0.669067 0.195740
0.792938 0.671478 0.198486
0.814301 0.673035 0.200836
0.836151 0.674164 0.201935
0.868011 0.679626 0.195251
0.902191 0.685211 0.186096
0.937195 0.690125 0.174133
0.966187 0.694580 0.160339
0.059906 0.729950 0.197113
0.080933 0.731445 0.194550
0.108215 0.734924 0.191956
0.137573 0.738800 0.189209
0.166565 0.741791 0.186554
0.200378 0.743683 0.185272
0.235901 0.743713 0.185822
0.267517 0.741028 0.187500
0.297546 0.735809 0.191284
0.331238 0.730225 0.198853
0.366211 0.725311 0.207092
0.399536 0.721161 0.211487
0.433319 0.718567 0.214081
0.467438 0.717041 0.215454
0.502441 0.715515 0.216248
0.536743 0.714020 0.216644
0.569855 0.712738 0.216736
0.601776 0.711578 0.216431
0.632507 0.710602 0.215973
0.662018 0.709747 0.215485
0.690063 0.709229 0.215363
0.716736 0.709045 0.215302
0.733978 0.701782 0.210419
0.748932 0.694946 0.208832
0.770996 0.696960 0.216309
0.792480 0.699402 0.223480
0.813232 0.701111 0.228760
0.836609 0.703766 0.230103
0.869781 0.711151 0.225098
0.904266 0.717621 0.217438
0.940277 0.723267 0.206879
0.968597 0.728912 0.196594
0.111298 0.758087 0.213440
0.131683 0.759705 0.211456
0.156616 0.763153 0.209167
0.182892 0.766998 0.206573
0.207947 0.770020 0.204010
0.234314 0.771942 0.202118
0.264160 0.772034 0.202576
0.292084 0.769623 0.204132
0.319244 0.764679 0.207886
0.350311 0.759308 0.215759
0.381714 0.753815 0.223633
0.413269 0.749481 0.229401
0.444366 0.746429 0.232300
0.474396 0.744080 0.232361
0.506744 0.742889 0.233459
0.539856 0.741547 0.234314
0.572266 0.740417 0.234894
0.603516 0.739410 0.235046
0.633728 0.738556 0.234894
0.662659 0.737762 0.234680
0.690308 0.737061 0.234558
0.716675 0.736603 0.234863
0.741089 0.736176 0.235352
0.757813 0.730225 0.232910
0.771393 0.723663 0.232635
0.791504 0.725067 0.241119
0.811737 0.726624 0.249390
0.837738 0.731689 0.253693
0.870636 0.740021 0.249664
0.905457 0.747772 0.243744
0.942383 0.755249 0.236572
0.968597 0.762878 0.230988
0.139618 0.784576 0.226379
0.159180 0.786285 0.224609
0.182587 0.789459 0.222198
0.207947 0.793304 0.219818
0.233276 0.796600 0.218140
0.258026 0.798737 0.216522
0.284912 0.798828 0.216827
0.310272 0.796295 0.217957
0.336029 0.791595 0.221863
0.367340 0.786987 0.231445
0.397491 0.781677 0.240112
0.425385 0.776581 0.244843
0.453644 0.773010 0.247498
0.482941 0.770966 0.249176
0.512909 0.769836 0.250397
0.544098 0.768799 0.251434
0.575531 0.767731 0.252136
0.606079 0.766846 0.252533
0.635559 0.766083 0.252716
0.663788 0.765381 0.252777
0.690735 0.764648 0.252991
0.716614 0.763824 0.253510
0.740692 0.762817 0.254547
0.762756 0.761597 0.256104
0.778839 0.756378 0.256195
0.791229 0.749512 0.256409
0.810730 0.750336 0.264801
0.839539 0.758331 0.269470
0.872101 0.767639 0.272217
0.907257 0.777222 0.268677
0.944275 0.786072 0.263031
0.968597 0.795410 0.259949
0.162292 0.810974 0.238983
0.182648 0.812988 0.238007
0.207397 0.816467 0.236816
0.233948 0.820618 0.235687
0.259216 0.824005 0.234589
0.283386 0.826202 0.233612
0.308746 0.826324 0.234406
0.333527 0.823883 0.236542
0.356323 0.818817 0.239685
0.383087 0.813507 0.246979
0.412872 0.808807 0.256561
0.438538 0.803619 0.261047
0.465118 0.800049 0.264069
0.492798 0.797943 0.266083
0.521118 0.796875 0.267517
0.550201 0.796082 0.268494
0.580475 0.795410 0.269562
0.610291 0.794739 0.270325
0.639038 0.794098 0.270782
0.666443 0.793427 0.271057
0.692444 0.792633 0.271637
0.717438 0.791443 0.272736
0.740875 0.789886 0.274628
0.762878 0.787994 0.277435
0.782959 0.785736 0.280609
0.798706 0.781036 0.281860
0.813507 0.776184 0.280182
0.843811 0.786285 0.286316
0.875214 0.795471 0.289703
0.909180 0.805054 0.289459
0.946808 0.816711 0.288849
0.967773 0.826630 0.285370
0.189240 0.839233 0.255554
0.209869 0.841370 0.255219
0.235199 0.845032 0.255005
0.261902 0.849243 0.254578
0.286835 0.852417 0.253876
0.310150 0.854248 0.253326
0.333313 0.853882 0.254059
0.356262 0.850830 0.256439
0.378662 0.845886 0.260498
0.403687 0.840729 0.267548
0.429565 0.835602 0.274841
0.454529 0.831085 0.279938
0.480347 0.828033 0.283752
0.506836 0.826233 0.286285
0.533539 0.825195 0.287720
