tools/luts_backup/LAPARDIN-WEDLUTS-6.cube
#Created by: Adobe Photoshop Export Color Lookup Plugin
#Copyright: (C) 2017 Andrey Lapardin. vk.com-3dluts
TITLE "Andrey Lapardin. vk.com-3dluts"
#LUT size
LUT_3D_SIZE 32
#data domain
DOMAIN_MIN 0.0 0.0 0.0
DOMAIN_MAX 1.0 1.0 1.0
#LUT data points
0.079559 0.080261 0.081116
0.079559 0.080261 0.081116
0.079559 0.080261 0.081116
0.079559 0.080261 0.081116
0.084259 0.080658 0.082031
0.101654 0.081238 0.084473
0.135620 0.079437 0.086273
0.178619 0.074860 0.087250
0.227356 0.066925 0.087616
0.278381 0.062744 0.087524
0.330505 0.062744 0.087311
0.383606 0.062744 0.087494
0.438110 0.062744 0.088623
0.500275 0.062744 0.090179
0.562042 0.062744 0.091919
0.621796 0.062744 0.094025
0.677094 0.062744 0.096558
0.727875 0.062744 0.099579
0.774292 0.062744 0.103333
0.816650 0.062744 0.107697
0.854614 0.062744 0.112976
0.889648 0.062744 0.119232
0.919769 0.062744 0.126495
0.921570 0.062744 0.135223
0.921570 0.062744 0.144775
0.921570 0.062744 0.155029
0.921570 0.062744 0.166016
0.921570 0.062744 0.178192
0.921570 0.062744 0.192444
0.921570 0.062744 0.208160
0.921570 0.062744 0.224976
0.921570 0.062744 0.243622
0.079559 0.080261 0.081116
0.079559 0.080261 0.081116
0.079559 0.080261 0.081116
0.079559 0.080261 0.081116
0.090363 0.081055 0.083008
0.114410 0.080963 0.085449
0.148956 0.078400 0.086761
0.190338 0.073212 0.087402
0.236053 0.065704 0.087585
0.284271 0.062744 0.087463
0.333984 0.062744 0.087250
0.385956 0.062744 0.087524
0.441803 0.062744 0.088684
0.503235 0.062744 0.090179
0.563843 0.062744 0.091858
0.622864 0.062744 0.093903
0.677643 0.062744 0.096436
0.728271 0.062744 0.099426
0.774506 0.062744 0.103180
0.816711 0.062744 0.107635
0.854279 0.062744 0.112793
0.889221 0.062744 0.119141
0.919708 0.062744 0.126495
0.921570 0.062744 0.135376
0.921570 0.062744 0.144806
0.921570 0.062744 0.154877
0.921570 0.062744 0.165741
0.921570 0.062744 0.177948
0.921570 0.062744 0.191345
0.921570 0.062744 0.205841
0.921570 0.062744 0.221832
0.921570 0.062744 0.240356
0.079559 0.080261 0.081116
0.079559 0.080292 0.081116
0.079559 0.080261 0.081116
0.082031 0.081299 0.081848
0.097168 0.083069 0.084229
0.121185 0.083282 0.085968
0.154602 0.081543 0.086975
0.194519 0.077271 0.087524
0.238068 0.070587 0.087555
0.283813 0.064972 0.087158
0.332611 0.063904 0.086761
0.385010 0.062744 0.086853
0.442657 0.062744 0.087891
0.501495 0.062744 0.089050
0.560730 0.062744 0.090546
0.619110 0.062744 0.092346
0.673462 0.062744 0.094757
0.723846 0.062744 0.097778
0.769806 0.062744 0.101471
0.811493 0.062744 0.105927
0.848663 0.062744 0.111176
0.883545 0.062744 0.117615
0.915558 0.062744 0.125244
0.921570 0.062744 0.134430
0.921570 0.062744 0.144257
0.921570 0.062744 0.154755
0.921570 0.062744 0.166199
0.921570 0.062744 0.178864
0.921570 0.062744 0.192719
0.921570 0.062744 0.207764
0.921570 0.062744 0.224396
0.921570 0.062744 0.243500
0.080780 0.086578 0.083557
0.080963 0.089020 0.084198
0.081421 0.090363 0.084656
0.085419 0.089508 0.085083
0.096985 0.092285 0.085754
0.116089 0.095581 0.087036
0.146667 0.097504 0.087830
0.184814 0.097443 0.087921
0.228333 0.095001 0.087402
0.276154 0.089325 0.086609
0.327118 0.080963 0.085846
0.381653 0.073090 0.085693
0.437836 0.062836 0.086395
0.495056 0.062744 0.087219
0.552917 0.062744 0.088440
0.610321 0.062744 0.090118
0.664642 0.062744 0.092438
0.715271 0.062744 0.095490
0.762268 0.062744 0.099274
0.803558 0.062744 0.103790
0.840698 0.062744 0.109161
0.875610 0.062744 0.115723
0.907959 0.062744 0.123688
0.921570 0.062744 0.133270
0.921570 0.062744 0.143524
0.921570 0.062744 0.154297
0.921570 0.062744 0.166534
0.921570 0.062744 0.179962
0.921570 0.062744 0.194397
0.921570 0.062744 0.210083
0.921570 0.062744 0.227142
0.921570 0.062744 0.246735
0.081390 0.106567 0.087769
0.081207 0.109009 0.088196
0.084198 0.109314 0.088776
0.093842 0.107056 0.090363
0.102264 0.105560 0.089020
0.118469 0.109222 0.088165
0.146973 0.113922 0.088531
0.184692 0.119324 0.088623
0.230560 0.122009 0.087708
0.283722 0.121033 0.086060
0.339905 0.116241 0.084595
0.396729 0.107758 0.084564
0.454132 0.095490 0.084900
0.511414 0.079010 0.085693
0.567902 0.067535 0.086792
0.622589 0.063660 0.088470
0.673767 0.062744 0.090851
0.721252 0.062744 0.094116
0.764587 0.062744 0.098022
0.804596 0.062744 0.102905
0.841248 0.062744 0.108795
0.875916 0.062744 0.116028
0.907776 0.062744 0.124634
0.921570 0.062744 0.135254
0.921570 0.062744 0.146423
0.921570 0.062744 0.158325
0.921570 0.062744 0.170990
0.921570 0.062744 0.184601
0.921570 0.062744 0.199158
0.921570 0.062744 0.214722
0.921570 0.062744 0.231506
0.921570 0.062744 0.251038
0.077850 0.137817 0.090393
0.077667 0.138275 0.090485
0.087952 0.135437 0.091736
0.103912 0.130737 0.093994
0.117279 0.130554 0.093262
0.128754 0.128754 0.090790
0.152344 0.131470 0.088989
0.190186 0.139984 0.088287
0.232391 0.146912 0.087433
0.279724 0.150848 0.086212
0.334229 0.150940 0.084473
0.391113 0.147064 0.083862
0.448364 0.138885 0.083771
0.505219 0.126312 0.084167
0.560883 0.109222 0.085022
0.614838 0.090607 0.086517
0.665466 0.077148 0.088837
0.712830 0.063995 0.092072
0.756104 0.062744 0.096100
0.796356 0.062744 0.101196
0.833374 0.062744 0.107361
0.868652 0.062744 0.114960
0.900940 0.062744 0.124115
0.921356 0.062744 0.134949
0.921570 0.062744 0.146606
0.921570 0.062744 0.159088
0.921570 0.062744 0.172211
0.921570 0.062744 0.186401
0.921570 0.062744 0.201477
0.921570 0.062744 0.217499
0.921570 0.062744 0.235046
0.921570 0.062744 0.254913
0.069763 0.172211 0.090820
0.070587 0.170685 0.090881
0.093567 0.167542 0.093628
0.116241 0.162689 0.096924
0.133484 0.160858 0.096893
0.150940 0.162109 0.093719
0.165680 0.158203 0.090454
0.191681 0.159424 0.088135
0.235229 0.169647 0.086426
0.280090 0.176941 0.085144
0.327393 0.181488 0.084564
0.382416 0.183136 0.083771
0.440277 0.180481 0.083160
0.498077 0.174164 0.083008
0.554230 0.163971 0.083588
0.608215 0.149689 0.084869
0.658630 0.130829 0.087219
0.705963 0.108887 0.090515
0.749725 0.085266 0.094818
0.790009 0.067444 0.100128
0.826874 0.064301 0.106659
0.862030 0.062744 0.114624
0.894501 0.062744 0.124084
0.920715 0.062744 0.135345
0.921570 0.062744 0.147491
0.921570 0.062744 0.160370
0.921570 0.062744 0.174103
0.921570 0.062744 0.189056
0.921570 0.062744 0.204865
0.921570 0.062744 0.221527
0.921570 0.062744 0.239655
0.921570 0.062744 0.259949
0.062744 0.216919 0.089447
0.067383 0.213837 0.090729
0.101776 0.208618 0.094757
0.130585 0.202667 0.098694
0.151459 0.197266 0.100983
0.169189 0.196930 0.097198
0.190460 0.197235 0.092621
0.206787 0.191223 0.088440
0.234680 0.190704 0.085938
0.280518 0.201202 0.083618
0.326996 0.208405 0.082794
0.375519 0.213684 0.083405
0.429138 0.216156 0.083496
0.488190 0.215210 0.082825
0.545654 0.210999 0.082855
0.600769 0.203308 0.084015
0.652069 0.192047 0.086304
0.699768 0.177490 0.089691
0.743774 0.159454 0.094391
0.784088 0.138885 0.100128
0.820740 0.115662 0.106995
0.855621 0.091980 0.115173
0.888031 0.077240 0.124939
0.918213 0.064392 0.136566
0.921570 0.062744 0.148926
0.921570 0.062744 0.162201
0.921570 0.062744 0.176544
0.921570 0.062744 0.192017
0.921570 0.062744 0.208496
0.921570 0.062744 0.225861
0.921570 0.062744 0.244507
0.921570 0.062744 0.265533
0.062744 0.265442 0.088318
0.071869 0.258759 0.091339
0.113281 0.253448 0.096069
0.147278 0.247437 0.100677
0.169556 0.239868 0.105347
0.187683 0.235931 0.103394
0.208618 0.234955 0.096771
0.232697 0.234283 0.090637
0.248627 0.225037 0.085449
0.280457 0.225159 0.082520
0.327271 0.234833 0.080963
0.375488 0.242615 0.081085
0.425018 0.248016 0.082214
0.476807 0.251526 0.083679
0.534973 0.252045 0.083557
0.591492 0.248932 0.084381
0.643555 0.242432 0.086548
0.691620 0.232758 0.090088
0.735474 0.220062 0.094849
0.775757 0.205017 0.100677
0.812622 0.187164 0.107697
0.847778 0.167969 0.116302
0.880554 0.146606 0.126404
0.911530 0.125122 0.138489
0.921570 0.106140 0.151093
0.921570 0.091095 0.164825
0.921570 0.081421 0.179413
0.921570 0.083527 0.195068
0.921570 0.084503 0.211609
0.921570 0.086670 0.229187
0.921570 0.098328 0.249451
0.921570 0.118652 0.271271
0.062744 0.335236 0.105469
0.083313 0.320221 0.104523
0.137543 0.315857 0.107697
0.176544 0.309784 0.112366
0.200500 0.301514 0.118561
0.218201 0.291504 0.124786
0.235626 0.286041 0.119812
0.257233 0.282196 0.109985
0.284088 0.280548 0.099304
0.295288 0.263763 0.085541
0.333496 0.266113 0.081116
0.387268 0.279053 0.078705
0.439148 0.287659 0.079529
0.489563 0.292694 0.081635
0.537598 0.294739 0.085114
0.589691 0.293762 0.087280
0.640900 0.289368 0.089294
0.688171 0.281982 0.092926
0.731476 0.271851 0.097748
0.771454 0.259735 0.103973
0.808777 0.245941 0.111450
0.844391 0.231110 0.120667
0.877686 0.216034 0.131897
0.908905 0.200928 0.144348
0.921570 0.186188 0.157593
0.921570 0.173004 0.171692
0.921570 0.163544 0.186584
0.921570 0.159241 0.202606
0.921570 0.158661 0.219360
0.921570 0.165161 0.237396
0.921570 0.175018 0.256958
0.921570 0.191254 0.278625
0.065826 0.375214 0.138397
0.102356 0.371552 0.138275
0.160706 0.367554 0.141724
0.198669 0.360809 0.145325
0.222748 0.352295 0.150391
0.242065 0.341797 0.156097
0.260071 0.332520 0.156677
0.278839 0.327820 0.146393
0.302368 0.324402 0.133606
0.330322 0.322296 0.117645
0.346008 0.306854 0.096863
0.383270 0.306274 0.090179
0.436157 0.316803 0.086884
0.487244 0.323700 0.084442
0.536591 0.327728 0.085114
0.583344 0.329132 0.089783
0.629608 0.328339 0.093964
0.678680 0.324158 0.097382
0.723206 0.317139 0.102509
0.764069 0.307678 0.108978
0.802124 0.296478 0.116974
0.838074 0.284363 0.126801
0.871368 0.272003 0.138367
0.902557 0.259888 0.150696
0.921570 0.248352 0.163940
0.921570 0.237976 0.177826
0.921570 0.229431 0.192596
0.921570 0.223785 0.208374
0.921570 0.222443 0.225464
0.921570 0.225800 0.243866
0.921570 0.232880 0.263947
0.921570 0.244354 0.286102
0.079102 0.417114 0.177765
0.134552 0.414581 0.178314
0.186798 0.411835 0.181702
0.221466 0.406219 0.184631
0.245056 0.398926 0.187897
0.264496 0.389618 0.192017
0.282654 0.378967 0.196411
0.299988 0.371002 0.192383
0.319916 0.366882 0.179840
0.344818 0.363739 0.163910
0.374756 0.362152 0.144714
0.387695 0.342712 0.117462
0.428070 0.342773 0.109772
0.481567 0.352936 0.106812
0.532837 0.359436 0.104156
0.582092 0.363159 0.101959
0.628113 0.364227 0.102631
0.670654 0.363190 0.106842
0.714752 0.359192 0.110443
0.756256 0.352325 0.117218
0.794434 0.343689 0.125580
0.830200 0.333282 0.135498
0.863098 0.322601 0.146484
0.894073 0.312012 0.158386
0.920471 0.302185 0.171295
0.921570 0.293579 0.185211
0.921570 0.286499 0.200104
0.921570 0.281616 0.216339
0.921570 0.279175 0.233704
0.921570 0.280426 0.252411
0.921570 0.285065 0.272614
0.921570 0.291809 0.296265
0.120667 0.460175 0.215576
0.171051 0.458466 0.216736
0.214966 0.456879 0.220215
0.246704 0.452209 0.222351
0.269470 0.446198 0.224701
0.288818 0.438477 0.227814
0.307098 0.429169 0.231232
0.325409 0.418671 0.234375
0.343323 0.412750 0.226074
0.365234 0.409576 0.210907
0.392487 0.407349 0.193542
0.422913 0.404755 0.172974
0.433655 0.382050 0.143982
0.478424 0.383759 0.135468
0.530548 0.392151 0.133636
0.579834 0.397064 0.132080
0.626038 0.399200 0.130127
0.668579 0.399078 0.128052
0.706818 0.396973 0.130371
0.745087 0.393219 0.132813
0.784027 0.387024 0.136902
0.819855 0.378998 0.146484
0.853088 0.369751 0.156799
0.884308 0.360168 0.168121
0.913788 0.351379 0.180725
0.921570 0.344025 0.194641
0.921570 0.338409 0.209930
0.921570 0.334534 0.226471
0.921570 0.332397 0.244019
0.921570 0.332642 0.262695
0.921570 0.335510 0.282959
0.921570 0.337097 0.310974
0.178680 0.515045 0.261292
0.210510 0.504761 0.256378
0.246033 0.502380 0.258759
0.274841 0.498840 0.260681
0.296539 0.494110 0.262573
0.315430 0.487427 0.264679
0.332947 0.478912 0.266968
0.351410 0.469391 0.269806
0.370667 0.460693 0.270660
0.390045 0.457245 0.258423
0.414154 0.454895 0.242584
0.442566 0.452667 0.224731
0.471619 0.447266 0.201263
0.479675 0.420624 0.171631
0.525330 0.422607 0.165222
0.575073 0.429108 0.164063
0.620331 0.431915 0.162750
0.662231 0.432495 0.161713
0.701416 0.431702 0.160553
0.738312 0.430359 0.160156
0.773132 0.428192 0.162628
0.810120 0.423309 0.162628
0.843994 0.416107 0.171509
0.875275 0.407471 0.182037
0.904785 0.398987 0.193848
0.921570 0.391998 0.207397
0.921570 0.387299 0.222717
0.921570 0.384613 0.239532
0.921570 0.383362 0.257263
0.921570 0.384033 0.276398
0.921570 0.386230 0.296570
0.921570 0.385315 0.327087
0.220764 0.549500 0.293732
0.251892 0.549316 0.296753
0.282623 0.548706 0.300201
0.307068 0.545135 0.301178
0.326660 0.540649 0.302063
0.344391 0.534698 0.303253
0.360931 0.526794 0.304749
0.378052 0.517822 0.306335
0.397034 0.508789 0.308472
0.416199 0.502167 0.305206
0.436371 0.499451 0.290649
0.460999 0.496887 0.273834
0.490021 0.494476 0.255157
0.517670 0.487030 0.229736
0.526917 0.460724 0.201233
0.571533 0.461823 0.195770
0.617340 0.466125 0.195526
0.658600 0.467651 0.195648
0.697937 0.468323 0.196045
0.735168 0.468323 0.196838
0.770264 0.467590 0.197937
0.803101 0.465485 0.198578
0.834412 0.461456 0.197571
0.867279 0.454590 0.200806
0.897400 0.447052 0.212219
0.920959 0.440277 0.225098
0.921570 0.435242 0.239532
0.921570 0.432617 0.255554
0.921570 0.431763 0.272858
0.921570 0.432617 0.291351
0.921570 0.434357 0.313049
0.921570 0.434113 0.344635
0.268738 0.589203 0.333008
0.294403 0.590179 0.336792
0.320313 0.590210 0.340576
0.341522 0.587494 0.341736
0.358917 0.583954 0.342438
0.375549 0.578888 0.343079
0.390564 0.571533 0.343384
0.405396 0.562500 0.343719
0.422089 0.553314 0.344391
0.441101 0.544525 0.345978
0.459198 0.540131 0.337219
0.479919 0.537811 0.322205
0.505219 0.535706 0.305298
0.534851 0.533691 0.286499
0.560974 0.524811 0.259460
0.569763 0.498413 0.231354
0.613892 0.499847 0.227509
0.655701 0.503052 0.228973
0.694824 0.504852 0.230438
0.731567 0.505829 0.231995
0.765930 0.505676 0.233521
0.797974 0.504303 0.234894
0.827759 0.501587 0.235352
0.855804 0.497284 0.234528
0.884918 0.491180 0.233307
0.913727 0.484894 0.242706
0.921570 0.480225 0.256866
0.921570 0.477844 0.272858
0.921570 0.477570 0.290253
0.921570 0.479095 0.308929
0.921570 0.481476 0.332214
0.921570 0.481964 0.364258
0.315125 0.624908 0.371521
0.337677 0.627106 0.376648
0.359314 0.627380 0.380432
0.376709 0.625214 0.381317
0.391937 0.622345 0.381836
0.407135 0.618317 0.382446
0.420929 0.612244 0.382568
0.434296 0.604065 0.382172
0.449066 0.595215 0.382233
0.466339 0.586823 0.383118
0.485413 0.579834 0.383759
0.502930 0.577728 0.371338
0.524414 0.576050 0.356323
0.550079 0.574463 0.339233
0.579651 0.572784 0.320618
0.602844 0.562164 0.292267
0.612854 0.538147 0.265564
0.651367 0.537323 0.262329
0.691376 0.540527 0.264313
0.726929 0.541595 0.265778
0.760315 0.541809 0.267334
0.791656 0.541138 0.269226
0.820831 0.539490 0.270782
0.848633 0.536591 0.271545
0.875610 0.532501 0.271057
0.901825 0.527893 0.269684
0.921570 0.523865 0.277069
0.921570 0.521729 0.292816
0.921570 0.521423 0.309967
0.921570 0.523499 0.329071
0.921570 0.526703 0.353729
0.921570 0.530029 0.387238
0.349487 0.649597 0.400085
0.365173 0.648956 0.401947
0.384033 0.649872 0.405853
0.400726 0.649750 0.408539
0.415833 0.649170 0.410797
0.431091 0.647278 0.412903
0.445099 0.643188 0.414124
0.458038 0.636719 0.414337
0.471802 0.629089 0.414856
0.488190 0.621979 0.416046
0.507111 0.615723 0.418671
0.525269 0.611755 0.415833
0.543182 0.610840 0.402863
0.564789 0.609680 0.388000
0.590088 0.608490 0.371277
0.618713 0.607239 0.353058
0.639618 0.595978 0.324127
0.647797 0.572510 0.298004
0.682587 0.571075 0.295074
0.722351 0.575806 0.298981
0.756805 0.578156 0.302826
0.789337 0.579773 0.307220
0.819183 0.580383 0.311768
0.846191 0.579010 0.314636
0.872040 0.576233 0.315887
0.897186 0.572235 0.315247
0.919250 0.567932 0.313599
0.921570 0.565063 0.317230
0.921570 0.565033 0.334290
0.921570 0.566376 0.352081
0.921570 0.569763 0.377594
0.921570 0.574066 0.411346
0.392670 0.680634 0.437134
0.408661 0.682465 0.441589
0.425018 0.683868 0.445740
0.439148 0.683990 0.448273
0.452179 0.683777 0.450439
0.465698 0.682648 0.452545
0.478577 0.679443 0.453735
0.489685 0.673340 0.453278
0.500793 0.665527 0.452301
0.514191 0.657806 0.452057
0.530640 0.651245 0.453400
0.549103 0.645660 0.455627
0.565002 0.643768 0.447510
0.583130 0.643250 0.434814
0.604584 0.642700 0.420746
0.629395 0.642242 0.405334
0.657013 0.641785 0.388611
0.676361 0.631256 0.360413
0.685303 0.610657 0.336060
0.715515 0.607666 0.333038
0.753845 0.613037 0.338226
0.785126 0.614563 0.342377
0.813293 0.614929 0.346130
0.839142 0.614197 0.349701
0.863647 0.612549 0.352448
0.887634 0.610016 0.353851
0.911285 0.606995 0.354004
0.921570 0.604095 0.354340
0.921570 0.602417 0.356812
0.921570 0.604919 0.373657
0.921570 0.610748 0.403687
0.921570 0.615662 0.437164
0.437378 0.711792 0.475891
0.451935 0.714111 0.480988
0.466278 0.715881 0.485413
0.478394 0.716309 0.487885
0.489502 0.716278 0.489960
0.501282 0.715515 0.491821
0.512421 0.712799 0.492615
0.522095 0.707367 0.491852
0.530762 0.699524 0.489532
0.541534 0.691437 0.487946
0.555573 0.684723 0.488251
0.572388 0.679413 0.490173
0.589630 0.675751 0.490784
0.604706 0.675568 0.480133
0.622742 0.675568 0.468445
0.643646 0.675537 0.455383
0.667084 0.675354 0.441071
0.692657 0.675049 0.425659
0.710541 0.665283 0.398254
0.719452 0.646820 0.375061
0.743652 0.641052 0.369629
0.779541 0.645782 0.375031
0.807556 0.646912 0.379150
0.832550 0.646820 0.383240
0.856079 0.646332 0.387268
0.878662 0.645416 0.391052
0.901184 0.643951 0.393829
0.921112 0.642578 0.396271
0.921570 0.641693 0.399231
0.921570 0.641235 0.402679
0.921570 0.646149 0.426300
0.921570 0.654449 0.464142
0.477905 0.738922 0.511566
0.491058 0.741425 0.516907
0.501465 0.741882 0.519196
0.510468 0.741486 0.520233
0.519501 0.741241 0.521545
0.530029 0.740875 0.523560
0.541168 0.739532 0.525421
0.551636 0.736206 0.526459
0.560516 0.730164 0.525421
0.569702 0.722717 0.523621
0.581757 0.716187 0.523163
0.596863 0.711243 0.524658
0.613495 0.707153 0.527252
0.627899 0.705627 0.522675
0.642273 0.705444 0.512299
0.658997 0.705139 0.500641
0.678101 0.704712 0.487610
0.699402 0.704132 0.473541
0.722656 0.703430 0.458527
0.739563 0.694946 0.433411
0.748993 0.679138 0.411865
0.768005 0.671112 0.404358
0.800720 0.675568 0.410065
0.826813 0.677277 0.415192
0.849640 0.677856 0.420532
0.871185 0.678375 0.426575
0.892487 0.678619 0.432281
0.913727 0.678497 0.436859
0.921570 0.677948 0.440247
0.921570 0.678253 0.442291
0.921570 0.678955 0.448792
0.921570 0.687195 0.487061
0.509979 0.759766 0.539978
0.520294 0.761322 0.543854
0.531433 0.763184 0.547943
0.541809 0.764587 0.551361
0.551392 0.765533 0.554382
0.561676 0.766113 0.557281
0.571838 0.765320 0.559387
0.580902 0.762329 0.559967
0.588593 0.756989 0.558716
0.596893 0.750549 0.557159
0.607697 0.744629 0.556702
0.621094 0.740021 0.557770
0.636200 0.736420 0.560181
0.651703 0.733368 0.562469
0.663849 0.733551 0.554199
0.677917 0.733826 0.544739
0.694122 0.734161 0.534576
0.712555 0.734467 0.523315
0.732941 0.734833 0.511536
0.755157 0.735321 0.499237
0.769501 0.726532 0.474121
0.777161 0.711090 0.450653
0.795135 0.705566 0.446808
0.824036 0.710358 0.454926
0.848328 0.712463 0.461090
0.867889 0.712708 0.466370
0.886566 0.712311 0.471100
0.905457 0.711456 0.474640
0.921143 0.711761 0.477966
0.921570 0.712891 0.480865
0.921570 0.712372 0.481628
0.921570 0.718079 0.510803
0.548218 0.783386 0.574219
0.557434 0.784912 0.578003
0.567596 0.786865 0.582214
0.577209 0.788574 0.585999
0.586090 0.789856 0.589294
0.595215 0.790466 0.592102
0.603882 0.789795 0.593872
0.611298 0.787109 0.593964
0.617462 0.782104 0.592072
0.623962 0.775940 0.589722
0.632538 0.769989 0.588226
0.643677 0.765228 0.588287
0.656860 0.761658 0.589966
0.671112 0.758728 0.592529
0.683868 0.757568 0.590851
0.695618 0.758148 0.583191
0.709137 0.758728 0.574677
0.724426 0.759277 0.565308
0.741455 0.759674 0.555054
0.760101 0.760071 0.544098
0.779968 0.760376 0.532532
0.794281 0.753876 0.511383
0.805054 0.744263 0.493622
0.818787 0.737885 0.488159
0.837891 0.736359 0.489136
0.859955 0.738678 0.495972
0.879089 0.739594 0.502075
0.897247 0.739746 0.507416
0.921478 0.742950 0.513611
0.921570 0.744720 0.517426
0.921570 0.744843 0.519043
0.921570 0.747559 0.536285
0.585907 0.805573 0.608154
0.594360 0.807251 0.612091
0.603424 0.809143 0.616211
0.612061 0.810852 0.619934
0.619659 0.811981 0.622803
0.627380 0.812439 0.625214
0.634674 0.811859 0.626648
0.640991 0.809509 0.626495
0.646027 0.805115 0.624512
0.650848 0.799286 0.621460
0.657593 0.793518 0.619232
0.666809 0.788879 0.618622
0.678131 0.785370 0.619659
0.690826 0.782715 0.621765
0.703857 0.780609 0.624176
0.714233 0.780701 0.619354
0.725220 0.781281 0.612122
0.737640 0.781738 0.604004
0.751465 0.782074 0.594879
0.766785 0.782257 0.584961
0.783295 0.782410 0.574554
0.801178 0.782654 0.563843
0.814056 0.777344 0.545349
0.824799 0.770294 0.529541
0.837067 0.765656 0.525726
0.851166 0.762390 0.525574
0.870667 0.763824 0.531708
0.892456 0.766510 0.539154
0.917236 0.771088 0.547028
0.921570 0.773712 0.552155
0.921570 0.774628 0.555023
0.921570 0.775208 0.561218
0.623627 0.826904 0.642517
0.630402 0.828094 0.645569
0.639008 0.830170 0.650024
0.647888 0.832458 0.654724
0.654724 0.833618 0.657623
0.661438 0.834137 0.659882
0.667664 0.833618 0.661102
0.672974 0.831696 0.660950
0.676941 0.827820 0.658783
0.679047 0.821716 0.653961
0.682587 0.815369 0.649506
0.689941 0.810822 0.648193
0.699585 0.807434 0.648621
0.710449 0.804840 0.650085
0.721863 0.802643 0.652130
0.732697 0.801178 0.652496
0.741577 0.801666 0.646118
0.751678 0.802124 0.639069
0.763062 0.802521 0.631287
0.775909 0.803070 0.623230
0.790009 0.803619 0.614807
0.805267 0.804169 0.606140
0.821136 0.804626 0.597198
0.832581 0.800507 0.581940
0.842438 0.794769 0.567169
0.854614 0.792572 0.565277
0.865204 0.787659 0.562836
0.885803 0.789551 0.567780
0.913269 0.795929 0.577667
0.921570 0.799469 0.584290
0.921570 0.801331 0.588745
0.921570 0.802460 0.591522
0.658081 0.845764 0.674133
0.664703 0.847260 0.677704
0.671295 0.848663 0.680847
0.677704 0.850006 0.683868
0.684082 0.851257 0.686890
0.690552 0.852051 0.689545
0.696014 0.851685 0.690796
0.700073 0.849823 0.690125
0.702820 0.846222 0.687561
0.705719 0.841644 0.684418
0.710052 0.837067 0.681854
0.716156 0.833069 0.680511
0.724243 0.830017 0.680634
0.733612 0.827759 0.681763
0.743713 0.825958 0.683655
0.754211 0.824341 0.685944
0.763062 0.824158 0.683807
0.771576 0.824982 0.678345
0.781158 0.825775 0.672455
0.791595 0.826477 0.665924
0.802795 0.826904 0.658722
0.814819 0.827057 0.650665
0.827423 0.826874 0.642090
0.840179 0.826355 0.633087
0.850098 0.822784 0.619965
0.858063 0.816833 0.603943
0.870422 0.815643 0.601379
0.885498 0.815063 0.601715
0.907043 0.817200 0.605408
0.921570 0.822113 0.613739
0.921570 0.824860 0.619934
0.921570 0.827576 0.624573
0.689850 0.862671 0.703644
0.694611 0.863464 0.705841
0.701019 0.864990 0.709381
0.708099 0.866852 0.713501
0.714355 0.868256 0.716980
0.719940 0.868958 0.719391
0.724396 0.868530 0.720276
0.727448 0.866760 0.719299
0.729218 0.863495 0.716492
0.730591 0.859161 0.712646
0.733002 0.854614 0.708984
0.737305 0.850677 0.706696
0.743713 0.847748 0.706055
0.751617 0.845551 0.706696
0.760651 0.844055 0.708435
0.770111 0.842712 0.710480
0.779694 0.841522 0.712616
0.786835 0.842163 0.708344
0.794586 0.842926 0.703156
0.802979 0.843475 0.697449
0.811859 0.843781 0.691101
0.821350 0.843658 0.683838
0.831360 0.843170 0.675903
0.841858 0.842346 0.667236
0.852600 0.841187 0.658325
0.862396 0.838715 0.647705
0.872650 0.835999 0.635895
0.891327 0.840912 0.638153
0.906830 0.840881 0.638733
0.921417 0.841736 0.640747
0.921570 0.845490 0.648743
0.921570 0.849518 0.655579
0.721466 0.878418 0.733093
0.725555 0.879120 0.735138
0.731262 0.880493 0.738464
0.737549 0.882080 0.742310
0.743042 0.883240 0.745483
0.747711 0.883728 0.747559
0.751038 0.883148 0.747925
0.752930 0.881317 0.746368
0.753754 0.878387 0.743317
0.754486 0.874634 0.739471
0.756134 0.870819 0.735992
0.759460 0.867462 0.733612
0.764648 0.864807 0.732605
0.771149 0.862854 0.732758
0.778625 0.861328 0.733734
