tools/luts_backup/LAPARDIN-WEDLUTS-11.cube
#Created by: Adobe Photoshop Export Color Lookup Plugin
#Copyright: (C) 2017 Andrey Lapardin. vk.com-3dluts
TITLE "Andrey Lapardin. vk.com-3dluts"
#LUT size
LUT_3D_SIZE 32
#data domain
DOMAIN_MIN 0.0 0.0 0.0
DOMAIN_MAX 1.0 1.0 1.0
#LUT data points
0.075714 0.079163 0.082153
0.080109 0.079987 0.082977
0.085907 0.080322 0.083282
0.093262 0.080536 0.083466
0.103607 0.080811 0.083710
0.117004 0.081177 0.084045
0.135437 0.081726 0.084473
0.159821 0.082275 0.084900
0.188202 0.082733 0.085297
0.221100 0.082672 0.085602
0.258301 0.081940 0.085785
0.298309 0.080383 0.085876
0.340485 0.078461 0.085815
0.384186 0.076752 0.085602
0.428833 0.076630 0.085175
0.473328 0.076752 0.084595
0.516998 0.076782 0.083893
0.558594 0.076813 0.083160
0.597504 0.076782 0.082428
0.633850 0.076721 0.081726
0.667816 0.076508 0.081055
0.696320 0.076202 0.080475
0.714264 0.075775 0.079926
0.730072 0.075317 0.079468
0.745972 0.074829 0.079163
0.761963 0.074280 0.079010
0.777985 0.075165 0.079193
0.794006 0.077423 0.079742
0.809418 0.081329 0.081024
0.824646 0.085693 0.083099
0.839905 0.096130 0.086121
0.854767 0.111664 0.090179
0.076355 0.083862 0.082764
0.080139 0.083984 0.082825
0.085938 0.084991 0.083160
0.093872 0.085632 0.083435
0.104828 0.086182 0.083710
0.119385 0.086823 0.084045
0.138428 0.087616 0.084412
0.162323 0.088562 0.084808
0.190247 0.089386 0.085114
0.222382 0.089874 0.085388
0.259003 0.089600 0.085541
0.298401 0.088623 0.085632
0.340149 0.086639 0.085541
0.383850 0.083740 0.085297
0.428467 0.081726 0.084869
0.472931 0.081085 0.084259
0.516479 0.081207 0.083496
0.558044 0.081268 0.082703
0.596802 0.081299 0.081909
0.632904 0.081238 0.081146
0.666565 0.081085 0.080444
0.695251 0.080780 0.079803
0.714355 0.080444 0.079224
0.730133 0.079865 0.078735
0.746002 0.079651 0.078369
0.761963 0.082733 0.078217
0.778015 0.085999 0.078400
0.794006 0.088501 0.078918
0.809479 0.092804 0.080109
0.824677 0.102173 0.082062
0.839935 0.115387 0.084900
0.854797 0.130341 0.088959
0.076630 0.090332 0.082733
0.080994 0.090485 0.082825
0.085907 0.090607 0.082947
0.094482 0.092285 0.083313
0.106140 0.093628 0.083588
0.121124 0.094696 0.083954
0.140259 0.095886 0.084259
0.163849 0.097076 0.084564
0.191498 0.098175 0.084778
0.223389 0.098999 0.085022
0.259583 0.099182 0.085236
0.298523 0.098572 0.085358
0.339752 0.096802 0.085358
0.382874 0.094055 0.085144
0.427063 0.090454 0.084686
0.471161 0.087463 0.084106
0.514496 0.086182 0.083344
0.556183 0.086243 0.082550
0.595245 0.086273 0.081757
0.631378 0.086365 0.080933
0.664673 0.086365 0.080109
0.694000 0.086243 0.079346
0.714417 0.086975 0.078644
0.730164 0.090729 0.078064
0.746033 0.095856 0.077667
0.761993 0.100128 0.077515
0.778015 0.102600 0.077667
0.794006 0.107880 0.078186
0.809570 0.116669 0.079285
0.824738 0.127777 0.081146
0.839966 0.139618 0.083893
0.854828 0.153809 0.087982
0.075928 0.100647 0.083221
0.080597 0.101166 0.083252
0.086090 0.101379 0.083282
0.094299 0.101593 0.083252
0.106598 0.103882 0.083466
0.122131 0.105835 0.083710
0.141144 0.107025 0.084076
0.164398 0.108032 0.084381
0.192383 0.109131 0.084534
0.224365 0.109894 0.084717
0.260742 0.110199 0.084930
0.299561 0.109863 0.085083
0.340607 0.108521 0.085114
0.383270 0.106171 0.084930
0.426788 0.103027 0.084564
0.470367 0.099640 0.083984
0.513153 0.096558 0.083282
0.554321 0.096161 0.082489
0.592926 0.096313 0.081696
0.628967 0.096924 0.080872
0.662445 0.097961 0.080078
0.693146 0.100525 0.079254
0.714325 0.105072 0.078430
0.730042 0.110535 0.077728
0.745880 0.115570 0.077240
0.761810 0.120972 0.076965
0.777832 0.127075 0.077026
0.793823 0.134949 0.077454
0.809601 0.144867 0.078400
0.824738 0.155640 0.080200
0.839935 0.167084 0.083069
0.854797 0.180664 0.087402
0.074615 0.114563 0.083984
0.079803 0.114899 0.083618
0.086395 0.114868 0.083344
0.095306 0.114594 0.083313
0.105927 0.115234 0.083313
0.122803 0.118835 0.083496
0.143158 0.121063 0.083771
0.166565 0.121887 0.084167
0.193542 0.122345 0.084442
0.225067 0.123169 0.084625
0.262024 0.123840 0.084717
0.301239 0.123871 0.084808
0.342377 0.122864 0.084778
0.384735 0.120819 0.084625
0.427734 0.118042 0.084259
0.470490 0.115082 0.083710
0.512451 0.112549 0.083069
0.553009 0.110657 0.082367
0.590973 0.110107 0.081635
0.626434 0.111359 0.080841
0.659698 0.114258 0.080078
0.691132 0.118713 0.079285
0.714142 0.125244 0.078552
0.729645 0.133667 0.077759
0.745422 0.141296 0.077209
0.761292 0.148346 0.076874
0.777283 0.155060 0.076843
0.793274 0.162994 0.077148
0.809265 0.172302 0.077881
0.824799 0.182281 0.079498
0.839996 0.192749 0.082306
0.854828 0.205658 0.086670
0.073334 0.131134 0.084442
0.078857 0.131195 0.083832
0.086456 0.130524 0.083221
0.096161 0.129913 0.083344
0.107452 0.130707 0.083466
0.120758 0.130737 0.083618
0.143524 0.135620 0.083649
0.168640 0.137939 0.083893
0.196350 0.138824 0.084167
0.228027 0.139587 0.084351
0.262543 0.139587 0.084595
0.302002 0.140198 0.084564
0.343353 0.140076 0.084412
0.385773 0.138977 0.084137
0.428558 0.137115 0.083740
0.470886 0.135162 0.083191
0.512115 0.133942 0.082520
0.551636 0.133606 0.081879
0.589203 0.134186 0.081207
0.624359 0.136230 0.080566
0.657471 0.139618 0.079926
0.689301 0.144318 0.079285
0.713745 0.150696 0.078644
0.729248 0.158417 0.077972
0.744781 0.166656 0.077454
0.760498 0.174469 0.077118
0.776337 0.182190 0.077118
0.792236 0.191132 0.077484
0.808167 0.200623 0.078461
0.824280 0.210907 0.080261
0.840118 0.221344 0.083557
0.855103 0.234589 0.088745
0.072449 0.151825 0.084747
0.077667 0.151245 0.083862
0.085663 0.149475 0.083008
0.096100 0.148407 0.083313
0.107605 0.148895 0.083466
0.122284 0.149475 0.083771
0.140137 0.149017 0.083923
0.170746 0.156067 0.083557
0.200104 0.158386 0.083710
0.232605 0.159821 0.083862
0.267670 0.160370 0.084045
0.305359 0.160461 0.084137
0.345184 0.160126 0.084015
0.387695 0.160187 0.083557
0.430420 0.159912 0.082977
0.472229 0.159637 0.082336
0.513031 0.159637 0.081604
0.551788 0.160309 0.080933
0.588562 0.161499 0.080353
0.623230 0.163452 0.079834
0.656189 0.166595 0.079315
0.687531 0.170776 0.078857
0.713593 0.176239 0.078430
0.728943 0.182648 0.078003
0.744232 0.189667 0.077667
0.759644 0.197083 0.077454
0.775238 0.204987 0.077484
0.790863 0.212982 0.077850
0.806610 0.221222 0.078796
0.822510 0.230133 0.080566
0.838501 0.239807 0.083771
0.854187 0.252838 0.088898
0.072510 0.178772 0.084686
0.077362 0.176819 0.083313
0.084412 0.173920 0.082611
0.094360 0.171936 0.083038
0.106049 0.171692 0.083313
0.121094 0.171844 0.083740
0.141571 0.172638 0.083923
0.165863 0.172699 0.083771
0.204559 0.182037 0.083038
0.238281 0.184021 0.083282
0.274323 0.185455 0.083344
0.311249 0.185638 0.083405
0.349426 0.185120 0.083313
0.390472 0.185242 0.082855
0.432190 0.185883 0.082153
0.473602 0.187378 0.081360
0.514069 0.189270 0.080475
0.552490 0.191132 0.079742
0.588745 0.193237 0.079163
0.622894 0.195831 0.078674
0.655212 0.198761 0.078308
0.686371 0.202484 0.078094
0.712769 0.206665 0.077850
0.728973 0.211334 0.077667
0.743988 0.216522 0.077545
0.759064 0.222015 0.077515
0.774292 0.227905 0.077698
0.789612 0.234131 0.078278
0.804993 0.240814 0.079254
0.820618 0.247772 0.080841
0.836334 0.255463 0.083771
0.851929 0.266602 0.088409
0.072510 0.208832 0.083466
0.077454 0.206055 0.082031
0.083618 0.202240 0.081940
0.091705 0.199463 0.082489
0.102783 0.198151 0.083008
0.117615 0.198090 0.083313
0.138855 0.199066 0.083618
0.166779 0.201202 0.083679
0.197327 0.201996 0.083191
0.243561 0.213348 0.081940
0.281036 0.215363 0.081970
0.318268 0.216187 0.081940
0.356171 0.216370 0.081787
0.394165 0.215576 0.081573
0.432892 0.215454 0.081116
0.473358 0.217743 0.080292
0.513458 0.220947 0.079315
0.551788 0.224152 0.078491
0.587891 0.226929 0.077850
0.622040 0.229553 0.077362
0.654449 0.232208 0.077057
0.685364 0.235016 0.076965
0.711853 0.238129 0.076965
0.729401 0.241486 0.077087
0.744141 0.245331 0.077148
0.758911 0.249481 0.077148
0.773804 0.253723 0.077362
0.788757 0.258148 0.078156
0.803833 0.261505 0.079285
0.819061 0.266693 0.081085
0.834442 0.272552 0.083954
0.849915 0.281647 0.088257
0.072479 0.243286 0.081970
0.077515 0.240173 0.080536
0.083679 0.235931 0.081055
0.090179 0.232147 0.081970
0.097992 0.229401 0.082977
0.111328 0.229218 0.083405
0.132935 0.230103 0.083557
0.162903 0.232391 0.083527
0.198822 0.235535 0.082916
0.236145 0.237335 0.081970
0.285858 0.248718 0.080261
0.325958 0.251678 0.079834
0.363861 0.252197 0.079620
0.401642 0.252258 0.079254
0.438843 0.251862 0.078888
0.475494 0.251740 0.078522
0.512390 0.252625 0.077972
0.550201 0.255890 0.077179
0.586456 0.259155 0.076843
0.620453 0.261688 0.076843
0.652527 0.263855 0.076874
0.683228 0.265808 0.076935
0.711578 0.267883 0.076965
0.730194 0.270355 0.077057
0.744690 0.273346 0.077148
0.759186 0.276642 0.077240
0.773773 0.280121 0.077332
0.788422 0.283600 0.077698
0.803192 0.286072 0.078705
0.818146 0.289886 0.080719
0.833282 0.294525 0.083710
0.848511 0.302002 0.088379
0.072449 0.281006 0.080170
0.077545 0.277893 0.079346
0.083984 0.273651 0.079987
0.090851 0.269135 0.081268
0.097290 0.265533 0.082855
0.105164 0.263916 0.083862
0.123657 0.264618 0.084198
0.155273 0.266846 0.083954
0.194794 0.270050 0.083008
0.237671 0.273956 0.081726
0.279633 0.276367 0.080170
0.330780 0.287292 0.078094
0.372986 0.291351 0.077667
0.410614 0.291626 0.077362
0.447235 0.291351 0.077026
0.483490 0.291168 0.076996
0.518860 0.290833 0.077026
0.553101 0.290771 0.076996
0.587036 0.291565 0.076935
0.620819 0.294312 0.076935
0.652710 0.296387 0.076996
0.683044 0.297882 0.077026
0.711487 0.299103 0.077026
0.731201 0.300446 0.077087
0.745514 0.302246 0.077118
0.759827 0.304565 0.077209
0.774170 0.307251 0.077332
0.788544 0.310059 0.077393
0.803040 0.313019 0.078003
0.817749 0.316254 0.079773
0.832733 0.320007 0.082916
0.847809 0.326019 0.087860
0.072418 0.319977 0.077881
0.077576 0.316925 0.077759
0.084290 0.312988 0.078369
0.091614 0.308807 0.079773
0.098328 0.304291 0.082153
0.104919 0.300598 0.084290
0.113770 0.300690 0.084991
0.143555 0.302582 0.084808
0.186920 0.305725 0.083588
0.234436 0.309631 0.081879
0.281433 0.313904 0.080048
0.325012 0.316162 0.078094
0.376740 0.327240 0.076508
0.419678 0.332031 0.076599
0.455994 0.331696 0.076660
0.491302 0.330933 0.076721
0.525757 0.329803 0.076782
0.558899 0.328552 0.076904
0.591003 0.327728 0.077026
0.622253 0.327606 0.077179
0.653015 0.328003 0.077271
0.683502 0.329773 0.077301
0.712036 0.331024 0.077271
0.732269 0.332062 0.077240
0.746490 0.333282 0.077179
0.760681 0.334869 0.077209
0.774872 0.337067 0.077271
0.789032 0.339691 0.077332
0.803375 0.342529 0.077515
0.817841 0.345612 0.079010
0.832703 0.349060 0.082611
0.847595 0.354004 0.088257
0.072357 0.359314 0.075653
0.077545 0.356598 0.075897
0.084503 0.353027 0.076508
0.092346 0.349152 0.077850
0.099487 0.344543 0.080383
0.106049 0.340485 0.083374
0.113556 0.337433 0.085754
0.128235 0.338623 0.085907
0.174133 0.341492 0.084564
0.227783 0.345459 0.082397
0.279053 0.349731 0.080078
0.326965 0.354340 0.077759
0.370026 0.355865 0.077087
0.421021 0.366760 0.076813
0.462982 0.371460 0.076904
0.497681 0.370239 0.076935
0.531372 0.368378 0.076965
0.563721 0.366180 0.077057
0.594727 0.364136 0.077209
0.624573 0.362183 0.077362
0.653900 0.361359 0.077545
0.682678 0.360748 0.077637
0.710571 0.360962 0.077606
0.732117 0.361786 0.077515
0.747498 0.362457 0.077393
0.761597 0.363434 0.077301
0.775726 0.364960 0.077240
0.789856 0.367218 0.077271
0.804016 0.369995 0.077332
0.818390 0.373169 0.078156
0.833160 0.376617 0.082031
0.847839 0.381104 0.088257
0.072266 0.402313 0.073975
0.077454 0.400177 0.074341
0.084625 0.397156 0.074829
0.093018 0.393646 0.075958
0.100739 0.388672 0.078308
0.107422 0.382599 0.082001
0.114441 0.377838 0.085602
0.123779 0.375916 0.087189
0.156860 0.377808 0.086090
0.217224 0.381409 0.083557
0.274658 0.385742 0.080566
0.325562 0.390259 0.077972
0.372925 0.394836 0.077362
0.414429 0.395782 0.076996
0.463104 0.405792 0.077118
0.503265 0.409210 0.077179
0.536102 0.406494 0.077209
0.567902 0.403687 0.077240
0.598297 0.400726 0.077332
0.627502 0.398041 0.077515
0.655823 0.395935 0.077698
0.683472 0.394104 0.077881
0.710175 0.393097 0.077972
0.732971 0.392090 0.077942
0.748444 0.392609 0.077789
0.762512 0.393433 0.077576
0.776611 0.394348 0.077393
0.790710 0.395813 0.077271
0.804901 0.397980 0.077271
0.819244 0.400757 0.077881
0.834015 0.404053 0.081818
0.848511 0.408142 0.088837
0.072205 0.442749 0.073792
0.077362 0.440704 0.074249
0.084595 0.437805 0.074707
0.093445 0.435516 0.075256
0.101868 0.431732 0.076904
0.108887 0.425781 0.080444
0.115662 0.419495 0.084869
0.123871 0.414551 0.088501
0.143158 0.414459 0.088440
0.202209 0.417053 0.085815
0.267242 0.420685 0.082306
0.321381 0.424652 0.078979
0.369385 0.428528 0.077820
0.414093 0.432343 0.077271
0.452942 0.432068 0.077332
0.499573 0.440948 0.077423
0.537964 0.442932 0.077454
0.568909 0.438904 0.077454
0.598938 0.434998 0.077515
0.628021 0.431885 0.077637
0.656067 0.429352 0.077820
0.683289 0.427277 0.078064
0.709259 0.425629 0.078217
0.733398 0.423889 0.078308
0.749176 0.422363 0.078217
0.763336 0.421967 0.078033
0.777466 0.422577 0.077728
0.791565 0.423401 0.077454
0.805817 0.424774 0.077271
0.820282 0.426941 0.077789
0.835205 0.429840 0.081421
0.849548 0.433533 0.089111
0.072144 0.478729 0.075287
0.077240 0.476898 0.075653
0.084473 0.474335 0.076050
0.093597 0.471893 0.076508
0.102783 0.469818 0.077118
0.110504 0.464172 0.080017
0.117188 0.457001 0.084717
0.124786 0.451508 0.089539
0.135315 0.448120 0.092316
0.182281 0.450104 0.090149
0.255798 0.453094 0.086151
0.313629 0.456482 0.081879
0.363129 0.459808 0.079376
0.407745 0.462982 0.077972
0.450043 0.466156 0.077576
0.487030 0.464935 0.077637
0.532684 0.473267 0.077698
0.567719 0.472717 0.077728
0.597229 0.467804 0.077728
0.626282 0.463959 0.077789
0.654388 0.461029 0.077942
0.681580 0.459015 0.078125
0.707428 0.457336 0.078369
0.732208 0.456085 0.078552
0.749359 0.454437 0.078613
0.764038 0.452332 0.078491
0.778259 0.450623 0.078217
0.792389 0.450592 0.077820
0.806732 0.451294 0.077454
0.821411 0.452667 0.077881
0.836487 0.454926 0.080933
0.850800 0.458008 0.089233
0.072083 0.513245 0.079285
0.077087 0.511963 0.079651
0.084320 0.509918 0.079987
0.093597 0.507813 0.080383
0.103363 0.506378 0.080811
0.112061 0.503967 0.082306
0.119049 0.497437 0.087219
0.126221 0.489227 0.092773
0.135315 0.483459 0.097168
0.170746 0.481506 0.097321
0.242371 0.483337 0.093384
0.303955 0.486084 0.088287
0.354736 0.488983 0.083191
0.399811 0.491699 0.080444
0.441742 0.494324 0.078461
0.482391 0.496948 0.077881
0.517273 0.494141 0.077942
0.561951 0.502289 0.078033
0.596863 0.502319 0.078033
0.625488 0.497772 0.078033
0.653412 0.493958 0.078094
0.681580 0.492432 0.078217
0.707214 0.490540 0.078430
0.731750 0.489227 0.078674
0.749451 0.488159 0.078827
0.764618 0.486633 0.078857
0.778931 0.484375 0.078674
0.793213 0.481995 0.078308
0.807648 0.480652 0.077820
0.822479 0.481384 0.078827
0.837708 0.482910 0.082764
0.852753 0.485352 0.093353
0.072021 0.544769 0.086731
0.076996 0.543671 0.087097
0.084167 0.541931 0.087341
0.093567 0.540131 0.087646
0.103760 0.538757 0.087982
0.113342 0.537750 0.088562
0.121094 0.532928 0.092163
0.128021 0.525909 0.098389
0.136383 0.520386 0.104218
0.171082 0.515991 0.108215
0.236816 0.516937 0.105408
0.299561 0.519165 0.099823
0.351013 0.521759 0.093658
0.396545 0.524139 0.087433
0.438171 0.526245 0.083374
0.477966 0.528107 0.079987
0.517120 0.529907 0.078583
0.549622 0.525543 0.078217
0.593445 0.533691 0.078308
0.626404 0.533264 0.078308
0.653992 0.529114 0.078308
0.681854 0.526855 0.078339
0.707153 0.524139 0.078461
0.731293 0.522278 0.078674
0.750092 0.520996 0.078888
0.765106 0.519928 0.079041
0.779510 0.518433 0.079010
0.793884 0.516266 0.078766
0.808502 0.513702 0.078247
0.823425 0.511719 0.079285
0.838806 0.511902 0.086182
0.853821 0.513641 0.098907
0.071991 0.575348 0.098785
0.076965 0.575500 0.100006
0.084045 0.576324 0.102234
0.093506 0.575043 0.102509
0.104034 0.573944 0.102936
0.114258 0.573212 0.103516
0.123016 0.570770 0.104828
0.130066 0.561493 0.108490
0.137756 0.554443 0.114655
0.175385 0.549133 0.118835
0.232422 0.546509 0.119568
0.293976 0.548004 0.115173
0.345184 0.550262 0.108795
0.390472 0.552460 0.101410
0.432220 0.554443 0.094208
0.471832 0.556152 0.088013
0.510345 0.557678 0.083282
0.548340 0.559204 0.079773
0.579773 0.554840 0.078461
0.621704 0.562683 0.078552
0.653229 0.562439 0.078583
0.679901 0.558868 0.078552
0.705017 0.555664 0.078583
0.729126 0.553314 0.078705
0.750275 0.551819 0.078888
0.765594 0.550812 0.079071
0.779999 0.550018 0.079163
0.794495 0.548767 0.079010
0.809113 0.546875 0.078674
0.824127 0.544525 0.078644
0.839539 0.542419 0.087555
0.854584 0.542328 0.106049
0.071991 0.605347 0.116272
0.076965 0.604980 0.117035
0.084015 0.604797 0.118134
0.093445 0.603943 0.118561
0.104187 0.602997 0.118835
0.114868 0.602051 0.119141
0.124512 0.601257 0.119629
0.132050 0.595123 0.123199
0.139587 0.587006 0.128387
0.183472 0.581726 0.133453
0.239777 0.577576 0.136414
0.295105 0.577301 0.134003
0.343719 0.579102 0.128448
0.387604 0.581024 0.121613
0.428558 0.582825 0.113892
0.467407 0.584137 0.105469
0.505127 0.585175 0.096680
0.541992 0.586121 0.089355
0.578369 0.587158 0.083130
0.608002 0.582794 0.080078
0.647491 0.589722 0.078796
0.678040 0.589966 0.078827
0.703339 0.587189 0.078827
0.727295 0.584473 0.078827
0.749969 0.582458 0.078918
0.765991 0.581268 0.079071
0.780487 0.580505 0.079163
0.794922 0.579865 0.079163
0.809601 0.578735 0.078949
0.824585 0.577026 0.078461
0.839874 0.575043 0.086517
0.854919 0.573730 0.107819
0.072052 0.632202 0.135406
0.076965 0.631927 0.136108
0.084015 0.631378 0.136841
0.093414 0.630737 0.137421
0.104248 0.630005 0.137756
0.115387 0.628265 0.136322
0.125641 0.627655 0.136627
0.138062 0.623840 0.137543
0.148773 0.615234 0.140411
0.194733 0.610565 0.147980
0.252075 0.607208 0.152954
0.300690 0.604950 0.154175
0.345001 0.605988 0.149689
0.386627 0.607666 0.143646
0.425934 0.609192 0.136566
0.463684 0.610413 0.128571
0.500458 0.611237 0.119751
0.536377 0.611847 0.109955
0.571716 0.612457 0.099884
0.606079 0.613220 0.091431
0.634033 0.609039 0.083008
0.671173 0.615021 0.080872
0.700287 0.615845 0.079132
0.725006 0.613922 0.079163
0.748138 0.611755 0.079132
0.765961 0.610199 0.079163
0.780853 0.609375 0.079193
0.795380 0.608826 0.079193
0.809998 0.608276 0.079102
0.824738 0.607269 0.078827
0.839874 0.605835 0.086487
0.854858 0.604248 0.107117
0.072113 0.656708 0.155670
0.076996 0.656586 0.156464
0.084045 0.656189 0.157104
0.093445 0.655609 0.157654
0.104340 0.654938 0.157837
0.115753 0.654144 0.157776
0.142670 0.653473 0.157990
0.181976 0.652130 0.158417
0.197479 0.644348 0.159058
0.219788 0.637543 0.163177
0.265442 0.634033 0.168976
0.308319 0.631287 0.171692
0.348175 0.630676 0.170105
0.386780 0.631989 0.164917
0.424072 0.633362 0.158569
0.460388 0.634583 0.151215
0.496124 0.635498 0.143250
0.531311 0.636169 0.134705
0.566010 0.636749 0.125641
0.599640 0.637329 0.115540
0.632050 0.638123 0.105225
0.658569 0.634277 0.092163
0.692596 0.639038 0.086426
0.721375 0.640656 0.083069
0.746002 0.639862 0.080933
0.765533 0.638184 0.080078
0.781128 0.637238 0.079254
0.795807 0.636780 0.079224
0.810333 0.636475 0.079193
0.824951 0.636108 0.079071
0.839783 0.635529 0.087891
0.854645 0.633942 0.110260
0.072174 0.682312 0.185547
0.077057 0.682129 0.186157
0.084106 0.681732 0.186493
0.093506 0.681274 0.186676
0.124756 0.680664 0.186432
0.171173 0.679871 0.186127
0.211578 0.679199 0.186066
0.243713 0.678802 0.186279
0.260956 0.674377 0.188141
0.269440 0.666809 0.189148
0.296844 0.662659 0.194580
0.329407 0.659698 0.197479
0.362793 0.657562 0.198242
0.396820 0.658112 0.194427
0.430664 0.659332 0.188812
0.464386 0.660431 0.182373
0.498016 0.661346 0.175049
0.531586 0.661957 0.166992
0.564819 0.662354 0.158630
0.597260 0.662659 0.149658
0.628235 0.662933 0.140411
0.658142 0.663269 0.130157
0.682831 0.659760 0.113800
0.713959 0.663330 0.102570
0.742401 0.665497 0.095093
0.765472 0.665558 0.090820
0.781219 0.664490 0.089966
0.796082 0.663971 0.089355
0.810760 0.663818 0.089111
0.825317 0.663879 0.088867
0.839935 0.663727 0.095490
0.854645 0.662384 0.119690
0.074615 0.704773 0.210846
0.090515 0.704651 0.211334
0.120422 0.704376 0.211548
0.155060 0.704041 0.211670
0.189453 0.703491 0.211578
0.223999 0.702820 0.211334
0.256287 0.702209 0.211273
0.283020 0.701904 0.211517
0.301544 0.700226 0.212433
0.311218 0.694061 0.214996
0.327881 0.689301 0.219818
0.352875 0.686310 0.223633
0.380981 0.684235 0.225006
0.410217 0.683380 0.223846
0.440430 0.684204 0.219452
0.471222 0.685150 0.213989
0.502441 0.685974 0.207367
0.534027 0.686554 0.200165
0.565582 0.686798 0.192139
0.596436 0.686890 0.183624
0.626007 0.686890 0.175201
0.654388 0.686798 0.166473
0.681488 0.686768 0.157074
0.704956 0.683807 0.142456
0.734070 0.686432 0.131317
0.761688 0.688873 0.120514
0.781219 0.689819 0.112488
0.796234 0.689148 0.109894
0.811127 0.688995 0.108582
0.825775 0.689209 0.108582
0.840393 0.689270 0.108643
0.854980 0.688080 0.128174
0.129547 0.726868 0.238464
0.155060 0.726959 0.239166
0.183868 0.726715 0.239349
0.213379 0.726440 0.239258
0.241638 0.726013 0.238983
0.269318 0.725403 0.238403
0.295349 0.724762 0.237946
0.317932 0.724304 0.237762
0.336151 0.724182 0.237946
0.345276 0.719452 0.240295
0.354980 0.713989 0.243225
0.373932 0.710663 0.246979
0.397461 0.708527 0.248749
0.423370 0.706970 0.249146
0.450562 0.707184 0.246490
0.478851 0.708038 0.242004
0.507874 0.708801 0.236603
0.537567 0.709412 0.230591
0.567566 0.709808 0.223694
0.597046 0.709900 0.216095
0.625214 0.709808 0.208435
0.652161 0.709595 0.200928
0.677612 0.709259 0.193176
0.702515 0.708954 0.184448
0.725403 0.706573 0.170410
0.753174 0.708679 0.158844
0.779205 0.711304 0.147064
0.796265 0.713104 0.136871
0.811340 0.712799 0.134216
0.826172 0.713043 0.132599
0.840973 0.713165 0.132294
0.855560 0.711945 0.143066
0.174866 0.747375 0.260193
0.198364 0.747467 0.260712
0.224731 0.747345 0.260925
0.251404 0.747131 0.260895
0.276215 0.746826 0.260681
0.300629 0.746338 0.260437
0.323944 0.745789 0.260071
0.344635 0.745422 0.260040
0.361664 0.745331 0.260162
0.372864 0.743042 0.261688
0.379517 0.737488 0.264191
0.394775 0.734009 0.268890
0.415161 0.731873 0.271484
0.438324 0.730469 0.272400
0.462830 0.729706 0.271820
0.488647 0.730316 0.268402
0.515533 0.730988 0.264069
0.543182 0.731506 0.259033
0.571533 0.731934 0.253235
0.599518 0.732147 0.246918
0.626404 0.732178 0.240540
0.651794 0.731934 0.234283
0.675568 0.731415 0.228180
0.698608 0.730865 0.221771
0.722137 0.730499 0.213348
0.745026 0.728912 0.199799
0.771820 0.730743 0.187439
0.795898 0.733276 0.174652
0.811401 0.735596 0.162537
0.826447 0.735809 0.159882
0.841431 0.735901 0.158051
0.856171 0.734619 0.158752
0.212799 0.767273 0.279968
0.234467 0.767395 0.280396
0.258545 0.767334 0.280670
0.282562 0.767212 0.280670
0.305023 0.766998 0.280701
0.327240 0.766632 0.280609
0.348816 0.766235 0.280579
0.368500 0.765930 0.280731
0.384949 0.765808 0.281128
0.397919 0.765503 0.281830
0.401154 0.760071 0.281708
0.412689 0.756134 0.285950
0.431030 0.753967 0.290222
0.452087 0.752625 0.291962
0.474762 0.751648 0.292572
0.498627 0.751648 0.290802
0.523651 0.752258 0.287384
0.549591 0.752777 0.283234
0.576141 0.753235 0.278473
0.602692 0.753510 0.273254
0.628387 0.753601 0.267944
0.652588 0.753448 0.263092
0.674866 0.752991 0.259064
0.696289 0.752380 0.254791
0.717957 0.751801 0.249298
0.740753 0.751556 0.241394
0.763977 0.750946 0.228973
0.789459 0.752563 0.216675
0.811340 0.754883 0.203491
0.826477 0.757446 0.190582
0.841644 0.757538 0.184265
0.856537 0.756348 0.182312
0.247162 0.786804 0.299194
0.267151 0.786987 0.299774
0.289154 0.786987 0.300232
0.311523 0.786987 0.300629
0.332672 0.786896 0.301056
0.353699 0.786713 0.301575
0.374359 0.786438 0.302216
0.393463 0.786255 0.302917
0.409790 0.786255 0.303711
0.423859 0.786530 0.304840
0.431488 0.783661 0.306244
0.437561 0.779022 0.307434
0.451080 0.776276 0.310669
0.468811 0.774597 0.312561
0.489502 0.773651 0.313629
