tools/luts_backup/LAPARDIN-WEDLUTS-17.cube
#Created by: Adobe Photoshop Export Color Lookup Plugin
#Copyright: (C) 2017 Andrey Lapardin. vk.com-3dluts
TITLE "Andrey Lapardin. vk.com-3dluts"
#LUT size
LUT_3D_SIZE 32
#data domain
DOMAIN_MIN 0.0 0.0 0.0
DOMAIN_MAX 1.0 1.0 1.0
#LUT data points
0.059631 0.062622 0.060608
0.072235 0.064758 0.062561
0.086029 0.065704 0.063324
0.100281 0.066223 0.063721
0.115692 0.066650 0.064056
0.131744 0.067474 0.064575
0.149445 0.068787 0.065277
0.168793 0.070313 0.066040
0.189178 0.071960 0.066742
0.211395 0.072906 0.067230
0.235291 0.073761 0.067566
0.260773 0.074280 0.067719
0.288239 0.074707 0.067596
0.317932 0.075073 0.067230
0.349670 0.075409 0.066528
0.382996 0.075684 0.065582
0.417328 0.075958 0.064301
0.451904 0.076233 0.062775
0.486298 0.076385 0.060944
0.519928 0.076233 0.059021
0.552429 0.075623 0.056976
0.584320 0.074371 0.055023
0.614990 0.072601 0.053070
0.645477 0.070282 0.051178
0.675934 0.068176 0.049042
0.707092 0.065979 0.046692
0.737457 0.063934 0.044189
0.766632 0.061920 0.041626
0.793427 0.059875 0.040375
0.818817 0.057587 0.039856
0.843109 0.056091 0.039673
0.865662 0.056732 0.040741
0.061584 0.074402 0.062103
0.072266 0.074677 0.062225
0.086121 0.076904 0.063049
0.100800 0.078156 0.063538
0.116608 0.079102 0.063934
0.133270 0.080231 0.064423
0.151245 0.081726 0.065033
0.170380 0.083618 0.065674
0.190765 0.085541 0.066254
0.212891 0.087341 0.066711
0.236725 0.088623 0.067078
0.262268 0.089691 0.067261
0.289734 0.090668 0.067230
0.319580 0.091705 0.066864
0.351471 0.092743 0.066132
0.384888 0.093903 0.065094
0.419159 0.095123 0.063751
0.453705 0.096222 0.062103
0.487885 0.097076 0.060242
0.521210 0.097626 0.058228
0.553284 0.097595 0.056213
0.584747 0.096619 0.054291
0.615173 0.095062 0.052429
0.645447 0.093109 0.050476
0.675781 0.091156 0.048401
0.706146 0.089142 0.046082
0.735931 0.087219 0.043549
0.764709 0.085205 0.040955
0.791412 0.083008 0.039581
0.816650 0.080475 0.039093
0.841125 0.078217 0.039215
0.863861 0.078369 0.040375
0.062439 0.088043 0.062042
0.074493 0.088257 0.062225
0.086151 0.088379 0.062500
0.101532 0.090973 0.063110
0.117706 0.092712 0.063599
0.134766 0.094238 0.064117
0.152893 0.095856 0.064667
0.172211 0.097595 0.065125
0.192688 0.099396 0.065552
0.214722 0.101044 0.066040
0.238464 0.102631 0.066498
0.263763 0.104126 0.066803
0.291016 0.105560 0.066956
0.320679 0.107178 0.066803
0.352386 0.108887 0.066284
0.385620 0.110809 0.065369
0.419739 0.112854 0.064056
0.454132 0.114929 0.062408
0.488281 0.116791 0.060455
0.521637 0.118011 0.058441
0.553680 0.118591 0.056488
0.584808 0.118439 0.054504
0.615387 0.117767 0.052521
0.645844 0.116821 0.050385
0.676270 0.115601 0.048126
0.706360 0.114258 0.045654
0.735840 0.112701 0.042999
0.764282 0.111115 0.040283
0.790955 0.108978 0.038727
0.815979 0.106049 0.038513
0.839996 0.103546 0.038727
0.862640 0.103333 0.040009
0.062012 0.103333 0.061707
0.075195 0.103882 0.061859
0.088043 0.104126 0.062134
0.102112 0.104736 0.062531
0.118622 0.107330 0.063202
0.135864 0.109344 0.063843
0.154114 0.110901 0.064392
0.173645 0.112335 0.064819
0.194458 0.113770 0.065094
0.216705 0.115143 0.065521
0.240479 0.116638 0.065979
0.265778 0.118286 0.066437
0.293060 0.120026 0.066742
0.322693 0.121948 0.066803
0.354218 0.124054 0.066528
0.387146 0.126251 0.065918
0.420959 0.128510 0.064911
0.454926 0.130768 0.063538
0.488800 0.132721 0.061890
0.521790 0.134399 0.059967
0.553589 0.135803 0.057892
0.584473 0.136627 0.055847
0.615143 0.137085 0.053711
0.645294 0.137329 0.051422
0.675415 0.137177 0.048920
0.705109 0.136841 0.046173
0.734436 0.136292 0.043182
0.762878 0.135376 0.040192
0.790100 0.133820 0.038055
0.815247 0.131317 0.037964
0.839508 0.129120 0.038269
0.862183 0.128845 0.039642
0.060974 0.119354 0.061462
0.075714 0.119995 0.061584
0.090332 0.120453 0.061859
0.105072 0.120850 0.062378
0.119354 0.121094 0.062958
0.136719 0.123688 0.063843
0.155060 0.125702 0.064545
0.174805 0.127350 0.064941
0.195892 0.128967 0.065125
0.218536 0.130554 0.065308
0.242645 0.132141 0.065613
0.268250 0.133911 0.065948
0.295776 0.135773 0.066284
0.325439 0.137787 0.066437
0.356812 0.139954 0.066345
0.389313 0.142151 0.066010
0.422607 0.144257 0.065369
0.456146 0.146332 0.064453
0.489380 0.148102 0.063293
0.522095 0.149445 0.061890
0.553680 0.150757 0.060211
0.584595 0.151947 0.058258
0.614990 0.152985 0.056000
0.645325 0.154144 0.053558
0.675110 0.154907 0.050934
0.704590 0.155396 0.048035
0.733643 0.155914 0.044769
0.761932 0.155762 0.041687
0.789337 0.155243 0.039001
0.814850 0.153809 0.037781
0.838776 0.151947 0.037964
0.861389 0.152039 0.039337
0.060394 0.135956 0.061279
0.076324 0.136719 0.061310
0.092651 0.137207 0.061523
0.108215 0.137573 0.062225
0.123047 0.137787 0.063141
0.137085 0.137085 0.064087
0.155609 0.139648 0.065002
0.175537 0.142029 0.065460
0.196930 0.144318 0.065521
0.219849 0.146545 0.065521
0.244324 0.148590 0.065552
0.270294 0.150513 0.065674
0.298218 0.152557 0.065796
0.328003 0.154633 0.065826
0.359314 0.156860 0.065704
0.391602 0.159058 0.065430
0.424530 0.160950 0.065063
0.457642 0.162598 0.064606
0.490631 0.163971 0.063995
0.522858 0.164886 0.063202
0.554169 0.165680 0.062164
0.585083 0.166473 0.060822
0.615356 0.167480 0.059082
0.645416 0.168549 0.056915
0.675140 0.169708 0.054382
0.704651 0.170715 0.051605
0.734467 0.171844 0.048584
0.763855 0.172882 0.045563
0.791840 0.173370 0.042877
0.818542 0.173401 0.040070
0.843109 0.172668 0.038544
0.865417 0.173676 0.039490
0.059082 0.154358 0.060822
0.076447 0.155151 0.060669
0.094330 0.155579 0.060974
0.110596 0.155823 0.061859
0.125702 0.155640 0.063171
0.141205 0.155457 0.064545
0.156067 0.153870 0.065491
0.176514 0.156891 0.066071
0.198242 0.160004 0.066132
0.221466 0.163116 0.065948
0.246429 0.166016 0.065765
0.273010 0.168518 0.065674
0.301544 0.170929 0.065460
0.331787 0.173340 0.065277
0.363312 0.175812 0.064911
0.395538 0.178101 0.064575
0.428162 0.180145 0.064270
0.460724 0.181580 0.063995
0.492950 0.182617 0.063751
0.524597 0.183167 0.063416
0.555603 0.183472 0.062927
0.585907 0.183655 0.062317
0.615692 0.183960 0.061340
0.644928 0.184296 0.059998
0.673920 0.184784 0.058258
0.702759 0.185486 0.056030
0.731323 0.186096 0.053558
0.759460 0.186859 0.050934
0.787262 0.187653 0.048462
0.814087 0.188110 0.045959
0.839722 0.188141 0.043945
0.863251 0.190399 0.042938
0.056274 0.176208 0.059479
0.075897 0.176788 0.059448
0.094971 0.177063 0.059845
0.112122 0.176880 0.061005
0.127686 0.176239 0.062714
0.143829 0.175568 0.064514
0.161438 0.175385 0.065735
0.177765 0.173492 0.066345
0.200073 0.176910 0.066620
0.223480 0.180573 0.066620
0.248779 0.184265 0.066284
0.275879 0.187592 0.065887
0.304871 0.190613 0.065430
0.335602 0.193481 0.064941
0.367493 0.196320 0.064392
0.399963 0.198975 0.063812
0.432617 0.201202 0.063354
0.464874 0.202820 0.063019
0.496643 0.203766 0.062744
0.527649 0.204102 0.062622
0.557831 0.204010 0.062531
0.587830 0.203796 0.062378
0.616913 0.203522 0.062042
0.645264 0.203156 0.061493
0.673248 0.202850 0.060699
0.701111 0.202698 0.059479
0.728821 0.202576 0.057922
0.755951 0.202393 0.056183
0.782318 0.202240 0.054382
0.807800 0.201904 0.052551
0.832886 0.201508 0.051331
0.856689 0.203949 0.050293
0.054504 0.199432 0.057861
0.074921 0.200073 0.057800
0.095123 0.200104 0.058228
0.113129 0.199554 0.059631
0.129181 0.198608 0.061707
0.145538 0.197632 0.063812
0.163879 0.197296 0.065338
0.184082 0.197937 0.066284
0.201599 0.195862 0.066620
0.225098 0.199280 0.066864
0.251007 0.203552 0.066620
0.278381 0.207428 0.066132
0.307739 0.211090 0.065521
0.338776 0.214447 0.064819
0.370819 0.217651 0.064087
0.403351 0.220581 0.063385
0.436035 0.223145 0.062805
0.468231 0.225067 0.062317
0.499695 0.226196 0.061920
0.530487 0.226715 0.061676
0.560577 0.226715 0.061493
0.589966 0.226196 0.061432
0.618195 0.225586 0.061432
0.645721 0.224792 0.061462
0.673035 0.223999 0.061310
0.700165 0.223328 0.060944
0.727142 0.222412 0.060303
0.753601 0.221466 0.059570
0.777679 0.219727 0.058838
0.802887 0.218628 0.057983
0.827454 0.217590 0.057465
0.850830 0.219177 0.057007
0.051819 0.225037 0.055634
0.073181 0.225739 0.055511
0.094696 0.225739 0.056000
0.113678 0.225067 0.057617
0.130096 0.223938 0.060059
0.146667 0.222748 0.062531
0.165680 0.222290 0.064392
0.186829 0.222748 0.065582
0.209259 0.223846 0.066101
0.227509 0.221191 0.066406
0.253113 0.224915 0.066467
0.281311 0.229584 0.065948
0.310913 0.233704 0.065125
0.341827 0.237366 0.064301
0.373779 0.240692 0.063599
0.406097 0.243713 0.062927
0.438568 0.246216 0.062408
0.470764 0.248352 0.061829
0.502167 0.249786 0.061310
0.532410 0.250366 0.060944
0.561768 0.250305 0.060638
0.590454 0.249664 0.060516
0.618195 0.248688 0.060516
0.645294 0.247711 0.060608
0.672119 0.246796 0.060699
0.698730 0.245880 0.060822
0.725159 0.244904 0.060883
0.751129 0.243622 0.060883
0.774994 0.241547 0.060944
0.799805 0.239868 0.060913
0.824097 0.238403 0.061096
0.847534 0.239044 0.061462
0.047791 0.253662 0.052795
0.070221 0.254456 0.052582
0.093445 0.254456 0.053009
0.113739 0.253784 0.054779
0.130737 0.252502 0.057678
0.147369 0.251007 0.060638
0.166779 0.250366 0.062927
0.188904 0.250702 0.064240
0.212738 0.251740 0.064789
0.237183 0.253296 0.064972
0.256744 0.250214 0.065247
0.284546 0.254211 0.065063
0.314972 0.259033 0.064087
0.346283 0.263214 0.062927
0.378357 0.266724 0.061981
0.411133 0.269989 0.061218
0.443878 0.272705 0.060791
0.475769 0.274719 0.060486
0.506836 0.276031 0.060333
0.536774 0.276672 0.059998
0.565674 0.276459 0.059784
0.593719 0.275604 0.059570
0.620667 0.274292 0.059448
0.646942 0.272766 0.059387
0.672974 0.271393 0.059540
0.698761 0.270264 0.059784
0.724213 0.269226 0.060181
0.749176 0.267944 0.060669
0.773743 0.266449 0.061127
0.798004 0.264832 0.061676
0.821960 0.263153 0.062378
0.845245 0.263031 0.063477
0.042908 0.284973 0.049011
0.066254 0.285767 0.048706
0.091278 0.285919 0.048950
0.113251 0.285370 0.050720
0.131165 0.284149 0.053955
0.147644 0.282318 0.057648
0.167267 0.281067 0.060608
0.190094 0.281158 0.062286
0.215179 0.282074 0.062866
0.241150 0.283600 0.062927
0.267456 0.285522 0.062836
0.288696 0.282013 0.063080
0.318787 0.286377 0.062408
0.350922 0.291138 0.061005
0.383392 0.295013 0.059662
0.416229 0.298157 0.058563
0.448700 0.300629 0.058228
0.480408 0.302399 0.058197
0.511169 0.303528 0.058502
0.540955 0.304047 0.058899
0.569794 0.303986 0.059052
0.597992 0.303253 0.058990
0.625061 0.301971 0.058777
0.651459 0.300323 0.058624
0.677429 0.298798 0.058472
0.702911 0.297394 0.058563
0.727783 0.296265 0.059021
0.752106 0.295105 0.059753
0.776031 0.293945 0.060730
0.799530 0.292603 0.061707
0.822845 0.291138 0.062866
0.845520 0.290497 0.064728
0.040039 0.318115 0.044342
0.060547 0.318970 0.043976
0.087341 0.319275 0.043976
0.111389 0.318817 0.045502
0.130676 0.317291 0.048981
0.147308 0.315247 0.053467
0.166504 0.313660 0.057251
0.189514 0.313232 0.059570
0.215759 0.313995 0.060333
0.243500 0.315613 0.060242
0.271484 0.317535 0.060028
0.299713 0.319824 0.059601
0.322266 0.315704 0.059784
0.354034 0.319916 0.058777
0.387268 0.324310 0.057159
0.420105 0.327515 0.055817
0.452545 0.329742 0.055267
0.483917 0.331024 0.055298
0.514252 0.331757 0.056030
0.543579 0.332001 0.056915
0.572052 0.331757 0.057861
0.599945 0.330933 0.058685
0.626770 0.329712 0.058899
0.652924 0.328033 0.058777
0.678589 0.326233 0.058533
0.703766 0.324463 0.058350
0.728516 0.323029 0.058533
0.752716 0.322021 0.059021
0.776428 0.321136 0.059753
0.799683 0.320221 0.061157
0.822845 0.319061 0.062744
0.845062 0.318420 0.065094
0.039795 0.356232 0.038666
0.056427 0.357300 0.038269
0.079956 0.357727 0.038177
0.106689 0.357574 0.039154
0.128113 0.355408 0.042450
0.145996 0.352081 0.047302
0.164734 0.349457 0.052277
0.187653 0.347900 0.055695
0.214417 0.347900 0.057037
0.243835 0.349182 0.057129
0.273865 0.351196 0.056610
0.303680 0.353455 0.056183
0.333740 0.355835 0.055603
0.357758 0.351288 0.055634
0.390472 0.355103 0.055603
0.423676 0.358459 0.055634
0.455872 0.360260 0.055634
0.487183 0.361023 0.055725
0.517273 0.361115 0.056091
0.546204 0.360840 0.056641
0.574310 0.360382 0.057343
0.602020 0.359680 0.057953
0.628784 0.358612 0.058899
0.655029 0.357269 0.059448
0.680878 0.355652 0.059326
0.706085 0.353912 0.058990
0.730713 0.352112 0.058807
0.754608 0.350555 0.058838
0.777954 0.349274 0.059326
0.800873 0.348297 0.060577
0.823669 0.347229 0.062561
0.845245 0.346558 0.065369
0.039520 0.393494 0.036224
0.056091 0.394257 0.036224
0.074615 0.394470 0.036194
0.099121 0.395081 0.036255
0.123352 0.393890 0.037964
0.142883 0.390289 0.041870
0.161163 0.386322 0.047211
0.184052 0.383850 0.051636
0.211273 0.383057 0.053680
0.241852 0.383606 0.053894
0.273651 0.385010 0.053955
0.304932 0.386719 0.054504
0.335693 0.388428 0.055115
0.366425 0.390228 0.055786
0.391022 0.385223 0.055969
0.423767 0.388153 0.056305
0.456207 0.389954 0.056366
0.487152 0.390198 0.056396
0.517273 0.389740 0.056519
0.546356 0.389008 0.056885
0.574341 0.388275 0.057465
0.601929 0.387604 0.058136
0.628601 0.386902 0.058899
0.654785 0.386017 0.059387
0.680542 0.384796 0.059814
0.705658 0.383179 0.060150
0.730225 0.381165 0.059784
0.754028 0.379120 0.059479
0.777374 0.377319 0.059479
0.800385 0.375916 0.060150
0.823273 0.374695 0.062134
0.844604 0.373871 0.065369
0.039276 0.427551 0.036163
0.055725 0.428070 0.036163
0.074341 0.428101 0.036133
0.092804 0.428223 0.036133
0.116943 0.428436 0.036469
0.138489 0.424683 0.039734
0.157166 0.419495 0.044678
0.178589 0.416443 0.049225
0.205597 0.415527 0.052246
0.236786 0.415710 0.053802
0.269989 0.416687 0.054474
0.302795 0.418030 0.054901
0.334564 0.419403 0.055420
0.365662 0.420685 0.056091
0.396698 0.422028 0.056702
0.421844 0.416931 0.056885
0.454681 0.419128 0.057159
0.484558 0.418182 0.057190
0.514404 0.417206 0.057190
0.543823 0.416382 0.057373
0.572266 0.415527 0.057770
0.600067 0.414978 0.058380
0.626923 0.414581 0.059021
0.653198 0.414215 0.059509
0.678925 0.413483 0.059998
0.703857 0.412262 0.060364
0.728180 0.410309 0.060883
0.751862 0.408051 0.060913
0.775269 0.405731 0.060547
0.798553 0.403687 0.060516
0.821747 0.401947 0.061554
0.843262 0.400665 0.064941
0.039032 0.461090 0.036102
0.055359 0.461792 0.036072
0.074005 0.461945 0.036072
0.092834 0.462067 0.036072
0.109833 0.462646 0.036102
0.133057 0.462128 0.037445
0.152985 0.457397 0.042480
0.173309 0.450867 0.047791
0.199402 0.447815 0.051788
0.230469 0.446564 0.053986
0.263977 0.446655 0.054932
0.297913 0.447540 0.055359
0.330750 0.448578 0.055725
0.362549 0.449585 0.056274
0.393707 0.450531 0.056946
0.424805 0.451447 0.057587
0.449646 0.445435 0.057739
0.482147 0.447113 0.057983
0.513214 0.447021 0.058044
0.542603 0.445740 0.058044
0.571289 0.444550 0.058197
0.601196 0.445251 0.058594
0.628296 0.444794 0.059143
0.654602 0.444611 0.059784
0.680206 0.444275 0.060272
0.705017 0.443420 0.060455
0.729095 0.441833 0.061554
0.752472 0.439575 0.062775
0.775604 0.436890 0.063171
0.798859 0.434174 0.063019
0.822235 0.431641 0.063782
0.844574 0.429535 0.067383
0.038879 0.491638 0.036072
0.055084 0.492188 0.036072
0.073669 0.492340 0.036072
0.092743 0.492432 0.036072
0.109833 0.492828 0.036072
0.127991 0.493622 0.036163
0.148590 0.490356 0.040009
0.168152 0.484955 0.045929
0.193024 0.481659 0.050873
0.224091 0.480591 0.053864
0.258484 0.480499 0.055237
0.293579 0.481110 0.055725
0.327942 0.482025 0.056000
0.361176 0.482849 0.056366
0.393219 0.483398 0.056946
0.424591 0.483704 0.057678
0.455902 0.483978 0.058380
0.480286 0.477112 0.058563
0.513062 0.478577 0.058838
0.543488 0.477905 0.058868
0.572510 0.476563 0.058838
0.602814 0.476898 0.058899
0.630127 0.476044 0.059235
0.656281 0.475464 0.059784
0.681519 0.475037 0.060425
0.706055 0.474426 0.060852
0.729980 0.473267 0.061157
0.753265 0.471466 0.062927
0.776276 0.468842 0.064667
0.799255 0.465820 0.065216
0.822296 0.462524 0.067596
0.844208 0.459778 0.071838
0.038818 0.521759 0.036072
0.054932 0.523529 0.036072
0.073425 0.526520 0.036072
0.092621 0.526855 0.036072
0.110229 0.527344 0.036072
0.125244 0.528259 0.036072
0.145386 0.527222 0.037537
0.164398 0.518738 0.043701
0.186615 0.513184 0.049530
0.216553 0.510345 0.053436
0.250580 0.509491 0.055328
0.286041 0.509857 0.056000
0.321442 0.510620 0.056213
0.355621 0.511414 0.056427
0.388763 0.512054 0.056824
0.420990 0.512421 0.057495
0.452667 0.512665 0.058319
0.484009 0.512939 0.059052
0.509064 0.506683 0.059235
0.541290 0.507996 0.059509
0.571533 0.507477 0.059540
0.600647 0.506561 0.059509
0.628265 0.505463 0.059570
0.654846 0.504639 0.059906
0.680389 0.504181 0.060425
0.704987 0.503784 0.060944
0.728912 0.503204 0.061157
0.752197 0.502045 0.062225
0.775146 0.500092 0.065460
0.798035 0.497131 0.067413
0.820862 0.493591 0.070313
0.842590 0.490509 0.076599
0.038849 0.552521 0.036072
0.054901 0.553406 0.036072
0.073334 0.554840 0.036072
0.092529 0.555420 0.036072
0.110474 0.555817 0.036072
0.126129 0.556366 0.036072
0.142517 0.556915 0.036224
0.160339 0.551544 0.041290
0.180908 0.544159 0.047852
0.208832 0.540741 0.052643
0.242767 0.539337 0.055145
0.278717 0.539307 0.056091
0.314880 0.539948 0.056335
0.350006 0.540710 0.056427
0.384064 0.541321 0.056641
0.417053 0.541565 0.057159
0.449188 0.541595 0.057892
0.480560 0.541473 0.058777
0.511658 0.541504 0.059540
0.536407 0.535400 0.059814
0.567688 0.536407 0.060150
0.598297 0.536621 0.060242
0.626709 0.536011 0.060272
0.653442 0.534882 0.060333
0.679291 0.534027 0.060577
0.704071 0.533478 0.060944
0.728027 0.532928 0.061218
0.751099 0.532166 0.061279
0.773834 0.530823 0.065002
0.796387 0.528473 0.068939
0.818817 0.525269 0.073517
0.840271 0.521881 0.081116
0.038971 0.580719 0.036072
0.054962 0.581604 0.036072
0.073334 0.582367 0.036072
0.092468 0.583038 0.036072
0.110596 0.583527 0.036072
0.126831 0.582611 0.036072
0.140442 0.583221 0.036072
0.157227 0.579987 0.038818
0.175446 0.571075 0.045868
0.201416 0.568054 0.051453
0.235046 0.567291 0.054657
0.271118 0.567230 0.055969
0.307526 0.567719 0.056335
0.343323 0.568451 0.056366
0.378052 0.569061 0.056458
0.411743 0.569366 0.056763
0.444489 0.569336 0.057373
0.476227 0.569122 0.058167
0.507294 0.568939 0.059052
0.537872 0.568939 0.059937
0.562164 0.563232 0.060364
0.592896 0.564178 0.060883
0.622772 0.564911 0.061096
0.650604 0.564423 0.061157
0.676697 0.563232 0.061127
0.701782 0.562378 0.061157
0.725922 0.561768 0.061249
0.749176 0.561035 0.061279
0.771637 0.560089 0.063385
0.793671 0.558441 0.068787
0.815552 0.555878 0.075012
0.836792 0.552521 0.084320
0.039154 0.607269 0.036072
0.055084 0.608093 0.036072
0.073395 0.608795 0.036072
0.092499 0.609314 0.036072
0.110718 0.609650 0.036072
0.127350 0.609924 0.036072
0.141632 0.610352 0.036072
0.157562 0.609833 0.036926
0.172546 0.601257 0.043488
0.195526 0.594666 0.049835
0.227203 0.593079 0.053802
0.263214 0.592804 0.055634
0.299774 0.593170 0.056213
0.335693 0.593811 0.056305
0.370819 0.594452 0.056305
0.404999 0.594940 0.056427
0.438385 0.595184 0.056763
0.470734 0.595276 0.057404
0.502319 0.595306 0.058289
0.533020 0.595398 0.059296
0.562927 0.595642 0.060333
0.587006 0.590515 0.061005
0.616821 0.591644 0.061676
0.646179 0.592621 0.061981
0.673920 0.592560 0.061951
0.699310 0.591339 0.061707
0.723724 0.590576 0.061462
0.747101 0.589844 0.061371
0.769592 0.588928 0.063446
0.791290 0.587769 0.069397
0.812714 0.586060 0.077759
0.833496 0.582886 0.089081
0.039398 0.637299 0.036072
0.055267 0.637939 0.036072
0.073547 0.638336 0.036072
0.092621 0.638672 0.036072
0.110901 0.638763 0.036072
0.127899 0.638824 0.036072
0.142853 0.639038 0.036133
0.158600 0.639496 0.036224
0.175568 0.635071 0.040649
0.195801 0.626740 0.047668
0.225098 0.623627 0.055939
0.259644 0.622406 0.059937
0.295532 0.622284 0.060883
0.331543 0.622711 0.060455
0.366669 0.623230 0.059570
0.401154 0.623718 0.058655
0.434845 0.624054 0.057892
0.467651 0.624115 0.057343
0.499573 0.623993 0.057434
0.530457 0.623871 0.058380
0.560028 0.623718 0.059540
0.588867 0.623627 0.060822
0.612366 0.618958 0.061737
0.641174 0.619965 0.062531
0.670074 0.620941 0.062744
0.697540 0.621124 0.062531
0.722198 0.619812 0.062042
0.745667 0.618896 0.064087
0.768097 0.617981 0.069000
0.789642 0.617035 0.075104
0.810516 0.615601 0.083527
0.830963 0.612640 0.096558
0.039612 0.662903 0.036072
0.055481 0.663422 0.036072
0.073761 0.663727 0.036072
0.092834 0.664032 0.036163
0.111176 0.664124 0.036377
0.128540 0.664154 0.036743
0.144226 0.664307 0.037140
0.159637 0.664734 0.037689
0.180420 0.663513 0.039825
0.199310 0.656952 0.048126
0.225647 0.652588 0.056976
0.257507 0.650848 0.063385
0.292603 0.650391 0.065491
0.328003 0.650543 0.065460
0.362976 0.650879 0.064697
0.397339 0.651276 0.063660
0.431183 0.651489 0.062592
0.464233 0.651520 0.062012
0.496460 0.651276 0.061798
0.527496 0.650818 0.061920
0.556854 0.650360 0.061981
0.585083 0.649811 0.062439
0.612061 0.649323 0.063141
0.635376 0.645416 0.063385
0.663452 0.646179 0.064423
0.691803 0.647156 0.065125
0.719147 0.647797 0.065399
0.742859 0.646240 0.069031
0.765381 0.645142 0.075165
0.786896 0.644287 0.082611
0.807709 0.643097 0.092407
0.828125 0.640137 0.103363
0.039886 0.688568 0.043427
0.055725 0.689178 0.044403
0.074066 0.689484 0.045410
0.093201 0.689636 0.046234
0.111603 0.689606 0.046814
0.129211 0.689484 0.047485
0.145966 0.689423 0.048462
0.164551 0.689545 0.049530
0.190002 0.689911 0.050720
0.208557 0.685028 0.056641
0.229736 0.679352 0.064270
0.258118 0.676727 0.072144
0.290680 0.675720 0.075256
0.325134 0.675598 0.075317
0.359558 0.675842 0.074432
0.393646 0.676147 0.073029
0.427307 0.676361 0.071442
0.460480 0.676453 0.070587
0.492828 0.676300 0.069885
0.524078 0.675903 0.069794
0.553467 0.675323 0.070282
0.581207 0.674622 0.070984
0.607330 0.673828 0.071716
0.632843 0.673035 0.072113
0.656250 0.669861 0.071228
0.683807 0.670593 0.073364
0.711761 0.671722 0.075043
0.739197 0.673065 0.077057
0.762146 0.671356 0.082672
0.783844 0.670349 0.091187
0.804779 0.669098 0.101227
0.825104 0.666260 0.112488
0.040161 0.711365 0.056610
0.056000 0.711823 0.057953
0.074402 0.712067 0.059174
0.093628 0.712219 0.059998
0.112122 0.712250 0.060852
0.129944 0.712189 0.061859
0.147980 0.712097 0.062927
0.173187 0.712189 0.064209
0.199890 0.712555 0.065674
0.219971 0.710419 0.069244
0.236877 0.704529 0.075226
0.262146 0.701569 0.084595
0.292206 0.700226 0.090302
0.324982 0.699890 0.091217
0.358398 0.699951 0.090698
0.391663 0.700104 0.089447
0.424866 0.700195 0.087952
0.457642 0.700195 0.086365
0.489929 0.700073 0.085114
0.521118 0.699768 0.084198
0.550568 0.699249 0.084167
0.577911 0.698486 0.085083
0.603180 0.697510 0.086548
0.627502 0.696533 0.088318
0.652161 0.695618 0.089325
0.676025 0.693359 0.088623
0.703217 0.694092 0.090881
0.730621 0.695251 0.093292
0.757996 0.696991 0.095734
0.780365 0.695679 0.102997
0.801605 0.694183 0.111633
0.822083 0.691315 0.122375
0.040405 0.732971 0.073425
0.056274 0.733368 0.074829
0.074707 0.733612 0.076080
0.094055 0.733765 0.077271
0.112671 0.733826 0.078278
0.131439 0.733734 0.079285
0.155212 0.733734 0.080750
0.186829 0.733795 0.082489
0.214783 0.734070 0.084259
0.236053 0.734070 0.086365
0.246155 0.728119 0.086914
0.267212 0.724426 0.094940
0.295593 0.722931 0.103455
0.326355 0.722412 0.106720
0.358429 0.722321 0.106781
0.390808 0.722351 0.105835
0.423248 0.722412 0.104645
0.455444 0.722382 0.103210
0.487244 0.722260 0.101898
0.518188 0.721985 0.100800
0.547485 0.721558 0.100311
0.574677 0.720917 0.101318
0.599365 0.720032 0.103760
0.622681 0.718964 0.106567
0.646088 0.717957 0.108978
0.670380 0.717224 0.109955
0.695007 0.715973 0.109467
0.721649 0.716736 0.111847
0.748352 0.717712 0.114471
0.774963 0.719482 0.117340
0.797577 0.718323 0.122894
0.818665 0.715546 0.132904
0.040649 0.753906 0.093048
0.056641 0.754303 0.094727
0.075531 0.754517 0.096222
0.095581 0.754761 0.097656
0.115784 0.754883 0.099243
0.145020 0.755005 0.101379
0.178864 0.755066 0.103760
0.211700 0.755157 0.106354
0.238129 0.755463 0.108917
0.260162 0.756012 0.111786
0.273193 0.753174 0.114166
0.285431 0.748383 0.116364
0.307587 0.745880 0.122833
0.334381 0.744659 0.127045
0.364014 0.744324 0.128174
