tools/luts_backup/LAPARDIN-WEDLUTS-7.cube
#Created by: Adobe Photoshop Export Color Lookup Plugin
#Copyright: (C) 2017 Andrey Lapardin. vk.com-3dluts
TITLE "Andrey Lapardin. vk.com-3dluts"
#LUT size
LUT_3D_SIZE 32
#data domain
DOMAIN_MIN 0.0 0.0 0.0
DOMAIN_MAX 1.0 1.0 1.0
#LUT data points
0.007782 0.013336 0.014191
0.032013 0.019806 0.020721
0.059509 0.024841 0.025482
0.088257 0.030060 0.030853
0.117889 0.036011 0.036011
0.147675 0.043213 0.042023
0.177887 0.051392 0.048553
0.209076 0.059784 0.055023
0.240936 0.067627 0.061157
0.273346 0.075378 0.067657
0.306396 0.082275 0.074249
0.339508 0.089294 0.080688
0.373413 0.096100 0.087830
0.408081 0.103546 0.095673
0.443329 0.111908 0.104004
0.479095 0.121063 0.113251
0.515381 0.131042 0.122986
0.551941 0.141235 0.133453
0.589081 0.152405 0.144409
0.626831 0.163605 0.156128
0.665009 0.175140 0.167755
0.702606 0.186951 0.180023
0.738129 0.198853 0.192657
0.772400 0.210968 0.205688
0.805878 0.223969 0.219452
0.838959 0.237732 0.233826
0.871338 0.252350 0.249054
0.902863 0.268036 0.265228
0.932159 0.284027 0.281860
0.960144 0.300537 0.299316
0.987061 0.318634 0.317902
1.000000 0.337952 0.337463
0.016479 0.039459 0.022034
0.036407 0.040894 0.026367
0.062347 0.048492 0.033051
0.089935 0.055634 0.039093
0.121277 0.063141 0.043762
0.151581 0.069489 0.048340
0.182037 0.076385 0.054169
0.212952 0.083527 0.060242
0.244690 0.090607 0.065887
0.277008 0.097015 0.072144
0.309631 0.102753 0.078827
0.342438 0.109436 0.085510
0.376007 0.115845 0.092804
0.410492 0.122742 0.100708
0.445679 0.130524 0.109161
0.481476 0.139160 0.118408
0.517700 0.148590 0.128265
0.554382 0.158417 0.138641
0.591522 0.168518 0.149567
0.629272 0.179260 0.160767
0.667328 0.189941 0.172363
0.704681 0.200775 0.184265
0.739868 0.211395 0.196655
0.773865 0.222900 0.209351
0.807281 0.235016 0.222992
0.840179 0.247925 0.237213
0.872345 0.261780 0.252380
0.903687 0.276611 0.268250
0.933014 0.292145 0.284851
0.960815 0.308197 0.302124
0.987488 0.325500 0.320587
1.000000 0.344360 0.340149
0.024628 0.069824 0.029633
0.048767 0.071167 0.033752
0.067841 0.071381 0.039246
0.093811 0.079193 0.046539
0.121674 0.086121 0.052704
0.154022 0.094421 0.056427
0.186737 0.101563 0.061066
0.218262 0.107758 0.066620
0.249969 0.113892 0.071838
0.281830 0.119476 0.077942
0.313660 0.124786 0.084778
0.346344 0.130310 0.091583
0.379272 0.136566 0.099152
0.413452 0.143280 0.107025
0.448517 0.150543 0.115723
0.484161 0.158539 0.125092
0.520325 0.167358 0.134979
0.557007 0.176910 0.145386
0.594360 0.186798 0.156281
0.632233 0.197113 0.167358
0.670105 0.207550 0.178802
0.707184 0.217987 0.190582
0.742218 0.228394 0.202698
0.775970 0.239105 0.214996
0.809174 0.250275 0.228180
0.841827 0.262238 0.242157
0.873779 0.274811 0.256927
0.904877 0.288635 0.272614
0.934143 0.303162 0.288971
0.961670 0.318176 0.306030
0.987946 0.334564 0.324127
1.000000 0.352722 0.343567
0.031189 0.100983 0.035095
0.058228 0.102417 0.038391
0.079346 0.102386 0.043732
0.099609 0.102325 0.051605
0.125183 0.108978 0.059509
0.153015 0.115906 0.066162
0.186829 0.124603 0.069763
0.222076 0.132416 0.074738
0.254547 0.137848 0.079407
0.286926 0.142822 0.085388
0.318420 0.147400 0.091888
0.350616 0.152405 0.098816
0.383453 0.157898 0.106415
0.417145 0.164063 0.114471
0.451904 0.171051 0.123016
0.487305 0.178436 0.132538
0.523346 0.186584 0.142487
0.559845 0.195679 0.152802
0.597168 0.205139 0.163696
0.635010 0.215027 0.174866
0.672699 0.225494 0.186249
0.709442 0.235840 0.197937
0.744232 0.246124 0.209656
0.777802 0.256470 0.222046
0.810883 0.267517 0.234711
0.843323 0.278961 0.248535
0.875244 0.291107 0.262909
0.906158 0.304321 0.278381
0.935638 0.318115 0.294586
0.962830 0.332092 0.311462
0.988434 0.347443 0.329407
1.000000 0.364960 0.348633
0.037811 0.130737 0.040039
0.065887 0.132599 0.042419
0.089020 0.132813 0.047882
0.111389 0.132141 0.055359
0.130646 0.131226 0.063995
0.153198 0.136139 0.073578
0.182922 0.143555 0.079498
0.218872 0.153168 0.083344
0.255493 0.161713 0.089142
0.291840 0.169037 0.095428
0.323547 0.173126 0.101166
0.355896 0.177521 0.107941
0.388672 0.182159 0.115204
0.422211 0.187378 0.123108
0.456665 0.193542 0.131622
0.491638 0.200348 0.140747
0.527191 0.207611 0.150604
0.563446 0.215546 0.160889
0.600311 0.224121 0.171387
0.637817 0.233032 0.182404
0.675140 0.242615 0.193604
0.711487 0.252686 0.205231
0.745758 0.262634 0.216980
0.778961 0.273010 0.228943
0.811798 0.283844 0.241730
0.844086 0.295227 0.255188
0.875854 0.307434 0.269470
0.906616 0.320374 0.284760
0.936432 0.334198 0.301178
0.964233 0.348175 0.318207
0.989075 0.362793 0.335938
1.000000 0.379791 0.355194
0.043091 0.160004 0.044159
0.071716 0.162170 0.046112
0.097717 0.162537 0.050964
0.121185 0.161835 0.058411
0.141998 0.160492 0.067627
0.159760 0.157837 0.076691
0.181152 0.160797 0.088104
0.213562 0.169525 0.092957
0.250610 0.180115 0.097107
0.287964 0.189972 0.104858
0.325958 0.198914 0.112610
0.361847 0.205383 0.119995
0.394897 0.209320 0.126892
0.428711 0.213806 0.134247
0.463043 0.218964 0.142242
0.497772 0.224915 0.151031
0.532898 0.231171 0.160522
0.568481 0.237976 0.170380
0.604980 0.245331 0.180481
0.641846 0.252960 0.191132
0.678314 0.261261 0.201813
0.713806 0.270020 0.213074
0.747345 0.279144 0.224426
0.779877 0.288696 0.236176
0.812134 0.298981 0.248566
0.843994 0.310089 0.261841
0.875397 0.322144 0.275970
0.905945 0.334839 0.291229
0.935547 0.348572 0.307434
0.964386 0.363129 0.324768
0.989685 0.378479 0.343140
1.000000 0.395721 0.362701
0.047729 0.190521 0.047821
0.076691 0.192444 0.049561
0.103607 0.193207 0.053070
0.128906 0.192169 0.061127
0.150757 0.189972 0.070709
0.171143 0.187714 0.080872
0.188141 0.183502 0.090637
0.209503 0.185516 0.103394
0.245667 0.197083 0.106354
0.282349 0.208221 0.113739
0.321808 0.219421 0.121521
0.361115 0.229156 0.130707
0.400482 0.237488 0.139923
0.435974 0.242615 0.147339
0.470581 0.247345 0.154907
0.505280 0.252533 0.163177
0.540466 0.258148 0.171997
0.575745 0.263947 0.181366
0.611694 0.270233 0.190948
0.647705 0.276672 0.200958
0.683044 0.283386 0.211304
0.717346 0.290771 0.222015
0.750061 0.298279 0.232788
0.781494 0.306488 0.244415
0.812866 0.315491 0.256287
0.843903 0.325592 0.269287
0.874481 0.336670 0.283112
0.904419 0.348755 0.297882
0.933594 0.361755 0.313782
0.962036 0.375824 0.330627
0.987579 0.390991 0.348938
1.000000 0.409180 0.369263
0.053406 0.222473 0.052032
0.081757 0.223907 0.053925
0.108551 0.224762 0.056549
0.134094 0.223724 0.063812
0.157074 0.221069 0.073486
0.178986 0.218201 0.083588
0.200867 0.216034 0.094788
0.218140 0.211182 0.104767
0.241699 0.214172 0.117645
0.276459 0.225189 0.122040
0.315063 0.237183 0.129272
0.356140 0.249359 0.138947
0.399109 0.261322 0.150452
0.440216 0.270691 0.160522
0.478699 0.278046 0.169525
0.513824 0.283112 0.177551
0.549194 0.288269 0.185883
0.584686 0.293701 0.194397
0.620361 0.299042 0.203552
0.655701 0.304535 0.213013
0.689941 0.310089 0.222717
0.722992 0.315948 0.232941
0.754517 0.322021 0.243134
0.784973 0.328705 0.254059
0.815216 0.336212 0.265656
0.845032 0.344543 0.278015
0.874603 0.354065 0.291168
0.903473 0.364441 0.305389
0.931793 0.376007 0.320526
0.959473 0.388824 0.336853
0.984863 0.402740 0.354431
1.000000 0.420532 0.374603
0.058258 0.254974 0.057220
0.086334 0.256226 0.058502
0.113037 0.256866 0.060822
0.138733 0.256012 0.066589
0.161896 0.253357 0.075897
0.184326 0.250244 0.086029
0.208099 0.247437 0.097198
0.231934 0.245636 0.109222
0.249207 0.240265 0.119720
0.274628 0.244080 0.132050
0.307281 0.253601 0.138641
0.348633 0.266815 0.145569
0.391296 0.280304 0.157623
0.436432 0.293732 0.170776
0.482666 0.306793 0.183777
0.522278 0.314819 0.193359
0.558960 0.320526 0.201630
0.594788 0.325623 0.209778
0.630432 0.330719 0.218414
0.665161 0.335571 0.227203
0.698456 0.340210 0.236115
0.730438 0.344604 0.245697
0.760681 0.349518 0.255493
0.790100 0.354919 0.265869
0.819244 0.361176 0.277039
0.847992 0.368256 0.289001
0.876282 0.375977 0.301605
0.904083 0.384705 0.315002
0.931335 0.394440 0.329407
0.957977 0.405518 0.345062
0.983124 0.417908 0.361908
1.000000 0.434326 0.381439
0.064240 0.287994 0.062134
0.091125 0.289093 0.063721
0.118073 0.289581 0.065887
0.143982 0.288788 0.070129
0.166626 0.286469 0.078217
0.189392 0.283295 0.088318
0.213898 0.280396 0.099396
0.239655 0.278168 0.111206
0.264160 0.276642 0.124084
0.281342 0.270966 0.135010
0.307434 0.274780 0.147461
0.339233 0.283081 0.156616
0.383057 0.297333 0.161346
0.427582 0.312286 0.176697
0.474243 0.327209 0.191956
0.522430 0.341980 0.206451
0.567963 0.353699 0.218842
0.605652 0.359741 0.227264
0.641418 0.364746 0.235199
0.675446 0.369049 0.243622
0.707947 0.373138 0.252045
0.738922 0.376617 0.260956
0.768188 0.380188 0.270142
0.796722 0.384552 0.279938
0.824768 0.389709 0.290741
0.852448 0.395721 0.302246
0.879639 0.402435 0.314453
0.906311 0.409943 0.327301
0.932465 0.418243 0.341217
0.958099 0.427704 0.356232
0.982605 0.438751 0.372498
1.000000 0.453339 0.391357
0.071136 0.321533 0.067566
0.096405 0.322693 0.069305
0.123413 0.323059 0.071259
0.149811 0.322632 0.074524
0.172089 0.320587 0.081421
0.193726 0.317474 0.090607
0.218567 0.314331 0.101807
0.245514 0.311829 0.113556
0.272186 0.309937 0.126312
0.296875 0.308594 0.139740
0.314423 0.302795 0.150940
0.340515 0.306213 0.164551
0.372009 0.313599 0.175079
0.417603 0.329285 0.182037
0.464294 0.345276 0.196716
0.512512 0.361420 0.212921
0.562134 0.377350 0.228577
0.612030 0.392456 0.243469
0.652588 0.400940 0.254120
0.686188 0.404938 0.262146
0.717926 0.408264 0.270447
0.747986 0.411041 0.278839
0.776581 0.413666 0.287231
0.804138 0.416901 0.296539
0.831390 0.420868 0.306519
0.858032 0.425995 0.317688
0.884277 0.432098 0.329742
0.909943 0.438934 0.342407
0.935059 0.446594 0.356110
0.959778 0.455231 0.370819
0.983490 0.465240 0.386719
1.000000 0.478149 0.404938
0.078583 0.355408 0.075134
0.103058 0.356415 0.076477
0.130035 0.356995 0.078308
0.156677 0.356720 0.081543
0.178833 0.354980 0.086670
0.199493 0.352142 0.094238
0.223297 0.348755 0.105042
0.250214 0.346069 0.116699
0.278473 0.343994 0.129333
0.305359 0.342468 0.142822
0.330261 0.341278 0.156830
0.347992 0.335205 0.168427
0.373413 0.337677 0.183380
0.405182 0.344696 0.195313
0.452332 0.361725 0.203705
0.501282 0.378784 0.216553
0.550995 0.396271 0.234009
0.601959 0.413483 0.250824
0.650909 0.428772 0.266785
0.695282 0.441101 0.281799
0.728149 0.445374 0.291046
0.757507 0.447540 0.299011
0.785309 0.449493 0.307159
0.812195 0.451569 0.315704
0.838562 0.454651 0.325104
0.864349 0.458618 0.335541
0.889679 0.464172 0.347290
0.914459 0.470520 0.359924
0.938690 0.477997 0.373535
0.962402 0.486298 0.388306
0.985199 0.495728 0.404297
1.000000 0.507477 0.422089
0.089264 0.389587 0.085449
0.111603 0.390656 0.086639
0.137878 0.391327 0.088470
0.164948 0.391327 0.091370
0.187378 0.389862 0.095245
0.206696 0.387085 0.101410
0.228455 0.383728 0.110321
0.254852 0.380737 0.121246
0.283234 0.378479 0.133575
0.312073 0.376862 0.147095
0.339020 0.375549 0.161285
0.364227 0.374451 0.175659
0.381927 0.367828 0.187561
0.405945 0.368896 0.203705
0.438416 0.376282 0.216034
0.487366 0.394531 0.224396
0.538116 0.412872 0.236450
0.589142 0.431610 0.254913
0.639496 0.449127 0.273071
0.687378 0.464996 0.291138
0.729919 0.477051 0.307343
0.766907 0.485565 0.321503
0.794128 0.487274 0.329590
0.820435 0.488983 0.337891
0.846008 0.491089 0.346741
0.870972 0.494141 0.356659
0.895447 0.498474 0.367798
0.919434 0.504303 0.380127
0.942780 0.511261 0.393707
0.965607 0.519348 0.408539
0.987244 0.528534 0.424835
1.000000 0.539520 0.442474
0.101074 0.424347 0.097717
0.121704 0.425354 0.098724
0.147003 0.426025 0.100250
0.174255 0.426361 0.103058
0.197266 0.425262 0.106384
0.215912 0.422577 0.110657
0.235077 0.419220 0.117523
0.259155 0.415924 0.127380
0.287628 0.413452 0.139191
0.317352 0.411682 0.152222
0.346375 0.410278 0.166229
0.373627 0.409088 0.180511
0.398865 0.407928 0.195404
0.416199 0.400665 0.207031
0.439117 0.400726 0.223785
0.473633 0.409607 0.236176
0.522217 0.427612 0.244720
0.574463 0.447418 0.258148
0.625336 0.466309 0.276154
0.673615 0.483459 0.295837
0.718964 0.498749 0.315094
0.761749 0.512726 0.334351
0.797943 0.522186 0.350250
0.828430 0.527954 0.362854
0.853394 0.529785 0.371704
0.877686 0.532196 0.381104
0.901337 0.535522 0.391632
0.924377 0.540009 0.403503
0.946899 0.546265 0.416840
0.969025 0.553864 0.431610
0.989288 0.562836 0.447998
1.000000 0.573151 0.465576
0.113617 0.458954 0.110596
0.132294 0.459778 0.111633
0.155762 0.460327 0.113281
0.183594 0.461548 0.115265
0.207550 0.461395 0.118378
0.226166 0.458893 0.121521
0.243286 0.455505 0.126190
0.264709 0.451874 0.134338
0.291534 0.449036 0.145081
0.321808 0.446899 0.157837
0.352356 0.445404 0.171417
0.381317 0.444061 0.185455
0.408203 0.442871 0.199951
0.433594 0.441742 0.214905
0.450836 0.434235 0.226440
0.473846 0.434204 0.243256
0.508453 0.443115 0.256561
0.556213 0.460785 0.266510
0.608765 0.481018 0.279724
0.658295 0.499390 0.297699
0.704010 0.515900 0.318573
0.747498 0.531342 0.339294
0.788269 0.545715 0.360107
0.825562 0.558228 0.379578
0.858093 0.567780 0.397064
0.883972 0.572205 0.409119
0.906860 0.574799 0.419342
0.929138 0.578339 0.430450
0.950867 0.583252 0.443146
0.972260 0.589935 0.457581
0.991119 0.598175 0.473907
1.000000 0.607635 0.491180
0.126648 0.493713 0.123901
0.143127 0.494598 0.125061
0.165009 0.495178 0.126434
0.191864 0.496307 0.128387
0.217377 0.497711 0.130859
0.237061 0.495880 0.133881
0.253113 0.492218 0.137299
0.271606 0.488464 0.142548
0.296295 0.485107 0.151794
0.325775 0.482666 0.163422
0.357391 0.480927 0.176788
0.387817 0.479706 0.190796
0.416321 0.478455 0.205017
0.443146 0.477173 0.219421
0.468567 0.476013 0.234375
0.485687 0.468323 0.245972
0.509003 0.468079 0.262909
0.542267 0.476135 0.277039
0.589142 0.493317 0.288147
0.640198 0.512939 0.300964
0.687744 0.530670 0.319092
0.731873 0.547607 0.341553
0.773224 0.563354 0.363922
0.812225 0.578278 0.386078
0.849030 0.592651 0.408905
0.881989 0.604828 0.430084
0.911072 0.614716 0.449432
0.933258 0.618469 0.461426
0.954285 0.622345 0.473328
0.975006 0.627594 0.486877
0.992615 0.634644 0.502411
1.000000 0.642609 0.518524
0.139496 0.528992 0.137299
0.154785 0.529846 0.138245
0.174744 0.530548 0.139557
0.200592 0.531494 0.141418
0.226410 0.533051 0.143707
0.248444 0.533539 0.146210
0.264374 0.529663 0.148865
0.280518 0.525391 0.152740
0.301880 0.521667 0.159302
0.330017 0.518799 0.169922
0.361328 0.516846 0.182709
0.393036 0.515472 0.196198
0.423218 0.514282 0.210144
0.451599 0.512970 0.224396
0.478210 0.511719 0.239044
0.503601 0.510559 0.254028
0.520691 0.502411 0.265442
0.544037 0.502014 0.282379
0.574982 0.508331 0.297668
0.618927 0.524078 0.310150
0.668793 0.543304 0.322357
0.715088 0.561615 0.342407
0.757599 0.578674 0.365082
0.797150 0.594879 0.388977
0.834381 0.610504 0.413300
0.869354 0.625549 0.438141
0.902161 0.640076 0.463226
0.931976 0.653107 0.487061
0.957245 0.662384 0.506439
0.977325 0.666412 0.518860
0.993835 0.671753 0.532959
1.000000 0.678284 0.548218
0.152771 0.563599 0.151031
0.166779 0.564423 0.151917
0.185028 0.565094 0.153198
0.209595 0.565979 0.154907
0.235077 0.567291 0.157074
0.258698 0.568970 0.159576
0.276245 0.566498 0.161987
0.290802 0.561737 0.164520
0.308990 0.557739 0.168518
0.334473 0.554474 0.177338
0.364777 0.552338 0.189056
0.396881 0.550873 0.201904
0.428284 0.549713 0.215698
0.458191 0.548401 0.229828
0.486237 0.547058 0.244293
0.512695 0.545532 0.258972
0.538025 0.544067 0.274109
0.555084 0.535889 0.285278
0.578217 0.535278 0.302155
0.605011 0.538788 0.318420
0.646851 0.553864 0.332642
0.695740 0.573730 0.346863
0.740509 0.592010 0.366364
0.781525 0.609222 0.389160
0.819427 0.626068 0.415253
0.854889 0.642273 0.441589
0.888245 0.657959 0.468414
0.919464 0.673035 0.495087
0.949036 0.687561 0.521515
0.976715 0.701782 0.547729
0.994629 0.709351 0.565552
1.000000 0.714478 0.579315
0.167358 0.596710 0.165588
0.179932 0.597473 0.166534
0.196594 0.598083 0.167816
0.219391 0.598907 0.169495
0.244385 0.600037 0.171661
0.268311 0.601532 0.173920
0.287994 0.601715 0.176300
0.301819 0.596741 0.178314
0.317261 0.592102 0.180847
0.339447 0.588867 0.186310
0.368164 0.586395 0.196960
0.399719 0.584900 0.209290
0.431854 0.583710 0.222534
0.462708 0.582581 0.236267
0.492096 0.581207 0.250488
0.519928 0.579590 0.265106
0.546173 0.577850 0.279877
0.571198 0.576324 0.295044
0.587891 0.568085 0.305786
0.610901 0.567780 0.322662
0.634094 0.569092 0.340363
0.674194 0.583771 0.356293
0.720520 0.603485 0.372223
0.763977 0.621857 0.391266
0.803864 0.639435 0.414246
0.840118 0.656769 0.442352
0.874023 0.673645 0.471039
0.905914 0.689789 0.499268
0.935883 0.705292 0.527161
0.964600 0.720245 0.554871
0.991425 0.734985 0.582794
0.999939 0.748352 0.608551
0.183228 0.629059 0.181366
0.194031 0.629883 0.182495
0.209625 0.630463 0.183685
0.230499 0.631378 0.185455
0.254822 0.632324 0.187439
0.278198 0.633636 0.189667
0.299225 0.635040 0.191986
0.313660 0.631165 0.193481
0.327057 0.625763 0.195221
0.345612 0.622223 0.198090
0.372131 0.619659 0.206360
0.402771 0.618042 0.217834
0.434814 0.616974 0.230621
0.466492 0.615967 0.244202
0.497009 0.614777 0.258301
0.525940 0.613281 0.272552
0.553314 0.611542 0.287262
0.579224 0.609802 0.302094
0.603821 0.608307 0.317352
0.620239 0.600342 0.327820
0.643127 0.600647 0.344696
0.664063 0.600525 0.363251
0.700836 0.614075 0.380707
0.743561 0.632721 0.398773
0.785828 0.651428 0.418182
0.824463 0.669464 0.442230
0.859650 0.687134 0.470917
0.891998 0.704285 0.500854
0.922668 0.720734 0.530304
0.951660 0.736481 0.559326
0.979034 0.751709 0.588165
0.997742 0.766113 0.616150
0.200409 0.661285 0.198730
0.210205 0.662079 0.199585
0.224243 0.662750 0.200836
0.243744 0.663544 0.202637
0.266205 0.664398 0.204559
0.289276 0.665527 0.206848
0.310303 0.666901 0.209259
0.326355 0.665466 0.210846
0.338318 0.659515 0.211517
0.354309 0.655151 0.213348
0.377441 0.652679 0.218292
0.406769 0.650940 0.228638
0.438446 0.649902 0.240631
0.470306 0.649048 0.253815
0.501434 0.648071 0.267792
0.531403 0.646820 0.281921
0.559875 0.645264 0.296448
0.586761 0.643494 0.311188
0.612183 0.641815 0.326050
0.636139 0.640472 0.341339
0.652130 0.632996 0.351501
0.674866 0.633606 0.368408
0.695313 0.633972 0.387085
0.726654 0.644379 0.406311
0.765472 0.661499 0.426605
0.806366 0.680969 0.448425
0.843964 0.699310 0.472809
0.878296 0.716797 0.499878
0.909454 0.734131 0.530853
0.938629 0.750641 0.561066
0.966217 0.766479 0.591064
0.990570 0.781219 0.620056
0.218933 0.693207 0.217346
0.227905 0.694000 0.218506
0.240906 0.694672 0.219788
0.258728 0.695435 0.221466
0.279572 0.696228 0.223267
0.301605 0.697205 0.225525
0.322632 0.698364 0.228058
0.340149 0.698822 0.230164
0.351624 0.693268 0.230225
0.365417 0.688141 0.231018
0.385315 0.685394 0.233368
0.412292 0.683655 0.241302
0.442963 0.682526 0.252808
0.474640 0.681763 0.265625
0.506134 0.680969 0.279175
0.536713 0.680023 0.293243
0.566193 0.678680 0.307617
0.593964 0.677124 0.322235
0.620239 0.675415 0.337158
0.644897 0.673798 0.352051
0.667877 0.672516 0.367188
0.683624 0.665649 0.377258
0.705505 0.666321 0.393951
0.725647 0.667236 0.412720
0.752502 0.675049 0.433563
0.786896 0.690094 0.456116
0.826416 0.710144 0.479980
0.862732 0.728699 0.504639
0.896271 0.745819 0.529816
0.926056 0.762970 0.560547
0.953766 0.779449 0.591736
0.979431 0.794678 0.621979
0.239471 0.724731 0.237701
0.247620 0.725494 0.238770
0.259003 0.726166 0.240204
0.275360 0.726959 0.241699
0.294983 0.727631 0.243500
0.316162 0.728394 0.245850
0.336700 0.729431 0.248138
0.355072 0.730621 0.250671
0.367554 0.727142 0.251160
0.379181 0.721283 0.251129
0.396118 0.717712 0.252411
0.419800 0.716034 0.257050
0.448944 0.714783 0.267273
0.480042 0.714020 0.279480
0.511383 0.713348 0.292725
0.542236 0.712646 0.306549
0.572327 0.711670 0.320862
0.601074 0.710327 0.335693
0.628265 0.708771 0.350555
0.653625 0.707123 0.365448
0.677063 0.705536 0.380127
0.698914 0.704163 0.395020
0.714264 0.697937 0.404999
0.735321 0.698853 0.421844
0.755371 0.700256 0.441040
0.778778 0.706116 0.462921
0.808197 0.718506 0.486725
0.846283 0.738861 0.511993
0.881195 0.757446 0.537445
0.913086 0.774536 0.562958
0.941986 0.791168 0.591919
0.968597 0.806732 0.622467
0.261444 0.755829 0.260162
0.268951 0.756561 0.261108
0.279388 0.757202 0.262360
0.294342 0.757965 0.263947
0.312317 0.758606 0.265991
0.332458 0.759247 0.268097
0.352570 0.760101 0.270477
0.371185 0.761200 0.273254
0.385773 0.760590 0.274811
0.395691 0.754578 0.273529
0.409546 0.750000 0.274017
0.429749 0.747925 0.275970
0.456665 0.746704 0.283966
0.486816 0.745819 0.295593
0.517761 0.745239 0.308472
0.548645 0.744720 0.322235
0.579010 0.743958 0.336700
0.608459 0.742920 0.351532
0.636414 0.741547 0.366272
0.662628 0.740021 0.381348
0.686584 0.738403 0.396088
0.708679 0.736755 0.410614
0.728973 0.735352 0.425049
0.744110 0.730011 0.435242
0.764679 0.731110 0.452484
0.784485 0.733002 0.471710
0.805603 0.737671 0.493835
0.829712 0.746735 0.517975
0.866241 0.767120 0.544373
0.899384 0.785675 0.570709
0.930023 0.802826 0.597168
0.958405 0.818268 0.624420
0.285492 0.786316 0.284302
0.292328 0.787140 0.285492
0.302063 0.787781 0.286774
0.315765 0.788452 0.288361
0.332184 0.789063 0.290253
0.351105 0.789612 0.292419
0.370789 0.790344 0.294830
0.389343 0.791260 0.297577
0.405273 0.792358 0.300354
0.414795 0.787567 0.299225
0.425690 0.782074 0.298126
0.442841 0.779144 0.299225
0.466492 0.778046 0.303986
0.495209 0.777191 0.314453
0.525574 0.776611 0.326996
0.556305 0.776123 0.340546
0.586731 0.775513 0.354767
0.616455 0.774750 0.369751
0.645172 0.773682 0.385132
0.672028 0.772339 0.400299
0.696594 0.770782 0.415131
0.718903 0.769165 0.429504
0.739044 0.767456 0.443329
0.757965 0.766022 0.457184
0.773468 0.761810 0.468048
0.793549 0.763214 0.485321
0.813263 0.765472 0.504120
0.832886 0.769562 0.525818
0.852448 0.775696 0.550049
0.886505 0.795288 0.577301
0.918396 0.813690 0.604797
0.948120 0.829956 0.631531
0.312256 0.816345 0.311035
0.318207 0.817108 0.312256
0.326965 0.817688 0.313507
0.339691 0.818329 0.315063
0.354828 0.818878 0.317139
0.372467 0.819397 0.319397
0.391266 0.819977 0.321991
0.409424 0.820770 0.324677
0.425323 0.821808 0.327393
0.436401 0.819855 0.327637
0.444794 0.813812 0.325287
0.458740 0.810059 0.325500
0.479156 0.808685 0.327789
0.505676 0.807983 0.336212
0.535278 0.807373 0.348389
0.565491 0.806885 0.361664
0.595795 0.806366 0.376099
0.625549 0.805695 0.391022
0.654572 0.804840 0.406555
0.682068 0.803772 0.422180
0.707153 0.802490 0.437195
0.729675 0.800934 0.451416
0.749542 0.799194 0.464569
0.768066 0.797546 0.477478
0.786316 0.796234 0.490906
0.802460 0.793488 0.502808
0.822327 0.795197 0.519867
0.841675 0.797699 0.538147
0.860596 0.801605 0.559174
0.879639 0.808258 0.584106
0.908478 0.824188 0.611664
0.938385 0.840851 0.639313
0.341614 0.845825 0.340515
0.347137 0.846527 0.341766
0.355194 0.847107 0.343079
0.366638 0.847687 0.344910
0.380524 0.848236 0.346893
0.396729 0.848663 0.349152
0.414520 0.849152 0.351654
0.432129 0.849792 0.354492
0.447815 0.850677 0.357330
0.460876 0.851166 0.359863
0.467590 0.845428 0.356598
0.478516 0.840912 0.355347
0.495880 0.838837 0.356842
0.519226 0.838287 0.361877
0.547272 0.837616 0.373169
0.576721 0.837067 0.386353
0.606689 0.836548 0.400543
0.636353 0.835968 0.415649
0.665344 0.835297 0.431244
0.692932 0.834473 0.446869
0.718414 0.833435 0.461914
0.741150 0.832092 0.475922
0.760834 0.830475 0.488434
0.778717 0.828705 0.500397
0.796326 0.827179 0.512665
0.814270 0.826355 0.526062
0.831512 0.825134 0.539276
0.850922 0.827118 0.556366
0.869690 0.829681 0.574127
0.888092 0.833801 0.594452
0.906738 0.840363 0.619690
0.931091 0.852295 0.646637
0.374359 0.874756 0.373322
0.379425 0.875427 0.374695
0.386749 0.875916 0.376160
0.397064 0.876495 0.377899
0.409760 0.876923 0.379913
0.424622 0.877380 0.382355
0.441101 0.877747 0.384949
0.457794 0.878265 0.387726
0.473267 0.878998 0.390869
0.487244 0.880066 0.394196
0.495544 0.876984 0.392700
0.503723 0.871918 0.389893
0.517456 0.869019 0.390076
0.536926 0.867981 0.392700
0.562439 0.867279 0.401886
