tools/luts_backup/LAPARDIN-WEDLUTS-19.cube
#Created by: Adobe Photoshop Export Color Lookup Plugin
#Copyright: (C) 2017 Andrey Lapardin. vk.com-3dluts
TITLE "Andrey Lapardin. vk.com-3dluts"
#LUT size
LUT_3D_SIZE 32
#data domain
DOMAIN_MIN 0.0 0.0 0.0
DOMAIN_MAX 1.0 1.0 1.0
#LUT data points
0.023224 0.044861 0.056671
0.027313 0.045258 0.056915
0.033844 0.045410 0.057159
0.043060 0.045654 0.057709
0.054871 0.046295 0.058167
0.069672 0.046295 0.058563
0.087311 0.046631 0.058807
0.109375 0.045837 0.059326
0.135773 0.043335 0.059692
0.166626 0.038513 0.060242
0.202515 0.030273 0.060486
0.242310 0.018158 0.060791
0.286652 0.000458 0.061066
0.334534 0.000000 0.061157
0.385254 0.000000 0.061310
0.438782 0.000000 0.061859
0.493256 0.000000 0.061859
0.546478 0.000000 0.062836
0.597168 0.000000 0.063965
0.643738 0.000000 0.065460
0.686462 0.000000 0.067841
0.726349 0.000000 0.070557
0.765137 0.000000 0.073639
0.804352 0.000000 0.077576
0.842834 0.000000 0.082336
0.879669 0.000000 0.087891
0.914368 0.000000 0.094940
0.946289 0.000000 0.102997
0.975616 0.000000 0.112793
1.000000 0.101807 0.124908
1.000000 0.165680 0.139801
1.000000 0.217194 0.157898
0.023193 0.049713 0.057892
0.027893 0.050415 0.057739
0.034973 0.050873 0.057922
0.044678 0.051422 0.058075
0.056915 0.051941 0.058502
0.072235 0.052185 0.058868
0.091156 0.052185 0.059448
0.113739 0.050842 0.059998
0.140717 0.048523 0.060303
0.171906 0.044373 0.060364
0.207489 0.036621 0.060913
0.247864 0.024414 0.061096
0.291992 0.007568 0.061218
0.339508 0.000000 0.061493
0.390533 0.000000 0.061493
0.443542 0.000000 0.061798
0.497528 0.000000 0.062378
0.550385 0.000000 0.063080
0.600555 0.000000 0.064331
0.646362 0.000000 0.065918
0.688782 0.000000 0.068268
0.728149 0.000000 0.070679
0.766724 0.000000 0.074158
0.805786 0.000000 0.077759
0.843872 0.000000 0.083038
0.880554 0.000000 0.088531
0.915070 0.000000 0.095184
0.946655 0.000000 0.103455
0.975647 0.044281 0.113495
1.000000 0.126831 0.125854
1.000000 0.182953 0.140686
1.000000 0.230316 0.159241
0.023987 0.055908 0.059235
0.027893 0.056641 0.059082
0.034546 0.057831 0.058807
0.045471 0.058624 0.058899
0.058868 0.058960 0.059326
0.075592 0.058594 0.059357
0.095245 0.058380 0.059937
0.118225 0.057587 0.060364
0.145782 0.055084 0.060638
0.177338 0.051270 0.060669
0.213409 0.044739 0.061035
0.253845 0.033081 0.061127
0.297943 0.016968 0.061432
0.345490 0.000000 0.061493
0.396271 0.000000 0.061615
0.449066 0.000000 0.062012
0.502594 0.000000 0.062683
0.554718 0.000000 0.063538
0.604187 0.000000 0.064789
0.649445 0.000000 0.066132
0.691010 0.000000 0.068848
0.730194 0.000000 0.071533
0.768555 0.000000 0.074493
0.807373 0.000000 0.078400
0.845184 0.000000 0.083008
0.881561 0.000000 0.088715
0.915619 0.000000 0.095337
0.946991 0.000000 0.104004
0.975800 0.087738 0.114380
1.000000 0.150818 0.127228
1.000000 0.200592 0.142639
1.000000 0.244141 0.161011
0.023315 0.065125 0.060760
0.027252 0.065430 0.061340
0.033051 0.066559 0.061096
0.044342 0.068237 0.060364
0.061249 0.069763 0.059845
0.078796 0.069611 0.060150
0.100891 0.068665 0.060394
0.125427 0.067780 0.060394
0.153076 0.065857 0.060577
0.185303 0.062927 0.060760
0.221771 0.057281 0.061035
0.262146 0.048248 0.061249
0.306488 0.033722 0.061310
0.353821 0.013611 0.061798
0.404449 0.000000 0.061951
0.456757 0.000000 0.062439
0.509491 0.000000 0.063080
0.560852 0.000000 0.063843
0.609192 0.000000 0.064941
0.653473 0.000000 0.066986
0.694489 0.000000 0.069183
0.733063 0.000000 0.072083
0.771149 0.000000 0.074951
0.809448 0.000000 0.079102
0.846924 0.000000 0.083862
0.882843 0.000000 0.089752
0.916473 0.000000 0.096649
0.947449 0.068481 0.104980
0.975922 0.131134 0.115692
1.000000 0.179962 0.128571
1.000000 0.223694 0.144714
1.000000 0.262878 0.163605
0.020660 0.077515 0.062592
0.025421 0.077698 0.063171
0.030853 0.079010 0.062866
0.040863 0.081116 0.062408
0.058075 0.083801 0.061310
0.081696 0.085480 0.060547
0.104309 0.085297 0.060638
0.131287 0.084351 0.060577
0.162292 0.082367 0.060608
0.195679 0.079437 0.060730
0.232391 0.075562 0.061066
0.273193 0.069305 0.061310
0.317169 0.059235 0.061432
0.364685 0.043396 0.061584
0.414764 0.019318 0.062073
0.466431 0.000000 0.062408
0.518280 0.000000 0.063202
0.568481 0.000000 0.064148
0.615417 0.000000 0.065765
0.658661 0.000000 0.067139
0.698822 0.000000 0.069763
0.736725 0.000000 0.072662
0.774292 0.000000 0.075104
0.812195 0.000000 0.079315
0.849091 0.000000 0.084259
0.884338 0.010559 0.090363
0.917511 0.078705 0.097717
0.947968 0.129425 0.106293
0.975983 0.173401 0.118042
1.000000 0.213440 0.131409
1.000000 0.250610 0.147766
1.000000 0.285400 0.167206
0.015015 0.095062 0.064270
0.019653 0.095245 0.065155
0.025452 0.095825 0.065613
0.036346 0.098206 0.064697
0.052948 0.101257 0.063843
0.076752 0.104706 0.062317
0.107391 0.107697 0.060547
0.135315 0.107117 0.060364
0.167755 0.106201 0.060516
0.204620 0.103760 0.060394
0.245178 0.099701 0.060577
0.286224 0.095367 0.060822
0.330261 0.089142 0.061157
0.377686 0.079620 0.061523
0.427246 0.065796 0.061859
0.478302 0.046539 0.062561
0.528748 0.021362 0.062775
0.577606 0.000000 0.064056
0.622864 0.000000 0.065674
0.664703 0.000000 0.067413
0.703705 0.000000 0.069733
0.740906 0.000000 0.073120
0.778168 0.001465 0.075714
0.815369 0.035950 0.079956
0.851563 0.075623 0.084900
0.886230 0.111298 0.090729
0.918671 0.146088 0.098816
0.948456 0.181213 0.108429
0.976013 0.215393 0.120331
1.000000 0.248566 0.134827
1.000000 0.280731 0.152161
1.000000 0.311035 0.172760
0.003784 0.117889 0.066864
0.009857 0.118164 0.067688
0.017181 0.118591 0.068481
0.027863 0.120331 0.068573
0.045441 0.123627 0.067230
0.070221 0.127502 0.065857
0.100433 0.131744 0.063751
0.137848 0.136200 0.060638
0.171722 0.135712 0.059967
0.209625 0.135010 0.060089
0.251678 0.133087 0.060089
0.297638 0.129364 0.059937
0.345367 0.123993 0.059875
0.392670 0.118774 0.060242
0.441681 0.111145 0.060669
0.491425 0.102356 0.061401
0.540771 0.092865 0.062164
0.587555 0.084076 0.063416
0.630951 0.079102 0.064758
0.671356 0.079590 0.066925
0.709106 0.085846 0.069672
0.745544 0.096832 0.072052
0.782349 0.112061 0.075531
0.818665 0.131317 0.080109
0.854279 0.152374 0.085480
0.888092 0.176422 0.092133
0.919739 0.202423 0.100250
0.948914 0.229614 0.110657
0.976013 0.257813 0.123444
1.000000 0.285553 0.138672
1.000000 0.312531 0.157959
1.000000 0.338898 0.179321
0.000000 0.147064 0.070618
0.000000 0.147247 0.071716
0.000946 0.147827 0.072662
0.013794 0.148407 0.073517
0.032104 0.151947 0.072357
0.060730 0.155853 0.070557
0.092438 0.160553 0.068237
0.129059 0.165710 0.065186
0.173859 0.171783 0.060608
0.213623 0.170807 0.058990
0.256348 0.171021 0.058624
0.302765 0.169678 0.058136
0.352905 0.166962 0.057953
0.406250 0.162415 0.057953
0.457153 0.157776 0.058228
0.505920 0.153656 0.058929
0.553223 0.149780 0.060150
0.598145 0.147888 0.061218
0.639496 0.148163 0.063538
0.678162 0.152496 0.065857
0.714874 0.159393 0.068390
0.750458 0.169312 0.071350
0.786621 0.182190 0.074982
0.822388 0.196686 0.080048
0.856934 0.213806 0.085510
0.889923 0.232697 0.093475
0.920715 0.253845 0.102997
0.949280 0.276489 0.114563
0.975891 0.299011 0.128937
1.000000 0.322540 0.145660
1.000000 0.345306 0.165344
1.000000 0.367950 0.188110
0.000000 0.182495 0.075531
0.000000 0.182709 0.076477
0.000000 0.183228 0.077606
0.000000 0.183868 0.079224
0.011353 0.186157 0.079102
0.044098 0.190216 0.077118
0.081421 0.195190 0.074310
0.120209 0.200378 0.071198
0.163910 0.205566 0.066650
0.212769 0.210968 0.061157
0.259125 0.211639 0.057495
0.306519 0.212646 0.056610
0.357086 0.212555 0.055725
0.410217 0.211151 0.055450
0.465485 0.208527 0.054474
0.520111 0.205505 0.054596
0.565826 0.204803 0.055298
0.608246 0.206299 0.057312
0.647888 0.209351 0.059845
0.684906 0.214844 0.062408
0.720337 0.222076 0.065826
0.755463 0.231445 0.069183
0.790924 0.242035 0.074493
0.825806 0.255066 0.079559
0.859619 0.269135 0.086578
0.891693 0.285034 0.095856
0.921722 0.302399 0.106934
0.949677 0.320831 0.119690
0.975708 0.339691 0.135834
1.000000 0.358948 0.153870
1.000000 0.378326 0.175171
1.000000 0.398224 0.199158
0.000000 0.223511 0.081635
0.000000 0.223938 0.082428
0.000000 0.224091 0.083832
0.000000 0.224915 0.085693
0.000000 0.225708 0.087708
0.015320 0.229858 0.085327
0.064697 0.234314 0.082489
0.109619 0.239441 0.078644
0.155518 0.244904 0.074310
0.203796 0.250519 0.067993
0.256744 0.255646 0.060883
0.308441 0.256958 0.054352
0.359314 0.259064 0.052399
0.412598 0.259949 0.051575
0.466736 0.260498 0.049866
0.520416 0.260681 0.050140
0.571808 0.261566 0.049835
0.617798 0.263550 0.051117
0.655396 0.267761 0.053680
0.691254 0.273193 0.058075
0.725769 0.280518 0.062439
0.760559 0.288788 0.066895
0.795288 0.298309 0.072754
0.829315 0.309174 0.079681
0.862213 0.321075 0.088654
0.893555 0.334106 0.099701
0.922729 0.348358 0.112244
0.949982 0.363129 0.127716
0.975677 0.378754 0.145142
1.000000 0.394958 0.164856
1.000000 0.411560 0.187469
1.000000 0.428986 0.212555
0.000000 0.269073 0.088531
0.000000 0.269379 0.089783
0.000000 0.269806 0.090942
0.000000 0.270355 0.093170
0.000000 0.271057 0.095886
0.000000 0.273560 0.095428
0.037262 0.277893 0.092529
0.095367 0.282776 0.088257
0.146179 0.288025 0.083679
0.196503 0.293427 0.077789
0.248840 0.298859 0.069824
0.304932 0.303925 0.060181
0.360107 0.305267 0.049988
0.413300 0.308350 0.046814
0.466675 0.310913 0.045441
0.519012 0.313354 0.044922
0.568939 0.316589 0.044159
0.615112 0.320465 0.044464
0.658752 0.324951 0.047455
0.697174 0.330261 0.051300
0.731140 0.336182 0.058228
0.765503 0.343201 0.064667
0.799500 0.351196 0.072479
0.832916 0.359955 0.082153
0.865082 0.369324 0.093384
0.895386 0.379913 0.107269
0.923828 0.391266 0.121887
0.950531 0.403351 0.138519
0.975708 0.416290 0.157654
0.999634 0.429962 0.178619
1.000000 0.444702 0.201813
1.000000 0.460358 0.227722
0.000000 0.318176 0.097168
0.000000 0.318481 0.098267
0.000000 0.318909 0.099945
0.000000 0.319336 0.101715
0.000000 0.319946 0.104797
0.000000 0.320801 0.108093
0.000000 0.324799 0.104797
0.077148 0.329376 0.100494
0.136017 0.334229 0.095276
0.189545 0.339539 0.089386
0.242523 0.344757 0.081360
0.298218 0.349701 0.072357
0.356384 0.354309 0.060089
0.413055 0.355957 0.044525
0.464996 0.359161 0.041870
0.516113 0.363190 0.040497
0.564728 0.367493 0.039703
0.609924 0.372223 0.041901
0.652710 0.377502 0.044647
0.694031 0.383026 0.049194
0.735046 0.388824 0.056274
0.770813 0.394409 0.064972
0.804230 0.400208 0.076447
0.836884 0.406799 0.088440
0.868103 0.414093 0.102570
0.897614 0.422424 0.117340
0.925201 0.431610 0.134094
0.951172 0.441864 0.152588
0.975739 0.452942 0.173065
0.999237 0.464874 0.195313
1.000000 0.477997 0.219574
1.000000 0.492432 0.245453
0.000000 0.369354 0.107269
0.000000 0.369690 0.108398
0.000000 0.370026 0.110138
0.000000 0.370483 0.112305
0.000000 0.371002 0.115082
0.000000 0.371704 0.118958
0.000000 0.373871 0.119049
0.053802 0.377838 0.114716
0.126434 0.382111 0.110107
0.184570 0.386841 0.103912
0.239502 0.391388 0.096710
0.294769 0.395782 0.087433
0.351410 0.399994 0.076508
0.408813 0.403992 0.063416
0.464142 0.406433 0.044647
0.512390 0.408630 0.040253
0.559418 0.413605 0.040649
0.604004 0.418884 0.042999
0.646179 0.424133 0.047241
0.687378 0.429321 0.053619
0.728577 0.434570 0.061340
0.769714 0.439880 0.073242
0.809601 0.445007 0.085846
0.841278 0.450012 0.100708
0.871490 0.455841 0.115692
0.899963 0.462616 0.132538
0.926575 0.470367 0.150757
0.951813 0.479156 0.170135
0.975739 0.488892 0.191467
0.998566 0.499786 0.214478
1.000000 0.511841 0.239014
1.000000 0.525604 0.265259
0.000000 0.420502 0.119995
0.000000 0.420685 0.121399
0.000000 0.420837 0.122986
0.000000 0.421356 0.125000
0.000000 0.421661 0.128265
0.000000 0.422272 0.132233
0.000000 0.422791 0.136292
0.035187 0.426147 0.132660
0.122650 0.429565 0.128021
0.184723 0.433411 0.122559
0.240723 0.437164 0.115753
0.296204 0.441040 0.107513
0.350952 0.444458 0.098236
0.405518 0.447723 0.087341
0.459656 0.450623 0.073608
0.511383 0.453583 0.053070
0.554657 0.454285 0.048340
0.598114 0.459503 0.052155
0.640106 0.464447 0.057587
0.681091 0.469452 0.064972
0.722412 0.474762 0.073608
0.763550 0.479828 0.085724
0.803558 0.484772 0.099976
0.841461 0.489990 0.115326
0.874939 0.495575 0.133118
0.902161 0.501282 0.151306
0.927856 0.508148 0.170532
0.952209 0.516022 0.190582
0.975403 0.524933 0.212158
0.997528 0.535156 0.235352
1.000000 0.546661 0.260101
1.000000 0.559387 0.286438
0.000000 0.468933 0.137299
0.000000 0.469086 0.138733
0.000000 0.469177 0.140472
0.000000 0.469391 0.142303
0.000000 0.469727 0.145569
0.000000 0.470093 0.149384
0.000000 0.470459 0.153687
0.050354 0.471741 0.154816
0.133972 0.474518 0.151215
0.194946 0.477386 0.145935
0.250122 0.480194 0.140259
0.303284 0.482819 0.133484
0.355957 0.485504 0.124817
0.407471 0.488129 0.115509
0.458038 0.490143 0.104706
0.506653 0.492432 0.092651
0.554291 0.495758 0.073425
0.592957 0.494843 0.066895
0.634125 0.499939 0.073212
0.675049 0.505127 0.081085
0.716553 0.510559 0.090393
0.757568 0.515808 0.102356
0.797272 0.520966 0.117004
0.834961 0.526306 0.133484
0.869781 0.532227 0.151398
0.901855 0.538971 0.171783
0.928772 0.545807 0.192322
0.952148 0.553223 0.213593
0.974579 0.561523 0.235413
0.996002 0.570984 0.258545
1.000000 0.581573 0.283264
1.000000 0.593323 0.309357
0.000000 0.512573 0.160126
0.000000 0.512726 0.161469
0.000000 0.512756 0.163086
0.000000 0.512848 0.164948
0.000000 0.512878 0.167969
0.000000 0.513000 0.171570
0.000000 0.513123 0.176422
0.096680 0.513275 0.181824
0.161316 0.515045 0.178589
0.216705 0.517120 0.174377
0.267731 0.519104 0.169403
0.317627 0.521210 0.163330
0.366394 0.523193 0.156250
0.414001 0.525116 0.148834
0.460388 0.526917 0.139221
0.505096 0.528870 0.129730
0.548981 0.530548 0.117310
0.593353 0.534180 0.100311
0.628723 0.531616 0.092255
0.669556 0.537476 0.100464
0.711060 0.543427 0.109528
0.751617 0.549103 0.121887
0.790985 0.554779 0.135986
0.828033 0.560699 0.152527
0.862335 0.567230 0.170532
0.893951 0.574371 0.190765
0.923370 0.582123 0.213623
0.950867 0.590332 0.237885
0.973328 0.598022 0.260101
0.994049 0.606598 0.283661
1.000000 0.615936 0.307434
1.000000 0.626495 0.333099
0.000000 0.551849 0.187469
0.000000 0.551788 0.188751
0.000000 0.551819 0.190002
0.000000 0.551788 0.192566
0.000031 0.551758 0.195251
0.000061 0.551788 0.199097
0.084839 0.551727 0.203400
0.148071 0.551697 0.208618
0.199066 0.552216 0.210938
0.245911 0.553772 0.206909
0.291656 0.555237 0.202026
0.336029 0.556915 0.196960
0.380096 0.558502 0.191040
0.423218 0.560120 0.183960
0.465088 0.561768 0.176727
0.506531 0.563324 0.167542
0.546967 0.565063 0.158173
0.587219 0.566711 0.147034
0.630127 0.570679 0.131805
0.664063 0.567444 0.120178
0.705139 0.574158 0.130341
0.745300 0.580658 0.142059
0.784088 0.587158 0.156189
0.820648 0.593811 0.172974
0.854553 0.600708 0.190826
0.885925 0.608154 0.211670
0.915070 0.615875 0.234100
0.942444 0.624023 0.257660
0.968292 0.632355 0.283295
0.991974 0.641052 0.309357
1.000000 0.649353 0.333221
1.000000 0.658447 0.357788
0.000000 0.588287 0.218872
0.000031 0.588226 0.219971
0.000031 0.588165 0.221344
0.000031 0.588104 0.223602
0.034790 0.588074 0.226257
0.105438 0.587952 0.229980
0.155609 0.587860 0.234283
0.198700 0.587769 0.239136
0.238464 0.587646 0.244965
0.278168 0.588715 0.242554
0.317261 0.590149 0.238312
0.356232 0.591614 0.234039
0.395264 0.593109 0.227997
0.433929 0.594788 0.222046
0.472046 0.596405 0.215210
0.509949 0.598175 0.207458
0.547729 0.600037 0.199432
0.585754 0.601776 0.190277
0.624115 0.603394 0.179260
0.664337 0.606140 0.166809
0.699860 0.604584 0.153351
0.738922 0.610626 0.162628
0.777039 0.617798 0.177368
0.813141 0.624939 0.193329
0.846497 0.632324 0.212280
0.877563 0.639832 0.232727
0.906586 0.647522 0.254486
0.933960 0.655396 0.278381
0.959900 0.663269 0.303009
0.984161 0.671417 0.329254
1.000000 0.679901 0.356659
1.000000 0.688446 0.382690
0.001404 0.624847 0.252960
0.038574 0.624847 0.254028
0.071930 0.624847 0.255341
0.106934 0.624725 0.257385
0.141632 0.624695 0.259949
0.175659 0.624664 0.263428
0.209625 0.624542 0.267120
0.243652 0.624420 0.272186
0.276367 0.624451 0.277679
0.308746 0.624817 0.280426
0.342255 0.626099 0.276550
0.376251 0.627594 0.272125
0.410400 0.629120 0.267578
0.444946 0.630646 0.262177
0.479553 0.632355 0.256165
0.514496 0.634064 0.249207
0.549957 0.635651 0.242035
0.585815 0.637268 0.233917
0.622681 0.638794 0.225037
0.660065 0.640137 0.214844
0.697784 0.641296 0.204102
0.734253 0.641815 0.190491
0.770020 0.646362 0.198090
0.805481 0.654022 0.215027
0.838623 0.661560 0.233429
0.869476 0.669067 0.253845
0.898468 0.676575 0.275299
0.925934 0.683990 0.298706
0.952026 0.691406 0.323425
0.976440 0.699005 0.348663
0.998840 0.706848 0.374817
1.000000 0.715240 0.401825
0.138672 0.661835 0.289154
0.151184 0.661835 0.290100
0.165436 0.661865 0.291260
0.183197 0.661774 0.293243
0.204926 0.661682 0.295471
0.228912 0.661591 0.298279
0.254669 0.661591 0.302246
0.281525 0.661499 0.306458
0.308746 0.661530 0.311646
0.336334 0.661560 0.317535
0.364746 0.662537 0.315918
0.394287 0.663879 0.312225
0.424927 0.665161 0.307983
0.455750 0.666565 0.303070
0.487885 0.668030 0.297760
0.520325 0.669434 0.291718
0.553772 0.670868 0.285187
0.588013 0.672272 0.278229
0.623199 0.673431 0.270569
0.659058 0.674530 0.262207
0.695160 0.675507 0.253082
0.730927 0.676422 0.242950
0.766022 0.677734 0.230499
0.798187 0.680725 0.235870
0.831024 0.688324 0.254852
0.861847 0.695709 0.274384
0.890869 0.702942 0.295837
0.918488 0.710052 0.319000
0.944702 0.717163 0.342682
0.969177 0.724396 0.367493
0.991669 0.731842 0.392914
1.000000 0.739807 0.419281
0.208649 0.697784 0.326355
0.217133 0.697784 0.327606
0.226044 0.697723 0.328369
0.238739 0.697784 0.330231
0.254578 0.697693 0.332306
0.272736 0.697632 0.335266
0.293091 0.697601 0.338348
0.315399 0.697571 0.342529
0.338531 0.697540 0.347107
0.362518 0.697601 0.352478
0.387146 0.697906 0.355499
0.413239 0.699005 0.352448
0.440430 0.700073 0.348541
0.468781 0.701233 0.344391
0.498047 0.702423 0.339722
0.528625 0.703552 0.334686
0.560425 0.704651 0.329102
0.593048 0.705627 0.323151
0.626587 0.706573 0.316254
0.660583 0.707306 0.308990
0.694672 0.707977 0.301056
0.728577 0.708618 0.292786
0.761810 0.709198 0.283081
0.795044 0.711121 0.272430
0.824127 0.712463 0.274933
0.854828 0.719788 0.295319
0.883881 0.726959 0.316040
0.911560 0.733978 0.338409
0.937958 0.740875 0.361359
0.962524 0.747925 0.385345
0.984924 0.755219 0.410461
1.000000 0.763000 0.437012
0.263153 0.731659 0.363922
0.269623 0.731659 0.364899
0.276642 0.731567 0.365753
0.286499 0.731567 0.367279
0.298706 0.731506 0.369171
0.313141 0.731506 0.371552
0.330231 0.731415 0.374817
0.348846 0.731354 0.378082
0.368896 0.731323 0.382294
0.390228 0.731293 0.386902
0.412323 0.731262 0.391998
0.435364 0.731903 0.391205
0.459808 0.732727 0.388092
0.485748 0.733582 0.384491
0.512939 0.734467 0.380890
0.541656 0.735199 0.376465
0.571411 0.735962 0.371613
0.602203 0.736633 0.366333
0.633514 0.737183 0.360748
0.665436 0.737701 0.354431
0.697388 0.738129 0.347595
0.728943 0.738556 0.340820
0.760071 0.738983 0.332581
0.790375 0.739410 0.324402
0.821869 0.741852 0.314667
0.848480 0.741821 0.314667
0.877563 0.748993 0.334930
0.905334 0.756012 0.356720
0.931702 0.762970 0.379181
0.956299 0.769989 0.402710
0.978546 0.777313 0.427948
0.998413 0.784943 0.454773
0.314697 0.762573 0.400665
0.319611 0.762512 0.401520
0.325104 0.762451 0.402283
0.332703 0.762451 0.403717
0.342712 0.762390 0.405518
0.355255 0.762329 0.407654
0.369141 0.762238 0.410248
0.385254 0.762115 0.413391
0.403137 0.762024 0.417053
0.421844 0.761963 0.421173
0.441986 0.761871 0.425964
0.463074 0.761871 0.429352
0.484985 0.762543 0.426453
0.508698 0.763092 0.423187
0.533722 0.763672 0.419952
0.559937 0.764160 0.416138
0.587311 0.764709 0.412140
0.615448 0.765198 0.407684
0.644440 0.765564 0.402832
0.673615 0.765930 0.397369
0.702820 0.766296 0.391846
0.731964 0.766602 0.385651
0.760681 0.766937 0.378815
0.789001 0.767273 0.371765
0.816925 0.767670 0.364166
0.847015 0.770477 0.356171
0.871735 0.769470 0.352753
0.899689 0.776642 0.373566
0.926025 0.783752 0.396149
0.950500 0.790894 0.419525
0.972626 0.798218 0.445038
0.992249 0.805878 0.472717
0.365631 0.790680 0.437500
0.369537 0.790649 0.437988
0.374084 0.790619 0.438812
0.380463 0.790558 0.439941
0.388763 0.790497 0.441559
0.399384 0.790405 0.443695
0.411804 0.790283 0.445984
0.425507 0.790192 0.449005
0.441467 0.790039 0.452362
0.458618 0.789825 0.456482
0.476929 0.789673 0.460754
0.496185 0.789520 0.465637
0.516113 0.789734 0.465454
0.537018 0.790222 0.462708
0.559326 0.790649 0.459534
0.582794 0.791046 0.456177
0.607269 0.791412 0.452667
0.632538 0.791809 0.448395
0.658386 0.792145 0.444336
0.684692 0.792480 0.439484
0.710999 0.792816 0.434387
0.737335 0.793152 0.428894
0.763733 0.793457 0.423126
0.789917 0.793854 0.417084
0.816010 0.794189 0.410248
0.842102 0.794586 0.403076
0.871124 0.797821 0.395874
0.894867 0.796936 0.392212
0.920837 0.803436 0.411926
0.945190 0.810760 0.435944
0.967072 0.818115 0.462372
0.986481 0.825684 0.491486
0.418182 0.816650 0.475555
0.421509 0.816620 0.476135
0.425323 0.816620 0.476868
0.430786 0.816498 0.478058
0.438110 0.816437 0.479523
0.447205 0.816315 0.481415
0.457825 0.816223 0.484009
0.470337 0.816010 0.486755
0.484100 0.815826 0.490112
0.499329 0.815643 0.493988
0.515717 0.815430 0.498322
0.533051 0.815247 0.503296
0.551117 0.815125 0.507324
0.569000 0.815552 0.504944
0.588318 0.815918 0.501862
0.608673 0.816315 0.498596
0.629883 0.816681 0.495148
0.651978 0.817047 0.491516
0.674469 0.817444 0.487396
0.697540 0.817841 0.483185
0.720947 0.818237 0.478546
0.744690 0.818634 0.473297
0.768646 0.819061 0.468018
0.792664 0.819489 0.462433
0.817047 0.819885 0.456390
0.841522 0.820282 0.449829
0.866150 0.820648 0.443085
0.894165 0.824249 0.436432
0.916870 0.824127 0.434448
0.940460 0.829529 0.452362
0.962097 0.836914 0.480011
0.981293 0.844299 0.511169
0.472290 0.841034 0.517303
0.475067 0.841003 0.518158
0.478516 0.840942 0.518860
0.483154 0.840881 0.520050
0.489136 0.840759 0.521515
0.496857 0.840668 0.523468
0.506165 0.840515 0.526062
0.516663 0.840363 0.528900
0.528503 0.840179 0.532227
0.541626 0.840027 0.536102
0.555756 0.839813 0.540436
0.570679 0.839630 0.545532
0.586395 0.839447 0.550842
0.601990 0.839630 0.551453
0.618256 0.840027 0.548798
0.635468 0.840424 0.545624
0.653473 0.840851 0.542664
0.672302 0.841309 0.539032
0.691803 0.841736 0.535278
0.711823 0.842224 0.531311
0.732452 0.842651 0.527069
0.753723 0.843109 0.522278
0.775330 0.843597 0.517212
0.797394 0.844025 0.512115
0.819916 0.844452 0.506134
0.842773 0.844879 0.500183
0.865875 0.845306 0.493744
0.888977 0.845703 0.487091
0.915100 0.849030 0.480652
0.936859 0.850067 0.480743
0.957764 0.854584 0.498413
0.976868 0.861755 0.530914
0.524292 0.863983 0.563416
0.526672 0.863922 0.564240
0.529480 0.863892 0.564941
0.533295 0.863831 0.566040
0.538300 0.863739 0.567505
0.544769 0.863647 0.569458
0.552338 0.863525 0.571686
0.561096 0.863373 0.574432
0.571014 0.863220 0.577545
0.582031 0.863037 0.581360
0.593842 0.862915 0.585480
0.606445 0.862762 0.590027
0.619690 0.862640 0.595062
0.633362 0.862579 0.599731
0.646881 0.862976 0.597412
0.661285 0.863403 0.595093
0.676544 0.863831 0.592163
0.692657 0.864288 0.589203
0.709503 0.864716 0.586090
0.727112 0.865204 0.582550
0.745392 0.865692 0.578766
0.764313 0.866150 0.574860
0.783875 0.866608 0.570343
0.803986 0.867035 0.565735
0.824646 0.867462 0.560913
0.845703 0.867920 0.555542
0.867004 0.868317 0.549713
0.888397 0.868774 0.543854
0.909790 0.869232 0.537354
0.932739 0.871582 0.531677
0.954071 0.874329 0.534271
0.973236 0.878143 0.551117
0.572693 0.885315 0.611053
0.574371 0.885315 0.611664
0.576630 0.885223 0.612244
0.579834 0.885193 0.613342
0.583893 0.885101 0.614624
0.588989 0.885071 0.616364
0.595154 0.884949 0.618408
0.602417 0.884857 0.620972
0.610657 0.884705 0.623810
0.619751 0.884583 0.627075
0.629639 0.884430 0.630920
0.640259 0.884338 0.634918
0.651550 0.884216 0.639465
0.663422 0.884094 0.644531
0.675171 0.884308 0.645447
