tools/luts_backup/LAPARDIN-WEDLUTS-19.cube
#Created by: Adobe Photoshop Export Color Lookup Plugin
#Copyright: (C) 2017 Andrey Lapardin. vk.com-3dluts
TITLE "Andrey Lapardin. vk.com-3dluts"
#LUT size
LUT_3D_SIZE 5
#data domain
#LUT data points
DOMAIN_MIN 0.000000 0.000000 0.000000
DOMAIN_MAX 0.903226 0.903226 0.903226
0.023224 0.044861 0.056671
0.109375 0.045837 0.059326
0.385254 0.000000 0.061310
0.726349 0.000000 0.070557
0.975616 0.000000 0.112793
0.000000 0.147064 0.070618
0.129059 0.165710 0.065186
0.457153 0.157776 0.058228
0.750458 0.169312 0.071350
0.975891 0.299011 0.128937
0.000000 0.468933 0.137299
0.050354 0.471741 0.154816
0.458038 0.490143 0.104706
0.757568 0.515808 0.102356
0.974579 0.561523 0.235413
0.263153 0.731659 0.363922
0.348846 0.731354 0.378082
0.512939 0.734467 0.380890
0.728943 0.738556 0.340820
0.931702 0.762970 0.379181
0.617218 0.904846 0.657288
0.641846 0.904449 0.665710
0.704742 0.903778 0.689636
0.793365 0.906830 0.676483
0.909607 0.911011 0.654968
0.009338 0.048889 0.122528
0.113373 0.045990 0.144104
0.401642 0.000000 0.169647
0.724640 0.000000 0.205841
0.968567 0.135406 0.259644
0.000000 0.163422 0.164948
0.158295 0.177002 0.176086
0.457764 0.181732 0.192413
0.745148 0.211884 0.220886
0.968384 0.326660 0.280701
0.000000 0.484100 0.260864
0.191040 0.485504 0.267334
0.479187 0.497894 0.252411
0.767548 0.523865 0.272675
0.966583 0.568787 0.362152
0.318298 0.736053 0.430267
0.389587 0.735748 0.441162
0.534424 0.737305 0.454437
0.733276 0.741211 0.419037
0.931458 0.766937 0.454437
0.627838 0.905396 0.682037
0.651550 0.904999 0.689240
0.712555 0.904327 0.710602
0.796539 0.907043 0.703705
0.908752 0.911285 0.682129
0.000000 0.055878 0.351288
0.000000 0.050781 0.375458
0.418762 0.000000 0.428925
0.728149 0.000000 0.461853
0.957855 0.193115 0.503235
0.000000 0.191467 0.389038
0.121338 0.190308 0.409027
0.467773 0.194427 0.453033
0.737701 0.246368 0.478455
0.952209 0.358002 0.513580
0.000000 0.495514 0.465637
0.260651 0.501526 0.472870
0.521515 0.518707 0.493683
0.757751 0.536255 0.513428
0.945435 0.582672 0.553131
0.415527 0.745667 0.578430
0.484100 0.745331 0.588745
0.591400 0.746338 0.598511
0.744965 0.748993 0.579437
0.930817 0.778809 0.625488
0.649078 0.907654 0.739227
0.665527 0.907806 0.740326
0.726318 0.906891 0.756714
0.804810 0.908203 0.766083
0.907776 0.912415 0.742615
0.000000 0.069366 0.621063
0.000000 0.057617 0.633759
0.429688 0.000000 0.669464
0.738251 0.000000 0.712494
0.947418 0.237518 0.737305
0.000000 0.209381 0.639221
0.071930 0.213318 0.649841
0.469360 0.218567 0.681244
0.743378 0.270477 0.720367
0.941254 0.379578 0.742371
0.173248 0.503387 0.656006
0.308502 0.509644 0.667175
0.508087 0.518433 0.700256
0.751556 0.547272 0.737488
0.927704 0.592590 0.756226
0.394836 0.746796 0.735077
0.458832 0.748291 0.737854
0.603119 0.753387 0.746613
0.767944 0.767578 0.765533
0.921295 0.784424 0.783997
0.653168 0.913605 0.824951
0.678070 0.913177 0.827423
0.745026 0.912079 0.835785
0.820648 0.912537 0.845795
0.908264 0.915131 0.831055
0.000000 0.111603 0.880493
0.197418 0.100220 0.884094
0.511017 0.081055 0.894531
0.763916 0.151764 0.910980
0.953400 0.316711 0.922729
0.000000 0.268494 0.882294
0.266754 0.270813 0.885529
0.521362 0.287537 0.894989
0.761536 0.336151 0.910187
0.946960 0.424500 0.922150
0.281342 0.546356 0.878937
0.337372 0.533051 0.883453
0.532684 0.537170 0.893158
0.757172 0.563812 0.908020
0.930237 0.615631 0.920837
0.443176 0.759216 0.885529
0.488007 0.757965 0.885529
0.598297 0.754669 0.886017
0.752380 0.759705 0.904663
0.916229 0.790222 0.923004
0.641113 0.915131 0.918549
0.663177 0.915039 0.919098
0.724701 0.915039 0.920837
0.817230 0.916718 0.924866
0.923828 0.926239 0.935272
