tools/luts_backup/LAPARDIN-WEDLUTS-13.cube
#Created by: Adobe Photoshop Export Color Lookup Plugin
#Copyright: (C) 2017 Andrey Lapardin. vk.com-3dluts
TITLE "Andrey Lapardin. vk.com-3dluts"
#LUT size
LUT_3D_SIZE 32
#data domain
DOMAIN_MIN 0.0 0.0 0.0
DOMAIN_MAX 1.0 1.0 1.0
#LUT data points
0.026825 0.027863 0.028015
0.030243 0.028442 0.028564
0.033997 0.028625 0.028809
0.040741 0.028748 0.029022
0.058197 0.028717 0.029633
0.080170 0.028564 0.030060
0.113373 0.028320 0.030609
0.155945 0.027863 0.031189
0.199951 0.029053 0.031494
0.246185 0.029877 0.031830
0.291107 0.029907 0.031799
0.336548 0.029663 0.031281
0.382965 0.029541 0.030273
0.430695 0.029785 0.028778
0.479156 0.030975 0.027557
0.528137 0.033478 0.026459
0.577179 0.037964 0.026154
0.625946 0.044189 0.026001
0.673645 0.054657 0.025909
0.718323 0.074829 0.025818
0.759094 0.098267 0.025757
0.796997 0.122192 0.025726
0.833984 0.146332 0.025726
0.862946 0.169983 0.025757
0.869080 0.191742 0.025818
0.874390 0.212067 0.025909
0.879700 0.231293 0.026672
0.885040 0.249359 0.039032
0.890686 0.267212 0.056885
0.896362 0.283997 0.078217
0.901733 0.301483 0.100403
0.906891 0.318268 0.122070
0.027405 0.030975 0.028503
0.030243 0.031036 0.028564
0.033966 0.031708 0.028839
0.045166 0.032806 0.029205
0.062042 0.033936 0.029724
0.088409 0.034851 0.030304
0.120300 0.035553 0.030853
0.159058 0.036072 0.031219
0.200317 0.036591 0.031433
0.242950 0.036133 0.031433
0.286377 0.034912 0.030975
0.330963 0.034607 0.030090
0.376740 0.035034 0.028870
0.423920 0.036469 0.027435
0.472076 0.039978 0.026794
0.520569 0.046326 0.026611
0.569458 0.056549 0.026459
0.618164 0.070953 0.026306
0.666229 0.089722 0.026154
0.711243 0.110901 0.026001
0.752258 0.131439 0.025940
0.790375 0.152496 0.025848
0.828674 0.174255 0.025818
0.859589 0.194336 0.025818
0.869049 0.213531 0.025879
0.874390 0.231476 0.026367
0.879700 0.248413 0.029755
0.884949 0.264587 0.040314
0.890228 0.280090 0.057098
0.895477 0.295593 0.077271
0.900726 0.310181 0.098633
0.905914 0.325378 0.120148
0.027618 0.034454 0.028687
0.030853 0.034576 0.028748
0.033936 0.034851 0.028900
0.049988 0.038300 0.029205
0.070221 0.041656 0.029419
0.094757 0.044403 0.030121
0.123779 0.046936 0.030975
0.159760 0.048889 0.031189
0.198730 0.050659 0.031158
0.239655 0.052216 0.030823
0.281830 0.053741 0.030060
0.325104 0.055420 0.029022
0.369690 0.057343 0.028320
0.415924 0.060364 0.027954
0.463440 0.065216 0.027588
0.511780 0.072906 0.027405
0.560822 0.084534 0.027252
0.609985 0.099762 0.027039
0.658325 0.117462 0.026794
0.703278 0.137695 0.026581
0.743774 0.157867 0.026398
0.783539 0.178558 0.026245
0.821442 0.199066 0.026123
0.855103 0.218689 0.026031
0.869019 0.237061 0.026062
0.874329 0.253540 0.027252
0.879669 0.268646 0.034668
0.884918 0.282684 0.044525
0.890198 0.296783 0.060638
0.895416 0.310028 0.079010
0.900665 0.322968 0.099762
0.905853 0.336975 0.120605
0.026093 0.047943 0.031158
0.030304 0.049133 0.030914
0.035553 0.050507 0.030029
0.052338 0.052399 0.027710
0.075836 0.056610 0.027466
0.101959 0.059845 0.028046
0.128998 0.062500 0.029541
0.159302 0.065399 0.030762
0.197266 0.068237 0.030457
0.237183 0.070679 0.029907
0.278503 0.073090 0.029205
0.321075 0.075867 0.028503
0.364960 0.079224 0.028381
0.410248 0.083618 0.028595
0.456787 0.089539 0.028870
0.504425 0.097595 0.028931
0.553040 0.108459 0.028778
0.602051 0.122192 0.028290
0.650116 0.139221 0.027771
0.694702 0.158813 0.027527
0.735565 0.178741 0.027283
0.775970 0.199677 0.026978
0.813629 0.220123 0.026703
0.848572 0.239288 0.026489
0.868927 0.256989 0.026855
0.874298 0.273010 0.030945
0.879608 0.287872 0.040161
0.884857 0.302246 0.051422
0.890167 0.315979 0.068115
0.895386 0.328827 0.086914
0.900635 0.341003 0.107269
0.905792 0.353912 0.127747
0.025726 0.062378 0.033051
0.029846 0.064972 0.032074
0.037354 0.068237 0.030273
0.054596 0.072021 0.027740
0.077271 0.073822 0.027435
0.110565 0.080200 0.027252
0.141388 0.084229 0.027893
0.171143 0.086639 0.028229
0.203644 0.089264 0.028107
0.237152 0.092407 0.028229
0.276825 0.096130 0.028107
0.319397 0.099976 0.028503
0.363007 0.104431 0.028992
0.407593 0.109741 0.029541
0.453094 0.116394 0.030090
0.499512 0.124756 0.030609
0.546844 0.135193 0.031067
0.594757 0.147858 0.031372
0.641785 0.163666 0.031525
0.686432 0.181213 0.031464
0.728271 0.199493 0.030731
0.769196 0.219330 0.028564
0.807068 0.239716 0.027588
0.842468 0.258972 0.027466
0.868866 0.276581 0.029022
0.874237 0.292511 0.036865
0.879578 0.307159 0.047485
0.884857 0.320587 0.059387
0.890137 0.332916 0.074280
0.895355 0.344482 0.091949
0.900635 0.355927 0.111511
0.905792 0.368164 0.131653
0.025940 0.080017 0.033905
0.029907 0.083069 0.032593
0.038300 0.088623 0.029938
0.056702 0.093689 0.027557
0.082947 0.097717 0.027496
0.109711 0.098083 0.027496
0.149384 0.106354 0.027710
0.180603 0.110229 0.027863
0.211792 0.113190 0.028015
0.244415 0.116180 0.028290
0.279968 0.119385 0.028564
0.317047 0.123108 0.029083
0.360168 0.127960 0.029663
0.404541 0.133575 0.030304
0.449463 0.140259 0.031067
0.495270 0.148407 0.031891
0.541168 0.158875 0.032867
0.587769 0.171631 0.033813
0.634308 0.186646 0.034912
0.679382 0.203766 0.036163
0.722717 0.222015 0.037201
0.763947 0.241150 0.037384
0.802185 0.260101 0.036316
0.838318 0.278839 0.032593
0.868835 0.296967 0.032928
0.874237 0.314911 0.045898
0.879578 0.330414 0.058868
0.884827 0.344116 0.073090
0.890137 0.356415 0.089722
0.895355 0.366364 0.106995
0.900604 0.376038 0.125397
0.905762 0.387268 0.144745
0.026062 0.102966 0.033295
0.029907 0.107117 0.030975
0.038391 0.113800 0.028900
0.056854 0.119476 0.027496
0.082947 0.123688 0.027679
0.116730 0.127258 0.027985
0.146606 0.126129 0.028015
0.188812 0.134888 0.028168
0.220245 0.138489 0.028290
0.253021 0.141785 0.028381
0.286713 0.144836 0.028564
0.321716 0.148254 0.029205
0.360962 0.152802 0.030334
0.402771 0.158691 0.031372
0.447510 0.165863 0.032227
0.492584 0.174103 0.033356
0.537781 0.184357 0.034637
0.583252 0.196655 0.036163
0.629272 0.211243 0.038208
0.674347 0.227448 0.040771
0.717743 0.244629 0.043701
0.758789 0.262543 0.046814
0.796875 0.279938 0.048706
0.832794 0.297180 0.048615
0.864960 0.314087 0.051819
0.874268 0.330322 0.061188
0.879608 0.345367 0.074036
0.884857 0.359253 0.089050
0.890137 0.371765 0.103363
0.895355 0.382904 0.118286
0.900604 0.393219 0.135437
0.905762 0.403870 0.154633
0.026093 0.136383 0.029968
0.030060 0.139618 0.028534
0.036591 0.145813 0.027740
0.052826 0.150848 0.027679
0.081207 0.154602 0.027985
0.115601 0.157776 0.028412
0.153870 0.161163 0.028503
0.185944 0.158539 0.028534
0.229523 0.166473 0.028656
0.261719 0.169067 0.028778
0.295227 0.172119 0.028870
0.330078 0.175354 0.028992
0.366180 0.179352 0.029480
0.403137 0.184967 0.031219
0.445557 0.192719 0.033569
0.489868 0.201752 0.034943
0.534546 0.212097 0.036255
0.580078 0.224304 0.037964
0.625580 0.238312 0.040314
0.671051 0.254272 0.043457
0.713379 0.270020 0.047913
0.753784 0.285889 0.053284
0.791351 0.301331 0.058258
0.826904 0.316406 0.062927
0.860077 0.331299 0.071411
0.874390 0.346039 0.080933
0.879700 0.360687 0.093262
0.884918 0.372498 0.104950
0.890167 0.384308 0.117676
0.895386 0.395538 0.129150
0.900635 0.406158 0.143555
0.905792 0.416565 0.160675
0.026093 0.171417 0.028168
0.030090 0.173492 0.027954
0.034241 0.179108 0.027679
0.047638 0.183594 0.027802
0.074554 0.186859 0.028198
0.109467 0.189575 0.028778
0.149323 0.192261 0.028748
0.191559 0.195465 0.028992
0.226013 0.191772 0.028992
0.268311 0.197937 0.029114
0.301575 0.200745 0.029205
0.336029 0.204071 0.029297
0.371826 0.207977 0.029724
0.408417 0.213043 0.031647
0.445282 0.220062 0.034576
0.484833 0.229095 0.036835
0.529968 0.240112 0.038452
0.575684 0.252686 0.040375
0.621674 0.266754 0.042938
0.665894 0.280914 0.046539
0.707336 0.294952 0.051758
0.747101 0.309174 0.058502
0.784485 0.322937 0.066498
0.820038 0.336700 0.077576
0.853302 0.350250 0.088837
0.874542 0.363770 0.100586
0.879822 0.377045 0.113129
0.885071 0.386383 0.121155
0.890259 0.398346 0.132446
0.895416 0.409821 0.144348
0.900635 0.420288 0.157104
0.905792 0.430542 0.171234
0.026093 0.207947 0.028687
0.030121 0.208527 0.027954
0.034393 0.213684 0.027802
0.042267 0.217926 0.027863
0.065063 0.221069 0.028442
0.100128 0.223389 0.028900
0.142517 0.225647 0.028992
0.185303 0.228058 0.029205
0.230194 0.230865 0.029419
0.266968 0.225983 0.029388
0.307312 0.230377 0.029541
0.341675 0.233490 0.029633
0.377075 0.237274 0.029663
0.413300 0.242157 0.030304
0.450043 0.248627 0.033447
0.487030 0.257080 0.038269
0.526550 0.267761 0.042389
0.569458 0.279999 0.044556
0.614075 0.292633 0.047333
0.657227 0.305267 0.051483
0.698120 0.317719 0.057281
0.737793 0.330383 0.065338
0.775238 0.343109 0.075470
0.810822 0.355835 0.087524
0.844849 0.368408 0.100098
0.871704 0.380798 0.113190
0.879944 0.392853 0.126709
0.885132 0.403809 0.138611
0.890350 0.415375 0.150787
0.895477 0.426514 0.161713
0.900696 0.436890 0.172974
0.905853 0.448395 0.187775
0.026062 0.245453 0.029907
0.030151 0.244812 0.028839
0.034515 0.249603 0.028015
0.038849 0.253815 0.028015
0.057587 0.256866 0.028778
0.091034 0.258942 0.029205
0.135193 0.260895 0.030121
0.178772 0.262939 0.029358
0.223877 0.265381 0.029663
0.270874 0.268158 0.029846
0.308838 0.261475 0.029785
0.348206 0.265137 0.029907
0.384003 0.268738 0.029999
0.420685 0.273895 0.030090
0.458008 0.280457 0.030975
0.495453 0.288635 0.035126
0.532928 0.298584 0.042389
0.570892 0.309753 0.050018
0.611328 0.321686 0.055206
0.653137 0.333344 0.059937
0.693146 0.344391 0.066833
0.731476 0.355225 0.075226
0.767792 0.366089 0.085876
0.802704 0.377472 0.098083
0.836456 0.389099 0.111115
0.866577 0.400665 0.124817
0.880005 0.411926 0.139008
0.885193 0.422974 0.152679
0.890411 0.433990 0.166260
0.895569 0.445343 0.179657
0.900696 0.456390 0.193146
0.905853 0.468750 0.209290
0.026062 0.285309 0.031677
0.030151 0.283173 0.030212
0.034668 0.287506 0.028839
0.039246 0.291321 0.028442
0.054871 0.294189 0.029327
0.086456 0.296204 0.030426
0.129974 0.297760 0.031708
0.173798 0.299377 0.031097
0.218414 0.301239 0.029846
0.265442 0.303741 0.030060
0.315002 0.307037 0.030212
0.352142 0.298584 0.030151
0.391571 0.302277 0.030304
0.428772 0.307159 0.030426
0.466248 0.313385 0.030518
0.503723 0.321014 0.031403
0.541290 0.330078 0.037354
0.578217 0.340363 0.047363
0.614044 0.351318 0.058990
0.651520 0.362671 0.070160
0.690796 0.373962 0.080261
0.729523 0.384705 0.090027
0.765717 0.394958 0.100983
0.800476 0.405304 0.113190
0.833832 0.416046 0.126648
0.863800 0.426819 0.140900
0.880096 0.437408 0.155396
0.885223 0.447723 0.169891
0.890411 0.457825 0.184509
0.895569 0.467896 0.198578
0.900696 0.477722 0.212646
0.906219 0.485992 0.223358
0.026062 0.324097 0.038269
0.030151 0.321533 0.033813
0.034760 0.325439 0.030304
0.039490 0.328827 0.029083
0.054626 0.331390 0.030121
0.085968 0.333252 0.032074
0.127899 0.334564 0.033936
0.171753 0.336121 0.035095
0.215271 0.338013 0.032349
0.261475 0.340210 0.030243
0.309998 0.342865 0.030457
0.359283 0.345001 0.030609
0.396362 0.336182 0.030579
0.435333 0.339844 0.030762
0.472565 0.345459 0.030914
0.510101 0.352600 0.030975
0.547729 0.361115 0.032013
0.584534 0.370605 0.041718
0.620209 0.380524 0.054932
0.654236 0.390717 0.070313
0.686890 0.400818 0.089935
0.722809 0.411102 0.103424
0.758820 0.420898 0.114716
0.793762 0.430695 0.126495
0.827515 0.440826 0.139374
0.858887 0.451172 0.153290
0.880157 0.461609 0.168030
0.885254 0.471680 0.183289
0.890411 0.481415 0.198608
0.895477 0.490967 0.213898
0.900635 0.500031 0.229218
0.907288 0.505859 0.236267
0.026062 0.365295 0.051544
0.030151 0.362274 0.045441
0.034821 0.366608 0.040558
0.039856 0.370392 0.035370
0.057831 0.372894 0.032928
0.091705 0.374176 0.034393
0.131866 0.374481 0.036865
0.173889 0.374847 0.039948
0.215942 0.375885 0.039337
0.260468 0.377655 0.034790
0.307465 0.379852 0.030670
0.356506 0.382446 0.030914
0.403992 0.382507 0.031067
0.439545 0.374023 0.031067
0.479370 0.378113 0.031219
0.516541 0.384430 0.031342
0.553741 0.392151 0.031494
0.590057 0.400665 0.032745
0.625183 0.409668 0.047028
0.658844 0.419006 0.063599
0.691040 0.428467 0.083893
0.721802 0.437683 0.106079
0.752289 0.446655 0.125458
0.785828 0.455750 0.138794
0.819336 0.465027 0.150787
0.851227 0.474518 0.163513
0.877106 0.484253 0.177490
0.885345 0.494019 0.192474
0.890411 0.503418 0.207672
0.895416 0.512451 0.223358
0.900513 0.520966 0.238953
0.907867 0.527191 0.248230
0.026062 0.405304 0.068207
0.030151 0.402649 0.061829
0.034882 0.406799 0.057251
0.040131 0.410339 0.051575
0.063141 0.412872 0.047333
0.100922 0.414032 0.045258
0.140320 0.413910 0.045685
0.179504 0.413422 0.046844
0.219574 0.413666 0.047424
0.261932 0.414764 0.044373
0.306824 0.416412 0.037750
0.353851 0.418427 0.031128
0.402649 0.420502 0.031372
0.447723 0.418610 0.031494
0.481506 0.410522 0.031494
0.520966 0.414795 0.031647
0.557404 0.421448 0.031769
0.592896 0.428955 0.031891
0.627380 0.437164 0.034790
0.660797 0.445923 0.052490
0.692902 0.454895 0.073059
0.723694 0.463776 0.097321
0.752747 0.472046 0.120117
0.780670 0.479980 0.141449
0.810272 0.488251 0.158752
0.841278 0.497040 0.172394
0.869995 0.506317 0.185394
0.885468 0.515839 0.199768
0.890442 0.525177 0.215240
0.895355 0.534119 0.231415
0.900665 0.542603 0.247192
0.908142 0.548859 0.258087
0.026062 0.440521 0.085907
0.030151 0.438263 0.079590
0.034943 0.441528 0.075226
0.040009 0.444366 0.069366
0.068787 0.446442 0.064240
0.109406 0.447662 0.060974
0.147980 0.447998 0.060303
0.184906 0.447968 0.060303
0.223358 0.448364 0.059296
0.263977 0.449493 0.056244
0.307098 0.451233 0.049896
0.351959 0.452972 0.039490
0.398651 0.454681 0.031586
0.446594 0.456573 0.031830
0.489685 0.453552 0.031891
0.522156 0.445953 0.031921
0.560608 0.450562 0.032104
0.595459 0.457336 0.032196
0.629578 0.464905 0.032593
0.662781 0.473236 0.037598
0.694702 0.481750 0.059143
0.725433 0.490234 0.083923
0.754517 0.498291 0.109070
0.782379 0.505829 0.131989
0.809509 0.513062 0.153412
0.835785 0.520660 0.173920
0.863556 0.529083 0.190552
0.884369 0.538116 0.207214
0.890503 0.547302 0.222778
0.895294 0.556519 0.239960
0.900757 0.565430 0.256775
0.908264 0.571167 0.267822
0.026184 0.483826 0.108307
0.030243 0.482208 0.103210
0.035126 0.486816 0.100494
0.054901 0.490814 0.095703
0.092468 0.493500 0.090332
0.131989 0.494659 0.086334
0.167664 0.494476 0.083557
0.200867 0.492249 0.082611
0.235138 0.489777 0.080719
0.272400 0.488770 0.075684
0.312622 0.489136 0.068787
0.355469 0.490631 0.057465
0.400085 0.492218 0.042908
0.446167 0.493835 0.033752
0.493195 0.495514 0.032349
0.532501 0.490356 0.032349
0.562225 0.481689 0.032349
0.599335 0.486938 0.032501
0.633392 0.494232 0.032623
0.666260 0.501953 0.035553
0.702728 0.514008 0.047760
0.733521 0.522308 0.073425
0.762238 0.529968 0.100464
0.789581 0.536957 0.125549
0.815826 0.543243 0.148224
0.841278 0.549500 0.169220
0.865692 0.556396 0.189972
0.885223 0.564209 0.210663
0.890625 0.572662 0.231354
0.895233 0.581482 0.252441
0.900909 0.590546 0.270050
0.908417 0.598328 0.285370
0.026733 0.522156 0.127075
0.030457 0.521301 0.122925
0.043365 0.525848 0.120453
0.073700 0.530365 0.116791
0.112152 0.533600 0.112335
0.148895 0.535156 0.108307
0.182281 0.534058 0.105377
0.214111 0.531952 0.103943
0.247528 0.530548 0.103790
0.284241 0.530243 0.100647
0.323730 0.531433 0.094421
0.365112 0.532806 0.083405
0.408234 0.534424 0.068390
0.452515 0.535736 0.050873
0.497498 0.536774 0.038422
0.542725 0.537750 0.033478
0.577545 0.529968 0.032745
0.603668 0.519867 0.032745
0.639191 0.525024 0.032898
0.672028 0.532379 0.032959
0.706085 0.542023 0.040100
0.737457 0.550476 0.056793
0.765320 0.557220 0.084167
0.791901 0.563721 0.111481
0.817688 0.569824 0.136658
0.842896 0.575623 0.159607
0.867371 0.581635 0.181122
0.885681 0.588135 0.202393
0.890625 0.595215 0.224518
0.895203 0.602875 0.247772
0.901062 0.612366 0.273621
0.908569 0.621674 0.296936
0.030396 0.562256 0.146912
0.043518 0.563141 0.143951
0.071625 0.569031 0.143127
0.104248 0.574341 0.141205
0.139404 0.578156 0.137756
0.172180 0.579987 0.133850
0.202362 0.578308 0.130432
0.231689 0.575073 0.127991
0.262268 0.571716 0.127716
0.295349 0.568848 0.125397
0.331451 0.567657 0.119507
0.371490 0.569061 0.111664
0.413513 0.571075 0.098938
0.456635 0.572845 0.082306
0.500458 0.574249 0.063385
0.544464 0.575439 0.044891
0.588104 0.576477 0.037292
0.621429 0.569641 0.033142
0.647736 0.560974 0.033112
0.681091 0.565063 0.033203
0.711945 0.571686 0.034882
0.741974 0.578613 0.045868
0.770386 0.585510 0.067993
0.797333 0.592407 0.098022
0.818848 0.595154 0.121613
0.843475 0.600800 0.147980
0.867645 0.606567 0.171448
0.885681 0.612427 0.193909
0.890533 0.618683 0.216522
0.895111 0.625183 0.239349
0.901398 0.634430 0.265869
0.908813 0.644318 0.298401
0.054779 0.599762 0.167023
0.076538 0.601044 0.164795
0.103943 0.605835 0.163727
0.130524 0.610870 0.162567
0.160339 0.614594 0.159729
0.185822 0.612823 0.152679
0.214478 0.612061 0.149475
0.243286 0.609436 0.147980
0.273987 0.607330 0.148834
0.305023 0.603516 0.147644
0.339355 0.601532 0.143494
0.376770 0.601593 0.136688
0.416229 0.602539 0.125885
0.457031 0.603546 0.111877
0.498657 0.604462 0.093872
0.540558 0.605164 0.072784
0.582336 0.605774 0.050171
0.623138 0.606415 0.038849
0.654205 0.599731 0.033478
0.679352 0.591095 0.033417
0.711334 0.594818 0.033478
0.741180 0.601379 0.033569
0.769196 0.607697 0.045959
0.795227 0.613556 0.072449
0.819641 0.619171 0.102112
0.843140 0.624420 0.132111
0.866272 0.629639 0.158386
0.885406 0.634979 0.182220
0.890320 0.640564 0.204987
0.895142 0.646759 0.228119
0.901825 0.656250 0.255981
0.909241 0.665161 0.289185
0.088196 0.632416 0.185486
0.108826 0.634125 0.183868
0.131714 0.638397 0.182831
0.153564 0.642639 0.181580
0.177216 0.645844 0.179047
0.201965 0.645966 0.173798
0.227753 0.644653 0.169617
0.251282 0.638245 0.164764
0.281281 0.636322 0.165771
0.313507 0.634888 0.167847
0.348572 0.634735 0.167053
0.383972 0.633850 0.161133
0.421478 0.633942 0.151764
0.460297 0.634552 0.139954
0.499969 0.635193 0.125275
0.539978 0.635712 0.107086
0.580200 0.636230 0.084869
0.619843 0.636658 0.060699
0.658691 0.637329 0.043427
0.688141 0.630981 0.033813
0.712219 0.622375 0.033722
0.743317 0.626038 0.033783
0.771454 0.632141 0.033905
0.797485 0.637970 0.049072
0.821411 0.643311 0.079987
0.843781 0.648071 0.112213
0.865448 0.652710 0.142822
0.885315 0.657837 0.170105
0.889984 0.663147 0.195068
0.895935 0.671509 0.220490
0.902527 0.680084 0.249451
0.909821 0.686859 0.280731
0.121185 0.664215 0.205841
0.138702 0.666412 0.204926
0.160858 0.672485 0.206085
0.182709 0.678894 0.207214
0.204163 0.684021 0.207306
0.229156 0.687012 0.204895
0.252808 0.686066 0.200684
0.273529 0.679108 0.194305
0.295868 0.671051 0.189331
0.326782 0.669189 0.191528
0.358887 0.666962 0.190247
0.392242 0.665100 0.184875
0.427704 0.664551 0.176666
0.464935 0.664764 0.166199
0.502960 0.665283 0.153564
0.541473 0.665894 0.138733
0.580353 0.666779 0.121063
0.619476 0.667877 0.100494
0.658295 0.669098 0.077667
0.696411 0.670593 0.053284
0.723999 0.664337 0.038147
0.746399 0.655579 0.035095
0.776672 0.659454 0.034149
0.803802 0.665375 0.037811
0.828491 0.671356 0.064606
0.851074 0.676636 0.097626
0.870850 0.681274 0.133636
0.885071 0.685364 0.164429
0.890411 0.691010 0.190674
0.896729 0.698212 0.216278
0.903351 0.703827 0.241760
0.910614 0.710571 0.276794
0.163208 0.703949 0.236145
0.177460 0.705841 0.235199
0.194977 0.710266 0.235229
0.212677 0.714966 0.235107
0.230164 0.718750 0.234406
0.251160 0.720917 0.232056
0.273712 0.720886 0.228394
0.295441 0.717102 0.224152
0.319122 0.711823 0.221649
0.348175 0.709320 0.223389
0.379913 0.707977 0.224426
0.409607 0.703674 0.217621
0.441772 0.701019 0.208588
0.476135 0.699921 0.198242
0.511780 0.699524 0.186646
0.548004 0.699463 0.173340
0.584961 0.699677 0.158142
0.622070 0.700165 0.140533
0.659271 0.700684 0.120209
0.696106 0.701538 0.097412
0.731812 0.702606 0.070862
0.757874 0.696503 0.049988
0.779358 0.689026 0.039886
0.806854 0.691162 0.034973
0.831055 0.695221 0.041443
0.853027 0.699921 0.070160
0.871765 0.703674 0.108276
0.884857 0.706818 0.145020
0.891052 0.714508 0.173889
0.897552 0.722168 0.204498
0.904266 0.728607 0.235870
0.911560 0.734192 0.271851
0.193237 0.735229 0.261322
0.206604 0.737518 0.261139
0.223328 0.742249 0.262207
0.240662 0.747467 0.263367
0.257111 0.751434 0.263824
0.275726 0.753906 0.262390
0.296143 0.753967 0.258759
0.316101 0.750610 0.253693
0.336456 0.744293 0.248901
0.362091 0.739960 0.248016
0.391022 0.737030 0.247894
0.419525 0.732971 0.242157
0.450317 0.730377 0.234436
0.482910 0.729218 0.225189
0.516846 0.728699 0.214752
0.551453 0.728485 0.202881
0.586761 0.728577 0.189545
0.622528 0.728912 0.174622
0.658478 0.729431 0.157562
0.694305 0.730103 0.137939
0.729370 0.731049 0.117188
0.763641 0.732239 0.092682
0.789215 0.727692 0.064667
0.809052 0.721069 0.047028
0.834106 0.721497 0.036621
0.855652 0.723999 0.050995
0.873474 0.726257 0.082489
0.885223 0.730316 0.123474
0.891693 0.738708 0.156311
0.898346 0.745697 0.188721
0.905212 0.751038 0.220856
0.912262 0.755829 0.256104
0.225769 0.766724 0.290894
0.237946 0.768921 0.290955
0.253082 0.773132 0.292114
0.268768 0.777679 0.293091
0.283325 0.781006 0.293457
0.299164 0.783173 0.292297
0.317657 0.783203 0.288574
0.335724 0.780273 0.282928
0.354523 0.774628 0.277802
0.379364 0.770874 0.277405
0.405182 0.766815 0.275757
0.432770 0.763336 0.271301
0.461060 0.760132 0.263489
0.489044 0.756409 0.251282
0.520966 0.755676 0.241486
0.554077 0.755463 0.230774
0.588135 0.755554 0.219055
0.622559 0.755829 0.205872
0.657288 0.756317 0.191162
0.691742 0.756897 0.174866
0.725677 0.757446 0.156952
0.758820 0.758118 0.137604
0.790192 0.758667 0.115448
0.814667 0.755066 0.087189
0.833740 0.749481 0.065186
0.855835 0.748230 0.054749
0.873718 0.748322 0.067505
0.885834 0.752136 0.088684
0.892334 0.760223 0.125763
0.899139 0.767090 0.162994
0.906250 0.772766 0.200409
0.912262 0.777496 0.231812
0.251282 0.792297 0.315643
0.262177 0.794189 0.315521
0.275391 0.797485 0.315765
0.289856 0.801483 0.316772
0.305023 0.805328 0.318939
0.320068 0.807800 0.319092
0.336395 0.807800 0.315643
0.351807 0.804626 0.308563
0.369202 0.799622 0.303009
0.395721 0.798065 0.306854
0.420654 0.794891 0.306244
0.443909 0.789673 0.298492
0.468872 0.785431 0.289063
0.496552 0.783142 0.279510
0.526306 0.782043 0.269714
0.557648 0.781616 0.259583
0.590118 0.781555 0.248413
0.623199 0.781769 0.236176
0.656525 0.782196 0.222931
0.689514 0.782684 0.208527
0.721924 0.782990 0.192993
0.753906 0.783173 0.176117
0.784271 0.782959 0.158295
0.812561 0.782349 0.138794
0.835480 0.778870 0.114410
0.853882 0.773560 0.094360
0.872681 0.771210 0.081909
0.886444 0.775726 0.073853
0.892975 0.782043 0.088776
0.899902 0.789459 0.134949
0.907166 0.794220 0.175140
0.912262 0.799164 0.201050
0.277252 0.816315 0.342255
0.288788 0.818695 0.343719
0.303558 0.822784 0.346710
0.319702 0.827606 0.350739
0.334839 0.831360 0.354248
0.349396 0.833984 0.356049
0.364563 0.834381 0.354218
0.379028 0.831909 0.348389
0.392365 0.826141 0.340027
0.412781 0.822357 0.338226
0.437744 0.820740 0.339996
0.457794 0.815521 0.330353
0.480560 0.811554 0.320740
0.506165 0.809326 0.311279
0.533844 0.808197 0.301819
0.563202 0.807617 0.291656
0.594360 0.807922 0.281647
0.626099 0.808380 0.270599
0.657990 0.808777 0.258362
0.689423 0.809052 0.245239
0.720154 0.809204 0.231415
0.750519 0.808960 0.216766
0.779663 0.808197 0.201843
0.807892 0.807220 0.186768
0.833954 0.805481 0.169952
0.855225 0.801392 0.150330
0.872620 0.797913 0.125244
0.887054 0.804749 0.105713
0.893646 0.807983 0.088226
0.900604 0.811096 0.095337
0.907959 0.816772 0.151001
0.912262 0.820862 0.161346
0.317200 0.843842 0.384766
0.329071 0.846375 0.387787
0.345123 0.850739 0.393524
0.361694 0.855316 0.399506
0.375854 0.858551 0.403198
0.388702 0.860443 0.404785
0.400665 0.860199 0.402618
0.411652 0.857178 0.395508
0.423340 0.852539 0.387634
0.440491 0.849030 0.384583
0.459717 0.845764 0.381042
0.478516 0.842010 0.373260
0.500092 0.839325 0.365570
0.523773 0.837769 0.357239
0.548767 0.836670 0.347717
