tools/luts_backup/LAPARDIN-WEDLUTS-16.cube
#Created by: Adobe Photoshop Export Color Lookup Plugin
#Copyright: (C) 2017 Andrey Lapardin. vk.com-3dluts
TITLE "Andrey Lapardin. vk.com-3dluts"
#LUT size
LUT_3D_SIZE 5
#data domain
#LUT data points
DOMAIN_MIN 0.000000 0.000000 0.000000
DOMAIN_MAX 0.903226 0.903226 0.903226
0.043823 0.053070 0.044983
0.173096 0.058746 0.050537
0.409241 0.061951 0.048950
0.650879 0.060486 0.043457
0.853729 0.050659 0.036163
0.040619 0.190216 0.044708
0.184723 0.193146 0.048248
0.428894 0.220520 0.050659
0.652222 0.218262 0.054352
0.839691 0.217010 0.054382
0.039520 0.433624 0.037415
0.147125 0.423889 0.059540
0.429382 0.432617 0.055969
0.661163 0.425323 0.061890
0.828857 0.408142 0.096924
0.039154 0.638397 0.131744
0.215271 0.640137 0.147339
0.395538 0.627716 0.158295
0.618988 0.627899 0.140533
0.816620 0.632477 0.149231
0.204010 0.809143 0.244598
0.353027 0.810150 0.252197
0.460449 0.800415 0.273102
0.629059 0.804871 0.267761
0.777405 0.804626 0.268524
0.041412 0.055969 0.163910
0.168060 0.052704 0.177521
0.409210 0.047485 0.219299
0.643311 0.048737 0.217621
0.839722 0.063629 0.214478
0.046112 0.190552 0.161438
0.216492 0.221741 0.194031
0.454590 0.222931 0.201263
0.664581 0.245361 0.220825
0.803558 0.291718 0.272339
0.049957 0.419434 0.185760
0.215027 0.443512 0.220001
0.463013 0.459839 0.207275
0.674622 0.448425 0.232605
0.814880 0.445587 0.289398
0.050629 0.626862 0.247925
0.267395 0.643036 0.272980
0.446747 0.649628 0.298981
0.649414 0.643097 0.291046
0.815582 0.644470 0.311859
0.203369 0.797607 0.333649
0.378693 0.788177 0.364868
0.514404 0.794922 0.378571
0.640900 0.799591 0.383423
0.793091 0.805206 0.382355
0.038940 0.059753 0.386200
0.120178 0.045258 0.421326
0.364227 0.042480 0.442993
0.647369 0.041107 0.500946
0.829926 0.063812 0.462891
0.044159 0.219238 0.385162
0.138519 0.206085 0.431061
0.421539 0.208954 0.446869
0.643616 0.269745 0.475128
0.790009 0.320190 0.476501
0.055145 0.419434 0.373840
0.231689 0.453674 0.421326
0.471527 0.469025 0.442230
0.656799 0.469421 0.452026
0.811646 0.488617 0.481110
0.168030 0.617645 0.397827
0.314697 0.634003 0.423553
0.484894 0.645966 0.468201
0.656738 0.653168 0.459869
0.809387 0.659271 0.478912
0.230042 0.786499 0.437378
0.367554 0.782349 0.457367
0.550537 0.790314 0.500977
0.664215 0.803589 0.523438
0.807007 0.807404 0.517883
0.033173 0.047852 0.604950
0.136017 0.036774 0.622314
0.289734 0.045624 0.641510
0.557922 0.045807 0.648926
0.819977 0.038025 0.701630
0.032623 0.224548 0.610809
0.140137 0.198425 0.630981
0.314606 0.224396 0.639496
0.570343 0.236877 0.644562
0.781128 0.290833 0.669952
0.052582 0.426788 0.594452
0.205658 0.450714 0.622437
0.425476 0.464722 0.629944
0.638916 0.465057 0.633636
0.796692 0.508514 0.637177
0.128418 0.613983 0.577026
0.297150 0.632965 0.601349
0.483185 0.648193 0.624847
0.663086 0.658203 0.633575
0.811493 0.664948 0.647125
0.233063 0.784454 0.586700
0.378265 0.787933 0.600586
0.535919 0.791992 0.620178
0.689667 0.811432 0.653290
0.817047 0.816376 0.664185
0.031647 0.052429 0.787537
0.146484 0.045776 0.788361
0.215210 0.053833 0.808655
0.502258 0.053680 0.800446
0.744537 0.053558 0.798431
0.031647 0.214294 0.787567
0.162201 0.235535 0.761780
0.264496 0.228180 0.794403
0.504913 0.244232 0.797424
0.745117 0.259247 0.790985
0.041443 0.435333 0.779297
0.197327 0.467377 0.758545
0.379456 0.466797 0.780548
0.570587 0.466858 0.777100
0.762543 0.482117 0.781128
0.063507 0.618622 0.759888
0.267090 0.629822 0.755280
0.456696 0.656982 0.775208
0.636597 0.661133 0.782379
0.804596 0.665192 0.786713
0.179016 0.787506 0.754700
0.333710 0.791077 0.757813
0.501587 0.799988 0.768677
0.671997 0.812744 0.790039
0.828217 0.830658 0.807495
