tools/luts_backup/LAPARDIN-WEDLUTS-21.cube
#Created by: Adobe Photoshop Export Color Lookup Plugin
#Copyright: (C) 2017 Andrey Lapardin. vk.com-3dluts
TITLE "Andrey Lapardin. vk.com-3dluts"
#LUT size
LUT_3D_SIZE 8
#data domain
#LUT data points
DOMAIN_MIN 0.000000 0.000000 0.000000
DOMAIN_MAX 0.903226 0.903226 0.903226
0.003326 0.006348 0.006927
0.067291 0.012054 0.012878
0.158905 0.021027 0.019745
0.276398 0.026123 0.026733
0.415192 0.028168 0.034637
0.562103 0.028625 0.044708
0.723633 0.029541 0.064178
0.890717 0.045746 0.101074
0.003693 0.068420 0.019501
0.066559 0.074493 0.017944
0.163666 0.086975 0.024902
0.278625 0.098694 0.033936
0.414948 0.110504 0.045654
0.559204 0.121185 0.058105
0.716797 0.136017 0.076294
0.876678 0.149231 0.105286
0.000000 0.179443 0.042603
0.062073 0.175903 0.051727
0.179382 0.182007 0.036652
0.303772 0.196808 0.044739
0.423889 0.200317 0.063812
0.569092 0.213318 0.077606
0.714691 0.222260 0.098267
0.852509 0.227112 0.123077
0.000000 0.327881 0.092194
0.023254 0.321777 0.108551
0.177246 0.321106 0.104828
0.333038 0.335693 0.071564
0.493225 0.353302 0.076447
0.596893 0.335510 0.113037
0.727600 0.339050 0.130585
0.860809 0.347443 0.155792
0.000000 0.523895 0.180328
0.000000 0.524170 0.195648
0.159729 0.492004 0.199432
0.341400 0.505402 0.177948
0.514191 0.516418 0.135223
0.678314 0.522247 0.128967
0.777679 0.500275 0.176880
0.865356 0.477386 0.204865
0.000000 0.697510 0.291626
0.000000 0.704193 0.309662
0.173218 0.667542 0.300751
0.344574 0.678253 0.311615
0.519287 0.693909 0.289520
0.689087 0.700043 0.250580
0.860992 0.717102 0.245117
0.941528 0.684937 0.285797
0.128632 0.850189 0.438568
0.230469 0.850739 0.448822
0.338318 0.848053 0.463684
0.407623 0.824982 0.460663
0.534454 0.835144 0.449524
0.678894 0.845764 0.432037
0.815735 0.851227 0.410309
0.978149 0.878448 0.410645
0.431488 0.950928 0.589417
0.463318 0.950836 0.597015
0.524689 0.949921 0.613525
0.554779 0.939331 0.611877
0.630219 0.941040 0.620514
0.718689 0.946564 0.610565
0.803070 0.948822 0.599640
0.898651 0.950684 0.584473
0.006958 0.005737 0.073914
0.082336 0.006836 0.074921
0.172302 0.006470 0.090607
0.286407 0.006287 0.102661
0.417450 0.001434 0.109955
0.554718 0.001007 0.121857
0.700653 0.001526 0.131622
0.862000 0.012543 0.147552
0.007050 0.071838 0.068115
0.085724 0.083160 0.080475
0.179962 0.092102 0.091492
0.299316 0.099762 0.101440
0.432800 0.112885 0.113434
0.573486 0.125397 0.127014
0.722565 0.137115 0.146362
0.859985 0.152740 0.169769
0.018219 0.173706 0.103638
0.096893 0.183380 0.113586
0.197601 0.200867 0.109283
0.320435 0.211121 0.113281
0.447388 0.212341 0.124573
0.591797 0.220520 0.140106
0.734558 0.237427 0.164795
0.863953 0.262604 0.194641
0.000000 0.314331 0.138580
0.077393 0.322754 0.157562
0.209015 0.336151 0.169159
0.368896 0.361786 0.151672
0.523956 0.379333 0.160583
0.624359 0.354950 0.176727
0.760559 0.358582 0.194580
0.886108 0.375214 0.234589
0.000000 0.502869 0.212524
0.000000 0.515839 0.231384
0.221680 0.522858 0.257080
0.388336 0.541290 0.248566
0.562073 0.550842 0.222534
0.715057 0.553864 0.226227
0.800415 0.520721 0.245026
0.879822 0.499939 0.270294
0.000000 0.673737 0.302948
0.006897 0.689758 0.324432
0.258972 0.691742 0.349854
0.386719 0.695374 0.360352
0.553589 0.710968 0.345856
0.722260 0.722687 0.326111
0.879272 0.734772 0.327484
0.936340 0.685730 0.342255
0.129669 0.837158 0.442047
0.274536 0.857941 0.474335
0.390381 0.854645 0.492035
0.469391 0.842865 0.501770
0.569977 0.846527 0.495941
0.705872 0.855591 0.481415
0.836456 0.857147 0.457245
0.976807 0.877472 0.462067
0.405823 0.939331 0.576935
0.476715 0.949066 0.605713
0.542938 0.947815 0.622772
0.613770 0.944122 0.644318
0.653870 0.938293 0.641174
0.730988 0.941559 0.629883
0.821716 0.946228 0.619354
0.908112 0.950134 0.609406
0.005127 0.002808 0.177826
0.098419 0.001221 0.185577
0.195740 0.000000 0.190063
0.309357 0.000000 0.219513
0.455933 0.000000 0.244476
0.588745 0.000000 0.246948
0.733948 0.000000 0.255646
0.877686 0.000000 0.251038
0.000000 0.096954 0.168732
0.081787 0.085022 0.188171
0.208954 0.081665 0.194733
0.324249 0.089508 0.217743
0.454926 0.094635 0.230927
0.591797 0.101624 0.242126
0.734955 0.098328 0.248108
0.864075 0.133484 0.261993
0.000000 0.179810 0.167511
0.097290 0.193787 0.183746
0.218201 0.214935 0.205292
0.340912 0.211151 0.207550
0.479706 0.218048 0.219421
0.621765 0.233826 0.239502
0.739960 0.257965 0.264771
0.837616 0.283844 0.299072
0.032043 0.311279 0.211304
0.137512 0.324554 0.221191
0.241699 0.360504 0.257019
0.387756 0.385376 0.250854
0.525208 0.377502 0.246582
0.640808 0.366425 0.259766
0.766693 0.375397 0.284637
0.864319 0.384827 0.314880
0.000000 0.481537 0.258942
0.076202 0.501801 0.279236
0.276550 0.536896 0.330078
0.410339 0.553253 0.342682
0.584015 0.571136 0.316193
0.722504 0.564423 0.311371
0.789978 0.526794 0.326233
0.870239 0.513428 0.350555
0.000000 0.667328 0.344238
0.120361 0.674225 0.369781
0.320038 0.699310 0.410828
0.437744 0.703735 0.438385
0.583862 0.719086 0.424347
0.730988 0.717316 0.398071
0.861847 0.731750 0.418945
0.932617 0.704712 0.437592
0.196777 0.825470 0.468842
0.295349 0.830811 0.490479
0.433319 0.844391 0.528748
0.527100 0.841919 0.552063
0.610657 0.845459 0.548553
0.729034 0.854645 0.534088
0.845917 0.856079 0.526978
0.969360 0.876282 0.543518
0.436066 0.935577 0.600891
0.452393 0.924561 0.595581
0.556091 0.924561 0.631104
0.638000 0.925049 0.655945
0.695587 0.938232 0.675323
0.756561 0.940948 0.666443
0.838440 0.944946 0.661407
0.922150 0.948364 0.652527
0.000000 0.000397 0.314850
0.117859 0.000000 0.327393
0.199951 0.000000 0.340607
0.327881 0.000000 0.343079
0.482056 0.000000 0.395874
0.635223 0.000000 0.424042
0.777100 0.000000 0.419250
0.900177 0.000000 0.411743
0.000000 0.082886 0.307343
0.072906 0.071991 0.329895
0.205750 0.067963 0.342102
0.341156 0.045227 0.345642
0.470032 0.062225 0.380585
0.634277 0.022247 0.419678
0.770935 0.038971 0.417908
0.883972 0.101440 0.416595
0.000000 0.224304 0.309021
0.011108 0.225708 0.325958
0.199951 0.210388 0.346802
0.373627 0.198700 0.347107
0.516968 0.214722 0.373779
0.655670 0.240082 0.392670
0.767212 0.275330 0.411865
0.863281 0.297272 0.424164
0.000000 0.317474 0.295685
0.060730 0.338257 0.320526
0.228210 0.365692 0.350372
0.391388 0.378357 0.365814
0.527344 0.369110 0.363800
0.656219 0.375244 0.377686
0.769257 0.401306 0.411285
0.881744 0.417908 0.436523
0.043732 0.488342 0.358154
0.199127 0.508392 0.381317
0.318481 0.522552 0.399933
0.432129 0.546051 0.437500
0.579956 0.566010 0.431000
0.692902 0.541718 0.417725
0.782074 0.533691 0.437653
0.897552 0.534668 0.453156
0.213501 0.659241 0.437134
0.282196 0.680695 0.457520
0.354126 0.686615 0.464783
0.488007 0.696014 0.512115
0.603149 0.715363 0.528595
0.733490 0.720459 0.502106
0.857483 0.734802 0.514252
0.926208 0.714935 0.528381
0.292023 0.813232 0.515717
0.353149 0.819611 0.533813
0.432098 0.809082 0.544006
0.584320 0.825134 0.607422
0.658569 0.841461 0.630371
0.757263 0.853149 0.622253
0.864502 0.859650 0.606445
0.961792 0.875641 0.626831
0.462677 0.928955 0.625305
0.479523 0.917542 0.624908
0.552338 0.916992 0.644806
0.682495 0.926270 0.703583
0.739197 0.934906 0.723541
0.792419 0.941925 0.727051
0.862305 0.946533 0.716370
0.934784 0.948029 0.711975
0.000000 0.000000 0.467926
0.142395 0.000000 0.477417
0.198792 0.000000 0.506989
0.332703 0.000000 0.505463
0.472778 0.000000 0.500397
0.667419 0.000000 0.577545
0.788422 0.000000 0.579254
0.938995 0.000000 0.586182
0.000000 0.067596 0.460907
0.070557 0.047577 0.480194
0.202820 0.036255 0.500214
0.324890 0.027252 0.504852
0.474731 0.000000 0.502472
0.655243 0.000000 0.565002
0.781097 0.000000 0.575684
0.921844 0.000000 0.585358
0.000000 0.224457 0.457489
0.000000 0.207794 0.481232
0.162170 0.201721 0.509521
0.359253 0.195343 0.501770
0.520264 0.186584 0.500488
0.646027 0.234924 0.537506
0.785980 0.264221 0.563904
0.899811 0.286987 0.573151
0.000000 0.358002 0.452423
0.000000 0.375031 0.479401
0.160980 0.396088 0.515411
0.378296 0.377411 0.526337
0.566223 0.366608 0.522797
0.691071 0.380920 0.531799
0.791809 0.406647 0.538788
0.893951 0.425720 0.542572
0.000000 0.482910 0.454285
0.028473 0.503723 0.479218
0.254120 0.530579 0.514008
0.416016 0.540985 0.527893
0.567078 0.543121 0.530396
0.680908 0.530426 0.525208
0.792297 0.532623 0.534271
0.906067 0.547668 0.559937
0.151886 0.650177 0.510895
0.265442 0.661194 0.527130
0.395386 0.675934 0.552917
0.529205 0.689148 0.586395
0.615387 0.697937 0.606476
0.737396 0.719849 0.605194
0.838898 0.711548 0.597839
0.907959 0.690765 0.598419
0.398651 0.798462 0.599457
0.444427 0.799530 0.605499
0.506439 0.808777 0.624146
0.576355 0.815399 0.633331
0.690552 0.835938 0.689484
0.766724 0.850342 0.697876
0.865479 0.860565 0.684174
0.956085 0.866119 0.691528
0.531799 0.919006 0.681976
0.552521 0.918976 0.684387
0.600769 0.922424 0.698456
0.671509 0.921417 0.716614
0.773193 0.927582 0.761749
0.821808 0.937592 0.780975
0.882751 0.944855 0.778473
0.948639 0.948212 0.769775
0.000000 0.000000 0.614563
0.130737 0.000000 0.615417
0.221069 0.000000 0.646423
0.323669 0.000000 0.655640
0.478729 0.000000 0.646606
0.634918 0.000000 0.644897
0.824951 0.000000 0.722198
0.921173 0.000000 0.706207
0.000000 0.040283 0.615601
0.045471 0.015350 0.625671
0.228088 0.002594 0.641388
0.309784 0.018799 0.654144
0.467712 0.000000 0.646729
0.628815 0.000000 0.640686
0.813232 0.000000 0.710541
0.902069 0.000000 0.693817
0.000000 0.199982 0.621307
0.000000 0.192413 0.628754
0.138763 0.191986 0.654327
0.337830 0.189941 0.649963
0.490082 0.195221 0.639648
0.646912 0.174438 0.636078
0.796021 0.192444 0.687714
0.881317 0.255035 0.678650
0.000000 0.380737 0.613647
0.000000 0.384979 0.625000
0.111847 0.387970 0.657166
0.334503 0.376831 0.666992
0.531494 0.361603 0.645538
0.688812 0.361572 0.641449
0.790405 0.421539 0.663635
0.923248 0.443298 0.677795
0.000000 0.517365 0.614655
0.000000 0.529938 0.630096
0.167145 0.551239 0.656433
0.377319 0.557587 0.661316
0.549896 0.533569 0.657288
0.707794 0.524597 0.651825
0.828735 0.543274 0.671570
0.934174 0.563629 0.674957
0.000000 0.640076 0.612091
0.136536 0.651550 0.621552
0.303192 0.673950 0.652466
0.453369 0.681366 0.664154
0.591644 0.689636 0.672546
0.726776 0.696594 0.678528
0.825134 0.687439 0.675964
0.921082 0.692932 0.685516
0.262909 0.798553 0.661987
0.350098 0.801300 0.667603
0.446625 0.806396 0.683563
0.579742 0.811157 0.700409
0.702576 0.828308 0.735291
0.786835 0.846893 0.765015
0.871582 0.859894 0.762512
0.943848 0.854431 0.756348
0.518799 0.917297 0.732056
0.558685 0.916901 0.738770
0.628662 0.918488 0.755188
0.708099 0.922211 0.774750
0.763519 0.923401 0.781158
0.849030 0.937988 0.822876
0.894318 0.945099 0.832367
0.954041 0.948883 0.825745
0.000000 0.000000 0.759064
0.075775 0.000000 0.759247
0.258179 0.000000 0.771606
0.317261 0.000000 0.789337
0.475739 0.000000 0.782593
0.633423 0.000000 0.768097
0.784271 0.000000 0.761261
0.952362 0.000000 0.828186
0.000000 0.009827 0.762695
0.001068 0.001801 0.772766
0.260193 0.000000 0.774750
0.315399 0.000000 0.784912
0.458527 0.000000 0.778381
0.625641 0.000000 0.765594
0.784210 0.000000 0.759521
0.947235 0.000000 0.825165
0.000000 0.197723 0.772217
0.000000 0.194855 0.770813
0.167786 0.190918 0.771820
0.335297 0.186157 0.776520
0.464172 0.199615 0.776855
0.623260 0.182648 0.765686
0.782135 0.122925 0.753601
0.901215 0.164154 0.784760
0.000000 0.384888 0.764313
0.000000 0.391083 0.766602
0.003784 0.381592 0.778900
0.322266 0.390106 0.777924
0.506683 0.370972 0.764587
0.661407 0.371246 0.753571
0.799164 0.360596 0.749939
0.909027 0.389221 0.782501
0.000000 0.552826 0.761475
0.000000 0.562561 0.766266
0.124817 0.569702 0.776154
0.367920 0.565704 0.779449
0.518829 0.543549 0.779388
0.688141 0.516907 0.760803
0.827057 0.515533 0.759277
0.921051 0.568634 0.770081
0.000000 0.667969 0.755066
0.046387 0.676636 0.760040
0.262939 0.693298 0.777954
0.418365 0.703156 0.781891
0.548279 0.695984 0.775696
0.707275 0.676178 0.778290
0.840790 0.676117 0.775818
0.944855 0.702087 0.792389
0.090057 0.786224 0.755829
0.232605 0.790283 0.756287
0.375854 0.803406 0.772888
0.501862 0.809692 0.782104
0.622894 0.813385 0.787689
0.746490 0.820313 0.794159
0.854675 0.829468 0.802765
0.928467 0.825623 0.802612
0.352234 0.914459 0.780487
0.427185 0.917786 0.787994
0.534637 0.923004 0.801788
0.642212 0.924713 0.814453
0.753265 0.923645 0.827850
0.844208 0.931335 0.847107
0.911194 0.946411 0.874481
0.957458 0.952484 0.877258
0.000000 0.000000 0.875275
0.002075 0.000000 0.876404
0.257813 0.000000 0.875763
0.343414 0.000000 0.891998
0.463684 0.000000 0.895081
0.621002 0.000000 0.882172
0.775177 0.000000 0.863403
0.921539 0.000000 0.860382
0.000000 0.000000 0.874603
0.000000 0.000000 0.874329
0.247498 0.000000 0.869812
0.356079 0.000000 0.877014
0.439148 0.000000 0.890015
0.605743 0.000000 0.876190
0.774414 0.000000 0.864960
0.922424 0.000000 0.861267
0.000000 0.182434 0.876923
0.000000 0.190186 0.867889
0.190033 0.218018 0.847229
0.360046 0.189819 0.861023
0.445496 0.180359 0.881165
0.591461 0.164612 0.874359
0.764191 0.112885 0.857758
0.912872 0.019440 0.852264
0.000000 0.375214 0.881653
0.000000 0.384430 0.867371
0.003479 0.381866 0.854370
0.309784 0.375793 0.860992
0.482574 0.354828 0.866058
0.614258 0.355347 0.859802
0.759949 0.338776 0.844360
0.906403 0.311615 0.845276
0.000000 0.543335 0.871826
0.000000 0.554596 0.865387
0.129852 0.573822 0.854401
0.346893 0.572571 0.864899
0.484558 0.540833 0.871521
0.647522 0.510956 0.856171
0.787933 0.501984 0.842468
0.923706 0.505707 0.847443
0.000000 0.677765 0.861694
0.000000 0.683594 0.856476
0.166901 0.691925 0.854584
0.354767 0.704254 0.863983
0.538300 0.704102 0.870422
0.682434 0.687805 0.872009
0.817383 0.662048 0.860107
0.944122 0.671173 0.862854
0.000000 0.794220 0.863556
0.137024 0.793518 0.858246
0.320465 0.799500 0.860687
0.462158 0.810516 0.868073
0.602844 0.824036 0.873840
0.729370 0.834930 0.883240
0.843109 0.819214 0.883484
0.941559 0.817566 0.878174
0.240356 0.902924 0.862732
0.323547 0.904968 0.864624
0.447510 0.911774 0.869446
0.568573 0.919800 0.876404
0.683685 0.923737 0.885376
0.787994 0.927155 0.892609
0.881409 0.930786 0.895172
0.953033 0.939911 0.904663
