tools/luts_backup/LAPARDIN-WEDLUTS-16.cube
#Created by: Adobe Photoshop Export Color Lookup Plugin
#Copyright: (C) 2017 Andrey Lapardin. vk.com-3dluts
TITLE "Andrey Lapardin. vk.com-3dluts"
#LUT size
LUT_3D_SIZE 32
#data domain
DOMAIN_MIN 0.0 0.0 0.0
DOMAIN_MAX 1.0 1.0 1.0
#LUT data points
0.043823 0.053070 0.044983
0.056396 0.055206 0.046967
0.070221 0.056122 0.047699
0.084839 0.056610 0.048126
0.103241 0.056763 0.048492
0.123016 0.057251 0.049011
0.146698 0.057953 0.049744
0.173096 0.058746 0.050537
0.200623 0.059967 0.051178
0.230377 0.060425 0.051575
0.262878 0.060913 0.051666
0.297333 0.061310 0.051514
0.333618 0.061615 0.050964
0.371216 0.061707 0.050079
0.409241 0.061951 0.048950
0.446930 0.062134 0.048096
0.483734 0.062469 0.047089
0.519226 0.062866 0.046295
0.553528 0.062866 0.045746
0.586823 0.062744 0.045074
0.619110 0.061859 0.044312
0.650879 0.060486 0.043457
0.681427 0.058563 0.042572
0.711700 0.056244 0.041595
0.741669 0.054260 0.040497
0.771759 0.053436 0.039307
0.800446 0.052856 0.037964
0.828064 0.051910 0.036560
0.853729 0.050659 0.036163
0.878479 0.049042 0.036804
0.902710 0.050140 0.038055
0.925598 0.055603 0.040619
0.045776 0.064819 0.046509
0.056427 0.065094 0.046631
0.070282 0.067383 0.047424
0.086334 0.068695 0.047943
0.105499 0.069702 0.048309
0.126617 0.070862 0.048767
0.150421 0.072388 0.049377
0.176208 0.074402 0.049927
0.203552 0.076630 0.050385
0.233154 0.079041 0.050629
0.265656 0.080719 0.050629
0.300201 0.082245 0.050415
0.336273 0.083679 0.049835
0.373718 0.084900 0.049011
0.411621 0.086090 0.048035
0.449097 0.087372 0.047394
0.485565 0.088531 0.047150
0.520844 0.089386 0.046753
0.554871 0.090027 0.046204
0.587830 0.090240 0.045502
0.619720 0.089630 0.044708
0.651031 0.088257 0.043854
0.681274 0.086334 0.042938
0.711365 0.084229 0.041901
0.741211 0.082184 0.040741
0.770416 0.080536 0.039490
0.798462 0.078857 0.038147
0.825684 0.077209 0.036713
0.851227 0.075897 0.036163
0.875702 0.075195 0.036682
0.900024 0.075775 0.037903
0.923065 0.080475 0.040405
0.046600 0.078522 0.046417
0.058655 0.078796 0.046600
0.070282 0.079010 0.046875
0.087708 0.082550 0.047485
0.108032 0.085327 0.047791
0.130127 0.087494 0.048248
0.153839 0.089722 0.048676
0.179626 0.092163 0.049042
0.207092 0.094696 0.049286
0.236725 0.097290 0.049438
0.268860 0.099823 0.049469
0.302765 0.102203 0.049316
0.338135 0.104401 0.048950
0.374969 0.106628 0.048706
0.412415 0.108704 0.048584
0.449432 0.110718 0.048401
0.485565 0.112610 0.048279
0.520691 0.114319 0.047943
0.554749 0.115814 0.047455
0.587799 0.116577 0.046783
0.619659 0.116425 0.045959
0.650696 0.115570 0.044983
0.681213 0.114594 0.043884
0.711487 0.113525 0.042664
0.741394 0.112183 0.041382
0.770233 0.110931 0.039948
0.798035 0.109222 0.038483
0.824921 0.107727 0.036987
0.850433 0.106201 0.036285
0.874664 0.104919 0.037170
0.898407 0.105164 0.038177
0.921265 0.109222 0.040619
0.044861 0.097443 0.046387
0.057953 0.098419 0.046509
0.070892 0.098999 0.046692
0.087463 0.100464 0.046906
0.108948 0.104858 0.047180
0.131989 0.108337 0.047455
0.156281 0.110352 0.047882
0.182709 0.112152 0.048187
0.210632 0.114258 0.048279
0.240570 0.116547 0.048340
0.272705 0.118988 0.048340
0.306274 0.121643 0.048340
0.341339 0.124237 0.048645
0.377625 0.126740 0.048889
0.414368 0.129150 0.049194
0.450867 0.131165 0.049530
0.486420 0.132996 0.049622
0.520996 0.134674 0.049561
0.554810 0.135864 0.049255
0.587463 0.136993 0.048737
0.619049 0.137787 0.047943
0.649872 0.138000 0.046936
0.680573 0.138214 0.045685
0.710602 0.138397 0.044281
0.740173 0.138245 0.042725
0.768585 0.137909 0.041046
0.796204 0.137146 0.039337
0.823120 0.136261 0.037567
0.849152 0.135284 0.036499
0.873535 0.134491 0.037476
0.897614 0.134888 0.038696
0.920532 0.138367 0.041412
0.042267 0.117554 0.046570
0.057129 0.118652 0.046509
0.072327 0.119568 0.046478
0.089325 0.120758 0.046814
0.107544 0.122284 0.047058
0.132355 0.127716 0.047211
0.158173 0.131256 0.047455
0.185486 0.133667 0.047607
0.214020 0.135834 0.047577
0.244446 0.137970 0.047424
0.276917 0.140381 0.047302
0.310577 0.143127 0.047302
0.345520 0.145691 0.048065
0.381378 0.148041 0.048920
0.417450 0.150208 0.049652
0.453033 0.151917 0.050201
0.487854 0.153198 0.050659
0.521790 0.154358 0.050934
0.554901 0.155151 0.050995
0.587311 0.155518 0.050751
0.618713 0.156219 0.050232
0.649658 0.156952 0.049377
0.680084 0.157623 0.048279
0.710419 0.158630 0.046814
0.739594 0.159424 0.045135
0.767761 0.159912 0.043243
0.795105 0.160370 0.041260
0.821808 0.160522 0.039215
0.848053 0.160370 0.038116
0.872833 0.160126 0.038116
0.896454 0.160461 0.039063
0.919312 0.163910 0.042206
0.040680 0.138489 0.046295
0.056152 0.139587 0.046448
0.073486 0.140503 0.046204
0.091370 0.141602 0.046814
0.110077 0.143188 0.047241
0.129425 0.143707 0.047638
0.157318 0.149231 0.047638
0.186493 0.153473 0.047424
0.216431 0.157227 0.047028
0.247406 0.160248 0.046936
0.280151 0.162933 0.047211
0.313721 0.165070 0.047668
0.348633 0.167389 0.048370
0.384277 0.169525 0.049164
0.419952 0.171387 0.049835
0.455017 0.172852 0.050507
0.489288 0.173645 0.051147
0.522736 0.174072 0.051727
0.555603 0.174225 0.052155
0.587616 0.174042 0.052338
0.618866 0.174103 0.052246
0.649933 0.174469 0.051819
0.680359 0.175140 0.051239
0.710297 0.176178 0.050232
0.739410 0.177216 0.048615
0.767578 0.178345 0.046631
0.795746 0.179749 0.044617
0.823730 0.181366 0.042450
0.850769 0.182892 0.042358
0.877197 0.184448 0.041534
0.901917 0.186127 0.041901
0.924805 0.190887 0.046844
0.040436 0.161865 0.045929
0.056122 0.162842 0.045654
0.073364 0.163544 0.045746
0.092407 0.164490 0.046509
0.111115 0.165588 0.047241
0.132172 0.166656 0.048035
0.154388 0.166199 0.048279
0.186737 0.172760 0.047913
0.218506 0.178589 0.047455
0.251221 0.183746 0.047577
0.284454 0.187347 0.047943
0.318481 0.189911 0.048431
0.353455 0.191803 0.048950
0.388947 0.193390 0.049469
0.424316 0.195038 0.050079
0.458801 0.196228 0.050720
0.492554 0.196777 0.051392
0.525299 0.196777 0.052094
0.557434 0.196381 0.052704
0.588959 0.195740 0.053192
0.620087 0.195129 0.053497
0.650452 0.194763 0.053558
0.680389 0.194611 0.053619
0.709412 0.194855 0.053558
0.737732 0.195221 0.053009
0.765259 0.195892 0.051758
0.792114 0.196777 0.049591
0.818695 0.198029 0.047363
0.845459 0.199829 0.047241
0.871857 0.201782 0.048370
0.897644 0.203979 0.049500
0.921844 0.209534 0.052612
0.040619 0.190216 0.044708
0.056091 0.190948 0.043945
0.073029 0.191315 0.044617
0.091095 0.191650 0.045654
0.110748 0.192017 0.046753
0.132629 0.192413 0.047791
0.158722 0.193695 0.048248
0.184723 0.193146 0.048248
0.219513 0.200439 0.048553
0.255127 0.208221 0.048950
0.289063 0.213013 0.049286
0.323364 0.216248 0.049591
0.358337 0.218353 0.049927
0.393768 0.219574 0.050262
0.428894 0.220520 0.050659
0.463196 0.221497 0.051117
0.496643 0.221924 0.051697
0.528992 0.221771 0.052307
0.560638 0.221161 0.052917
0.591644 0.220276 0.053497
0.622009 0.219147 0.053986
0.652222 0.218262 0.054352
0.681366 0.217438 0.055023
0.709351 0.216827 0.055664
0.736572 0.216339 0.056213
0.763031 0.216034 0.056396
0.789001 0.216095 0.055969
0.814545 0.216400 0.054901
0.839691 0.217010 0.054382
0.864380 0.217865 0.055573
0.889282 0.219330 0.058380
0.913391 0.224274 0.062256
0.040619 0.219574 0.042145
0.056396 0.220184 0.042084
0.072174 0.220276 0.042816
0.089172 0.220032 0.044128
0.108398 0.219971 0.045532
0.130768 0.219879 0.046875
0.157990 0.220978 0.048340
0.188965 0.223663 0.049347
0.216949 0.223175 0.049530
0.253540 0.230560 0.050110
0.292755 0.239502 0.050537
0.327057 0.243042 0.050873
0.361969 0.245514 0.051086
0.397278 0.246857 0.051270
0.432037 0.247375 0.051514
0.466003 0.247528 0.051849
0.499207 0.247681 0.052277
0.531525 0.247620 0.052765
0.562988 0.247101 0.053223
0.593933 0.246277 0.053711
0.624390 0.245270 0.054169
0.653961 0.243988 0.054565
0.682098 0.242737 0.055450
0.709229 0.241486 0.056671
0.735657 0.240448 0.057800
0.761383 0.239502 0.058960
0.786682 0.238678 0.059937
0.811584 0.238098 0.060577
0.834259 0.236603 0.061340
0.858582 0.236511 0.063843
0.882721 0.237030 0.067352
0.906067 0.240662 0.071411
0.040527 0.251617 0.039734
0.056549 0.252167 0.039948
0.072540 0.251953 0.040771
0.087891 0.251526 0.042236
0.103760 0.251160 0.044373
0.126221 0.250671 0.046661
0.154968 0.251556 0.048676
0.187592 0.253876 0.050049
0.221771 0.257080 0.050537
0.251099 0.255981 0.050903
0.289764 0.263489 0.051453
0.330811 0.272186 0.051910
0.365540 0.274567 0.052155
0.400238 0.275757 0.052277
0.434509 0.276062 0.052429
0.467987 0.275665 0.052673
0.500732 0.274750 0.053040
0.532990 0.274384 0.053436
0.564575 0.273956 0.053833
0.595032 0.273132 0.054169
0.624664 0.271942 0.054443
0.653503 0.270355 0.054718
0.681122 0.268585 0.055725
0.707855 0.266968 0.057159
0.733826 0.265594 0.058807
0.759094 0.264404 0.060455
0.783844 0.263367 0.062286
0.808319 0.262360 0.064117
0.830841 0.260529 0.066437
0.854706 0.259766 0.070129
0.878510 0.259705 0.074677
0.901947 0.262360 0.080109
0.040405 0.285950 0.038727
0.056671 0.286591 0.038635
0.073273 0.286346 0.039307
0.087646 0.285736 0.040771
0.101318 0.285004 0.043396
0.119629 0.284058 0.046356
0.148804 0.284454 0.049011
0.183685 0.286469 0.050598
0.220032 0.289429 0.051056
0.256439 0.293030 0.051666
0.287079 0.291443 0.052032
0.327881 0.299042 0.052643
0.370117 0.306946 0.053009
0.404816 0.308014 0.053162
0.438934 0.307892 0.053284
0.472748 0.307495 0.053467
0.505890 0.306610 0.053802
0.537842 0.305328 0.054199
0.568939 0.303864 0.054565
0.599152 0.302887 0.054871
0.628174 0.301483 0.055054
0.656250 0.299530 0.055786
0.682892 0.297211 0.056824
0.708649 0.294861 0.058258
0.733673 0.292847 0.060028
0.758087 0.291260 0.061981
0.781982 0.289917 0.064178
0.805450 0.288696 0.066711
0.828796 0.287659 0.070343
0.852142 0.286835 0.074860
0.875610 0.286438 0.079956
0.898895 0.288269 0.086548
0.040222 0.321533 0.038086
0.056702 0.322113 0.037933
0.073944 0.321991 0.038177
0.089111 0.321198 0.039917
0.101074 0.320557 0.042694
0.113831 0.319244 0.045868
0.140228 0.318817 0.049133
0.176666 0.320221 0.051239
0.215546 0.322754 0.051788
0.253723 0.325989 0.052094
0.291504 0.329559 0.052734
0.323822 0.327698 0.053070
0.366821 0.335510 0.053589
0.409332 0.342255 0.053894
0.443756 0.342133 0.054016
0.477600 0.341125 0.054169
0.510437 0.339691 0.054413
0.542297 0.338043 0.054779
0.573181 0.336212 0.055206
0.603027 0.334229 0.055603
0.631866 0.332367 0.056854
0.660034 0.330536 0.058350
0.686737 0.328308 0.060089
0.712402 0.325806 0.061798
0.737183 0.323517 0.063782
0.761261 0.321503 0.065979
0.784668 0.320129 0.068207
0.807648 0.319122 0.072296
0.830444 0.318451 0.077423
0.853180 0.317963 0.082855
0.876160 0.317780 0.088654
0.898926 0.319092 0.096069
0.040039 0.356934 0.037354
0.056610 0.357544 0.037170
0.074463 0.357574 0.037231
0.090515 0.356934 0.038971
0.102997 0.355682 0.041931
0.113892 0.354095 0.045624
0.130859 0.353180 0.048859
0.166077 0.353851 0.052124
0.207489 0.355896 0.053162
0.248352 0.358887 0.052948
0.287781 0.362274 0.053192
0.326630 0.365845 0.053772
0.359833 0.363373 0.054047
0.404236 0.371094 0.054504
0.446442 0.376678 0.054749
0.480652 0.375671 0.054840
0.513733 0.373779 0.054962
0.545380 0.371521 0.055237
0.575806 0.369141 0.055664
0.605133 0.366638 0.056183
0.633453 0.363983 0.058044
0.660980 0.361267 0.061462
0.687286 0.358795 0.063934
0.712555 0.356140 0.065918
0.737000 0.353424 0.067688
0.760834 0.350983 0.069580
0.784180 0.349243 0.072296
0.807190 0.348328 0.077209
0.829926 0.347931 0.082672
0.852539 0.347931 0.088867
0.875519 0.348145 0.095551
0.897980 0.349426 0.103607
0.039795 0.396515 0.036560
0.056427 0.397339 0.036591
0.074707 0.397491 0.037018
0.091736 0.397095 0.038483
0.105011 0.394775 0.042633
0.115387 0.391693 0.047302
0.126892 0.389526 0.050293
0.154877 0.388733 0.053864
0.197113 0.389709 0.055603
0.240723 0.392181 0.055695
0.282501 0.395386 0.055054
0.322662 0.398865 0.054688
0.362335 0.402313 0.054779
0.396423 0.399506 0.055023
0.441101 0.406708 0.055389
0.482086 0.410583 0.055573
0.516357 0.409119 0.055634
0.548218 0.406189 0.055725
0.578522 0.402954 0.056030
0.607330 0.399780 0.056549
0.635162 0.396851 0.057526
0.662354 0.393921 0.062042
0.688293 0.390961 0.066559
0.713379 0.388031 0.070404
0.737885 0.385406 0.073303
0.761749 0.382996 0.076630
0.785095 0.380859 0.080353
0.807983 0.379303 0.084961
0.830536 0.378540 0.090393
0.852997 0.378448 0.096710
0.875732 0.378784 0.103760
0.897705 0.380005 0.112122
0.039520 0.433624 0.037415
0.056091 0.434174 0.037903
0.074615 0.434113 0.038422
0.092499 0.434479 0.039093
0.106812 0.433044 0.042664
0.117584 0.429535 0.049805
0.127197 0.425781 0.055603
0.147125 0.423889 0.059540
0.185974 0.423950 0.061005
0.231873 0.425507 0.060486
0.275421 0.427948 0.059723
0.316772 0.430664 0.058868
0.356415 0.433289 0.058044
0.395691 0.436005 0.056946
0.429382 0.432617 0.055969
0.473114 0.438568 0.056305
0.513092 0.441254 0.056366
0.546967 0.439423 0.056396
0.577454 0.435455 0.056519
0.606537 0.431610 0.056885
0.634155 0.428284 0.057495
0.661163 0.425323 0.061890
0.686859 0.422546 0.068024
0.711731 0.419708 0.074554
0.735992 0.416931 0.080475
0.759735 0.414124 0.085663
0.783173 0.411743 0.089050
0.806122 0.409607 0.092499
0.828857 0.408142 0.096924
0.851532 0.407532 0.102539
0.874481 0.407654 0.109436
0.896332 0.408630 0.117554
0.039276 0.466705 0.039368
0.055725 0.467041 0.040649
0.074341 0.466827 0.042511
0.092804 0.466705 0.044556
0.108276 0.466644 0.046783
0.119904 0.462494 0.052826
0.129303 0.457306 0.060394
0.141846 0.454712 0.067078
0.175446 0.454651 0.070496
0.221252 0.455841 0.070343
0.266571 0.457794 0.067963
0.308777 0.460175 0.064880
0.348846 0.462494 0.063660
0.387695 0.464691 0.062225
0.426300 0.466919 0.060364
0.459717 0.463318 0.058105
0.502350 0.468109 0.057159
0.539612 0.468414 0.057190
0.572754 0.466156 0.057190
0.602478 0.462067 0.057373
0.630768 0.458466 0.057770
0.658020 0.455505 0.060242
0.683899 0.452942 0.067932
0.708740 0.450592 0.076172
0.733002 0.448181 0.083954
0.756531 0.445435 0.091461
0.779724 0.442413 0.096436
0.802551 0.439636 0.099854
0.825439 0.437469 0.102753
0.848511 0.436005 0.106781
0.871948 0.435394 0.112549
0.894043 0.435852 0.120453
0.039032 0.499664 0.048798
0.055359 0.500214 0.051208
0.074005 0.500183 0.054047
0.092834 0.500122 0.056763
0.109222 0.500488 0.059631
0.122162 0.499817 0.064453
0.131836 0.494965 0.072601
0.141327 0.488098 0.079742
0.170990 0.485535 0.083679
0.213074 0.485016 0.084229
0.257996 0.486023 0.082184
0.300201 0.487854 0.079102
0.340454 0.489899 0.075409
0.379028 0.491852 0.071594
0.416901 0.493652 0.069733
0.454620 0.495331 0.067230
0.486664 0.490631 0.061798
0.527771 0.494293 0.060455
0.566986 0.496582 0.058044
0.599884 0.494690 0.058044
0.628601 0.490479 0.058197
0.657990 0.488708 0.061798
0.684021 0.485870 0.069580
0.708801 0.483673 0.080139
0.732971 0.481750 0.090637
0.756470 0.479584 0.099854
0.779449 0.476990 0.106812
0.802063 0.473969 0.111664
0.824799 0.470825 0.115784
0.848022 0.468506 0.119141
0.871857 0.467224 0.123688
0.895172 0.466980 0.130951
0.038879 0.529510 0.062897
0.055084 0.529938 0.065735
0.073669 0.529907 0.068665
0.092743 0.529877 0.071655
0.109833 0.530121 0.074646
0.123962 0.530731 0.077942
0.134552 0.527283 0.084717
0.143494 0.521729 0.093384
0.173645 0.518829 0.100616
0.212769 0.518494 0.103333
0.256104 0.519287 0.102539
0.297485 0.520813 0.100037
0.337555 0.522675 0.096619
0.376129 0.524353 0.093079
0.413422 0.525726 0.089081
0.450226 0.526764 0.084839
0.486969 0.527649 0.080017
0.517517 0.521881 0.071075
0.557159 0.524536 0.066376
0.596344 0.527374 0.064514
0.628662 0.525604 0.061340
0.658356 0.523224 0.066254
0.684540 0.519623 0.072144
0.709290 0.516876 0.081299
0.733124 0.514832 0.094788
0.756378 0.513031 0.106445
0.779297 0.511017 0.115662
0.801910 0.508698 0.122437
0.824677 0.505768 0.127594
0.847809 0.502838 0.131622
0.871490 0.500122 0.136230
0.894531 0.499115 0.142609
0.038818 0.558868 0.081085
0.054932 0.560730 0.085999
0.073425 0.563965 0.093445
0.092621 0.564209 0.096436
0.110229 0.564606 0.099518
0.125244 0.565369 0.102814
0.144501 0.564117 0.106140
0.157928 0.555176 0.108765
0.182556 0.549500 0.116241
0.214447 0.547089 0.119659
0.253754 0.546936 0.119598
0.293152 0.548096 0.118011
0.332184 0.549683 0.115234
0.370117 0.551270 0.111847
0.407166 0.552612 0.108368
0.443512 0.553711 0.104919
0.479492 0.554657 0.101318
0.515350 0.555450 0.097107
0.545807 0.550415 0.087097
0.583588 0.552521 0.080994
0.622650 0.556000 0.074463
0.654388 0.554749 0.073303
0.681091 0.550934 0.077332
0.706573 0.547791 0.083649
0.730927 0.545593 0.094666
0.754395 0.544006 0.107483
0.777405 0.542694 0.119232
0.800140 0.541168 0.128448
0.822906 0.539246 0.135284
0.846069 0.536530 0.140289
0.869720 0.533630 0.145050
0.892639 0.531738 0.152649
0.038849 0.588409 0.102051
0.054901 0.589203 0.105133
0.073334 0.590607 0.109528
0.092529 0.591064 0.112427
0.110474 0.591339 0.115021
0.128876 0.591736 0.117798
0.157745 0.592133 0.120453
0.177917 0.586761 0.125122
0.196655 0.579254 0.130402
0.223907 0.576111 0.136475
0.257690 0.575287 0.137817
0.293701 0.575928 0.136932
0.330566 0.577240 0.134766
0.367096 0.578674 0.132080
0.403137 0.579956 0.129181
0.438629 0.580811 0.126190
0.473602 0.581390 0.122864
0.508118 0.581787 0.119415
0.542725 0.582245 0.115265
0.571808 0.577332 0.106201
0.607697 0.578979 0.100739
0.646301 0.583160 0.091125
0.677185 0.582520 0.090881
0.703674 0.579712 0.095703
0.728577 0.577087 0.102570
0.752563 0.575256 0.111450
0.775909 0.573914 0.121460
0.798492 0.572968 0.132935
0.821167 0.571747 0.141815
0.844147 0.569885 0.148621
0.867493 0.567474 0.154388
0.890228 0.565338 0.162079
0.038971 0.614410 0.118378
0.054962 0.615173 0.121094
0.073334 0.615784 0.124084
0.092468 0.616364 0.126984
0.113129 0.616699 0.129333
0.141785 0.615570 0.129456
0.172852 0.616028 0.131836
0.193176 0.612762 0.133850
0.204071 0.604034 0.136780
0.231110 0.601288 0.146820
0.262543 0.600983 0.152008
0.295868 0.601532 0.152496
0.330170 0.602600 0.150940
0.365021 0.603912 0.148651
0.399719 0.605072 0.146088
0.434021 0.605957 0.143280
0.468048 0.606476 0.140533
0.501587 0.606750 0.137451
0.534851 0.607025 0.134552
0.567963 0.607391 0.131348
0.595795 0.602814 0.123993
0.630188 0.604370 0.119873
0.666504 0.608276 0.112885
0.697754 0.608978 0.111053
0.724762 0.607544 0.113892
0.749207 0.605469 0.119873
0.773041 0.604034 0.126709
0.796234 0.602936 0.133301
0.818726 0.602203 0.144135
0.841187 0.601166 0.152863
0.863983 0.599457 0.160187
0.886566 0.597382 0.168823
0.039154 0.638397 0.131744
0.055084 0.639099 0.134155
0.073395 0.639679 0.136749
0.098755 0.640106 0.139160
0.129791 0.640289 0.141266
0.163269 0.640442 0.143219
0.193085 0.640778 0.145386
0.215271 0.640137 0.147339
0.222443 0.631805 0.148499
0.237854 0.625488 0.153809
0.265991 0.624176 0.161469
0.296814 0.624420 0.163086
0.329163 0.625336 0.162415
0.362183 0.626495 0.160645
0.395538 0.627716 0.158295
0.428833 0.628754 0.155823
0.462219 0.629547 0.153381
0.495239 0.630188 0.151367
0.528076 0.630768 0.149506
0.560425 0.631348 0.147949
0.592255 0.632080 0.146484
0.618988 0.627899 0.140533
0.651642 0.629669 0.138428
0.686005 0.633179 0.134155
0.717987 0.635376 0.131348
0.745911 0.635468 0.132233
0.770111 0.634094 0.137787
0.793610 0.633209 0.143524
0.816620 0.632477 0.149231
0.838989 0.631927 0.157837
0.861481 0.631317 0.167603
0.883636 0.629395 0.177002
0.043121 0.666290 0.153137
0.070007 0.666840 0.155090
0.102386 0.667175 0.156982
0.135223 0.667389 0.158691
0.165588 0.667419 0.160187
0.194183 0.667358 0.161713
0.220154 0.667542 0.163544
0.241821 0.667908 0.165436
0.254669 0.663513 0.168732
0.261963 0.655365 0.170807
0.283691 0.652496 0.178528
0.309784 0.651703 0.181610
0.338501 0.652130 0.181305
0.368958 0.653107 0.179932
0.400055 0.654205 0.177979
0.431580 0.655273 0.175873
0.463409 0.656219 0.173706
0.495209 0.656921 0.171570
0.526855 0.657440 0.169952
0.558044 0.657898 0.168549
0.588470 0.658325 0.167572
0.618439 0.658783 0.166809
0.643616 0.654938 0.162109
0.674500 0.656647 0.160889
0.707153 0.659668 0.157532
0.739197 0.662689 0.154480
0.768219 0.664551 0.153900
0.792053 0.663757 0.159058
0.815247 0.663391 0.164886
0.837891 0.663300 0.171112
0.860168 0.662964 0.178375
0.882202 0.661377 0.187927
0.074158 0.690369 0.167511
0.101624 0.690826 0.169098
0.130890 0.691101 0.170715
0.159729 0.691345 0.172180
0.186737 0.691406 0.173553
0.213226 0.691376 0.175110
0.238129 0.691467 0.176788
0.259705 0.691864 0.178802
0.275513 0.690552 0.181152
0.284790 0.683960 0.185547
0.301270 0.679810 0.192505
0.324402 0.678314 0.198242
0.350189 0.678406 0.199127
0.377838 0.679138 0.198120
0.406677 0.680115 0.196411
0.436218 0.681091 0.194397
0.466339 0.682037 0.192200
0.496796 0.682739 0.190063
0.527283 0.683197 0.188171
0.557281 0.683472 0.186493
0.586395 0.683685 0.185547
0.614777 0.683807 0.184937
0.642365 0.683929 0.184479
0.666656 0.680786 0.181244
0.696228 0.682312 0.179779
0.727325 0.684906 0.176849
0.758942 0.688416 0.173492
0.789154 0.691864 0.171417
0.812653 0.691528 0.176208
0.835388 0.691742 0.182129
0.857788 0.691833 0.188934
0.879974 0.690247 0.196136
0.112457 0.715668 0.185089
0.136108 0.716248 0.186798
0.161743 0.716553 0.188232
0.187347 0.716644 0.189362
0.211639 0.716583 0.190247
0.235901 0.716400 0.191315
0.259247 0.716248 0.192596
0.279907 0.716339 0.193970
0.297058 0.716705 0.195496
0.306671 0.711548 0.199554
0.317383 0.705750 0.204498
0.337036 0.703308 0.210876
0.360168 0.702667 0.213165
0.385712 0.703156 0.212616
0.412811 0.704041 0.211304
0.440857 0.705048 0.209534
0.469574 0.705994 0.207550
0.498871 0.706818 0.205566
0.528412 0.707489 0.203674
0.557617 0.707855 0.202057
0.585724 0.708038 0.200867
0.612854 0.708099 0.200470
0.638794 0.708008 0.200439
0.664520 0.707855 0.200256
0.688354 0.705353 0.197479
0.716980 0.706970 0.195984
0.746918 0.709381 0.193359
0.777771 0.713043 0.190369
0.809357 0.718262 0.187866
0.832611 0.718506 0.192139
0.855225 0.718658 0.197968
0.877350 0.717224 0.205170
0.134674 0.738556 0.197754
0.156281 0.739044 0.199158
0.180389 0.739288 0.200439
0.204895 0.739441 0.201508
0.228363 0.739410 0.202423
0.251923 0.739319 0.203522
0.275024 0.739197 0.204773
0.295807 0.739288 0.206268
0.313080 0.739655 0.207703
0.325043 0.737305 0.210663
0.332886 0.730927 0.215027
0.350494 0.728119 0.222473
0.372437 0.727081 0.227264
0.396149 0.727356 0.227570
0.421509 0.728088 0.226501
0.447937 0.728943 0.224915
0.475189 0.729828 0.222961
0.503174 0.730621 0.221039
0.531616 0.731323 0.219055
0.559937 0.731842 0.217377
0.587250 0.732208 0.216278
0.613251 0.732300 0.215912
0.637695 0.732056 0.216187
0.661591 0.731781 0.216644
0.686127 0.731567 0.216431
0.709961 0.729950 0.213776
0.737946 0.731628 0.212006
0.766785 0.733887 0.209625
0.796478 0.737213 0.207062
0.827454 0.742859 0.205597
0.852173 0.744080 0.208282
0.874939 0.743011 0.214447
0.153809 0.761017 0.209869
0.174316 0.761475 0.211151
0.197479 0.761749 0.212341
0.221283 0.761932 0.213409
0.244263 0.762024 0.214386
0.267517 0.761963 0.215607
0.290466 0.761963 0.217072
0.311707 0.762085 0.218750
0.329620 0.762451 0.220459
0.343842 0.762451 0.222351
0.346832 0.755188 0.223175
0.361084 0.751434 0.230011
0.382782 0.750366 0.237366
0.405701 0.750366 0.239868
0.429749 0.751038 0.239410
0.454987 0.751801 0.238129
0.481079 0.752625 0.236481
0.507874 0.753418 0.234589
0.535248 0.754181 0.232666
0.562592 0.754791 0.230835
0.589172 0.755249 0.229645
0.614441 0.755493 0.229431
0.637970 0.755524 0.230377
0.660461 0.755219 0.231659
0.683258 0.754974 0.232422
0.707214 0.755005 0.232056
0.731628 0.754456 0.229706
0.758911 0.756226 0.227966
0.786652 0.758270 0.225769
0.815063 0.761230 0.223602
0.845062 0.765930 0.221802
0.871307 0.767212 0.225128
0.174072 0.783844 0.223511
0.194153 0.784363 0.224945
0.216980 0.784698 0.226318
0.240723 0.785065 0.227692
0.263763 0.785339 0.229126
0.287323 0.785614 0.231049
0.310852 0.785889 0.233337
0.332825 0.786285 0.235687
0.351715 0.786804 0.237946
0.367981 0.787689 0.240295
0.376709 0.784119 0.242798
0.383545 0.778259 0.245331
0.400055 0.775818 0.251099
0.420410 0.774811 0.254822
0.442932 0.775177 0.255341
