tools/luts_backup/LAPARDIN-WEDLUTS-11.cube
#Created by: Adobe Photoshop Export Color Lookup Plugin
#Copyright: (C) 2017 Andrey Lapardin. vk.com-3dluts
TITLE "Andrey Lapardin. vk.com-3dluts"
#LUT size
LUT_3D_SIZE 5
#data domain
#LUT data points
DOMAIN_MIN 0.000000 0.000000 0.000000
DOMAIN_MAX 0.903226 0.903226 0.903226
0.075714 0.079163 0.082153
0.159821 0.082275 0.084900
0.428833 0.076630 0.085175
0.696320 0.076202 0.080475
0.809418 0.081329 0.081024
0.072510 0.178772 0.084686
0.165863 0.172699 0.083771
0.432190 0.185883 0.082153
0.686371 0.202484 0.078094
0.804993 0.240814 0.079254
0.072205 0.442749 0.073792
0.123871 0.414551 0.088501
0.452942 0.432068 0.077332
0.683289 0.427277 0.078064
0.805817 0.424774 0.077271
0.072113 0.656708 0.155670
0.181976 0.652130 0.158417
0.424072 0.633362 0.158569
0.658569 0.634277 0.092163
0.810333 0.636475 0.079193
0.284363 0.806488 0.321808
0.416077 0.806000 0.323242
0.506897 0.795441 0.334778
0.661255 0.796295 0.320435
0.800171 0.794403 0.287323
0.076996 0.080505 0.164368
0.151642 0.081055 0.176422
0.418762 0.074554 0.192322
0.681763 0.075256 0.167053
0.805328 0.113739 0.137726
0.074219 0.166656 0.170837
0.187195 0.200256 0.196777
0.460388 0.203064 0.183594
0.695435 0.246155 0.163940
0.789520 0.306702 0.171570
0.075317 0.429779 0.220703
0.161194 0.444366 0.227509
0.488617 0.462769 0.191528
0.698792 0.447845 0.172241
0.803558 0.452637 0.195221
0.079620 0.644806 0.313568
0.277313 0.656433 0.310150
0.475647 0.653931 0.326111
0.681976 0.649475 0.290710
0.812012 0.648254 0.292419
0.293152 0.797241 0.408051
0.434723 0.786957 0.421631
0.553986 0.789001 0.428314
0.670044 0.791779 0.427673
0.809998 0.795135 0.405701
0.072052 0.091888 0.365021
0.156372 0.092804 0.412292
0.420319 0.079834 0.458221
0.669830 0.129272 0.490875
0.804901 0.137939 0.437744
0.081055 0.201752 0.347137
0.224426 0.241974 0.413177
0.459930 0.265198 0.455750
0.657623 0.337341 0.480652
0.788147 0.352386 0.460724
0.077026 0.403687 0.395691
0.205383 0.443115 0.438110
0.479797 0.468719 0.453064
0.678223 0.472198 0.444641
0.810852 0.496216 0.455078
0.086365 0.641144 0.447388
0.326508 0.650696 0.468323
0.505646 0.653656 0.494110
0.677460 0.661224 0.484375
0.812439 0.664795 0.488556
0.317261 0.788513 0.502106
0.438904 0.782074 0.515564
0.585236 0.786285 0.536591
0.688019 0.795593 0.556488
0.814667 0.797485 0.542572
0.110229 0.140869 0.596710
0.297577 0.148865 0.619446
0.427979 0.191315 0.642700
0.638947 0.220612 0.662292
0.807098 0.283661 0.687683
0.159088 0.301819 0.592224
0.329926 0.320892 0.618622
0.451874 0.356049 0.634583
0.631348 0.388855 0.654968
0.770599 0.433136 0.666016
0.175690 0.424072 0.566620
0.335266 0.459900 0.595703
0.496124 0.507202 0.623474
0.658295 0.527832 0.643555
0.791290 0.561340 0.650146
0.171570 0.611694 0.599152
0.346710 0.632935 0.621490
0.511597 0.651703 0.641479
0.672272 0.667023 0.647675
0.809845 0.673981 0.653015
0.268005 0.793030 0.632690
0.415558 0.792938 0.640564
0.566223 0.791687 0.650940
0.707184 0.803284 0.672791
0.816071 0.806152 0.681000
0.296082 0.297668 0.770905
0.414703 0.300049 0.772369
0.494629 0.328979 0.790253
0.623749 0.335052 0.786560
0.779572 0.338135 0.787903
0.305450 0.409821 0.767944
0.424164 0.419495 0.745422
0.510254 0.434052 0.776764
0.622192 0.449036 0.783142
0.772064 0.456451 0.781799
0.305878 0.516479 0.758270
0.415680 0.532288 0.739777
0.538300 0.563110 0.764587
0.648163 0.570099 0.767822
0.774414 0.584106 0.776062
0.307709 0.632721 0.750336
0.420654 0.641479 0.746033
0.545593 0.669617 0.763855
0.681183 0.691833 0.774506
0.799133 0.703369 0.783966
0.314606 0.777832 0.765686
0.433228 0.781982 0.768463
0.561676 0.791168 0.777252
0.696320 0.803467 0.792908
0.819366 0.817932 0.801910
