tools/luts_backup/Lomo Color Implosion 21ˉ_FPE.cube
# (C) 2014 VisionColor & Patchflyer [www.vision-color.com]
# Generator: VC Patchmatch v.2.1.1 [64/53]
# All work and no play makes Jack a dull boy.
# LUT generated from: Lomo Color Implosion 21°_FPE
LUT_3D_SIZE 5
0.038224 0.042695 0.043198
0.090013 0.046983 0.039719
0.212360 0.054795 0.040421
0.357549 0.047364 0.043671
0.480125 0.049714 0.049546
0.033097 0.068574 0.043687
0.147478 0.116686 0.048463
0.421912 0.166598 0.051087
0.635477 0.176867 0.059892
0.725505 0.164813 0.063539
0.030976 0.122728 0.047593
0.181704 0.260685 0.053483
0.587182 0.412268 0.074342
0.858869 0.492927 0.114824
0.931212 0.512749 0.127977
0.039551 0.268009 0.050477
0.208667 0.461326 0.063722
0.698711 0.627878 0.123003
0.928740 0.688823 0.163912
0.955367 0.704402 0.177630
0.045335 0.410040 0.063996
0.313985 0.602319 0.098436
0.748653 0.736080 0.161288
0.940597 0.783764 0.189029
0.956832 0.790570 0.198032
0.033570 0.041321 0.073854
0.094087 0.049424 0.079454
0.221530 0.055955 0.079591
0.358022 0.049592 0.068956
0.484627 0.049699 0.062623
0.031098 0.080919 0.096300
0.154726 0.143786 0.130083
0.384237 0.144976 0.100557
0.542962 0.125643 0.085206
0.674525 0.120928 0.082033
0.032868 0.175051 0.123308
0.130297 0.310109 0.163455
0.731899 0.567086 0.270069
0.896895 0.560861 0.234501
0.930724 0.530968 0.214038
0.042771 0.357488 0.183139
0.175967 0.499474 0.179873
0.747417 0.724758 0.311955
0.949355 0.788663 0.348196
0.968643 0.823133 0.437781
0.044800 0.412451 0.185107
0.224475 0.603754 0.211688
0.723171 0.776822 0.305913
0.951354 0.861494 0.385718
0.969543 0.885496 0.450080
0.032639 0.039902 0.139528
0.119600 0.055482 0.188891
0.287312 0.055955 0.184924
0.472923 0.052567 0.172366
0.546685 0.052262 0.152117
0.035233 0.083986 0.176776
0.081041 0.112215 0.204669
0.383993 0.148928 0.230869
0.503349 0.109545 0.177462
0.627482 0.097780 0.168139
0.038987 0.236683 0.296132
0.055879 0.313313 0.331792
0.561715 0.564599 0.497871
0.772641 0.452079 0.345403
0.878248 0.472541 0.374243
0.045228 0.388434 0.355489
0.064393 0.469551 0.362280
0.630213 0.765637 0.581720
0.935637 0.848585 0.661357
0.969375 0.853086 0.675319
0.047944 0.435782 0.354757
0.071351 0.529335 0.340749
0.732494 0.833539 0.549569
0.937407 0.904860 0.677455
0.978317 0.928359 0.725048
0.036500 0.039948 0.225299
0.130312 0.053300 0.306538
0.284642 0.053010 0.329580
0.510185 0.055955 0.307027
0.576913 0.055192 0.287098
0.039933 0.097856 0.305425
0.070481 0.110613 0.305730
0.305348 0.133700 0.364096
0.527153 0.114168 0.331533
0.649302 0.105409 0.326513
0.048081 0.281483 0.453986
0.054047 0.297551 0.450843
0.239704 0.374105 0.480217
0.725383 0.464637 0.553857
0.847013 0.470039 0.555184
0.050858 0.399832 0.501930
0.061570 0.477485 0.531762
0.231373 0.615488 0.581430
0.882963 0.861280 0.816876
0.958343 0.851850 0.808423
0.052827 0.460426 0.510582
0.067399 0.539162 0.534051
0.338735 0.758541 0.643565
0.912398 0.927459 0.850141
0.973754 0.944762 0.880018
0.040818 0.044312 0.323781
0.115923 0.053712 0.392950
0.234592 0.049607 0.402106
0.434882 0.048844 0.393164
0.573312 0.054490 0.399207
0.045304 0.101946 0.407111
0.075593 0.112886 0.413642
0.267903 0.115038 0.443198
0.533501 0.111269 0.465217
0.663462 0.107073 0.467826
0.049744 0.253635 0.512123
0.053986 0.278874 0.525399
0.178363 0.300938 0.531273
0.686412 0.428687 0.650828
0.854139 0.506554 0.708782
0.056245 0.395193 0.592477
0.062440 0.458457 0.623758
0.127382 0.531380 0.639582
0.800702 0.813230 0.850721
0.944167 0.848356 0.886122
0.059785 0.470741 0.619577
0.070512 0.537728 0.650187
0.175540 0.688762 0.707393
0.821286 0.913573 0.902815
0.964004 0.945846 0.934279
