tools/luts_backup/Lomo Color Implosion 21ˉ_VS.cube
# (C) 2014 VisionColor & Patchflyer [www.vision-color.com]
# Generator: VC Patchmatch v.2.1.1 [64/53]
# All work and no play makes Jack a dull boy.
# LUT generated from: Lomo Color Implosion 21°_VisionSpace
LUT_3D_SIZE 17
0.053010 0.045045 0.045045
0.073091 0.044373 0.044587
0.094026 0.042939 0.043549
0.111849 0.044007 0.043946
0.128939 0.047272 0.047059
0.150576 0.051575 0.051087
0.176730 0.055695 0.054749
0.204074 0.059236 0.057710
0.229343 0.062013 0.060060
0.254856 0.064240 0.062226
0.284642 0.066865 0.065095
0.318700 0.070192 0.068574
0.356237 0.074220 0.072175
0.396704 0.078401 0.076265
0.437354 0.082734 0.080293
0.474800 0.087404 0.084230
0.507469 0.090791 0.088533
0.051484 0.061646 0.043580
0.071534 0.061585 0.044648
0.092164 0.060914 0.044495
0.109468 0.061463 0.047456
0.128695 0.064332 0.050935
0.152743 0.068208 0.054627
0.180758 0.072663 0.058717
0.211673 0.077058 0.062715
0.243778 0.081941 0.066804
0.276188 0.086671 0.070619
0.308751 0.090517 0.073945
0.343969 0.094301 0.077668
0.385382 0.099367 0.082429
0.432410 0.105257 0.088075
0.473091 0.110201 0.093111
0.507164 0.114992 0.097078
0.537011 0.118196 0.100496
0.050843 0.079927 0.044160
0.070649 0.080812 0.045502
0.094636 0.082918 0.049683
0.114382 0.083619 0.054017
0.137148 0.087526 0.058198
0.165835 0.092866 0.062654
0.200595 0.099916 0.068360
0.241093 0.108492 0.075257
0.284733 0.118105 0.082460
0.330022 0.127626 0.089754
0.375952 0.135927 0.096651
0.422522 0.142855 0.103151
0.467567 0.149569 0.109346
0.508293 0.156649 0.115663
0.542107 0.162448 0.121157
0.567773 0.166995 0.125063
0.589746 0.169986 0.128176
0.052003 0.099886 0.046143
0.071687 0.099825 0.048310
0.096101 0.104250 0.055818
0.124666 0.112245 0.063600
0.154299 0.118563 0.068635
0.188327 0.126986 0.075013
0.228275 0.137301 0.082582
0.274083 0.149264 0.091341
0.324636 0.161440 0.100587
0.377447 0.173831 0.110018
0.431586 0.185672 0.119448
0.479988 0.195499 0.128084
0.520073 0.203159 0.135195
0.553307 0.209628 0.141054
0.580133 0.214969 0.146365
0.601404 0.218692 0.150240
0.619867 0.221744 0.153506
0.055299 0.120058 0.049439
0.075837 0.119203 0.055238
0.099611 0.125582 0.062654
0.132753 0.140322 0.071748
0.169833 0.153079 0.080293
0.211185 0.166751 0.088930
0.255772 0.179904 0.098177
0.305241 0.193790 0.108186
0.358175 0.208469 0.119142
0.415076 0.222507 0.130465
0.471015 0.235538 0.141299
0.516533 0.246433 0.150790
0.552819 0.255375 0.158999
0.581262 0.262547 0.165499
0.604822 0.268650 0.171115
0.623652 0.271763 0.174838
0.638666 0.274174 0.177829
0.064485 0.138949 0.058930
0.081666 0.139712 0.062348
0.105043 0.149172 0.068605
0.140597 0.168856 0.079866
0.181491 0.186587 0.090455
0.225834 0.203494 0.100801
0.279240 0.223972 0.113558
0.332753 0.241276 0.125856
0.389761 0.257755 0.138735
0.448859 0.273716 0.151919
0.501732 0.288670 0.164553
0.544152 0.301152 0.175601
0.578241 0.311223 0.184878
0.605554 0.318914 0.192142
0.626490 0.326146 0.198367
0.644099 0.330449 0.202914
0.657008 0.332525 0.205753
0.070832 0.160372 0.065461
0.086946 0.161959 0.068086
0.112001 0.175113 0.075563
0.150607 0.200381 0.089204
0.193515 0.222416 0.101656
0.238834 0.240269 0.112520
0.291325 0.261662 0.125612
0.358022 0.292332 0.145144
0.418021 0.311803 0.160586
0.479408 0.330480 0.176303
0.530663 0.346777 0.190494
0.570703 0.360082 0.202976
0.602930 0.372595 0.214115
0.628748 0.382727 0.223667
0.648951 0.391211 0.231235
0.664851 0.397192 0.237125
0.677394 0.400671 0.240757
0.076875 0.183230 0.071565
0.092348 0.185153 0.073762
0.118502 0.201083 0.082033
0.161349 0.234226 0.098909
0.209659 0.262760 0.114687
0.255131 0.282536 0.126680
0.305730 0.303777 0.140139
0.367971 0.332540 0.158572
0.445457 0.369833 0.184756
0.507347 0.391211 0.203464
0.557122 0.409430 0.219181
0.596826 0.425788 0.234043
0.628138 0.440681 0.247745
0.652735 0.453529 0.260044
0.672541 0.463508 0.269718
0.687312 0.471000 0.277012
0.699580 0.476158 0.282139
0.083162 0.208011 0.077821
0.098085 0.209934 0.079805
0.124880 0.227787 0.088533
0.171450 0.268742 0.108431
0.227298 0.308125 0.129702
0.279118 0.335683 0.146242
0.327413 0.355886 0.159548
0.383413 0.381094 0.176394
0.452842 0.412894 0.199496
0.531884 0.452918 0.231174
0.582940 0.476417 0.251408
0.622217 0.496193 0.269078
0.652979 0.513115 0.284855
0.676631 0.527642 0.299107
0.695705 0.538689 0.310277
0.710445 0.547417 0.318883
0.721828 0.554345 0.325780
0.092073 0.238865 0.086152
0.106020 0.240452 0.087739
0.133150 0.259434 0.096773
0.183383 0.308476 0.119966
0.246494 0.360174 0.147585
0.307317 0.398840 0.170809
0.358495 0.424292 0.187625
0.407385 0.441749 0.200748
0.468544 0.467109 0.220829
0.541421 0.503120 0.250126
0.604456 0.540536 0.282292
0.645258 0.562020 0.303014
0.674708 0.577218 0.319005
0.697749 0.590539 0.333440
0.715755 0.601068 0.344427
0.729946 0.607660 0.352026
0.740566 0.614221 0.358679
0.104921 0.282353 0.098695
0.118318 0.281682 0.099306
0.145327 0.301030 0.108705
0.199741 0.357671 0.135775
0.270695 0.423743 0.170504
0.337469 0.472389 0.199496
0.394873 0.502403 0.220676
0.442634 0.516777 0.234073
0.495705 0.532982 0.250584
0.556344 0.556863 0.273930
0.615351 0.587152 0.302251
0.661250 0.612085 0.328344
0.691829 0.626734 0.345190
0.714687 0.637781 0.358404
0.731899 0.646845 0.368414
0.745632 0.652552 0.375097
0.755276 0.656855 0.380560
0.122560 0.345159 0.117739
0.135256 0.338811 0.116487
0.163546 0.357763 0.126711
0.221164 0.419013 0.156649
0.297948 0.495766 0.197208
0.369085 0.546807 0.230167
0.428717 0.574548 0.252995
0.480446 0.588190 0.269261
0.530114 0.597955 0.284520
0.580606 0.613367 0.303899
0.627405 0.629664 0.323949
0.670100 0.648310 0.345190
0.703120 0.663478 0.363317
0.726802 0.673304 0.375860
0.743648 0.680873 0.384833
0.757565 0.686732 0.391699
0.766995 0.690394 0.396704
0.148287 0.431739 0.144991
0.159884 0.419501 0.141817
0.191806 0.438788 0.154330
0.252781 0.500969 0.186435
0.326390 0.564508 0.224430
0.396857 0.607507 0.257450
0.457404 0.632929 0.282078
0.514183 0.647791 0.302525
0.565911 0.657069 0.319829
0.609155 0.665644 0.335851
0.646906 0.674159 0.350683
0.680110 0.682216 0.364019
0.709926 0.691554 0.376349
0.734462 0.700526 0.388098
0.752010 0.707576 0.396857
0.766201 0.713527 0.404303
0.776150 0.718227 0.409796
0.183871 0.534600 0.181338
0.196933 0.523400 0.178134
0.235447 0.546624 0.195102
0.294652 0.589593 0.224002
0.360357 0.629480 0.254490
0.424048 0.658351 0.282628
0.484810 0.679744 0.308385
0.543267 0.695033 0.332433
0.595697 0.705074 0.353063
0.635676 0.710689 0.367651
0.667659 0.713771 0.377966
0.695460 0.716701 0.386084
0.719570 0.720913 0.393683
0.740353 0.725093 0.399939
0.758175 0.729946 0.406409
0.772732 0.734890 0.413397
0.783078 0.739467 0.418799
0.215702 0.611841 0.213138
0.234928 0.609247 0.214054
0.279271 0.632563 0.234287
0.336095 0.661372 0.260075
0.394385 0.684321 0.284245
0.452338 0.701167 0.307469
0.510430 0.716457 0.331731
0.567712 0.729335 0.356451
0.617151 0.738766 0.377417
0.655512 0.743984 0.391974
0.684718 0.745754 0.400641
0.708461 0.746151 0.405524
0.730800 0.747738 0.410498
0.749599 0.750088 0.415351
0.764675 0.751766 0.418158
0.778653 0.755459 0.423102
0.789120 0.758907 0.428046
0.243473 0.668208 0.239353
0.266026 0.669184 0.242954
0.311131 0.687099 0.262150
0.367803 0.709316 0.286687
0.423651 0.725490 0.309117
0.477150 0.735683 0.329717
0.531426 0.745327 0.351629
0.586358 0.753780 0.374090
0.631128 0.759976 0.392187
0.666468 0.764309 0.404425
0.695399 0.766567 0.413489
0.719081 0.767758 0.418952
0.740353 0.769223 0.423224
0.759243 0.771298 0.427344
0.773373 0.772824 0.430152
0.785000 0.773373 0.431983
0.794461 0.775021 0.435065
0.261723 0.704585 0.256260
0.288396 0.708980 0.262669
0.334386 0.722988 0.281315
0.388861 0.738582 0.303319
0.442481 0.750881 0.325170
0.494392 0.759243 0.345708
0.547112 0.766323 0.366278
0.599176 0.772335 0.386755
0.639582 0.776486 0.401434
0.673304 0.779721 0.412268
0.702358 0.782254 0.421332
0.726406 0.784298 0.427314
0.747860 0.786252 0.432105
0.766415 0.788388 0.436622
0.780606 0.789914 0.439185
0.792172 0.790463 0.441688
0.800443 0.791379 0.443183
0.052796 0.044892 0.063081
0.072358 0.044617 0.062470
0.091402 0.043702 0.061250
0.107851 0.045594 0.059907
0.126467 0.048310 0.060975
0.149050 0.051942 0.063874
0.174868 0.055848 0.067353
0.202182 0.058778 0.070192
0.228153 0.061158 0.072419
0.253361 0.063325 0.074464
0.281193 0.066041 0.076692
0.312474 0.069123 0.079408
0.348486 0.072755 0.082887
0.390417 0.077424 0.087312
0.433509 0.082033 0.091524
0.471321 0.086397 0.096010
0.506798 0.091188 0.100008
0.051026 0.061616 0.061830
0.072175 0.061067 0.061250
0.095888 0.059754 0.060426
0.122255 0.059724 0.059632
0.148470 0.061341 0.060670
0.172244 0.065370 0.064240
0.192721 0.070863 0.069184
0.216312 0.074647 0.072572
0.241917 0.077241 0.075349
0.269261 0.080262 0.078309
0.300328 0.083833 0.081453
0.336583 0.088045 0.085512
0.376684 0.093263 0.090394
0.419898 0.098970 0.095827
0.461372 0.104494 0.101045
0.498512 0.109316 0.105409
0.529839 0.114137 0.110201
0.050935 0.080110 0.061311
0.071290 0.081819 0.060853
0.101320 0.085298 0.062013
0.127626 0.085939 0.063416
0.153872 0.087922 0.066896
0.180270 0.092744 0.072908
0.209506 0.098940 0.079408
0.244236 0.104677 0.084565
0.281010 0.111391 0.090089
0.319463 0.118196 0.096071
0.358648 0.124239 0.101503
0.400946 0.130282 0.106935
0.448554 0.137453 0.113680
0.491859 0.144656 0.120424
0.528527 0.151400 0.126619
0.558434 0.156741 0.131655
0.581506 0.160159 0.135103
0.048951 0.101289 0.058808
0.069551 0.102571 0.059876
0.102022 0.113313 0.064759
0.142977 0.123598 0.074525
0.173281 0.128237 0.083253
0.207034 0.134127 0.089601
0.245090 0.141604 0.096895
0.286809 0.150149 0.104280
0.332143 0.159792 0.112245
0.379705 0.169467 0.120333
0.427375 0.177981 0.128054
0.471565 0.185000 0.134890
0.511040 0.191928 0.141299
0.545098 0.198734 0.147250
0.573297 0.204776 0.152895
0.596490 0.209659 0.157473
0.614191 0.212833 0.160555
0.053712 0.121035 0.061799
0.068849 0.123476 0.061158
0.101534 0.136172 0.068818
0.147433 0.154726 0.085664
0.196231 0.173190 0.100618
0.238285 0.183139 0.109133
0.281621 0.192477 0.117372
0.327916 0.202976 0.126253
0.377493 0.214542 0.135805
0.429389 0.225528 0.145418
0.477852 0.234440 0.154147
0.518364 0.241428 0.161349
0.551141 0.247440 0.167452
0.577966 0.252506 0.172427
0.601190 0.256748 0.176913
0.620142 0.260563 0.180789
0.635523 0.263554 0.183902
0.059876 0.141451 0.067079
0.069245 0.145388 0.062104
0.102358 0.157992 0.072999
0.151308 0.183413 0.092714
0.204288 0.207828 0.111269
0.261295 0.231724 0.126619
0.314275 0.248783 0.139437
0.364309 0.260746 0.150240
0.416373 0.272679 0.161044
0.470741 0.284886 0.172274
0.516045 0.294835 0.181979
0.552300 0.302647 0.190066
0.581964 0.309300 0.196689
0.606561 0.314244 0.201999
0.625360 0.317388 0.205966
0.642176 0.320104 0.209354
0.655055 0.321904 0.212131
0.068238 0.162325 0.075257
0.076387 0.165957 0.069764
0.108064 0.178744 0.082277
0.157473 0.213565 0.102449
0.214115 0.244633 0.122652
0.270420 0.270726 0.139376
0.335103 0.300420 0.159213
0.398398 0.323934 0.177066
0.454704 0.338399 0.190677
0.506737 0.350439 0.202853
0.549767 0.361212 0.213779
0.584253 0.370398 0.223362
0.610803 0.378180 0.231144
0.633295 0.384375 0.237858
0.651362 0.388037 0.242313
0.665431 0.390112 0.245609
0.678187 0.393225 0.249302
0.075868 0.185946 0.082826
0.083955 0.188174 0.077577
0.113008 0.201297 0.088777
0.164096 0.243442 0.111727
0.226810 0.285832 0.135988
0.286137 0.317281 0.156222
0.344472 0.343740 0.174105
0.417258 0.377523 0.198337
0.489036 0.407034 0.222507
0.541894 0.423987 0.238621
0.581903 0.436286 0.251164
0.614252 0.446906 0.262455
0.640406 0.455711 0.271855
0.661036 0.463493 0.280339
0.678126 0.469200 0.286778
0.691218 0.472221 0.290898
0.704280 0.478935 0.296452
0.083467 0.213443 0.090272
0.093172 0.212192 0.087037
0.119020 0.227085 0.095460
0.171939 0.276478 0.120638
0.240574 0.330556 0.150942
0.306859 0.371725 0.176547
0.363638 0.397696 0.194980
0.427237 0.426047 0.216251
0.506447 0.463645 0.245701
0.570825 0.496803 0.273899
0.612116 0.513390 0.290410
0.642512 0.525383 0.303471
0.667231 0.535180 0.314427
0.687617 0.544213 0.324376
0.703975 0.551843 0.333104
0.717586 0.557687 0.339574
0.730739 0.566873 0.347051
0.093874 0.248997 0.100435
0.102541 0.244633 0.096376
0.128450 0.260502 0.104891
0.184024 0.316716 0.132784
0.258061 0.382757 0.168917
0.329961 0.433600 0.199985
0.391333 0.464820 0.222477
0.448493 0.487312 0.241581
0.516213 0.517418 0.266758
0.584634 0.551186 0.297002
0.633326 0.574334 0.320928
0.665370 0.588586 0.336858
0.689174 0.598016 0.348241
0.709010 0.606043 0.357610
0.725155 0.613581 0.365759
0.739773 0.620783 0.373114
0.753811 0.631830 0.381415
0.107729 0.296056 0.114687
0.116274 0.288640 0.109895
0.142519 0.304540 0.118715
0.199771 0.365087 0.148501
0.278477 0.441871 0.189487
0.355718 0.502983 0.226871
0.421302 0.537072 0.253117
0.478553 0.556512 0.273320
0.537408 0.574762 0.294072
0.593439 0.595728 0.316503
0.642664 0.615534 0.338598
0.679530 0.631556 0.357763
0.704952 0.642298 0.370062
0.724819 0.649866 0.378973
0.740993 0.657404 0.387030
0.756130 0.665705 0.395209
0.772000 0.679530 0.405280
0.126070 0.357214 0.134798
0.134646 0.348211 0.128878
0.162112 0.363439 0.138186
0.221012 0.425238 0.169284
0.301488 0.506462 0.212802
0.380041 0.565362 0.252232
0.447944 0.598993 0.281834
0.510277 0.618982 0.306157
0.564569 0.631769 0.325505
0.610925 0.642237 0.342138
0.651850 0.653101 0.358038
0.686000 0.663600 0.371588
0.713924 0.674159 0.384131
0.734981 0.681971 0.393286
0.751553 0.689601 0.401221
0.767361 0.698543 0.409461
0.785306 0.715206 0.421607
0.152407 0.440375 0.162875
0.159640 0.428382 0.155215
0.191867 0.447608 0.167636
0.252995 0.507652 0.199680
0.327642 0.570855 0.238468
0.402594 0.617792 0.275303
0.471992 0.649104 0.307347
0.537133 0.669520 0.335271
0.591150 0.681178 0.355016
0.631434 0.686702 0.367834
0.666010 0.690730 0.378485
0.695613 0.696071 0.388098
0.719509 0.700557 0.395758
0.741543 0.707912 0.404944
0.758389 0.714534 0.412451
0.774166 0.723110 0.419959
0.793301 0.739773 0.431373
0.186770 0.538659 0.198367
0.195712 0.528222 0.191501
0.234653 0.553948 0.208469
0.293858 0.594781 0.236881
0.359686 0.633539 0.267399
0.426246 0.664088 0.297887
0.493690 0.689662 0.329107
0.557336 0.707546 0.355901
0.610376 0.718593 0.375525
0.649134 0.722957 0.387518
0.679896 0.724544 0.395483
0.707057 0.726467 0.402625
0.729549 0.728878 0.409186
0.747860 0.731411 0.415137
0.764065 0.735897 0.421118
0.779232 0.742580 0.427832
0.798184 0.758602 0.438697
0.217746 0.614038 0.229709
0.231449 0.611811 0.225681
0.276738 0.637201 0.246281
0.333654 0.665492 0.271855
0.392584 0.687373 0.296269
0.452766 0.704555 0.321141
0.514183 0.721828 0.348180
0.574823 0.736599 0.372656
0.623590 0.745235 0.389746
0.660883 0.749447 0.401038
0.691157 0.751217 0.409064
0.717189 0.752407 0.415625
0.739681 0.754116 0.421698
0.757443 0.755978 0.427070
0.771695 0.758358 0.431525
0.785489 0.762844 0.436683
0.802304 0.774227 0.444526
0.244755 0.671321 0.256016
0.261784 0.671199 0.253574
0.307073 0.690455 0.273198
0.365118 0.712367 0.298131
0.422034 0.728084 0.321386
0.476753 0.738125 0.342748
0.531456 0.748257 0.363317
0.588006 0.758175 0.383917
0.633112 0.764736 0.398657
0.667872 0.767971 0.408637
0.698360 0.769955 0.416663
0.724605 0.771389 0.423346
0.746670 0.773251 0.429358
0.764889 0.775326 0.435157
0.779202 0.777798 0.439704
0.792905 0.781826 0.444648
0.807279 0.790463 0.450782
0.262943 0.707362 0.274235
0.283360 0.710994 0.272953
0.329534 0.725490 0.291752
0.385473 0.741482 0.314733
0.440101 0.753323 0.337346
0.492164 0.762234 0.357488
0.545342 0.769650 0.376318
0.596918 0.775967 0.393133
0.639094 0.781338 0.405829
0.674128 0.784817 0.415839
0.704494 0.786435 0.423865
0.731075 0.787869 0.430854
0.752956 0.789242 0.436866
0.771298 0.791653 0.442573
0.786435 0.794949 0.447486
0.800107 0.798947 0.452186
0.812192 0.804044 0.456489
0.051942 0.045045 0.083040
0.071015 0.045136 0.081147
0.090211 0.045655 0.077241
0.106081 0.047211 0.075929
0.125277 0.049714 0.076478
0.147951 0.053010 0.078737
0.174472 0.056428 0.081636
0.201450 0.059266 0.084260
0.226688 0.061494 0.086275
0.252079 0.063600 0.088197
0.279393 0.065888 0.090272
0.308507 0.068513 0.092531
0.342657 0.071809 0.095399
0.383673 0.076265 0.099458
0.427344 0.081300 0.104128
0.467079 0.085969 0.108370
0.503288 0.091157 0.113161
0.051179 0.061372 0.082765
0.072267 0.060853 0.082673
0.095430 0.060243 0.080690
0.120455 0.060456 0.079469
0.145388 0.062776 0.079500
0.168338 0.066621 0.081056
0.190097 0.070741 0.083986
0.214572 0.073610 0.086305
0.238468 0.076112 0.088624
0.265446 0.079011 0.091371
0.295903 0.082673 0.094545
0.329747 0.086549 0.097780
0.367071 0.090761 0.101625
0.408301 0.095735 0.106386
0.449897 0.101015 0.111147
0.487678 0.105928 0.116060
0.519127 0.110079 0.119844
0.051514 0.080934 0.081331
0.069917 0.081849 0.081758
0.099214 0.082887 0.081849
0.132235 0.083894 0.080476
0.165927 0.084260 0.080354
0.194583 0.085451 0.082002
0.220005 0.088411 0.085573
0.245212 0.092592 0.089479
0.266361 0.097292 0.093965
0.292363 0.100893 0.097566
0.325658 0.105501 0.101747
0.365759 0.111360 0.107088
0.410834 0.118135 0.113497
0.457679 0.126131 0.120607
0.499733 0.133822 0.127138
0.535790 0.140505 0.133089
0.565667 0.146578 0.139101
0.051545 0.101045 0.079988
0.068910 0.102937 0.080415
0.105653 0.116670 0.085084
0.156680 0.128511 0.089021
0.194797 0.129915 0.092866
0.228183 0.132479 0.099031
0.258457 0.137789 0.106905
0.291325 0.144015 0.113985
0.328466 0.150027 0.119814
0.367315 0.155764 0.125460
0.409064 0.162142 0.131807
0.454078 0.168948 0.138399
0.494575 0.175479 0.144686
0.531243 0.182834 0.151339
0.562676 0.189792 0.157290
0.589746 0.196139 0.162966
0.609979 0.200748 0.167605
0.058320 0.120333 0.083040
0.065248 0.125887 0.076539
0.100069 0.142061 0.082551
0.158816 0.167483 0.095033
0.220249 0.186587 0.114656
0.263310 0.193118 0.124636
0.303227 0.198947 0.133852
0.344182 0.205631 0.141604
0.387167 0.212253 0.148623
0.432349 0.219242 0.155795
0.476051 0.225315 0.162478
0.513756 0.230381 0.168215
0.544762 0.234928 0.173281
0.572595 0.239933 0.178286
0.597131 0.245274 0.183352
0.617334 0.250340 0.187991
0.635370 0.255589 0.192813
0.064576 0.142031 0.087404
0.066468 0.148714 0.076692
0.094942 0.163119 0.081392
0.153506 0.197665 0.099855
0.223453 0.227115 0.125307
0.292149 0.255528 0.150546
0.343374 0.267247 0.163272
0.390158 0.274022 0.172183
0.436240 0.280247 0.179965
0.482429 0.286564 0.187655
0.522087 0.292607 0.194583
0.554192 0.296452 0.200046
0.580743 0.298833 0.204135
0.603540 0.301457 0.207736
0.623072 0.304601 0.211765
0.641413 0.309087 0.215946
0.657404 0.316320 0.221622
0.071931 0.164828 0.093507
0.073457 0.171359 0.082155
0.092622 0.183230 0.082582
0.154360 0.226383 0.110048
0.229099 0.266239 0.140688
0.299107 0.300343 0.165316
0.373098 0.333700 0.192233
0.432181 0.349294 0.206516
0.482719 0.356008 0.216251
0.525322 0.361883 0.224491
0.560754 0.367102 0.231571
0.590478 0.371344 0.237613
0.613275 0.373266 0.241550
0.633051 0.375006 0.244999
0.651423 0.378058 0.249302
0.667384 0.382803 0.254093
0.683589 0.391592 0.260349
0.079194 0.191012 0.100649
0.081178 0.194736 0.089235
0.095155 0.206241 0.086488
0.156863 0.253727 0.117159
0.238621 0.308095 0.156863
0.312413 0.349691 0.185458
0.382773 0.382925 0.210025
0.461448 0.418265 0.238651
0.523781 0.438163 0.257145
0.566186 0.447074 0.268345
0.598962 0.452995 0.277043
0.624811 0.456840 0.283574
0.646632 0.459861 0.288640
0.664576 0.462730 0.293462
0.682063 0.468071 0.299474
0.698238 0.476066 0.306432
0.713222 0.486595 0.312993
0.088197 0.223453 0.110079
0.094362 0.221653 0.102052
0.105806 0.232303 0.097688
0.164645 0.283558 0.127687
0.249302 0.353201 0.170657
0.329702 0.405020 0.206271
0.398276 0.438926 0.231907
0.469505 0.468498 0.257023
0.550881 0.508431 0.289677
0.600732 0.529747 0.309819
0.633448 0.539117 0.321782
0.657679 0.543770 0.329870
0.677546 0.547555 0.336309
0.696162 0.552529 0.343145
0.713771 0.560678 0.351202
0.731655 0.573434 0.361242
0.746365 0.585245 0.369085
0.100832 0.266484 0.123903
0.106813 0.261173 0.114382
0.120027 0.267185 0.111696
0.177646 0.321569 0.142672
0.264134 0.402258 0.187869
0.348882 0.464759 0.228153
0.420294 0.504021 0.258183
0.485542 0.528496 0.281010
0.554879 0.554711 0.306981
0.618616 0.584283 0.334600
0.657160 0.601038 0.352514
0.682795 0.607935 0.362219
0.701839 0.611933 0.368627
0.720241 0.617914 0.375982
0.740017 0.628351 0.383978
0.760769 0.643915 0.393133
0.776883 0.656550 0.399969
0.117678 0.323644 0.142855
0.123232 0.313817 0.131563
0.138674 0.315618 0.130434
0.195254 0.372900 0.160525
0.281804 0.457313 0.207034
0.368902 0.526543 0.251774
0.443732 0.566796 0.284550
0.510155 0.590967 0.309606
0.568780 0.605829 0.330114
0.620905 0.621271 0.349035
0.663539 0.635065 0.364660
0.695430 0.647608 0.378729
0.717189 0.654780 0.387152
0.736934 0.662440 0.394141
0.758480 0.675105 0.402350
0.780362 0.692683 0.411505
0.797940 0.707668 0.418921
0.139315 0.394598 0.167239
0.145266 0.382239 0.155520
0.160861 0.382452 0.153353
0.220676 0.440497 0.184695
0.303990 0.520287 0.229679
0.388342 0.581415 0.273259
0.463508 0.619471 0.307286
0.532860 0.644038 0.336126
0.587793 0.655848 0.355291
0.631281 0.661921 0.368200
0.669032 0.668147 0.378759
0.698512 0.674372 0.387518
0.723415 0.682460 0.396887
0.744991 0.691737 0.405249
0.768795 0.707332 0.414343
0.792233 0.726955 0.423774
0.809934 0.743801 0.433570
0.167025 0.479561 0.196658
0.176181 0.471504 0.187869
0.194858 0.475441 0.186648
0.256291 0.528832 0.218692
0.331670 0.584558 0.256199
0.408118 0.628565 0.293675
0.480812 0.661585 0.326360
0.549981 0.684352 0.354528
0.604059 0.696803 0.369879
0.644678 0.700648 0.381598
0.679072 0.702480 0.391821
0.707637 0.705837 0.400610
0.728176 0.708492 0.405982
0.750057 0.716274 0.414252
0.772732 0.729213 0.422217
0.797513 0.749691 0.431586
0.817533 0.769253 0.443214
0.196719 0.561059 0.227695
0.209171 0.559045 0.220554
0.234928 0.572076 0.225101
0.296208 0.611963 0.255070
0.364202 0.645808 0.285740
0.430365 0.672419 0.314244
0.497566 0.697078 0.343572
0.562432 0.716426 0.366064
0.614496 0.727230 0.380285
0.654688 0.730434 0.391638
0.688106 0.731624 0.401556
0.716304 0.733547 0.410224
0.737514 0.735470 0.416815
0.756161 0.739040 0.422614
0.777646 0.749599 0.429633
0.800595 0.766720 0.437781
0.820615 0.785641 0.448676
0.223056 0.623377 0.254398
0.240116 0.630091 0.250675
0.269596 0.642206 0.256626
0.332982 0.675532 0.287205
0.394965 0.696834 0.313085
0.454597 0.712123 0.335485
0.515221 0.727596 0.359686
0.574456 0.743343 0.376257
0.623468 0.751400 0.389227
0.662440 0.754147 0.400092
0.695583 0.755825 0.409796
0.723629 0.757168 0.418402
0.745693 0.759182 0.425330
0.764736 0.762570 0.431220
0.783505 0.770077 0.436988
0.804135 0.782712 0.443305
0.823667 0.799954 0.453590
0.247501 0.674159 0.278111
0.264042 0.680476 0.272984
0.295995 0.691188 0.280674
0.359411 0.716304 0.309575
0.418494 0.734035 0.332830
0.474678 0.744503 0.353613
0.529046 0.754452 0.370214
0.583642 0.764126 0.383642
0.629938 0.770474 0.395911
0.668177 0.773251 0.406531
0.701442 0.775326 0.416175
0.730129 0.776944 0.424903
0.752987 0.778683 0.432166
0.772580 0.782406 0.438331
0.790036 0.788327 0.443580
0.809201 0.799344 0.449073
0.826505 0.812161 0.458015
0.265995 0.709163 0.296391
0.280369 0.714199 0.289097
0.317296 0.725002 0.298558
0.377081 0.743313 0.323827
0.433539 0.757168 0.345342
0.488380 0.766629 0.365881
0.540093 0.775998 0.377630
0.592248 0.782223 0.390295
0.636408 0.786770 0.402197
0.676081 0.790433 0.413581
0.710506 0.793545 0.423438
0.740169 0.796567 0.432105
0.763516 0.798733 0.439277
0.781796 0.800931 0.444862
0.798245 0.805570 0.449622
0.813870 0.812833 0.453651
0.829282 0.822843 0.462074
0.051240 0.045472 0.100801
0.070283 0.046021 0.099123
0.088350 0.046845 0.094667
0.104005 0.048585 0.091493
0.124361 0.050813 0.092287
0.148257 0.053773 0.094270
0.175021 0.057099 0.097200
0.201694 0.059907 0.099519
0.226841 0.062135 0.101350
0.251835 0.064240 0.103182
0.279515 0.066499 0.105196
0.308812 0.068940 0.107393
0.341283 0.072023 0.109957
