tools/luts_backup/Lomo Color Implosion 21ˉ_FC.cube
# (C) 2014 VisionColor & Patchflyer [www.vision-color.com]
# Generator: VC Patchmatch v.2.1.1 [64/53]
# All work and no play makes Jack a dull boy.
# LUT generated from: Lomo Color Implosion 21°_FC01
LUT_3D_SIZE 9
0.041993 0.035233 0.035248
0.077562 0.033127 0.033829
0.126711 0.032410 0.032212
0.208225 0.033234 0.032181
0.307042 0.033677 0.031540
0.426627 0.033326 0.031449
0.582589 0.034043 0.031907
0.750881 0.035126 0.032578
0.899626 0.036042 0.033631
0.036118 0.061448 0.029725
0.073014 0.062333 0.030045
0.125261 0.061662 0.029023
0.216770 0.064546 0.030411
0.363180 0.072557 0.034058
0.545449 0.080034 0.037629
0.731685 0.083574 0.040314
0.901625 0.087633 0.042771
0.981262 0.089281 0.043473
0.031312 0.095445 0.025360
0.065339 0.097948 0.025711
0.138521 0.113924 0.030335
0.258030 0.129961 0.034958
0.435782 0.146517 0.041855
0.647456 0.161471 0.047379
0.841184 0.171954 0.052110
0.960769 0.179355 0.055039
0.992370 0.180285 0.056626
0.026169 0.138338 0.020752
0.060487 0.146105 0.021866
0.138598 0.183429 0.030961
0.267826 0.213397 0.038010
0.476127 0.255085 0.049622
0.689555 0.284169 0.059236
0.877287 0.304494 0.067597
0.967727 0.320790 0.073625
0.990662 0.327794 0.076585
0.021653 0.193606 0.016388
0.055314 0.207309 0.017716
0.145830 0.286854 0.033188
0.275578 0.332067 0.043305
0.475242 0.389303 0.056687
0.715724 0.454368 0.075715
0.894392 0.493095 0.088228
0.963897 0.520195 0.099092
0.989029 0.537667 0.105135
0.019623 0.295689 0.013260
0.053147 0.305577 0.016510
0.155077 0.450706 0.038911
0.311437 0.534539 0.058000
0.478676 0.559121 0.067247
0.704707 0.621271 0.085420
0.896178 0.673976 0.102541
0.966079 0.703502 0.112932
0.989929 0.717021 0.118044
0.021286 0.531060 0.018204
0.058747 0.514015 0.023285
0.169787 0.667384 0.048371
0.341405 0.761975 0.073808
0.521691 0.782986 0.088685
0.703136 0.798733 0.098711
0.880796 0.817349 0.104906
0.964019 0.841474 0.112886
0.990066 0.857694 0.119173
0.031113 0.845609 0.028840
0.084962 0.852049 0.039399
0.207568 0.913100 0.065141
0.380865 0.927977 0.091234
0.566369 0.941070 0.114885
0.731594 0.937774 0.121798
0.877989 0.928512 0.118517
0.955856 0.926818 0.115694
0.987930 0.933394 0.118914
0.044327 0.982330 0.039307
0.110307 0.982086 0.053208
0.244846 0.981765 0.080842
0.412879 0.982834 0.107164
0.583368 0.983825 0.122820
0.744335 0.981933 0.127962
0.885359 0.979843 0.125872
0.958892 0.978592 0.122850
0.987518 0.976959 0.120256
0.041749 0.035035 0.071168
0.078065 0.033646 0.066361
0.126726 0.032486 0.062806
0.202426 0.032868 0.061982
0.298421 0.032563 0.060929
0.412085 0.032120 0.059571
0.549813 0.032502 0.058381
0.722713 0.033951 0.058564
0.886458 0.035721 0.059220
0.036255 0.061814 0.062226
0.074571 0.060761 0.060060
0.133761 0.061265 0.058198
0.210971 0.060395 0.057664
0.312215 0.060410 0.057115
0.441184 0.061463 0.057694
0.616327 0.064485 0.059800
0.809110 0.069352 0.062119
0.948165 0.073548 0.065034
0.030961 0.095628 0.055360
0.071092 0.106340 0.057588
0.180743 0.141329 0.067445
0.310613 0.144915 0.070161
0.469306 0.148455 0.073396
0.643870 0.152041 0.075990
0.814649 0.153338 0.077577
0.949264 0.156954 0.079530
0.990478 0.161913 0.082475
0.025772 0.140887 0.048798
0.058595 0.145632 0.049943
0.170413 0.224628 0.071672
0.362844 0.290501 0.090379
0.552636 0.302998 0.097551
0.729946 0.306127 0.100954
0.883375 0.304112 0.102449
0.964263 0.303151 0.103822
0.991882 0.314977 0.106798
0.022019 0.209079 0.044739
0.052201 0.203220 0.044633
0.165194 0.336477 0.074250
0.354376 0.432181 0.102647
0.595605 0.502968 0.127214
0.785580 0.531197 0.141115
0.908293 0.536385 0.146441
0.970672 0.549981 0.151827
0.993744 0.582940 0.157519
0.021012 0.350637 0.046098
0.052247 0.317556 0.044099
0.166491 0.487755 0.077073
0.366400 0.617533 0.118364
0.568002 0.659800 0.139864
0.786023 0.695109 0.149813
0.920333 0.721370 0.160922
0.979995 0.754864 0.175769
0.995392 0.822232 0.212879
0.024582 0.594308 0.052811
0.060487 0.557046 0.052659
0.180499 0.688365 0.086275
0.378454 0.803189 0.131884
0.583856 0.849424 0.164599
0.762295 0.845060 0.162234
0.902174 0.846204 0.158877
0.976104 0.875502 0.178042
0.996033 0.936400 0.233875
0.031891 0.860609 0.062348
0.083742 0.856519 0.069947
0.217624 0.913970 0.107897
0.400519 0.930358 0.144335
0.591836 0.943221 0.175509
0.763684 0.939498 0.176455
0.902403 0.937163 0.169345
0.971328 0.945235 0.180499
0.995102 0.976287 0.233616
0.044938 0.983719 0.075013
0.105501 0.979644 0.084779
0.249195 0.979721 0.124941
0.426337 0.981872 0.160906
0.596948 0.984436 0.179736
0.775555 0.984085 0.184756
0.915236 0.984070 0.185382
0.976471 0.985321 0.192981
0.994766 0.990646 0.240543
0.041581 0.034394 0.118868
0.078325 0.033616 0.112688
0.127840 0.032059 0.104662
0.204746 0.032837 0.102007
0.303456 0.032837 0.099199
0.418555 0.032959 0.096208
0.554574 0.032807 0.094118
0.716854 0.033341 0.092973
0.869673 0.034638 0.092546
0.036088 0.061051 0.107088
0.072709 0.062226 0.109590
0.132937 0.059770 0.099107
0.203281 0.058320 0.094499
0.288289 0.057191 0.091844
0.403510 0.057496 0.090227
0.552560 0.058717 0.090135
0.719997 0.060258 0.090654
0.904234 0.063920 0.093355
0.031983 0.100755 0.100755
0.063386 0.112627 0.108736
0.154452 0.134051 0.120256
0.277424 0.125521 0.105745
0.432181 0.124559 0.103517
0.586877 0.123949 0.104097
0.743679 0.125460 0.104570
0.896162 0.129000 0.106828
0.989273 0.147219 0.116716
0.027207 0.155383 0.094377
0.057069 0.174533 0.097963
0.133654 0.234394 0.125475
0.377050 0.319493 0.161639
0.573800 0.305364 0.146136
0.744366 0.289998 0.139208
0.892348 0.283787 0.138338
0.962249 0.277424 0.137148
0.991638 0.285054 0.141024
0.022827 0.260227 0.095171
0.056657 0.282124 0.096574
0.142733 0.360815 0.128176
0.383017 0.515358 0.199313
0.652857 0.567987 0.218769
0.854810 0.577386 0.210315
0.941131 0.573312 0.212131
0.980240 0.566094 0.210742
0.992203 0.549981 0.210590
0.024552 0.478401 0.112062
0.058350 0.434440 0.096300
0.166705 0.520729 0.130114
0.407340 0.697551 0.210941
0.643168 0.740291 0.245747
0.889769 0.811307 0.274708
0.960708 0.818036 0.270069
0.987778 0.823224 0.278553
0.995087 0.836561 0.318257
0.029847 0.721935 0.123796
0.069306 0.671824 0.106889
0.187594 0.735027 0.140703
0.409384 0.833936 0.204685
0.635950 0.876738 0.247501
0.856001 0.898039 0.268437
0.948821 0.911040 0.279530
0.986999 0.930129 0.306233
0.996063 0.946563 0.366171
0.028397 0.885740 0.122377
0.083360 0.892439 0.118807
0.213443 0.918364 0.159197
0.423102 0.937789 0.217762
0.611887 0.942855 0.244083
0.807050 0.947768 0.253437
0.936492 0.955306 0.263828
0.986053 0.972747 0.308095
0.995758 0.983841 0.367193
0.028443 0.974746 0.118410
0.093889 0.980240 0.127153
0.230213 0.975433 0.168597
0.430564 0.982025 0.226093
0.611460 0.983536 0.248035
0.829725 0.986511 0.274830
0.952728 0.990051 0.310414
0.986847 0.990799 0.322957
0.995407 0.992477 0.366506
0.041489 0.034623 0.186572
0.079454 0.034821 0.184649
0.142458 0.035935 0.181506
0.215488 0.033921 0.166934
0.341375 0.036561 0.158862
0.489525 0.038239 0.153521
0.631861 0.037751 0.148501
0.782223 0.037949 0.145373
0.912062 0.038788 0.142123
0.035401 0.060899 0.169665
0.070008 0.061891 0.175570
0.152483 0.069596 0.200229
0.251255 0.064820 0.162371
0.345403 0.062806 0.148470
0.448768 0.061051 0.142214
0.571023 0.059663 0.137270
0.711727 0.059434 0.134356
0.894041 0.062852 0.136202
0.031739 0.098711 0.161212
0.062364 0.109514 0.177691
0.120165 0.121935 0.195575
0.247898 0.114336 0.170825
0.354421 0.103410 0.146258
0.487251 0.100069 0.139391
0.629526 0.099672 0.137179
0.780118 0.101228 0.137819
0.969772 0.119005 0.150271
0.027375 0.171191 0.169131
0.057755 0.220462 0.205310
0.098207 0.223163 0.203433
0.290913 0.305867 0.266529
0.472816 0.251789 0.202518
0.665263 0.227573 0.176104
0.842985 0.223331 0.171145
0.948379 0.229313 0.172930
0.984649 0.251087 0.188266
0.023209 0.288548 0.175021
0.058915 0.379355 0.209796
0.104601 0.375937 0.201755
0.247547 0.478523 0.264042
0.587152 0.561288 0.332341
0.796323 0.519722 0.269734
0.930114 0.517708 0.256840
0.973785 0.506172 0.253391
0.988312 0.501701 0.278416
0.025620 0.510323 0.196704
0.064149 0.565118 0.205844
0.128908 0.576974 0.206607
0.330999 0.713863 0.315312
0.619730 0.790570 0.395407
0.869535 0.822675 0.413748
0.965698 0.845045 0.405661
0.988403 0.843397 0.408835
0.992447 0.811536 0.422553
0.029740 0.736522 0.207736
0.064347 0.723537 0.188540
0.163287 0.789258 0.217319
0.417456 0.875288 0.318135
0.643671 0.906340 0.391821
0.856916 0.922438 0.429908
0.965408 0.942977 0.453620
0.988434 0.945388 0.464317
0.993988 0.941268 0.489876
0.029145 0.894728 0.202411
0.069337 0.888655 0.182559
0.194095 0.929610 0.229618
0.439979 0.942061 0.300221
0.658549 0.953796 0.354421
0.862303 0.969772 0.410422
0.961379 0.982223 0.445792
0.987564 0.983230 0.468299
0.993469 0.983078 0.499931
0.026001 0.970413 0.193805
0.070146 0.970565 0.180652
0.196139 0.974182 0.224399
0.432517 0.980697 0.299229
0.644190 0.984848 0.341329
0.858091 0.988479 0.401389
0.955093 0.991653 0.455283
0.987778 0.992645 0.472419
0.993118 0.992126 0.501305
0.041978 0.035676 0.283131
0.082780 0.037186 0.292226
0.159396 0.041810 0.308690
0.259861 0.045594 0.318227
0.375525 0.040040 0.256168
0.572885 0.045609 0.238071
0.732662 0.046418 0.229816
0.861448 0.045609 0.222171
0.952941 0.044907 0.212909
0.036423 0.062943 0.264530
0.068345 0.062104 0.261112
0.139300 0.071748 0.310430
0.258793 0.077256 0.320439
0.437110 0.075349 0.245106
0.562371 0.072572 0.225788
0.683345 0.070253 0.215351
0.805646 0.068116 0.206210
0.935195 0.069322 0.202502
0.032380 0.101549 0.252827
0.062882 0.110353 0.274067
0.107332 0.110216 0.279454
0.230579 0.125628 0.321126
0.417578 0.119844 0.252125
0.537911 0.107240 0.215732
0.665187 0.103349 0.202976
0.792584 0.101534 0.197833
0.959197 0.114672 0.208972
0.028016 0.174609 0.267262
0.059327 0.221576 0.318441
0.098756 0.235935 0.328710
0.187304 0.238346 0.329168
0.411719 0.238132 0.316899
0.573495 0.197879 0.247837
0.729870 0.182635 0.224384
0.878492 0.180636 0.219226
0.974197 0.222477 0.253452
0.025498 0.322515 0.303761
0.059983 0.396078 0.341848
0.097154 0.373602 0.325185
0.161776 0.379080 0.324041
0.505119 0.563012 0.478843
0.684764 0.459525 0.375311
0.856413 0.420493 0.325124
0.945632 0.411475 0.309926
0.982666 0.462867 0.364996
0.024247 0.491936 0.297047
0.063645 0.574517 0.334310
0.111986 0.574655 0.333227
0.199557 0.600443 0.344488
0.449897 0.748867 0.481025
0.801602 0.802823 0.552087
0.934936 0.787381 0.509544
0.982452 0.784512 0.502632
0.989685 0.785626 0.533745
0.030045 0.731075 0.317128
0.063493 0.734066 0.311528
0.117281 0.745159 0.312718
0.265415 0.827726 0.385107
0.585901 0.922744 0.550515
0.827115 0.936080 0.595666
0.944045 0.936309 0.601648
0.986053 0.942214 0.611124
0.992508 0.941314 0.628016
0.031281 0.900664 0.313634
0.060182 0.871595 0.280278
0.119051 0.889723 0.280735
0.329183 0.947097 0.414893
0.667079 0.967117 0.528817
0.842298 0.975906 0.582055
0.941772 0.980468 0.614786
0.984375 0.982971 0.625360
0.992538 0.984405 0.654353
0.028824 0.969589 0.297795
0.058503 0.958740 0.266026
0.131380 0.966506 0.282994
0.353735 0.981949 0.391775
0.678462 0.986923 0.485405
0.865782 0.990173 0.562860
0.939254 0.991577 0.618280
0.983948 0.992355 0.634958
0.992523 0.993805 0.670558
0.042634 0.036637 0.424903
0.089036 0.040146 0.448569
0.169802 0.046876 0.479606
0.261601 0.051835 0.500542
0.405447 0.046845 0.409339
0.589731 0.048905 0.354162
0.778012 0.051667 0.335500
0.891340 0.049882 0.321218
0.970413 0.048280 0.308934
0.038056 0.065431 0.407156
0.070665 0.065034 0.397696
0.138567 0.074846 0.459571
0.234836 0.082155 0.485908
0.388159 0.073304 0.380484
0.591653 0.077378 0.333242
0.721874 0.075959 0.315816
0.850065 0.074632 0.303593
0.949340 0.073045 0.289769
0.033722 0.111482 0.413779
0.064317 0.109926 0.406073
0.106218 0.108171 0.405188
0.217868 0.126085 0.472282
0.358679 0.116899 0.397101
0.540887 0.112764 0.330068
0.673167 0.106310 0.297627
0.816678 0.106432 0.287297
0.954604 0.118715 0.297108
0.028977 0.196628 0.432746
0.059693 0.212100 0.453223
0.098192 0.217380 0.459541
0.155764 0.195544 0.421851
0.365423 0.233402 0.476875
0.579705 0.223453 0.406744
0.723873 0.191104 0.340749
0.860304 0.180697 0.314290
0.965835 0.232563 0.373022
0.029084 0.369665 0.476829
0.061799 0.396582 0.487480
0.099321 0.378653 0.472572
0.145922 0.340032 0.442390
0.325872 0.429175 0.520562
0.630579 0.444938 0.535470
0.786877 0.383841 0.448096
0.904555 0.356847 0.411414
0.970626 0.413245 0.466468
0.028305 0.532631 0.461738
0.062379 0.561532 0.468818
0.103624 0.550240 0.462196
0.164950 0.545037 0.457237
0.291875 0.614069 0.507286
0.747784 0.809995 0.707424
0.882460 0.732876 0.631983
0.953796 0.712810 0.602090
0.985687 0.731350 0.634455
0.029725 0.703914 0.441779
0.068223 0.754101 0.467277
0.118975 0.756573 0.475532
0.204791 0.776532 0.494240
0.372992 0.849104 0.564355
0.744518 0.937209 0.742367
0.935195 0.942687 0.766552
0.982956 0.938949 0.751827
0.991424 0.939467 0.760220
0.034928 0.905898 0.452735
0.066789 0.891447 0.444160
0.118807 0.895094 0.446464
0.225360 0.913970 0.495613
0.533532 0.966171 0.668162
0.842298 0.983673 0.759503
0.941543 0.985046 0.787640
0.983398 0.984939 0.789395
0.992370 0.985443 0.799725
0.032975 0.971359 0.434607
0.065797 0.962554 0.425147
0.114870 0.960449 0.416648
0.226505 0.965576 0.468315
0.610361 0.990082 0.690288
0.860700 0.990921 0.728817
0.943374 0.993484 0.786221
0.984009 0.994202 0.806943
0.991852 0.994293 0.814115
0.044251 0.039124 0.633326
0.092027 0.043412 0.662120
0.176257 0.051087 0.680812
0.248829 0.054124 0.689174
0.360662 0.050004 0.611948
0.580362 0.049424 0.492531
0.760433 0.052674 0.459876
0.887953 0.051041 0.441016
0.967620 0.050141 0.424430
0.039170 0.068833 0.599908
0.075410 0.069551 0.596323
0.154314 0.080217 0.646815
0.232441 0.084916 0.659358
0.324346 0.074525 0.572366
0.527535 0.072068 0.462379
0.711894 0.076677 0.435203
0.845975 0.076143 0.422004
0.943771 0.073732 0.406455
0.033173 0.125841 0.627710
0.064836 0.111238 0.582269
0.109789 0.111437 0.585946
0.208011 0.123018 0.628061
0.327947 0.115206 0.562234
0.521599 0.113207 0.482124
0.664668 0.108782 0.425055
0.802960 0.107149 0.406989
0.946426 0.122148 0.425742
0.030716 0.225360 0.653971
0.060502 0.212940 0.634028
0.097215 0.199588 0.604730
0.150958 0.177890 0.564172
0.313527 0.209094 0.614679
0.560174 0.223972 0.571237
0.721813 0.206043 0.503716
0.852033 0.189548 0.457588
0.959304 0.243732 0.525597
0.031357 0.387991 0.663630
0.060700 0.364248 0.640116
0.098238 0.352163 0.625208
0.145129 0.317281 0.587930
0.256474 0.353491 0.608301
0.591897 0.419821 0.682002
0.785061 0.406577 0.637430
0.895888 0.373617 0.586572
0.967559 0.432395 0.640452
0.032425 0.560204 0.644221
0.062318 0.539223 0.628519
0.101991 0.529671 0.615564
0.150942 0.511299 0.596170
0.228244 0.509911 0.591989
0.585550 0.706477 0.768902
0.857771 0.715785 0.787564
0.937469 0.673396 0.744335
0.983154 0.697063 0.762798
0.030060 0.692683 0.596765
0.067018 0.725490 0.615625
0.112795 0.729610 0.615579
0.178775 0.731716 0.618753
0.291325 0.768704 0.649454
0.555962 0.878019 0.766308
0.915953 0.944366 0.884978
0.970153 0.933333 0.868955
0.989227 0.930816 0.868025
0.036271 0.889479 0.602045
0.072129 0.897902 0.608179
0.126406 0.901411 0.622660
0.212177 0.908415 0.651102
0.364691 0.935821 0.709163
0.691478 0.975143 0.849851
0.927626 0.986114 0.900359
0.981765 0.985931 0.902617
0.991699 0.985489 0.900511
0.036881 0.969619 0.592828
0.071382 0.963668 0.591959
0.126162 0.963439 0.610254
0.217090 0.964920 0.640909
0.406195 0.983734 0.728191
0.818219 0.993225 0.883803
0.942199 0.994324 0.901656
0.981811 0.994797 0.910475
0.991730 0.994904 0.912032
0.046128 0.043076 0.869383
0.092775 0.046952 0.878279
0.175326 0.053864 0.887892
0.238590 0.054124 0.865873
0.312505 0.049012 0.801953
0.490135 0.044770 0.670878
0.718120 0.049912 0.603998
0.866819 0.050599 0.578317
0.956054 0.048844 0.560357
0.039872 0.071489 0.826581
0.077668 0.073793 0.825345
0.160571 0.083528 0.851667
0.227527 0.084291 0.831128
0.313390 0.076127 0.748791
0.461448 0.068742 0.634180
0.650752 0.071885 0.576455
0.818296 0.075227 0.556069
0.928679 0.073548 0.547723
0.033997 0.137392 0.855497
0.065324 0.115587 0.787808
0.123934 0.119020 0.800961
0.218891 0.124331 0.797086
0.308064 0.114916 0.732723
0.495109 0.113817 0.654780
0.658183 0.112108 0.587182
0.792065 0.108904 0.548684
0.934768 0.122972 0.575555
0.032593 0.244770 0.865492
0.061936 0.224170 0.832135
0.097200 0.192630 0.769360
0.154299 0.172992 0.740841
0.276783 0.185641 0.751553
0.521721 0.204730 0.715389
0.725612 0.218555 0.684276
0.838575 0.194965 0.620462
0.950668 0.236683 0.672587
0.032532 0.377981 0.837430
0.061051 0.347646 0.807080
0.098131 0.339300 0.789136
0.144930 0.302052 0.745312
0.236561 0.315282 0.742367
0.539498 0.382635 0.803098
0.776547 0.404791 0.788174
0.889403 0.386725 0.754604
0.964401 0.436271 0.789837
0.033097 0.537835 0.810010
0.061387 0.497642 0.782696
0.100618 0.499458 0.770855
0.148363 0.482750 0.749355
0.218433 0.465385 0.724681
0.523857 0.636225 0.855680
0.832471 0.680049 0.879561
0.933120 0.675471 0.873640
0.982666 0.710292 0.888304
0.033051 0.694621 0.774807
0.066621 0.700038 0.772976
0.110735 0.709194 0.768215
0.165515 0.698390 0.754986
0.246998 0.702495 0.753002
0.442588 0.784695 0.817334
0.862119 0.916854 0.929915
0.962829 0.925032 0.935988
0.987640 0.921126 0.934188
0.035492 0.861341 0.755337
0.071717 0.872007 0.759335
0.119738 0.879454 0.761120
0.188983 0.880278 0.769772
0.301869 0.894987 0.798398
0.542824 0.946090 0.873838
0.869123 0.982208 0.943297
0.975402 0.986145 0.955825
0.990600 0.985702 0.954894
0.040345 0.965591 0.753246
0.074388 0.955077 0.745174
0.125612 0.958297 0.757778
0.206683 0.960739 0.784070
0.340810 0.972091 0.825132
0.621088 0.987976 0.905180
0.910964 0.994141 0.953918
0.978195 0.994934 0.959396
0.991623 0.995270 0.960342
0.046830 0.048280 0.978912
0.096757 0.051926 0.979446
0.174487 0.056748 0.975799
0.233127 0.053178 0.963561
0.313787 0.047990 0.931060
0.437766 0.045029 0.858244
0.607584 0.042481 0.763256
0.802197 0.046128 0.723461
0.940352 0.049058 0.706188
0.040330 0.075914 0.966033
0.077607 0.079347 0.963699
0.163485 0.086915 0.961669
0.222248 0.081956 0.943282
0.306218 0.075624 0.894148
0.443748 0.070832 0.812573
0.596429 0.067521 0.737819
0.738048 0.068147 0.702907
0.914916 0.073640 0.691661
0.034745 0.144228 0.972213
0.064790 0.116899 0.941787
0.128496 0.124056 0.945830
0.218463 0.122438 0.922103
0.301595 0.111925 0.872007
0.462882 0.113146 0.821897
0.652049 0.114565 0.762829
0.784253 0.110948 0.714504
0.928405 0.127764 0.727794
0.033906 0.252476 0.962448
0.063966 0.237537 0.950881
0.097841 0.189609 0.911772
0.164080 0.169360 0.896788
0.272328 0.167605 0.878416
0.481071 0.184024 0.844129
0.702724 0.214572 0.834226
0.854902 0.215274 0.805356
0.945800 0.246952 0.827161
0.032181 0.354925 0.948150
0.062165 0.349950 0.936278
0.099489 0.335241 0.921599
0.144213 0.286839 0.886625
0.233097 0.290837 0.875181
0.483177 0.336202 0.895384
0.748501 0.378531 0.885069
0.895262 0.404791 0.889021
0.966552 0.461830 0.912505
0.031281 0.489830 0.932372
0.061372 0.485237 0.918425
0.101030 0.486412 0.909972
0.148852 0.468788 0.893324
0.215396 0.439963 0.866545
0.482948 0.586984 0.918883
0.802899 0.637278 0.936263
0.929961 0.671199 0.940337
0.982986 0.732280 0.954650
0.033539 0.669734 0.919356
0.066804 0.677546 0.910506
0.109209 0.682338 0.901015
0.161166 0.671397 0.886580
0.230793 0.654994 0.870863
0.423239 0.746105 0.900649
0.850919 0.902495 0.966491
0.957473 0.914733 0.973526
0.987396 0.918654 0.974197
0.037934 0.854307 0.906477
0.073610 0.856596 0.895460
0.120256 0.864668 0.888121
0.182940 0.864988 0.883055
0.274388 0.869963 0.884260
0.486015 0.922469 0.924437
0.816464 0.970199 0.968673
0.964858 0.984131 0.976883
0.990112 0.985092 0.978103
0.040620 0.954894 0.895171
0.076127 0.945953 0.882231
0.124559 0.949035 0.879042
0.195224 0.949416 0.883497
0.301793 0.956374 0.894499
0.530694 0.982818 0.936843
0.866773 0.991958 0.975540
0.969192 0.994141 0.978836
0.990494 0.994461 0.979232
