tools/luts_backup/Lomo Color Implosion 21ˉ_FC.cube
# (C) 2014 VisionColor & Patchflyer [www.vision-color.com]
# Generator: VC Patchmatch v.2.1.1 [64/53]
# All work and no play makes Jack a dull boy.
# LUT generated from: Lomo Color Implosion 21°_FC01
LUT_3D_SIZE 5
0.041993 0.035233 0.035248
0.126711 0.032410 0.032212
0.307042 0.033677 0.031540
0.582589 0.034043 0.031907
0.899626 0.036042 0.033631
0.031312 0.095445 0.025360
0.138521 0.113924 0.030335
0.435782 0.146517 0.041855
0.841184 0.171954 0.052110
0.992370 0.180285 0.056626
0.021653 0.193606 0.016388
0.145830 0.286854 0.033188
0.475242 0.389303 0.056687
0.894392 0.493095 0.088228
0.989029 0.537667 0.105135
0.021286 0.531060 0.018204
0.169787 0.667384 0.048371
0.521691 0.782986 0.088685
0.880796 0.817349 0.104906
0.990066 0.857694 0.119173
0.044327 0.982330 0.039307
0.244846 0.981765 0.080842
0.583368 0.983825 0.122820
0.885359 0.979843 0.125872
0.987518 0.976959 0.120256
0.041581 0.034394 0.118868
0.127840 0.032059 0.104662
0.303456 0.032837 0.099199
0.554574 0.032807 0.094118
0.869673 0.034638 0.092546
0.031983 0.100755 0.100755
0.154452 0.134051 0.120256
0.432181 0.124559 0.103517
0.743679 0.125460 0.104570
0.989273 0.147219 0.116716
0.022827 0.260227 0.095171
0.142733 0.360815 0.128176
0.652857 0.567987 0.218769
0.941131 0.573312 0.212131
0.992203 0.549981 0.210590
0.029847 0.721935 0.123796
0.187594 0.735027 0.140703
0.635950 0.876738 0.247501
0.948821 0.911040 0.279530
0.996063 0.946563 0.366171
0.028443 0.974746 0.118410
0.230213 0.975433 0.168597
0.611460 0.983536 0.248035
0.952728 0.990051 0.310414
0.995407 0.992477 0.366506
0.041978 0.035676 0.283131
0.159396 0.041810 0.308690
0.375525 0.040040 0.256168
0.732662 0.046418 0.229816
0.952941 0.044907 0.212909
0.032380 0.101549 0.252827
0.107332 0.110216 0.279454
0.417578 0.119844 0.252125
0.665187 0.103349 0.202976
0.959197 0.114672 0.208972
0.025498 0.322515 0.303761
0.097154 0.373602 0.325185
0.505119 0.563012 0.478843
0.856413 0.420493 0.325124
0.982666 0.462867 0.364996
0.030045 0.731075 0.317128
0.117281 0.745159 0.312718
0.585901 0.922744 0.550515
0.944045 0.936309 0.601648
0.992508 0.941314 0.628016
0.028824 0.969589 0.297795
0.131380 0.966506 0.282994
0.678462 0.986923 0.485405
0.939254 0.991577 0.618280
0.992523 0.993805 0.670558
0.044251 0.039124 0.633326
0.176257 0.051087 0.680812
0.360662 0.050004 0.611948
0.760433 0.052674 0.459876
0.967620 0.050141 0.424430
0.033173 0.125841 0.627710
0.109789 0.111437 0.585946
0.327947 0.115206 0.562234
0.664668 0.108782 0.425055
0.946426 0.122148 0.425742
0.031357 0.387991 0.663630
0.098238 0.352163 0.625208
0.256474 0.353491 0.608301
0.785061 0.406577 0.637430
0.967559 0.432395 0.640452
0.030060 0.692683 0.596765
0.112795 0.729610 0.615579
0.291325 0.768704 0.649454
0.915953 0.944366 0.884978
0.989227 0.930816 0.868025
0.036881 0.969619 0.592828
0.126162 0.963439 0.610254
0.406195 0.983734 0.728191
0.942199 0.994324 0.901656
0.991730 0.994904 0.912032
0.046830 0.048280 0.978912
0.174487 0.056748 0.975799
0.313787 0.047990 0.931060
0.607584 0.042481 0.763256
0.940352 0.049058 0.706188
0.034745 0.144228 0.972213
0.128496 0.124056 0.945830
0.301595 0.111925 0.872007
0.652049 0.114565 0.762829
0.928405 0.127764 0.727794
0.032181 0.354925 0.948150
0.099489 0.335241 0.921599
0.233097 0.290837 0.875181
0.748501 0.378531 0.885069
0.966552 0.461830 0.912505
0.033539 0.669734 0.919356
0.109209 0.682338 0.901015
0.230793 0.654994 0.870863
0.850919 0.902495 0.966491
0.987396 0.918654 0.974197
0.040620 0.954894 0.895171
0.124559 0.949035 0.879042
0.301793 0.956374 0.894499
0.866773 0.991958 0.975540
0.990494 0.994461 0.979232
