tools/luts_backup/Lomo Color Implosion 21ˉ_VS.cube
# (C) 2014 VisionColor & Patchflyer [www.vision-color.com]
# Generator: VC Patchmatch v.2.1.1 [64/53]
# All work and no play makes Jack a dull boy.
# LUT generated from: Lomo Color Implosion 21°_VisionSpace
LUT_3D_SIZE 9
0.053010 0.045045 0.045045
0.094026 0.042939 0.043549
0.128939 0.047272 0.047059
0.176730 0.055695 0.054749
0.229343 0.062013 0.060060
0.284642 0.066865 0.065095
0.356237 0.074220 0.072175
0.437354 0.082734 0.080293
0.507469 0.090791 0.088533
0.050843 0.079927 0.044160
0.094636 0.082918 0.049683
0.137148 0.087526 0.058198
0.200595 0.099916 0.068360
0.284733 0.118105 0.082460
0.375952 0.135927 0.096651
0.467567 0.149569 0.109346
0.542107 0.162448 0.121157
0.589746 0.169986 0.128176
0.055299 0.120058 0.049439
0.099611 0.125582 0.062654
0.169833 0.153079 0.080293
0.255772 0.179904 0.098177
0.358175 0.208469 0.119142
0.471015 0.235538 0.141299
0.552819 0.255375 0.158999
0.604822 0.268650 0.171115
0.638666 0.274174 0.177829
0.070832 0.160372 0.065461
0.112001 0.175113 0.075563
0.193515 0.222416 0.101656
0.291325 0.261662 0.125612
0.418021 0.311803 0.160586
0.530663 0.346777 0.190494
0.602930 0.372595 0.214115
0.648951 0.391211 0.231235
0.677394 0.400671 0.240757
0.083162 0.208011 0.077821
0.124880 0.227787 0.088533
0.227298 0.308125 0.129702
0.327413 0.355886 0.159548
0.452842 0.412894 0.199496
0.582940 0.476417 0.251408
0.652979 0.513115 0.284855
0.695705 0.538689 0.310277
0.721828 0.554345 0.325780
0.104921 0.282353 0.098695
0.145327 0.301030 0.108705
0.270695 0.423743 0.170504
0.394873 0.502403 0.220676
0.495705 0.532982 0.250584
0.615351 0.587152 0.302251
0.691829 0.626734 0.345190
0.731899 0.646845 0.368414
0.755276 0.656855 0.380560
0.148287 0.431739 0.144991
0.191806 0.438788 0.154330
0.326390 0.564508 0.224430
0.457404 0.632929 0.282078
0.565911 0.657069 0.319829
0.646906 0.674159 0.350683
0.709926 0.691554 0.376349
0.752010 0.707576 0.396857
0.776150 0.718227 0.409796
0.215702 0.611841 0.213138
0.279271 0.632563 0.234287
0.394385 0.684321 0.284245
0.510430 0.716457 0.331731
0.617151 0.738766 0.377417
0.684718 0.745754 0.400641
0.730800 0.747738 0.410498
0.764675 0.751766 0.418158
0.789120 0.758907 0.428046
0.261723 0.704585 0.256260
0.334386 0.722988 0.281315
0.442481 0.750881 0.325170
0.547112 0.766323 0.366278
0.639582 0.776486 0.401434
0.702358 0.782254 0.421332
0.747860 0.786252 0.432105
0.780606 0.789914 0.439185
0.800443 0.791379 0.443183
0.051942 0.045045 0.083040
0.090211 0.045655 0.077241
0.125277 0.049714 0.076478
0.174472 0.056428 0.081636
0.226688 0.061494 0.086275
0.279393 0.065888 0.090272
0.342657 0.071809 0.095399
0.427344 0.081300 0.104128
0.503288 0.091157 0.113161
0.051514 0.080934 0.081331
0.099214 0.082887 0.081849
0.165927 0.084260 0.080354
0.220005 0.088411 0.085573
0.266361 0.097292 0.093965
0.325658 0.105501 0.101747
0.410834 0.118135 0.113497
0.499733 0.133822 0.127138
0.565667 0.146578 0.139101
0.058320 0.120333 0.083040
0.100069 0.142061 0.082551
0.220249 0.186587 0.114656
0.303227 0.198947 0.133852
0.387167 0.212253 0.148623
0.476051 0.225315 0.162478
0.544762 0.234928 0.173281
0.597131 0.245274 0.183352
0.635370 0.255589 0.192813
0.071931 0.164828 0.093507
0.092622 0.183230 0.082582
0.229099 0.266239 0.140688
0.373098 0.333700 0.192233
0.482719 0.356008 0.216251
0.560754 0.367102 0.231571
0.613275 0.373266 0.241550
0.651423 0.378058 0.249302
0.683589 0.391592 0.260349
0.088197 0.223453 0.110079
0.105806 0.232303 0.097688
0.249302 0.353201 0.170657
0.398276 0.438926 0.231907
0.550881 0.508431 0.289677
0.633448 0.539117 0.321782
0.677546 0.547555 0.336309
0.713771 0.560678 0.351202
0.746365 0.585245 0.369085
0.117678 0.323644 0.142855
0.138674 0.315618 0.130434
0.281804 0.457313 0.207034
0.443732 0.566796 0.284550
0.568780 0.605829 0.330114
0.663539 0.635065 0.364660
0.717189 0.654780 0.387152
0.758480 0.675105 0.402350
0.797940 0.707668 0.418921
0.167025 0.479561 0.196658
0.194858 0.475441 0.186648
0.331670 0.584558 0.256199
0.480812 0.661585 0.326360
0.604059 0.696803 0.369879
0.679072 0.702480 0.391821
0.728176 0.708492 0.405982
0.772732 0.729213 0.422217
0.817533 0.769253 0.443214
0.223056 0.623377 0.254398
0.269596 0.642206 0.256626
0.394965 0.696834 0.313085
0.515221 0.727596 0.359686
0.623468 0.751400 0.389227
0.695583 0.755825 0.409796
0.745693 0.759182 0.425330
0.783505 0.770077 0.436988
0.823667 0.799954 0.453590
0.265995 0.709163 0.296391
0.317296 0.725002 0.298558
0.433539 0.757168 0.345342
0.540093 0.775998 0.377630
0.636408 0.786770 0.402197
0.710506 0.793545 0.423438
0.763516 0.798733 0.439277
0.798245 0.805570 0.449622
0.829282 0.822843 0.462074
0.051911 0.045808 0.119844
0.087312 0.049226 0.111299
0.125002 0.051667 0.109071
0.177127 0.058442 0.114504
0.230564 0.063600 0.118593
0.285710 0.068788 0.122744
0.347784 0.074159 0.127382
0.427070 0.082094 0.134676
0.496834 0.090669 0.142275
0.055238 0.080232 0.120241
0.097810 0.084413 0.137636
0.159854 0.084077 0.126406
0.209018 0.087709 0.122530
0.250614 0.093660 0.124422
0.306279 0.099855 0.128878
0.376104 0.108309 0.136141
0.457221 0.118868 0.145632
0.538079 0.132998 0.158572
0.067628 0.126802 0.126802
0.091981 0.150118 0.145388
0.198489 0.180026 0.164767
0.311040 0.169528 0.147280
0.393408 0.176150 0.155886
0.456367 0.187594 0.170657
0.522789 0.199100 0.181857
0.581415 0.210575 0.192721
0.642145 0.237522 0.213474
0.081453 0.180789 0.140230
0.103120 0.212467 0.146700
0.183078 0.282017 0.173251
0.404959 0.361715 0.222263
0.516182 0.357046 0.240635
0.576501 0.354269 0.252079
0.623346 0.356710 0.259800
0.654597 0.356207 0.263859
0.686275 0.367132 0.274266
0.104402 0.266285 0.169711
0.132387 0.298207 0.172213
0.197391 0.387961 0.180606
0.421866 0.517189 0.273259
0.605203 0.561105 0.329290
0.683101 0.571878 0.350011
0.720638 0.572641 0.359869
0.745205 0.570779 0.365332
0.759823 0.562448 0.366522
0.149722 0.411292 0.229709
0.169497 0.400275 0.205692
0.248386 0.502159 0.212467
0.458015 0.631983 0.311437
0.617945 0.661646 0.366735
0.730922 0.698909 0.413428
0.769772 0.704189 0.420935
0.794369 0.708370 0.430365
0.812650 0.715999 0.452186
0.203220 0.560235 0.288121
0.226963 0.552850 0.261112
0.308537 0.627344 0.268681
0.478126 0.694270 0.332647
0.626215 0.724178 0.386053
0.722713 0.741970 0.421057
0.772152 0.752468 0.438148
0.806027 0.766079 0.458228
0.827817 0.780880 0.494514
0.229618 0.636988 0.315618
0.275059 0.661616 0.306279
0.351537 0.720821 0.306981
0.499733 0.752682 0.356725
0.622583 0.762905 0.394598
0.710109 0.771511 0.420233
0.769924 0.781430 0.439979
0.810971 0.799039 0.468360
0.833341 0.812009 0.502953
0.251926 0.694148 0.335271
0.306096 0.725856 0.335363
0.375891 0.771786 0.326421
0.513329 0.792111 0.372198
0.630762 0.796292 0.407202
0.726741 0.808743 0.441901
0.790066 0.821805 0.471015
0.818601 0.825589 0.482124
0.836637 0.831479 0.506737
0.054231 0.048707 0.150179
0.090059 0.053376 0.154391
0.140658 0.060578 0.162234
0.186496 0.062806 0.159243
0.255924 0.072358 0.165194
0.326909 0.081117 0.171756
0.393286 0.087037 0.175784
0.462867 0.094118 0.181247
0.521935 0.101442 0.186130
0.059297 0.081636 0.155367
0.094453 0.086030 0.192599
0.175723 0.103365 0.210056
0.234653 0.104494 0.182101
0.284184 0.106874 0.175998
0.332158 0.109407 0.175204
0.387304 0.113405 0.176822
0.454109 0.120058 0.181308
0.532982 0.133639 0.193149
0.070375 0.126162 0.165927
0.097505 0.146395 0.202976
0.162692 0.164706 0.236210
0.286778 0.156832 0.217594
0.347845 0.148165 0.190921
0.397467 0.155123 0.189609
0.459449 0.165011 0.195621
0.525139 0.174655 0.203616
0.616266 0.204715 0.228946
0.090150 0.198550 0.197330
0.130831 0.251621 0.242649
0.148104 0.268467 0.251652
0.339544 0.349722 0.319875
0.476829 0.302220 0.255741
0.579217 0.287022 0.242496
0.632502 0.293645 0.252995
0.668238 0.306493 0.265354
0.712764 0.328588 0.283604
0.114626 0.291432 0.233524
0.168093 0.368551 0.282231
0.185183 0.386374 0.270726
0.304982 0.486076 0.319356
0.572976 0.557351 0.393271
0.670802 0.530037 0.356985
0.725643 0.532265 0.360494
0.753109 0.525826 0.362417
0.771481 0.523171 0.376883
0.161929 0.437049 0.296513
0.212100 0.493355 0.320287
0.239017 0.532586 0.304967
0.391394 0.645685 0.379065
0.610224 0.686213 0.468574
0.724880 0.705623 0.494850
0.780484 0.718746 0.498238
0.802853 0.719478 0.502556
0.808865 0.705928 0.508659
0.212345 0.571710 0.350256
0.241428 0.580560 0.338506
0.280400 0.659175 0.326177
0.473915 0.723781 0.402182
0.632197 0.745571 0.478416
0.728176 0.759091 0.515618
0.791287 0.776944 0.539971
0.814664 0.780514 0.549523
0.824796 0.778347 0.566796
0.239231 0.644251 0.375219
0.272343 0.656397 0.360876
0.308873 0.739040 0.339208
0.499992 0.763760 0.400534
0.644800 0.777340 0.461173
0.737301 0.794461 0.510735
0.794491 0.807889 0.541100
0.819059 0.811307 0.557671
0.830625 0.812192 0.579370
0.253788 0.690791 0.388464
0.293370 0.709163 0.379828
0.321691 0.777646 0.345861
0.501839 0.796567 0.407507
0.643061 0.803677 0.458564
0.738857 0.817655 0.509606
0.794553 0.828458 0.549737
0.823972 0.832731 0.563714
0.834409 0.832639 0.582940
0.057038 0.051972 0.191959
0.096132 0.059083 0.206180
0.158755 0.072389 0.231083
0.224674 0.084047 0.250309
0.278264 0.081361 0.225681
0.377020 0.098299 0.233341
0.452888 0.107088 0.237858
0.505272 0.111971 0.239475
0.546807 0.116213 0.239475
0.063813 0.086122 0.201419
0.093996 0.088228 0.235813
0.165194 0.108797 0.264225
0.248325 0.124666 0.279240
0.339940 0.129854 0.248814
0.399145 0.133120 0.242924
0.455146 0.136660 0.241154
0.502800 0.139620 0.239994
0.555962 0.147951 0.245029
0.074891 0.131319 0.214328
0.106416 0.148043 0.251102
0.146822 0.150179 0.300664
0.269108 0.172580 0.335210
0.377691 0.175937 0.280705
0.419776 0.172305 0.252750
0.478279 0.174899 0.248417
0.527916 0.178927 0.249332
0.601923 0.202762 0.269535
0.094881 0.204776 0.250156
0.137758 0.255039 0.303655
0.168032 0.277012 0.332708
0.240146 0.287663 0.362432
0.430808 0.290349 0.357504
0.542748 0.252216 0.297810
0.603998 0.245640 0.281331
0.646448 0.252872 0.283268
0.729824 0.292699 0.316609
0.128664 0.319814 0.311376
0.179477 0.383215 0.358312
0.201450 0.379400 0.354101
0.225498 0.403555 0.363500
0.526711 0.554665 0.509865
0.620264 0.479973 0.421012
0.695674 0.450645 0.382650
0.740078 0.446799 0.375174
0.770413 0.490654 0.425010
0.161990 0.429572 0.347845
0.222263 0.503288 0.395697
0.258701 0.520684 0.401587
0.280766 0.569726 0.397009
0.505135 0.661219 0.525765
0.695644 0.696071 0.589319
0.755123 0.693126 0.562402
0.786923 0.694011 0.559106
0.799527 0.696269 0.582086
0.219242 0.573053 0.410590
0.252659 0.589349 0.415778
0.291844 0.613306 0.420508
0.352941 0.695430 0.443488
0.616327 0.749538 0.598321
0.721798 0.767056 0.629053
0.776577 0.772091 0.633967
0.809354 0.779568 0.641901
0.821042 0.780179 0.652155
0.251408 0.649958 0.440253
0.271000 0.647761 0.421424
0.312993 0.676875 0.422675
0.418494 0.764858 0.479545
0.658595 0.786831 0.588571
0.734157 0.798947 0.626001
0.783261 0.806699 0.647578
0.814237 0.811887 0.655238
0.830381 0.816739 0.672877
0.265873 0.693294 0.450629
0.288548 0.696498 0.433234
0.339330 0.732570 0.441199
0.443305 0.797574 0.469902
0.663172 0.809934 0.557198
0.746670 0.822202 0.616541
0.786923 0.828367 0.652064
0.818845 0.833005 0.663294
0.835813 0.837949 0.683772
0.060670 0.055940 0.242161
0.105440 0.066224 0.268132
0.171786 0.082795 0.302800
0.232700 0.095827 0.328679
0.301488 0.095155 0.303075
0.391516 0.106874 0.294194
0.479194 0.120699 0.298894
0.520867 0.123476 0.296422
0.556542 0.126345 0.295201
0.069215 0.092592 0.257359
0.100374 0.095491 0.283574
0.166445 0.116030 0.322606
0.238163 0.132753 0.351415
0.314473 0.128359 0.311162
0.418860 0.144015 0.304479
0.477577 0.149599 0.302190
0.524285 0.153964 0.300847
0.561883 0.157321 0.298222
0.083467 0.146517 0.284062
0.111727 0.150179 0.304112
0.147585 0.149386 0.367102
0.253849 0.177768 0.405493
0.332906 0.176944 0.352453
0.422797 0.182376 0.321294
0.483284 0.182895 0.307225
0.538140 0.189853 0.307286
0.597284 0.211154 0.324376
0.105776 0.228000 0.327031
0.140047 0.249393 0.358160
0.173800 0.261784 0.385077
0.206790 0.245563 0.418433
0.394125 0.286610 0.474617
0.542077 0.281804 0.422553
0.588006 0.260990 0.368139
0.619257 0.260655 0.351232
0.708949 0.308476 0.404334
0.148562 0.357092 0.398932
0.187625 0.387335 0.425666
0.214115 0.385428 0.428931
0.223178 0.369619 0.432959
0.374365 0.450645 0.516732
0.583917 0.471489 0.530419
0.661189 0.423331 0.469276
0.714382 0.403189 0.442023
0.751888 0.453788 0.489998
0.183352 0.462440 0.432929
0.225986 0.497414 0.456886
0.256657 0.504662 0.462440
0.277867 0.522148 0.470069
0.361379 0.586053 0.518761
0.682765 0.697627 0.669429
0.718898 0.669749 0.631662
0.754910 0.661662 0.614633
0.779293 0.674739 0.636454
0.221744 0.563989 0.464698
0.271092 0.602380 0.497932
0.310826 0.621057 0.511955
0.333654 0.659388 0.525200
0.450217 0.706783 0.575647
0.703456 0.762600 0.702937
0.773800 0.777737 0.716213
0.801938 0.778470 0.711727
0.816983 0.780697 0.715969
0.267094 0.655695 0.510216
0.293553 0.661524 0.511559
0.332952 0.680751 0.520745
0.360510 0.730343 0.540581
0.588266 0.782376 0.655482
0.744320 0.804898 0.719570
0.788510 0.814176 0.732937
0.815183 0.817472 0.734524
0.830991 0.820645 0.739742
0.283574 0.699245 0.521538
0.310826 0.705989 0.521294
0.345281 0.720851 0.520592
0.369284 0.768948 0.530724
0.641611 0.812528 0.677272
0.751827 0.822171 0.708461
0.794919 0.833066 0.736080
0.822324 0.838102 0.745480
0.836179 0.840146 0.749142
0.065766 0.061738 0.306493
0.112428 0.073701 0.340551
0.181643 0.092226 0.380285
0.228824 0.101778 0.401648
0.284672 0.101472 0.381872
0.389715 0.110811 0.353155
0.473976 0.125551 0.353765
0.518608 0.129824 0.352087
0.553307 0.133791 0.349950
0.074617 0.099641 0.321386
0.109712 0.104982 0.351293
0.183078 0.127443 0.400397
0.239475 0.139803 0.423499
0.284428 0.130861 0.386572
0.382544 0.137209 0.355200
0.473884 0.154147 0.357763
0.522393 0.160586 0.358770
0.556085 0.162905 0.355322
0.091951 0.164950 0.364569
0.116609 0.154818 0.366400
0.156252 0.157595 0.429694
0.242344 0.179995 0.453986
0.311879 0.178866 0.420783
0.411566 0.186740 0.393225
0.478370 0.189395 0.371283
0.530663 0.195132 0.367987
0.588922 0.220737 0.390692
0.120394 0.256413 0.421271
0.146304 0.253239 0.429389
0.174228 0.247929 0.437415
0.205478 0.230259 0.488045
0.349050 0.264729 0.553887
0.515709 0.289830 0.521569
0.577691 0.282780 0.469703
0.606012 0.276585 0.434638
0.691585 0.326909 0.500572
0.162051 0.374487 0.480201
0.185611 0.367956 0.480934
0.214420 0.368688 0.490455
0.232273 0.352316 0.501884
0.312642 0.389792 0.568933
0.561944 0.451621 0.607935
0.654932 0.446250 0.589532
0.701381 0.422660 0.559777
0.744533 0.473564 0.596216
0.204471 0.487465 0.517113
0.229435 0.485817 0.519249
0.260288 0.493019 0.527550
0.284672 0.492805 0.532860
0.308659 0.509056 0.559167
0.594949 0.645579 0.668574
0.704677 0.663462 0.686000
0.735012 0.644083 0.670802
0.766567 0.659861 0.683528
0.230137 0.561944 0.529351
0.275090 0.591089 0.555474
0.312963 0.607263 0.569451
0.337987 0.628748 0.584649
0.389380 0.667506 0.614527
0.592813 0.726223 0.686122
0.769070 0.778927 0.760555
0.791653 0.775448 0.754360
0.808499 0.776638 0.755520
0.276951 0.651026 0.570611
0.313176 0.668177 0.586084
0.355474 0.687526 0.604913
0.376440 0.720302 0.624537
0.460349 0.755367 0.659022
0.680262 0.793545 0.738338
0.786709 0.815457 0.779141
0.815976 0.820706 0.782956
0.830167 0.822202 0.783230
0.301396 0.701259 0.590417
0.331762 0.710353 0.598291
0.373083 0.729030 0.616144
0.390204 0.760769 0.630610
0.496544 0.796139 0.676570
0.742458 0.825956 0.767452
0.798947 0.834348 0.785519
0.823209 0.839841 0.792416
0.837949 0.842588 0.794705
0.072694 0.070253 0.388586
0.118471 0.081910 0.423316
0.185428 0.099855 0.459083
0.225193 0.104738 0.464149
0.261997 0.101534 0.447272
0.343908 0.103639 0.415442
0.453712 0.124422 0.410101
0.508141 0.133577 0.408423
0.539635 0.136782 0.406134
0.080415 0.106813 0.399786
0.117433 0.114443 0.435798
0.191562 0.136049 0.478614
0.237766 0.142275 0.483711
0.281010 0.136538 0.457099
0.349371 0.134035 0.420233
0.443549 0.149599 0.412421
0.509239 0.163668 0.415137
0.544610 0.168338 0.416449
0.101350 0.180667 0.452674
0.122744 0.162387 0.441962
0.175448 0.171878 0.501884
0.251011 0.186740 0.512657
0.301244 0.181979 0.487709
0.397742 0.191318 0.467262
0.474891 0.199161 0.446571
0.523125 0.202853 0.433417
0.575952 0.228641 0.458320
0.133394 0.276432 0.504417
0.156374 0.266423 0.504875
0.177035 0.244236 0.496956
0.212924 0.228519 0.558953
0.314107 0.245884 0.585595
0.471778 0.278355 0.565881
0.570397 0.302831 0.554986
0.588251 0.290349 0.512505
0.662531 0.330236 0.559411
0.167086 0.371649 0.536187
0.187808 0.359258 0.533379
0.217380 0.361700 0.544121
0.238590 0.341222 0.552483
0.296345 0.358541 0.628595
0.529091 0.421775 0.660060
0.650141 0.447654 0.655451
0.694575 0.436759 0.640620
0.739467 0.478691 0.660792
0.207218 0.476570 0.565576
0.225010 0.460914 0.561151
0.259220 0.474708 0.573663
0.287724 0.473030 0.581476
0.306035 0.473060 0.615625
0.548898 0.607340 0.693416
0.695369 0.644511 0.713893
0.739193 0.646189 0.717617
0.772427 0.667994 0.731472
0.244572 0.567407 0.589837
0.279149 0.581903 0.602930
0.317357 0.599268 0.617243
0.342596 0.608240 0.626795
0.363500 0.629389 0.651514
0.500191 0.680690 0.694331
0.740871 0.759793 0.766567
0.786465 0.772305 0.779416
0.803647 0.773281 0.781369
0.280980 0.640955 0.614923
0.318791 0.659022 0.631312
0.357458 0.675044 0.645319
0.378241 0.697017 0.663233
0.420233 0.727901 0.689662
0.588327 0.769650 0.737087
0.756832 0.805875 0.789853
0.814847 0.821683 0.809598
0.829068 0.824033 0.811399
0.315862 0.700496 0.642115
0.342870 0.706416 0.647700
0.381689 0.724056 0.664210
0.400061 0.751858 0.685115
0.456626 0.781704 0.710750
0.641459 0.811826 0.763119
0.784634 0.833494 0.807492
0.824613 0.840360 0.819455
0.839475 0.844358 0.822507
0.079561 0.080720 0.474739
0.127565 0.092683 0.499763
0.189242 0.107210 0.518914
0.223362 0.106233 0.512261
0.263798 0.103395 0.496956
0.321691 0.105592 0.478218
0.399786 0.111513 0.456153
0.480262 0.129244 0.456062
0.527367 0.142367 0.457801
0.086549 0.115633 0.479438
0.123171 0.124514 0.509178
0.197787 0.143679 0.536400
0.234440 0.141970 0.526329
0.278569 0.139010 0.507530
0.343725 0.140597 0.484871
0.415442 0.145937 0.467628
0.474952 0.156100 0.463081
0.533989 0.174105 0.468971
0.108309 0.190738 0.519158
0.127016 0.167117 0.504082
0.184421 0.181247 0.559594
0.251347 0.187808 0.554650
0.297246 0.181735 0.531670
0.381872 0.193515 0.521782
0.471504 0.208286 0.508568
0.516411 0.211826 0.495064
0.569238 0.240574 0.511406
0.141207 0.285740 0.557458
0.166293 0.280430 0.560510
0.180484 0.243626 0.548455
0.224399 0.228183 0.616602
0.304677 0.235172 0.591913
0.430610 0.264286 0.581720
0.550652 0.305364 0.594842
0.598596 0.315007 0.585046
0.659266 0.343664 0.615137
0.165896 0.358923 0.574243
0.194461 0.364050 0.580377
0.222385 0.361456 0.588403
0.241062 0.331151 0.589654
0.293721 0.338704 0.677516
0.485222 0.383291 0.696895
0.634485 0.428244 0.691554
0.696345 0.453391 0.696376
0.741909 0.500023 0.715816
0.198489 0.447120 0.594842
0.227878 0.455055 0.600946
0.262303 0.467414 0.613062
0.291508 0.464179 0.620996
0.308568 0.454505 0.658167
0.513985 0.575204 0.722072
0.681849 0.621286 0.735988
0.739712 0.643259 0.748684
0.777737 0.678767 0.766232
0.247898 0.557885 0.626886
0.282811 0.574334 0.638422
0.318639 0.588342 0.650050
0.346197 0.594842 0.659754
0.358587 0.602289 0.683467
0.485710 0.663371 0.729213
0.734524 0.752804 0.781888
0.783688 0.767269 0.794095
0.805692 0.772732 0.800290
0.292332 0.641505 0.656184
0.326146 0.655421 0.667292
0.363134 0.671107 0.680262
0.384710 0.687556 0.696773
0.408820 0.710048 0.719173
0.543893 0.752590 0.757229
0.733181 0.796201 0.800015
0.807340 0.817533 0.819303
0.829160 0.823789 0.826047
0.322362 0.696162 0.676966
0.350591 0.703670 0.683894
0.386969 0.718898 0.696956
0.404578 0.739895 0.715602
0.436591 0.765866 0.737087
0.581796 0.799252 0.774777
0.759243 0.827848 0.816739
0.819059 0.838895 0.831144
0.838560 0.843198 0.835691
