tools/luts_backup/Lomo Color Implosion 21ˉ_CIN.cube
# (C) 2014 VisionColor & Patchflyer [www.vision-color.com]
# Generator: VC Patchmatch v.2.1.1 [64/53]
# All work and no play makes Jack a dull boy.
# LUT generated from: Lomo Color Implosion 21°_Cineon
LUT_3D_SIZE 5
0.129824 0.117830 0.117830
0.239139 0.117678 0.117250
0.363134 0.127291 0.122621
0.469245 0.130190 0.125490
0.565820 0.134615 0.129824
0.132235 0.221408 0.120211
0.279088 0.257572 0.139803
0.451850 0.301762 0.166415
0.577630 0.329259 0.183658
0.656092 0.336309 0.187686
0.132479 0.320592 0.120394
0.311192 0.397711 0.166812
0.487831 0.458228 0.205997
0.615717 0.502129 0.244297
0.682887 0.518425 0.261570
0.161044 0.482307 0.154269
0.351110 0.544518 0.208774
0.517174 0.589014 0.255772
0.621607 0.602411 0.264652
0.690089 0.614679 0.273350
0.222599 0.637049 0.213138
0.407721 0.665675 0.259342
0.539300 0.675868 0.291234
0.626459 0.674830 0.284123
0.687465 0.673609 0.271763
0.130770 0.118013 0.222354
0.243198 0.119112 0.220432
0.364965 0.126375 0.225071
0.463783 0.127932 0.225376
0.560021 0.131563 0.227817
0.137026 0.231449 0.231449
0.300633 0.283757 0.270848
0.448920 0.278630 0.256992
0.547692 0.281621 0.258824
0.647059 0.304784 0.272221
0.145724 0.369909 0.254429
0.315251 0.438148 0.301366
0.553735 0.528344 0.373388
0.644099 0.530175 0.363745
0.693782 0.522484 0.360204
0.184329 0.546624 0.313512
0.363104 0.567834 0.324895
0.552117 0.621088 0.391180
0.655390 0.636347 0.402564
0.706172 0.654078 0.444190
0.190066 0.631861 0.319738
0.395239 0.663233 0.349248
0.545830 0.677028 0.390082
0.658045 0.693233 0.416327
0.704738 0.698421 0.441016
0.134554 0.123842 0.328252
0.281041 0.145480 0.364294
0.406683 0.144503 0.354040
0.530297 0.158267 0.353002
0.602319 0.153506 0.346349
0.139986 0.235325 0.339544
0.252293 0.255558 0.368200
0.447059 0.273777 0.374792
0.525841 0.255009 0.345678
0.620569 0.267979 0.354040
0.156252 0.409552 0.401556
0.268864 0.443366 0.424048
0.507500 0.526604 0.498024
0.607813 0.474098 0.432059
0.674769 0.490913 0.450752
0.180056 0.554009 0.433356
0.299931 0.569451 0.435431
0.534142 0.641108 0.522332
0.652461 0.647456 0.534844
0.698604 0.650690 0.542535
0.181247 0.632532 0.434974
0.316320 0.648615 0.425971
0.562097 0.685908 0.495766
0.648493 0.696559 0.537377
0.698451 0.701228 0.552789
0.142885 0.134737 0.438880
0.302922 0.166506 0.488075
0.410559 0.165377 0.488930
0.548486 0.169497 0.462501
0.618463 0.162661 0.456916
0.149081 0.269230 0.470649
0.258610 0.260197 0.474708
0.412451 0.267918 0.492653
0.533013 0.260563 0.459510
0.623652 0.275303 0.467720
0.169039 0.444862 0.521630
0.267033 0.436286 0.521385
0.394827 0.443320 0.529137
0.592126 0.468086 0.549676
0.666224 0.478828 0.551751
0.173312 0.547631 0.523674
0.288579 0.568383 0.538903
0.417639 0.587610 0.554314
0.637263 0.652674 0.626276
0.691585 0.644373 0.618952
0.186130 0.639765 0.535882
0.300084 0.652766 0.544915
0.464927 0.678798 0.578058
0.646510 0.702510 0.630121
0.696223 0.703609 0.635035
0.153750 0.156161 0.554223
0.306981 0.178408 0.588830
0.392615 0.161135 0.575250
0.504356 0.148074 0.544610
0.609461 0.158541 0.546380
0.155428 0.291661 0.577264
0.280461 0.276188 0.582300
0.402441 0.264195 0.577111
0.537072 0.266361 0.566339
0.624842 0.279881 0.567681
0.165682 0.432898 0.600702
0.265568 0.429999 0.601678
0.377295 0.410834 0.597009
0.583886 0.455756 0.627375
0.668086 0.489082 0.642115
0.172549 0.545281 0.607141
0.278874 0.557824 0.614252
0.379583 0.554772 0.613947
0.610986 0.632898 0.672999
0.688136 0.639399 0.678950
0.182345 0.637049 0.614527
0.289738 0.646448 0.621057
0.413947 0.659571 0.632074
0.610742 0.697414 0.680629
0.692958 0.702663 0.687465
