tools/luts_backup/Lomo Color Implosion 21ˉ_CIN.cube
# (C) 2014 VisionColor & Patchflyer [www.vision-color.com]
# Generator: VC Patchmatch v.2.1.1 [64/53]
# All work and no play makes Jack a dull boy.
# LUT generated from: Lomo Color Implosion 21°_Cineon
LUT_3D_SIZE 17
0.129824 0.117830 0.117830
0.157351 0.117464 0.117830
0.183047 0.115877 0.117189
0.209323 0.116243 0.116060
0.239139 0.117678 0.117250
0.272068 0.120546 0.119448
0.305608 0.123537 0.121340
0.336492 0.125978 0.122408
0.363134 0.127291 0.122621
0.388312 0.127443 0.122683
0.414954 0.127810 0.123629
0.442267 0.128756 0.124880
0.469245 0.130190 0.125490
0.495216 0.131411 0.126619
0.519524 0.132631 0.127352
0.543175 0.134493 0.127657
0.565820 0.134615 0.129824
0.129885 0.143343 0.117891
0.157900 0.143832 0.120027
0.184207 0.143496 0.118166
0.211337 0.142824 0.117098
0.240665 0.144625 0.117983
0.273686 0.147433 0.120150
0.308171 0.150790 0.122683
0.342168 0.153994 0.125032
0.374334 0.157839 0.127413
0.403998 0.161379 0.129000
0.431281 0.163088 0.129671
0.458015 0.164340 0.130800
0.485939 0.166720 0.132570
0.513726 0.169223 0.134646
0.539361 0.170748 0.136263
0.562585 0.172641 0.136416
0.584436 0.172793 0.136660
0.130465 0.169314 0.118471
0.157961 0.171115 0.120150
0.189578 0.174502 0.121828
0.218570 0.174472 0.121553
0.250950 0.177523 0.123140
0.286839 0.182376 0.125978
0.325811 0.188846 0.130404
0.366400 0.196658 0.135348
0.405707 0.204807 0.140108
0.441810 0.212589 0.144686
0.474189 0.218387 0.148348
0.503136 0.221958 0.151095
0.530907 0.225101 0.153170
0.557885 0.228611 0.155337
0.582452 0.231113 0.157107
0.603662 0.232883 0.157351
0.623346 0.233219 0.157351
0.131746 0.195834 0.119783
0.158083 0.196750 0.120455
0.190341 0.202823 0.123690
0.229557 0.211521 0.128389
0.267185 0.217441 0.131106
0.306310 0.225437 0.135714
0.348150 0.234318 0.141482
0.390845 0.244511 0.148043
0.432197 0.254398 0.154177
0.470069 0.263432 0.159457
0.503716 0.271061 0.163729
0.533471 0.276677 0.167391
0.560388 0.280400 0.169863
0.584833 0.283391 0.171298
0.606989 0.285710 0.173007
0.626673 0.286748 0.173709
0.644526 0.287449 0.173922
0.132235 0.221408 0.120211
0.158328 0.222141 0.120729
0.190860 0.229862 0.124392
0.234379 0.245060 0.132937
0.279088 0.257572 0.139803
0.324498 0.269413 0.145724
0.367864 0.280278 0.152407
0.411048 0.291325 0.159426
0.451850 0.301762 0.166415
0.489143 0.310979 0.172183
0.522454 0.318791 0.176669
0.551629 0.324804 0.180484
0.577630 0.329259 0.183658
0.600641 0.332677 0.185458
0.621241 0.335515 0.187076
0.639704 0.336034 0.187564
0.656092 0.336309 0.187686
0.132235 0.246372 0.120241
0.158602 0.247440 0.120851
0.192782 0.257359 0.126284
0.238132 0.276432 0.136751
0.286168 0.292668 0.145602
0.332738 0.306554 0.152895
0.382574 0.323125 0.161929
0.426520 0.335302 0.169711
0.467231 0.346166 0.177401
0.503746 0.355871 0.184085
0.536034 0.364050 0.189548
0.564538 0.370672 0.194247
0.589899 0.375799 0.198001
0.612268 0.379461 0.200320
0.632013 0.383185 0.201938
0.649775 0.384802 0.202823
0.664851 0.384924 0.202884
0.132235 0.271183 0.120241
0.158785 0.272557 0.120912
0.195193 0.285252 0.127993
0.243565 0.308263 0.141482
0.292485 0.327001 0.152316
0.338994 0.340581 0.159335
0.387121 0.356542 0.167819
0.438453 0.377874 0.180575
0.479408 0.389776 0.189670
0.515496 0.399725 0.196933
0.547295 0.408118 0.202884
0.575250 0.414893 0.208438
0.600214 0.421241 0.213260
0.622217 0.425910 0.217166
0.641016 0.429816 0.219852
0.658015 0.432319 0.221622
0.672358 0.433417 0.221927
0.132265 0.295811 0.120241
0.158816 0.297154 0.120851
0.196323 0.311437 0.128328
0.248875 0.339757 0.145144
0.301793 0.362097 0.159152
0.347204 0.376013 0.167147
0.392218 0.390387 0.175570
0.439765 0.408545 0.186252
0.489235 0.430518 0.201541
0.525231 0.441077 0.210391
0.556786 0.449958 0.216403
0.584619 0.457221 0.222599
0.608942 0.463783 0.228916
0.630365 0.469490 0.234897
0.648829 0.473793 0.239658
0.664790 0.476967 0.242313
0.678523 0.478950 0.243626
0.132479 0.320592 0.120394
0.158938 0.321782 0.121035
0.196963 0.336614 0.128603
0.252628 0.369360 0.148074
0.311192 0.397711 0.166812
0.360327 0.415778 0.178744
0.401495 0.427466 0.185855
0.443580 0.441596 0.194461
0.487831 0.458228 0.205997
0.532097 0.477424 0.222507
0.564385 0.487556 0.230655
0.592065 0.495399 0.237064
0.615717 0.502129 0.244297
0.636286 0.507958 0.251255
0.654597 0.512261 0.256443
0.670192 0.515618 0.259281
0.682887 0.518425 0.261570
0.135103 0.348882 0.122103
0.160464 0.349615 0.122499
0.198978 0.364263 0.130587
0.257176 0.400458 0.152743
0.320317 0.434089 0.176120
0.373968 0.456489 0.192477
0.415290 0.469245 0.201266
0.451484 0.477363 0.205722
0.489540 0.488594 0.213565
0.530175 0.503502 0.225956
0.568139 0.519371 0.242069
0.597101 0.528466 0.249607
0.620630 0.534722 0.256168
0.640803 0.540246 0.262577
0.658625 0.544579 0.266636
0.673976 0.547051 0.268711
0.686061 0.549920 0.271061
0.141054 0.385077 0.128237
0.166018 0.383825 0.127657
0.203891 0.397223 0.135958
0.263920 0.434882 0.160525
0.330510 0.472572 0.187198
0.386206 0.496193 0.205600
0.429358 0.509300 0.215946
0.463081 0.514794 0.220066
0.495857 0.521080 0.225254
0.530571 0.530938 0.233555
0.566766 0.543999 0.245090
0.598871 0.555322 0.256535
0.623774 0.561883 0.262272
0.644251 0.566705 0.267216
0.661799 0.570733 0.270542
0.676692 0.573022 0.271672
0.688685 0.574762 0.273838
0.149233 0.430243 0.139315
0.174105 0.425483 0.137331
0.212802 0.436805 0.146334
0.273228 0.471992 0.170871
0.340398 0.509453 0.198306
0.397040 0.533471 0.217838
0.440894 0.545953 0.228885
0.475929 0.551476 0.234745
0.505913 0.554864 0.239475
0.535912 0.561334 0.246006
0.566430 0.568292 0.251865
0.597192 0.576654 0.258213
0.624048 0.583703 0.264073
0.645594 0.588281 0.268009
0.663264 0.591852 0.270634
0.678248 0.594507 0.271946
0.690089 0.596063 0.274052
0.161044 0.482307 0.154269
0.184817 0.474891 0.150668
0.226871 0.484718 0.161898
0.287449 0.513756 0.184512
0.351110 0.544518 0.208774
0.406500 0.566461 0.228672
0.450477 0.578820 0.241794
0.486915 0.585626 0.250340
0.517174 0.589014 0.255772
0.544335 0.592157 0.260075
0.570642 0.595392 0.262577
0.596399 0.598444 0.264256
0.621607 0.602411 0.264652
0.644251 0.606378 0.267063
0.662867 0.609552 0.269108
0.678096 0.612238 0.271183
0.690089 0.614679 0.273350
0.177157 0.533745 0.172396
0.202365 0.527581 0.168368
0.248936 0.538476 0.182162
0.308080 0.560174 0.202457
0.366308 0.580957 0.221988
0.417334 0.596948 0.239384
0.459785 0.608148 0.253941
0.495705 0.615717 0.265202
0.526696 0.620142 0.272282
0.552697 0.621729 0.275395
0.576440 0.621698 0.275334
0.599725 0.621698 0.273411
0.621302 0.622827 0.271550
0.641688 0.624109 0.268803
0.661006 0.626062 0.268040
0.676936 0.628321 0.269780
0.689418 0.630701 0.271946
0.194400 0.576104 0.189670
0.223728 0.574060 0.187716
0.274601 0.586542 0.203830
0.331273 0.602899 0.222324
0.383612 0.615686 0.237797
0.429480 0.625360 0.251347
0.469398 0.633753 0.264500
0.503594 0.640253 0.276249
0.533349 0.644343 0.284123
0.559106 0.645808 0.287053
0.581109 0.644923 0.286137
0.602136 0.643275 0.282322
0.623163 0.642603 0.278233
0.642115 0.642664 0.275242
0.659541 0.642512 0.271061
0.675319 0.643946 0.269841
0.688319 0.645472 0.271763
0.212100 0.611048 0.204929
0.242802 0.611078 0.204654
0.293980 0.621942 0.219547
0.349645 0.635645 0.236881
0.398505 0.644923 0.251347
0.440436 0.650629 0.263249
0.477302 0.655756 0.274296
0.509728 0.659724 0.283360
0.537591 0.661891 0.289403
0.561975 0.662745 0.291936
0.583917 0.662348 0.290929
0.604700 0.661158 0.287388
0.625055 0.660334 0.283055
0.644160 0.660212 0.278843
0.660731 0.659968 0.275792
0.675074 0.659144 0.271763
0.687526 0.659419 0.271763
0.222599 0.637049 0.213138
0.256596 0.639399 0.214817
0.307713 0.647974 0.229252
0.361364 0.658228 0.244511
0.407721 0.665675 0.259342
0.447883 0.669917 0.271305
0.483131 0.673060 0.280766
0.513481 0.675227 0.287572
0.539300 0.675868 0.291234
0.562951 0.675929 0.292454
0.585077 0.675746 0.291264
0.605920 0.675288 0.287877
0.626459 0.674830 0.284123
0.645136 0.674769 0.280858
0.661921 0.674586 0.276860
0.676112 0.673732 0.274235
0.687465 0.673609 0.271763
0.129824 0.117830 0.143404
0.157473 0.117830 0.143313
0.183413 0.115999 0.143221
0.210544 0.116304 0.142306
0.239414 0.117708 0.142916
0.270726 0.120546 0.144533
0.303563 0.123384 0.146548
0.334508 0.124788 0.147799
0.362005 0.125246 0.148074
0.386999 0.125338 0.148104
0.411810 0.126070 0.148135
0.437354 0.127169 0.148318
0.463935 0.128298 0.149020
0.491493 0.130129 0.150423
0.517143 0.131411 0.151125
0.541131 0.132631 0.152682
0.565484 0.134615 0.153140
0.129946 0.143404 0.143679
0.158175 0.143496 0.143740
0.186496 0.142641 0.143557
0.214878 0.143862 0.143709
0.246098 0.145693 0.144411
0.278965 0.148409 0.146304
0.311040 0.151125 0.147890
0.340276 0.152621 0.148562
0.367163 0.153231 0.149477
0.393530 0.154421 0.150515
0.421241 0.155917 0.151095
0.450202 0.157534 0.152377
0.478370 0.160098 0.154208
0.505119 0.162600 0.156252
0.530999 0.164706 0.157961
0.555779 0.166079 0.158450
0.578393 0.168032 0.160586
0.131716 0.169345 0.145266
0.159426 0.172152 0.146212
0.196262 0.177493 0.149538
0.227115 0.178714 0.149630
0.259464 0.180270 0.150576
0.293980 0.183902 0.152834
0.329839 0.188418 0.155703
0.364996 0.193027 0.158877
0.399054 0.198001 0.161898
0.431159 0.202792 0.165103
0.460822 0.206241 0.167300
0.489418 0.209049 0.168765
0.518059 0.212558 0.171206
0.545739 0.216190 0.173922
0.571893 0.219669 0.176150
0.595453 0.222019 0.177737
0.614862 0.222843 0.178286
0.132082 0.195895 0.145571
0.159945 0.198184 0.146639
0.200107 0.211643 0.153964
0.247196 0.224491 0.161013
0.284031 0.228580 0.163424
0.321447 0.233219 0.166293
0.360113 0.239048 0.170230
0.398047 0.245579 0.174655
0.435035 0.252842 0.179019
0.469368 0.259464 0.182925
0.499794 0.263920 0.185946
0.527153 0.266819 0.187991
0.553185 0.269780 0.189700
0.577996 0.272923 0.191135
0.601007 0.275792 0.192874
0.621485 0.277836 0.194125
0.638758 0.278660 0.194308
0.132265 0.221500 0.145724
0.159457 0.223178 0.146700
0.199222 0.238285 0.154818
0.251011 0.259434 0.166903
0.303960 0.277165 0.175631
0.346807 0.285252 0.180606
0.387274 0.292180 0.185611
0.425666 0.299260 0.190555
0.462104 0.306798 0.195132
0.495583 0.313207 0.198795
0.525139 0.317479 0.201663
0.551598 0.320256 0.203738
0.575494 0.322545 0.205112
0.597314 0.324163 0.205570
0.617456 0.325322 0.206180
0.636011 0.326452 0.206638
0.652155 0.327214 0.206790
0.132265 0.246677 0.145754
0.158816 0.247684 0.146395
0.197513 0.262791 0.154940
0.251774 0.289372 0.170108
0.307500 0.311467 0.182010
0.361975 0.331029 0.192538
0.407446 0.343389 0.200198
0.446204 0.350958 0.206180
0.481605 0.357733 0.210941
0.514000 0.363806 0.214755
0.542718 0.368292 0.217807
0.568231 0.371496 0.220035
0.591150 0.374121 0.221408
0.611811 0.375708 0.222232
0.630274 0.376165 0.222446
0.647303 0.376471 0.222568
0.662409 0.376379 0.222690
0.132326 0.271702 0.145785
0.158389 0.272038 0.146059
0.195865 0.286534 0.154086
0.253269 0.318883 0.173251
0.311711 0.344915 0.188357
0.364324 0.364630 0.199710
0.417365 0.385718 0.212680
0.462196 0.400000 0.222568
0.497475 0.407385 0.228367
0.528893 0.412879 0.232212
0.557061 0.417670 0.235691
0.581781 0.421485 0.238895
0.603601 0.424536 0.241001
0.623774 0.426764 0.242679
0.641566 0.427588 0.242985
0.657618 0.427588 0.242802
0.672328 0.428412 0.243412
0.132631 0.297459 0.146151
0.158267 0.296605 0.145968
0.194247 0.309728 0.152926
0.253697 0.346319 0.174960
0.317540 0.379065 0.195529
0.371008 0.400732 0.209628
0.418372 0.417700 0.220310
0.467811 0.436927 0.233341
0.509575 0.452613 0.245762
0.541527 0.459663 0.251377
0.568750 0.464424 0.255253
0.593042 0.468482 0.259312
0.614374 0.471778 0.262394
0.633814 0.474739 0.265049
0.651087 0.476722 0.266758
0.666468 0.477363 0.266758
0.681514 0.480171 0.267338
0.134188 0.324681 0.147707
0.158633 0.321752 0.146395
0.194095 0.334386 0.152895
0.255192 0.374151 0.177005
0.323278 0.412604 0.202853
0.380407 0.438087 0.220798
0.424720 0.452796 0.230900
0.467567 0.466682 0.240635
0.512566 0.484718 0.254734
0.549645 0.498390 0.267185
0.577783 0.504601 0.272526
0.601404 0.508904 0.276738
0.622461 0.512322 0.280369
0.641321 0.515557 0.283452
0.658289 0.518395 0.286442
0.673304 0.520470 0.287633
0.688350 0.524407 0.288457
0.138552 0.356603 0.151797
0.161471 0.351324 0.149142
0.196994 0.363714 0.155795
0.259617 0.405188 0.181247
0.330022 0.447456 0.211154
0.389441 0.474861 0.231754
0.434607 0.489754 0.243259
0.472389 0.499031 0.251316
0.510643 0.511437 0.261051
0.549920 0.525841 0.272709
0.582300 0.535485 0.282200
0.607141 0.541161 0.286900
0.628199 0.544640 0.290166
0.646632 0.547601 0.292790
0.663386 0.550683 0.295872
0.678584 0.553796 0.298497
0.693324 0.559289 0.301732
0.144625 0.394476 0.158816
0.167391 0.387762 0.155398
0.203159 0.398657 0.162173
0.265721 0.438575 0.188052
0.337133 0.481697 0.219028
0.397528 0.510002 0.242130
0.444251 0.525383 0.255528
0.481209 0.533532 0.264256
0.514427 0.540764 0.271489
0.547631 0.549401 0.278172
0.580591 0.558251 0.283574
0.608972 0.565301 0.289525
0.631220 0.569848 0.293034
0.649958 0.572869 0.295598
0.666590 0.576074 0.298497
0.682124 0.579828 0.302342
0.696956 0.587610 0.309300
0.152193 0.437629 0.169009
0.175051 0.430579 0.164645
0.213169 0.439521 0.172549
0.274754 0.474586 0.197482
0.344213 0.513756 0.226658
0.404639 0.541833 0.251072
0.452247 0.558038 0.267247
0.490455 0.567163 0.278141
0.521599 0.572229 0.284581
0.550500 0.576074 0.287968
0.579156 0.580194 0.289555
0.606348 0.584710 0.289677
0.630640 0.589502 0.292576
0.650355 0.592950 0.295415
0.667262 0.596582 0.298650
0.683040 0.601160 0.303563
0.698665 0.610742 0.314244
0.163882 0.486549 0.182956
0.186038 0.479042 0.177981
0.228244 0.488258 0.188296
0.289555 0.516136 0.211124
0.353887 0.546746 0.236118
0.411566 0.570977 0.259220
0.458900 0.587182 0.277409
0.497688 0.597528 0.290867
0.529290 0.602350 0.298253
0.555535 0.603754 0.299748
0.580865 0.604334 0.298070
0.605463 0.605890 0.295903
0.627619 0.607141 0.292668
0.648341 0.610224 0.294377
0.665949 0.613184 0.297276
0.681697 0.618067 0.302037
0.698421 0.628687 0.315099
0.179263 0.535637 0.200046
0.202792 0.529259 0.195712
0.249790 0.541314 0.208560
0.309545 0.561975 0.228916
0.367864 0.582147 0.248753
0.420203 0.599207 0.267704
0.465339 0.612940 0.285740
0.503136 0.622553 0.300206
0.534600 0.627497 0.308598
0.560540 0.628290 0.309972
0.583673 0.627497 0.306645
0.606775 0.627070 0.302098
0.627955 0.627192 0.298131
0.646479 0.627527 0.295018
0.664149 0.629328 0.296330
0.679835 0.632837 0.300298
0.696803 0.642969 0.312444
0.195163 0.577173 0.215579
0.223484 0.574365 0.213748
0.274723 0.588190 0.229282
0.331945 0.604059 0.247807
0.384405 0.616327 0.263310
0.431128 0.626337 0.277562
0.472450 0.636042 0.293187
0.508202 0.643336 0.306737
0.537835 0.646845 0.314061
0.563104 0.647730 0.315282
0.585809 0.647089 0.312291
0.607874 0.646174 0.307164
0.629267 0.645777 0.302647
0.647547 0.645685 0.299260
0.663813 0.646265 0.298070
0.678767 0.648493 0.300542
0.695308 0.656153 0.311254
0.212100 0.612757 0.230961
0.242191 0.611017 0.229374
0.293858 0.622614 0.244694
0.350439 0.636133 0.262058
0.399481 0.645228 0.276524
0.441657 0.650965 0.288640
0.479103 0.656031 0.300542
0.512352 0.660578 0.310948
0.540215 0.662867 0.316747
0.564050 0.663142 0.317327
0.586938 0.662654 0.314519
0.609003 0.661921 0.310002
0.629816 0.661768 0.305760
0.648463 0.661891 0.302373
0.664515 0.662593 0.301060
0.679683 0.664485 0.302678
0.694423 0.669978 0.312535
0.222629 0.638666 0.240757
0.255985 0.639094 0.239597
0.307286 0.647944 0.254093
0.361303 0.658747 0.269322
0.408026 0.665919 0.284215
0.448371 0.670375 0.296971
0.484230 0.673335 0.307134
0.514366 0.675288 0.314092
0.540581 0.676905 0.317632
0.564569 0.677394 0.317845
0.587488 0.676600 0.315648
0.609674 0.675837 0.311681
0.630396 0.675410 0.307012
0.649042 0.675715 0.304662
0.665522 0.676966 0.304936
0.680720 0.678981 0.307561
0.694484 0.682246 0.313085
0.129824 0.117830 0.170626
0.157717 0.117861 0.170596
0.184939 0.117830 0.168673
0.211307 0.117494 0.168673
0.240421 0.118624 0.168643
0.271672 0.120821 0.170260
0.303746 0.123384 0.172061
0.334234 0.124758 0.173159
0.360937 0.125032 0.173434
0.386023 0.125032 0.173434
0.410529 0.125063 0.173434
0.434516 0.125521 0.173434
0.460212 0.126497 0.173495
0.487770 0.128267 0.174380
0.513726 0.130129 0.175723
0.538842 0.131563 0.176455
0.563500 0.133913 0.178103
0.129946 0.143404 0.170718
0.158114 0.143618 0.170840
0.186526 0.143557 0.168917
0.216098 0.144076 0.169162
0.247196 0.146120 0.170413
0.278935 0.148348 0.171817
0.309575 0.150027 0.172946
0.338018 0.150912 0.173465
0.364141 0.151186 0.173739
0.390387 0.152224 0.174655
0.417517 0.154025 0.175631
0.444800 0.155520 0.176028
0.471748 0.156924 0.176883
0.498329 0.158694 0.178347
0.523980 0.160616 0.179324
0.548302 0.162203 0.180972
0.571191 0.163119 0.181399
0.131838 0.170840 0.171328
0.158694 0.172213 0.172091
0.194003 0.174594 0.173465
0.227878 0.177493 0.173617
0.260533 0.179232 0.174411
0.291478 0.179995 0.175021
0.321721 0.181216 0.176638
0.351537 0.183017 0.177859
0.379034 0.183963 0.178286
0.405280 0.184726 0.179110
0.433356 0.187198 0.180697
0.463630 0.190433 0.182895
0.493629 0.193973 0.185702
0.522454 0.198184 0.188571
0.549950 0.202243 0.190890
0.576349 0.205417 0.192874
0.600336 0.208652 0.195865
0.132448 0.196811 0.171878
0.159609 0.198734 0.172763
0.203891 0.215793 0.182345
0.256748 0.230777 0.189944
0.293919 0.232792 0.191196
0.329320 0.234165 0.192660
0.363867 0.236698 0.194675
0.397192 0.239933 0.196994
0.428901 0.243412 0.199252
0.458473 0.246342 0.201328
0.486915 0.249424 0.203708
0.514275 0.252232 0.205447
0.540551 0.254856 0.207095
0.566339 0.258579 0.209354
0.590478 0.262028 0.211063
0.612940 0.265202 0.213077
0.632593 0.267155 0.214969
0.132876 0.222507 0.171969
0.159670 0.224399 0.172793
0.202029 0.242679 0.183352
0.262547 0.270726 0.199039
0.322148 0.290440 0.208865
0.362799 0.295232 0.212284
0.400000 0.298222 0.214969
0.434272 0.301640 0.217288
0.465675 0.304814 0.219608
0.495094 0.307744 0.221683
0.521996 0.309575 0.222934
0.546746 0.310643 0.223514
0.569574 0.311559 0.223941
0.591485 0.313176 0.224735
0.612085 0.315404 0.225895
0.631617 0.317693 0.226841
0.649561 0.320439 0.228611
0.133028 0.248844 0.172091
0.159426 0.249821 0.172824
0.197513 0.264622 0.181125
0.259678 0.299382 0.202090
0.324010 0.327428 0.218326
0.384070 0.350591 0.231113
0.425696 0.358160 0.235904
0.460304 0.360998 0.238376
0.490700 0.363073 0.239811
0.518639 0.364843 0.241032
0.544366 0.366522 0.241733
0.567651 0.366735 0.241947
0.588617 0.366064 0.241550
0.608301 0.365820 0.240970
0.626947 0.366247 0.241306
0.644923 0.367864 0.241733
0.662715 0.371923 0.243320
0.133303 0.274998 0.172702
0.159426 0.275669 0.172976
0.193149 0.285313 0.178775
0.257298 0.326818 0.203983
0.325963 0.360998 0.225650
0.385351 0.386511 0.241917
0.440436 0.408392 0.255192
0.479988 0.416999 0.260288
0.510307 0.418921 0.262028
0.537255 0.420264 0.262913
0.561730 0.421302 0.263340
0.584100 0.421912 0.263554
0.603876 0.421271 0.262974
0.622461 0.420691 0.262211
0.640742 0.421057 0.262455
0.658320 0.422675 0.263005
0.676112 0.426978 0.263676
0.134798 0.302403 0.174685
0.159670 0.300938 0.173037
0.191348 0.308171 0.177981
0.254734 0.351415 0.203830
0.328771 0.394171 0.232181
0.390387 0.422095 0.251377
0.441382 0.441505 0.264958
0.490028 0.460182 0.278660
0.525719 0.468788 0.284092
0.552789 0.471687 0.286748
0.576440 0.473152 0.288304
0.597681 0.473640 0.288792
0.616938 0.473823 0.288548
0.634913 0.474067 0.288426
0.653101 0.475776 0.289342
0.671077 0.479072 0.290105
0.689357 0.483894 0.288914
0.137240 0.333532 0.178317
0.161959 0.329015 0.174807
0.192294 0.334417 0.178927
0.254307 0.376959 0.204166
0.331945 0.426154 0.238010
0.396307 0.457099 0.261112
0.445045 0.474434 0.274296
0.488807 0.488167 0.284916
0.533165 0.504875 0.297765
0.564263 0.513268 0.304570
0.588129 0.516289 0.307927
0.608209 0.517296 0.309483
0.626795 0.517998 0.310124
0.644739 0.519371 0.311040
0.663142 0.522484 0.312993
0.681208 0.528038 0.315496
0.697658 0.533349 0.316136
0.142489 0.370764 0.185702
0.166995 0.363897 0.179965
0.196384 0.366003 0.182681
0.257481 0.406836 0.208164
0.336156 0.457557 0.243442
0.402014 0.489906 0.269596
0.451087 0.507408 0.284611
0.490303 0.517601 0.293828
0.528710 0.528618 0.302251
0.567590 0.541253 0.310552
0.594934 0.548028 0.316991
0.615808 0.550408 0.319188
0.633967 0.551415 0.319982
0.651728 0.553613 0.321935
0.670344 0.558373 0.326055
0.688289 0.566278 0.332647
0.701503 0.572778 0.340978
0.149996 0.414649 0.196170
0.173922 0.405249 0.188540
0.203952 0.404639 0.190982
0.265019 0.441932 0.216373
0.341100 0.488319 0.249241
0.406500 0.520409 0.276524
0.456794 0.539055 0.294591
0.495857 0.549493 0.305943
0.529229 0.555688 0.311620
0.561913 0.562219 0.314763
0.592432 0.567926 0.316136
0.617304 0.573297 0.320592
0.637018 0.576043 0.322393
0.655360 0.579187 0.325292
0.674403 0.585657 0.331792
0.692256 0.595697 0.342687
0.704067 0.604303 0.358465
0.158511 0.460670 0.208042
0.183536 0.451881 0.200961
0.214878 0.450080 0.202976
0.277104 0.481636 0.227573
0.348028 0.519371 0.256321
0.411078 0.548791 0.282536
0.461250 0.567803 0.302922
0.501244 0.579278 0.317357
0.532952 0.584253 0.323430
0.561181 0.586145 0.322545
0.588891 0.588067 0.320500
0.612757 0.590234 0.318700
0.635065 0.593683 0.320928
0.654658 0.598108 0.324865
0.674647 0.606470 0.334112
0.693233 0.618189 0.348516
0.705623 0.628870 0.367834
0.170077 0.505608 0.221561
0.197024 0.500267 0.216098
0.231388 0.500481 0.218692
0.293706 0.525505 0.242222
0.358740 0.552789 0.265782
0.416754 0.575677 0.288579
0.465278 0.592950 0.309239
0.505150 0.604364 0.324926
0.536706 0.609461 0.332647
0.562921 0.610315 0.331731
0.588434 0.610010 0.327062
0.612177 0.610529 0.323491
0.631952 0.610864 0.320470
0.652125 0.614466 0.323705
0.672419 0.621912 0.332158
0.691981 0.634791 0.349187
0.706081 0.647517 0.370703
0.182742 0.547173 0.235142
0.212894 0.544396 0.231296
0.252659 0.549157 0.237919
0.314000 0.569940 0.259770
0.373358 0.588098 0.278752
0.424811 0.602686 0.296422
0.469673 0.615839 0.314885
0.508049 0.625696 0.329931
0.538811 0.630335 0.337560
0.564630 0.630945 0.337377
0.588983 0.630396 0.332677
0.612329 0.630213 0.327642
0.632502 0.630274 0.324376
0.650721 0.631434 0.323827
0.670527 0.637171 0.331914
0.689845 0.647913 0.347112
0.705318 0.661219 0.369329
0.195285 0.582879 0.246891
0.230198 0.584405 0.246403
0.272312 0.589563 0.253941
0.334356 0.608545 0.275761
0.388769 0.620996 0.292485
0.435157 0.629297 0.306340
0.475715 0.637568 0.320867
0.511131 0.644648 0.333654
0.540276 0.647974 0.339971
0.565362 0.648402 0.339940
0.589441 0.648096 0.336400
0.612390 0.647608 0.331060
0.633112 0.647791 0.327520
0.651728 0.649012 0.326848
0.670069 0.653223 0.332860
0.688624 0.661341 0.347204
0.704067 0.673274 0.369207
0.210025 0.615198 0.259464
0.244846 0.616266 0.258732
0.287785 0.621302 0.266423
0.349004 0.637049 0.286625
0.400854 0.647181 0.303197
0.444068 0.652949 0.316197
0.481666 0.657282 0.327611
0.513939 0.661006 0.336645
0.541466 0.663447 0.341588
0.566125 0.663935 0.341924
0.590143 0.663905 0.339574
0.613092 0.663691 0.335119
0.634180 0.663813 0.331090
0.653010 0.665400 0.330632
0.670619 0.668452 0.334997
0.688563 0.675166 0.349126
0.703426 0.684321 0.370520
0.221500 0.640314 0.268986
0.253483 0.640467 0.266300
0.300603 0.645441 0.275059
0.358495 0.657923 0.292760
0.408087 0.665949 0.308568
0.449958 0.670802 0.322210
0.486305 0.673762 0.333074
0.516442 0.675441 0.339361
0.542443 0.677028 0.342077
0.567864 0.678431 0.342138
0.592950 0.679103 0.341222
0.616907 0.679683 0.340154
0.638239 0.680049 0.337835
0.656550 0.680598 0.336828
0.673396 0.683040 0.340581
0.689052 0.687648 0.352117
0.703334 0.694484 0.372168
0.129915 0.117830 0.196384
0.157839 0.118624 0.197086
0.185916 0.117983 0.196139
0.211887 0.117952 0.194034
0.241550 0.118898 0.194766
0.272831 0.121096 0.195834
0.304967 0.123537 0.197726
0.334874 0.124849 0.198611
0.361303 0.125154 0.198764
0.385931 0.125307 0.198825
0.410681 0.125307 0.198795
0.434852 0.125338 0.198795
0.459388 0.126040 0.198825
