tools/luts_backup/Lomo Color Implosion 21ˉ_FC.cube
# (C) 2014 VisionColor & Patchflyer [www.vision-color.com]
# Generator: VC Patchmatch v.2.1.1 [64/53]
# All work and no play makes Jack a dull boy.
# LUT generated from: Lomo Color Implosion 21°_FC01
LUT_3D_SIZE 17
0.041993 0.035233 0.035248
0.059785 0.034424 0.034623
0.077562 0.033127 0.033829
0.099275 0.032624 0.032532
0.126711 0.032410 0.032212
0.163302 0.032776 0.032258
0.208225 0.033234 0.032181
0.257237 0.033600 0.031952
0.307042 0.033677 0.031540
0.359503 0.033417 0.031281
0.426627 0.033326 0.031449
0.501015 0.033509 0.031785
0.582589 0.034043 0.031907
0.667414 0.034577 0.032303
0.750881 0.035126 0.032578
0.835401 0.035981 0.032609
0.899626 0.036042 0.033631
0.038819 0.047486 0.032471
0.056291 0.046891 0.033021
0.074189 0.046067 0.031479
0.095750 0.044724 0.030411
0.122530 0.044816 0.029938
0.157839 0.045014 0.030152
0.203204 0.045808 0.030381
0.255512 0.046723 0.030884
0.315663 0.048005 0.031296
0.381384 0.049149 0.031571
0.451026 0.049607 0.031708
0.526665 0.050034 0.032136
0.613642 0.051041 0.032959
0.705959 0.052232 0.034043
0.797482 0.052979 0.034989
0.871199 0.053925 0.035187
0.929519 0.054002 0.035386
0.036118 0.061448 0.029725
0.052659 0.061494 0.030121
0.073014 0.062333 0.030045
0.096529 0.061189 0.029267
0.125261 0.061662 0.029023
0.165621 0.062654 0.029374
0.216770 0.064546 0.030411
0.283848 0.068269 0.032273
0.363180 0.072557 0.034058
0.452659 0.076753 0.035981
0.545449 0.080034 0.037629
0.637095 0.081926 0.039063
0.731685 0.083574 0.040314
0.824277 0.085801 0.041642
0.901625 0.087633 0.042771
0.951370 0.088991 0.043091
0.981262 0.089281 0.043473
0.033600 0.076646 0.027680
0.049500 0.076310 0.027680
0.069154 0.079164 0.028199
0.099153 0.083253 0.028885
0.133791 0.085634 0.029206
0.179171 0.089158 0.030732
0.238575 0.093782 0.032746
0.313527 0.099626 0.035538
0.407156 0.105226 0.038285
0.508965 0.111696 0.040681
0.610941 0.117739 0.042817
0.710262 0.121904 0.045014
0.804532 0.124758 0.046647
0.886076 0.127275 0.047761
0.947829 0.129229 0.049104
0.976699 0.130205 0.049912
0.993301 0.130800 0.050538
0.031312 0.095445 0.025360
0.045823 0.093782 0.025162
0.065339 0.097948 0.025711
0.097200 0.106935 0.028092
0.138521 0.113924 0.030335
0.191211 0.122377 0.032349
0.258030 0.129961 0.034958
0.339757 0.137774 0.038315
0.435782 0.146517 0.041855
0.542336 0.154681 0.044709
0.647456 0.161471 0.047379
0.748302 0.166995 0.049866
0.841184 0.171954 0.052110
0.913756 0.175982 0.053620
0.960769 0.179355 0.055039
0.982971 0.179965 0.055924
0.992370 0.180285 0.056626
0.028733 0.115358 0.022858
0.043305 0.113817 0.022675
0.062303 0.118578 0.023774
0.095140 0.134096 0.027039
0.138384 0.146136 0.030396
0.193805 0.157427 0.033249
0.269993 0.171267 0.036973
0.358557 0.183795 0.041154
0.459602 0.194949 0.045396
0.565759 0.205692 0.049073
0.671778 0.216129 0.052430
0.772976 0.224323 0.055619
0.861967 0.231159 0.058762
0.935500 0.236164 0.060975
0.965026 0.241215 0.062791
0.985214 0.243381 0.064088
0.990509 0.243549 0.064775
0.026169 0.138338 0.020752
0.040604 0.136721 0.020691
0.060487 0.146105 0.021866
0.094026 0.166506 0.026749
0.138598 0.183429 0.030961
0.193759 0.196170 0.034226
0.267826 0.213397 0.038010
0.371054 0.240024 0.044495
0.476127 0.255085 0.049622
0.582345 0.270542 0.054536
0.689555 0.284169 0.059236
0.790784 0.294377 0.063630
0.877287 0.304494 0.067597
0.937453 0.313008 0.071000
0.967727 0.320790 0.073625
0.982238 0.325658 0.075624
0.990662 0.327794 0.076585
0.023713 0.164843 0.018341
0.037903 0.162585 0.018433
0.057969 0.174792 0.019669
0.093599 0.205295 0.025910
0.141802 0.229862 0.031724
0.197589 0.246036 0.035691
0.267079 0.263218 0.040223
0.363729 0.291203 0.045853
0.488807 0.328237 0.055085
0.598001 0.347539 0.061799
0.705013 0.364767 0.066880
0.804364 0.380941 0.072175
0.889662 0.395285 0.077409
0.936767 0.408423 0.082643
0.966964 0.418479 0.086946
0.981338 0.426200 0.089708
0.991333 0.430976 0.091402
0.021653 0.193606 0.016388
0.035737 0.190906 0.016571
0.055314 0.207309 0.017716
0.091966 0.247883 0.025299
0.145830 0.286854 0.033188
0.207584 0.313497 0.039078
0.275578 0.332067 0.043305
0.361547 0.356725 0.048722
0.475242 0.389303 0.056687
0.606699 0.431037 0.068635
0.715724 0.454368 0.075715
0.814282 0.475257 0.081788
0.894392 0.493095 0.088228
0.937026 0.508751 0.094408
0.963897 0.520195 0.099092
0.979660 0.529320 0.102251
0.989029 0.537667 0.105135
0.020386 0.234882 0.014603
0.033478 0.231159 0.014786
0.053544 0.248905 0.016403
0.091127 0.300954 0.025284
0.149081 0.358358 0.035416
0.219974 0.400488 0.043717
0.291356 0.426764 0.050095
0.369802 0.442557 0.054154
0.469886 0.466896 0.060670
0.591516 0.502815 0.070207
0.717327 0.542809 0.083543
0.820890 0.568154 0.090715
0.894850 0.587091 0.096864
0.938628 0.603830 0.103624
0.964477 0.616983 0.108492
0.983124 0.624475 0.111482
0.990021 0.633677 0.114534
0.019623 0.295689 0.013260
0.032761 0.287953 0.013428
0.053147 0.305577 0.016510
0.092805 0.371817 0.026673
0.155077 0.450706 0.038911
0.230472 0.505074 0.049943
0.311437 0.534539 0.058000
0.389578 0.544457 0.062226
0.478676 0.559121 0.067247
0.584115 0.585382 0.075105
0.704707 0.621271 0.085420
0.819165 0.654154 0.095644
0.896178 0.673976 0.102541
0.942473 0.689982 0.108583
0.966079 0.703502 0.112932
0.984695 0.711177 0.115129
0.989929 0.717021 0.118044
0.019547 0.391943 0.014755
0.032929 0.373159 0.014710
0.054932 0.389624 0.018784
0.096300 0.463188 0.029679
0.161883 0.554559 0.043259
0.242374 0.617365 0.056321
0.327749 0.648066 0.065339
0.412512 0.658930 0.071641
0.497215 0.665293 0.076967
0.591806 0.683558 0.083619
0.696483 0.703410 0.090043
0.807065 0.727459 0.096818
0.891417 0.749157 0.104326
0.942473 0.764416 0.109865
0.966934 0.777249 0.113924
0.985458 0.786847 0.116396
0.990097 0.792477 0.119249
0.021286 0.531060 0.018204
0.034180 0.501320 0.017548
0.058747 0.514015 0.023285
0.103700 0.583612 0.034089
0.169787 0.667384 0.048371
0.253605 0.729885 0.062440
0.341405 0.761975 0.073808
0.434348 0.777523 0.082322
0.521691 0.782986 0.088685
0.610956 0.790341 0.094347
0.703136 0.798733 0.098711
0.797879 0.806043 0.102373
0.880796 0.817349 0.104906
0.935851 0.830259 0.109178
0.964019 0.841474 0.112886
0.985367 0.850904 0.116167
0.990066 0.857694 0.119173
0.025803 0.697871 0.023606
0.039872 0.665248 0.022934
0.069093 0.684901 0.030106
0.118471 0.741482 0.041733
0.186542 0.797391 0.055360
0.268177 0.838193 0.069337
0.359518 0.867399 0.082048
0.454200 0.882246 0.094209
0.547234 0.886015 0.103441
0.633066 0.885161 0.108873
0.717586 0.882582 0.110918
0.804669 0.880079 0.111238
0.875990 0.879957 0.111620
0.926879 0.881819 0.111131
0.959625 0.886213 0.112428
0.983322 0.891417 0.115541
0.989410 0.897185 0.118593
0.031113 0.845609 0.028840
0.049165 0.827619 0.029496
0.084962 0.852049 0.039399
0.138949 0.888914 0.052308
0.207568 0.913100 0.065141
0.289357 0.919234 0.077714
0.380865 0.927977 0.091234
0.474479 0.936355 0.104891
0.566369 0.941070 0.114885
0.653193 0.940810 0.120241
0.731594 0.937774 0.121798
0.811002 0.932219 0.120211
0.877989 0.928512 0.118517
0.926040 0.927459 0.117678
0.955856 0.926818 0.115694
0.979828 0.930037 0.116060
0.987930 0.933394 0.118914
0.039506 0.950134 0.035676
0.058869 0.943358 0.037110
0.098802 0.949111 0.047669
0.158785 0.957946 0.061494
0.230121 0.964523 0.074678
0.310567 0.962814 0.087388
0.399329 0.963424 0.100694
0.490593 0.964584 0.112062
0.578988 0.965576 0.120546
0.662150 0.964508 0.125643
0.741009 0.962722 0.127047
0.820188 0.960525 0.125917
0.882155 0.957931 0.123995
0.930648 0.956619 0.122087
0.957397 0.956207 0.121065
0.979339 0.954681 0.118669
0.987549 0.955001 0.119661
0.044327 0.982330 0.039307
0.066224 0.980697 0.042145
0.110307 0.982086 0.053208
0.172869 0.980652 0.066773
0.244846 0.981765 0.080842
0.325124 0.980926 0.095079
0.412879 0.982834 0.107164
0.500175 0.983459 0.116457
0.583368 0.983825 0.122820
0.664561 0.982986 0.126726
0.744335 0.981933 0.127962
0.824186 0.981430 0.127153
0.885359 0.979843 0.125872
0.932815 0.978866 0.124758
0.958892 0.978592 0.122850
0.980911 0.977234 0.121691
0.987518 0.976959 0.120256
0.041764 0.035050 0.051408
0.059495 0.034379 0.050050
0.077485 0.032975 0.049500
0.099763 0.032410 0.047425
0.126345 0.032227 0.046815
0.160418 0.032609 0.046281
0.203845 0.033036 0.046387
0.252064 0.033036 0.046159
0.303288 0.032761 0.045686
0.355138 0.032456 0.045228
0.417670 0.032593 0.044648
0.485847 0.032868 0.044358
0.563485 0.033219 0.044327
0.651484 0.033967 0.044755
0.738903 0.034546 0.044984
0.824811 0.035111 0.045579
0.895857 0.036042 0.045624
0.038483 0.047196 0.047410
0.055848 0.046052 0.046235
0.075196 0.044923 0.045548
0.098177 0.044739 0.044648
0.127031 0.044800 0.044038
0.163165 0.045182 0.043992
0.206363 0.045716 0.043915
0.252613 0.045731 0.043442
0.302953 0.045563 0.043503
0.358633 0.045762 0.043641
0.426215 0.046189 0.043641
0.504845 0.046754 0.044053
0.589761 0.047852 0.044755
0.678019 0.048997 0.045655
0.768765 0.050019 0.046448
0.853651 0.050706 0.046693
0.917021 0.051667 0.047700
0.036484 0.061036 0.045243
0.052689 0.061280 0.044526
0.076768 0.063050 0.045167
0.102602 0.062684 0.044251
0.132647 0.062394 0.043885
0.173297 0.063020 0.043992
0.222797 0.064073 0.044480
0.282368 0.065614 0.045304
0.350256 0.068101 0.046372
0.427832 0.070649 0.047608
0.509026 0.072419 0.048600
0.596048 0.073976 0.049180
0.689677 0.075853 0.050446
0.787778 0.077821 0.052018
0.872969 0.080125 0.053285
0.934081 0.081727 0.054215
0.974868 0.082353 0.054673
0.033524 0.076310 0.042222
0.049836 0.076539 0.041627
0.074662 0.084321 0.043702
0.112215 0.091142 0.045151
0.149264 0.092409 0.045579
0.195361 0.093980 0.046281
0.255650 0.096559 0.047425
0.327214 0.099931 0.049332
0.411948 0.103807 0.051331
0.505913 0.108019 0.053239
0.599191 0.111482 0.054841
0.690059 0.113436 0.056199
0.781552 0.115526 0.057420
0.866285 0.118044 0.058473
0.931853 0.120577 0.059724
0.971008 0.122499 0.060761
0.987869 0.123308 0.061280
0.030945 0.095109 0.038987
0.046067 0.094057 0.038743
0.069963 0.103563 0.041215
0.108919 0.116808 0.045106
0.162219 0.130388 0.047822
0.219150 0.135286 0.049805
0.287022 0.139696 0.051743
0.367910 0.144686 0.054551
0.460304 0.150835 0.056962
0.558541 0.156359 0.059312
0.653986 0.159945 0.061418
0.747204 0.161944 0.063325
0.833600 0.163867 0.064820
0.903609 0.165728 0.065599
0.956573 0.167132 0.066545
0.978821 0.168505 0.067445
0.991638 0.169421 0.068101
0.028367 0.115129 0.036332
0.043107 0.113603 0.036011
0.064775 0.122988 0.038651
0.104356 0.144671 0.043641
0.159030 0.163928 0.048020
0.231571 0.182498 0.052384
0.311070 0.194675 0.056855
0.398032 0.201694 0.061067
0.492973 0.208377 0.064561
0.591821 0.216037 0.067323
0.690425 0.221744 0.069780
0.783169 0.225391 0.071977
0.864088 0.228824 0.073640
0.932647 0.231006 0.074907
0.962936 0.231632 0.075898
0.984070 0.232044 0.076677
0.989944 0.231922 0.077424
0.025849 0.138155 0.033326
0.040101 0.136019 0.033082
0.060655 0.146822 0.035462
0.100221 0.175921 0.042557
0.156756 0.204150 0.048600
0.226184 0.226703 0.054795
0.318471 0.253239 0.062318
0.421592 0.273579 0.068956
0.520821 0.284047 0.073548
0.620142 0.292409 0.077256
0.717891 0.299840 0.080659
0.808087 0.305791 0.083787
0.884352 0.310765 0.086168
0.936507 0.314565 0.088289
0.966400 0.316213 0.089433
0.981140 0.316213 0.090242
0.990021 0.317830 0.091463
0.023316 0.166064 0.030686
0.037186 0.161913 0.030533
0.056504 0.172549 0.032700
0.096300 0.212543 0.041001
0.155657 0.252384 0.049805
0.228168 0.283879 0.058137
0.310918 0.309499 0.065202
0.425071 0.343877 0.074357
0.539879 0.372045 0.083925
0.643290 0.387121 0.089265
0.739178 0.397971 0.093462
0.826398 0.407309 0.097902
0.900130 0.414237 0.101656
0.938689 0.420981 0.105074
0.966186 0.425528 0.107591
0.981292 0.427100 0.108507
0.991348 0.433967 0.109911
0.021332 0.198535 0.028672
0.034714 0.191318 0.028153
0.053452 0.203647 0.030320
0.093095 0.254261 0.039628
0.156054 0.311437 0.051789
0.233799 0.356435 0.062745
0.315511 0.383124 0.070130
0.415045 0.412543 0.078080
0.538720 0.452537 0.089021
0.655543 0.484565 0.101152
0.754788 0.499779 0.107866
0.839994 0.511299 0.113298
0.902449 0.520455 0.117830
0.943465 0.529168 0.121752
0.966171 0.537575 0.125521
0.982773 0.543877 0.127565
0.990829 0.555825 0.129412
0.020645 0.245411 0.027588
0.033127 0.233005 0.026734
0.052171 0.246891 0.029129
0.092515 0.308705 0.039338
0.158618 0.384634 0.054566
0.240375 0.444007 0.067796
0.327489 0.476387 0.077241
0.418662 0.497566 0.084215
0.524651 0.527092 0.093141
0.647410 0.563943 0.105440
0.759823 0.590402 0.116381
0.850752 0.606607 0.122896
0.906462 0.617166 0.127230
0.946975 0.626154 0.131060
0.968521 0.636240 0.135348
0.987076 0.646677 0.139101
0.992401 0.665110 0.143618
0.020279 0.312062 0.027649
0.032883 0.293324 0.026658
0.052384 0.307195 0.029389
0.093874 0.378424 0.040162
0.162066 0.471595 0.057145
0.247929 0.540810 0.073198
0.339910 0.579171 0.084504
0.431479 0.598459 0.093690
0.526192 0.616068 0.101778
0.631952 0.638285 0.109773
0.746777 0.664683 0.117357
0.851164 0.686473 0.125399
0.909667 0.700694 0.130999
0.948760 0.710658 0.134997
0.970764 0.721431 0.139162
0.986801 0.734020 0.144213
0.992782 0.761913 0.152636
0.020310 0.407736 0.028901
0.032685 0.384070 0.027375
0.054688 0.394766 0.031296
0.097246 0.468315 0.042969
0.166140 0.564294 0.060288
0.254536 0.640528 0.078096
0.350408 0.684871 0.093339
0.448981 0.708354 0.105730
0.540413 0.719860 0.113649
0.634424 0.728252 0.118685
0.735683 0.739528 0.122469
0.836820 0.753780 0.125353
0.904372 0.769604 0.130632
0.947341 0.781277 0.135515
0.971176 0.794339 0.140383
0.987076 0.810880 0.146654
0.993362 0.845502 0.158984
0.022324 0.540459 0.031952
0.034165 0.511391 0.030198
0.059113 0.523110 0.035859
0.105440 0.588174 0.048631
0.173434 0.671458 0.065293
0.262440 0.741695 0.083131
0.361975 0.786801 0.102007
0.464378 0.815824 0.117021
0.559472 0.826444 0.127306
0.646097 0.827131 0.131044
0.736141 0.826947 0.131533
0.828641 0.830304 0.131579
0.893492 0.833692 0.130648
0.941482 0.843824 0.134493
0.967559 0.854093 0.139315
0.986511 0.866026 0.145937
0.993225 0.892180 0.160998
0.026703 0.699657 0.037186
0.039551 0.668788 0.035492
0.069383 0.691478 0.043931
0.120027 0.744305 0.057130
0.189227 0.797742 0.072633
0.274388 0.842161 0.090150
0.374670 0.879988 0.109285
0.476875 0.893568 0.126925
0.573693 0.899062 0.138476
0.660914 0.897185 0.142641
0.743481 0.893339 0.141375
0.830594 0.890608 0.138857
0.891722 0.889754 0.136919
0.936919 0.889601 0.135683
0.963897 0.893935 0.138994
0.984817 0.902480 0.144778
0.991958 0.927413 0.158984
0.031708 0.845747 0.043275
0.049180 0.825879 0.043687
0.085359 0.854246 0.054231
0.140215 0.889509 0.068330
0.209644 0.911192 0.082872
0.294453 0.918379 0.099168
0.390585 0.929900 0.116854
0.489448 0.940780 0.134203
0.582330 0.942809 0.144701
0.668147 0.941344 0.148714
0.749584 0.939071 0.148165
0.832532 0.936431 0.144945
0.892760 0.935027 0.142443
0.936797 0.933913 0.140948
0.961913 0.934752 0.141558
0.983474 0.938079 0.145769
0.991104 0.949859 0.158511
0.039979 0.953353 0.050660
0.059159 0.941314 0.051377
0.099290 0.947875 0.063127
0.160571 0.956054 0.078325
0.233433 0.962860 0.094987
0.315129 0.961059 0.109514
0.406119 0.962097 0.124971
0.500282 0.964248 0.139178
0.589197 0.965484 0.148226
0.670619 0.963851 0.151461
0.753140 0.962112 0.151217
0.836683 0.960433 0.148913
0.894057 0.959701 0.146700
0.938079 0.958923 0.145220
0.962966 0.959991 0.145708
0.983886 0.962814 0.149020
0.990677 0.971252 0.160647
0.044968 0.982971 0.055634
0.066636 0.979171 0.056931
0.110704 0.980529 0.068803
0.174105 0.979950 0.084688
0.247303 0.981308 0.102403
0.328283 0.980499 0.118273
0.418265 0.982177 0.132280
0.504997 0.982712 0.142840
0.589364 0.984451 0.149538
0.671504 0.984237 0.152560
0.754238 0.982376 0.152941
0.838895 0.981399 0.151461
0.895247 0.980407 0.148806
0.938796 0.980194 0.148425
0.964355 0.982116 0.150607
0.984344 0.983536 0.155001
0.990707 0.985016 0.162112
0.041749 0.035035 0.071168
0.059556 0.034348 0.069123
0.078065 0.033646 0.066361
0.099977 0.032822 0.064759
0.126726 0.032486 0.062806
0.160937 0.032609 0.062379
0.202426 0.032868 0.061982
0.249668 0.032853 0.061662
0.298421 0.032563 0.060929
0.350256 0.032227 0.060288
0.412085 0.032120 0.059571
0.476326 0.032197 0.058869
0.549813 0.032502 0.058381
0.635859 0.033158 0.058213
0.722713 0.033951 0.058564
0.812177 0.034623 0.058686
0.886458 0.035721 0.059220
0.038483 0.047181 0.066941
0.055711 0.046098 0.065126
0.074891 0.045335 0.062425
0.098970 0.044755 0.061295
0.127581 0.044877 0.060243
0.162478 0.045045 0.059892
0.202960 0.045075 0.059312
0.247486 0.044831 0.058778
0.295186 0.044495 0.058137
0.349447 0.044617 0.058091
0.414939 0.045228 0.058091
0.488746 0.045808 0.057710
0.568292 0.046372 0.057832
0.653178 0.047166 0.058198
0.741466 0.048051 0.058503
0.829786 0.048798 0.059281
0.895872 0.049256 0.059342
0.036255 0.061814 0.062226
0.051789 0.060929 0.060883
0.074571 0.060761 0.060060
0.102983 0.061341 0.058824
0.133761 0.061265 0.058198
0.170306 0.060716 0.057588
0.210971 0.060395 0.057664
0.260456 0.060517 0.057435
0.312215 0.060410 0.057115
0.371511 0.060502 0.057237
0.441184 0.061463 0.057694
0.524849 0.062821 0.058579
0.616327 0.064485 0.059800
0.710964 0.066880 0.061067
0.809110 0.069352 0.062119
0.891295 0.071427 0.063157
0.948165 0.073548 0.065034
0.033494 0.076860 0.059327
0.049119 0.076509 0.058030
0.076219 0.086183 0.060472
0.119112 0.094667 0.061830
0.159091 0.094484 0.061814
0.206241 0.094148 0.061646
0.262226 0.094423 0.062058
0.326986 0.095705 0.062943
0.399344 0.097169 0.064210
0.477409 0.098695 0.065324
0.562737 0.100526 0.066835
0.649668 0.102113 0.067979
0.740749 0.103380 0.068986
0.829114 0.105791 0.070680
0.904295 0.108797 0.072023
0.962936 0.111803 0.073518
0.982193 0.113634 0.075059
0.030961 0.095628 0.055360
0.045869 0.094728 0.054734
0.071092 0.106340 0.057588
0.117403 0.126436 0.063081
0.180743 0.141329 0.067445
0.241138 0.143816 0.069123
0.310613 0.144915 0.070161
0.386892 0.146471 0.071748
0.469306 0.148455 0.073396
0.556435 0.150591 0.074968
0.643870 0.152041 0.075990
0.731182 0.152758 0.076692
0.814649 0.153338 0.077577
0.887358 0.154788 0.078462
0.949264 0.156954 0.079530
0.974060 0.159213 0.080751
0.990478 0.161913 0.082475
0.028260 0.116442 0.051774
0.042969 0.114916 0.051301
0.064271 0.124529 0.053773
0.109209 0.154238 0.062058
0.175097 0.180270 0.070329
0.262425 0.205600 0.076982
0.343893 0.212329 0.079912
0.429557 0.214069 0.082231
0.515831 0.215045 0.083970
0.604089 0.216983 0.085206
0.694270 0.218982 0.086152
0.780224 0.218875 0.087037
0.856489 0.217823 0.087587
0.922179 0.217487 0.087922
0.958984 0.218067 0.088930
0.982574 0.220279 0.089860
0.989807 0.225834 0.091646
0.025772 0.140887 0.048798
0.040009 0.139116 0.048341
0.058595 0.145632 0.049943
0.102022 0.184329 0.060273
0.170413 0.224628 0.071672
0.254719 0.256718 0.082002
0.362844 0.290501 0.090379
0.462257 0.301457 0.094926
0.552636 0.302998 0.097551
0.642390 0.304753 0.099519
0.729946 0.306127 0.100954
0.812634 0.306447 0.102037
0.883375 0.304112 0.102449
0.932876 0.302419 0.102678
0.964263 0.303151 0.103822
0.980789 0.306386 0.105241
0.991882 0.314977 0.106798
0.023941 0.170001 0.046128
0.037385 0.165820 0.045060
0.054734 0.170550 0.046738
0.096193 0.218128 0.057725
0.166598 0.275654 0.073304
0.254612 0.320409 0.085405
0.354772 0.355062 0.096620
0.476448 0.391638 0.109133
0.583459 0.409430 0.115206
0.674617 0.415335 0.118914
0.760052 0.418524 0.121889
0.837690 0.419471 0.123903
0.901595 0.419165 0.124849
0.939055 0.419303 0.125795
0.967071 0.423224 0.127657
0.984833 0.431281 0.129442
0.993149 0.443061 0.129519
0.022019 0.209079 0.044739
0.035645 0.199802 0.043015
0.052201 0.203220 0.044633
0.091844 0.257511 0.055482
0.165194 0.336477 0.074250
0.257298 0.395361 0.090105
0.354376 0.432181 0.102647
0.463233 0.461265 0.113451
0.595605 0.502968 0.127214
0.700374 0.524254 0.135790
0.785580 0.531197 0.141115
0.859297 0.534249 0.144320
0.908293 0.536385 0.146441
0.948653 0.540551 0.148638
0.970672 0.549981 0.151827
0.987930 0.566842 0.155596
0.993744 0.582940 0.157519
0.021164 0.266545 0.044633
0.034821 0.250523 0.042145
0.051408 0.249393 0.043381
0.090410 0.310887 0.055100
0.164904 0.406790 0.075517
0.260548 0.479820 0.095476
0.359258 0.520867 0.110414
0.459480 0.543984 0.120623
0.572808 0.572473 0.130983
0.702205 0.608850 0.141619
0.799802 0.628092 0.150607
0.873716 0.635309 0.155032
0.916487 0.638697 0.157305
0.951568 0.646067 0.160616
0.976211 0.662043 0.166995
0.989746 0.688548 0.176730
0.994873 0.710353 0.188281
0.021012 0.350637 0.046098
0.034501 0.326024 0.042527
0.052247 0.317556 0.044099
0.092912 0.384314 0.057267
0.166491 0.487755 0.077073
0.262455 0.567697 0.099794
0.366400 0.617533 0.118364
0.467857 0.644327 0.132097
0.568002 0.659800 0.139864
0.676204 0.677302 0.145464
0.786023 0.695109 0.149813
0.872328 0.712352 0.156985
0.920333 0.721370 0.160922
0.953750 0.731868 0.166033
0.979995 0.754864 0.175769
0.990433 0.791135 0.191211
0.995392 0.822232 0.212879
0.021775 0.463264 0.048814
0.035218 0.431525 0.045258
0.054673 0.417624 0.047105
0.099016 0.484184 0.060945
0.170947 0.578607 0.079835
0.265660 0.658900 0.103731
0.372335 0.714168 0.125795
0.478477 0.746334 0.143359
0.575097 0.758083 0.152316
0.669154 0.760555 0.153429
0.768017 0.764889 0.153872
0.857649 0.771969 0.154788
0.912749 0.784054 0.159487
0.951461 0.799863 0.166201
0.980301 0.830076 0.179980
0.990799 0.866331 0.200061
0.996017 0.892638 0.228367
0.024582 0.594308 0.052811
0.038605 0.569619 0.050065
0.060487 0.557046 0.052659
0.108995 0.616037 0.067735
0.180499 0.688365 0.086275
0.272206 0.753597 0.108415
0.378454 0.803189 0.131884
0.485985 0.836835 0.151583
0.583856 0.849424 0.164599
0.671748 0.848600 0.165850
0.762295 0.845060 0.162234
0.851423 0.845167 0.159915
0.902174 0.846204 0.158877
0.945418 0.857160 0.164736
0.976104 0.875502 0.178042
0.989944 0.907210 0.201923
0.996033 0.936400 0.233875
0.028107 0.733867 0.057832
0.045075 0.713695 0.056214
0.071122 0.714168 0.061631
0.124224 0.768307 0.077256
0.197787 0.813031 0.096254
0.285084 0.850126 0.115740
0.386709 0.882338 0.137499
0.491981 0.897780 0.158419
0.588632 0.903944 0.171679
0.676356 0.902144 0.174289
0.762783 0.898741 0.170596
0.850385 0.896666 0.166308
0.901884 0.896254 0.164187
0.942260 0.898955 0.165591
0.972534 0.913069 0.178332
0.988495 0.937011 0.199924
0.995682 0.957626 0.232959
0.031891 0.860609 0.062348
0.053376 0.854597 0.063554
0.083742 0.856519 0.069947
0.143801 0.900725 0.089540
0.217624 0.913970 0.107897
0.304707 0.920836 0.126223
0.400519 0.930358 0.144335
0.499214 0.941649 0.163851
0.591836 0.943221 0.175509
0.677424 0.941344 0.178271
0.763684 0.939498 0.176455
0.849577 0.937453 0.171786
0.902403 0.937163 0.169345
0.942931 0.938720 0.170504
0.971328 0.945235 0.180499
0.987930 0.957809 0.200977
0.995102 0.976287 0.233616
0.039139 0.954101 0.068650
0.061265 0.948547 0.069947
0.094697 0.945480 0.078172
0.160220 0.955367 0.098619
0.237446 0.961715 0.119005
0.322087 0.960830 0.136645
0.414572 0.961563 0.153246
0.506645 0.963851 0.168612
0.594690 0.965728 0.178576
0.679088 0.964523 0.181796
0.765774 0.963333 0.181598
0.851881 0.962188 0.178210
0.905058 0.961944 0.175143
0.944869 0.964096 0.176562
0.972183 0.968826 0.184329
0.987900 0.979217 0.204440
0.994797 0.985916 0.236744
0.044938 0.983719 0.075013
0.065736 0.980179 0.074922
0.105501 0.979644 0.084779
0.171710 0.977417 0.104189
0.249195 0.979721 0.124941
0.333532 0.979446 0.143267
0.426337 0.981872 0.160906
0.513054 0.982406 0.172625
0.596948 0.984436 0.179736
0.684382 0.984421 0.182879
0.775555 0.984085 0.184756
0.861433 0.984298 0.186206
0.915236 0.984070 0.185382
0.950332 0.984192 0.186038
0.976471 0.985321 0.192981
0.988113 0.987472 0.209583
0.994766 0.990646 0.240543
0.041611 0.034882 0.091936
0.059281 0.034485 0.090150
0.078340 0.033524 0.087098
0.099886 0.032898 0.082918
0.127169 0.032441 0.081239
0.161410 0.032563 0.079881
0.203006 0.032746 0.079728
0.249287 0.032731 0.078874
0.297383 0.032456 0.077958
0.347356 0.032242 0.076997
0.409384 0.032136 0.075944
0.474449 0.032044 0.075120
0.544884 0.032212 0.074189
