tools/luts_backup/Lomo Color Implosion 21ˉ_VS.cube
# (C) 2014 VisionColor & Patchflyer [www.vision-color.com]
# Generator: VC Patchmatch v.2.1.1 [64/53]
# All work and no play makes Jack a dull boy.
# LUT generated from: Lomo Color Implosion 21°_VisionSpace
LUT_3D_SIZE 5
0.053010 0.045045 0.045045
0.128939 0.047272 0.047059
0.229343 0.062013 0.060060
0.356237 0.074220 0.072175
0.507469 0.090791 0.088533
0.055299 0.120058 0.049439
0.169833 0.153079 0.080293
0.358175 0.208469 0.119142
0.552819 0.255375 0.158999
0.638666 0.274174 0.177829
0.083162 0.208011 0.077821
0.227298 0.308125 0.129702
0.452842 0.412894 0.199496
0.652979 0.513115 0.284855
0.721828 0.554345 0.325780
0.148287 0.431739 0.144991
0.326390 0.564508 0.224430
0.565911 0.657069 0.319829
0.709926 0.691554 0.376349
0.776150 0.718227 0.409796
0.261723 0.704585 0.256260
0.442481 0.750881 0.325170
0.639582 0.776486 0.401434
0.747860 0.786252 0.432105
0.800443 0.791379 0.443183
0.051911 0.045808 0.119844
0.125002 0.051667 0.109071
0.230564 0.063600 0.118593
0.347784 0.074159 0.127382
0.496834 0.090669 0.142275
0.067628 0.126802 0.126802
0.198489 0.180026 0.164767
0.393408 0.176150 0.155886
0.522789 0.199100 0.181857
0.642145 0.237522 0.213474
0.104402 0.266285 0.169711
0.197391 0.387961 0.180606
0.605203 0.561105 0.329290
0.720638 0.572641 0.359869
0.759823 0.562448 0.366522
0.203220 0.560235 0.288121
0.308537 0.627344 0.268681
0.626215 0.724178 0.386053
0.772152 0.752468 0.438148
0.827817 0.780880 0.494514
0.251926 0.694148 0.335271
0.375891 0.771786 0.326421
0.630762 0.796292 0.407202
0.790066 0.821805 0.471015
0.836637 0.831479 0.506737
0.057038 0.051972 0.191959
0.158755 0.072389 0.231083
0.278264 0.081361 0.225681
0.452888 0.107088 0.237858
0.546807 0.116213 0.239475
0.074891 0.131319 0.214328
0.146822 0.150179 0.300664
0.377691 0.175937 0.280705
0.478279 0.174899 0.248417
0.601923 0.202762 0.269535
0.128664 0.319814 0.311376
0.201450 0.379400 0.354101
0.526711 0.554665 0.509865
0.695674 0.450645 0.382650
0.770413 0.490654 0.425010
0.219242 0.573053 0.410590
0.291844 0.613306 0.420508
0.616327 0.749538 0.598321
0.776577 0.772091 0.633967
0.821042 0.780179 0.652155
0.265873 0.693294 0.450629
0.339330 0.732570 0.441199
0.663172 0.809934 0.557198
0.786923 0.828367 0.652064
0.835813 0.837949 0.683772
0.065766 0.061738 0.306493
0.181643 0.092226 0.380285
0.284672 0.101472 0.381872
0.473976 0.125551 0.353765
0.553307 0.133791 0.349950
0.091951 0.164950 0.364569
0.156252 0.157595 0.429694
0.311879 0.178866 0.420783
0.478370 0.189395 0.371283
0.588922 0.220737 0.390692
0.162051 0.374487 0.480201
0.214420 0.368688 0.490455
0.312642 0.389792 0.568933
0.654932 0.446250 0.589532
0.744533 0.473564 0.596216
0.230137 0.561944 0.529351
0.312963 0.607263 0.569451
0.389380 0.667506 0.614527
0.769070 0.778927 0.760555
0.808499 0.776638 0.755520
0.301396 0.701259 0.590417
0.373083 0.729030 0.616144
0.496544 0.796139 0.676570
0.798947 0.834348 0.785519
0.837949 0.842588 0.794705
0.079561 0.080720 0.474739
0.189242 0.107210 0.518914
0.263798 0.103395 0.496956
0.399786 0.111513 0.456153
0.527367 0.142367 0.457801
0.108309 0.190738 0.519158
0.184421 0.181247 0.559594
0.297246 0.181735 0.531670
0.471504 0.208286 0.508568
0.569238 0.240574 0.511406
0.165896 0.358923 0.574243
0.222385 0.361456 0.588403
0.293721 0.338704 0.677516
0.634485 0.428244 0.691554
0.741909 0.500023 0.715816
0.247898 0.557885 0.626886
0.318639 0.588342 0.650050
0.358587 0.602289 0.683467
0.734524 0.752804 0.781888
0.805692 0.772732 0.800290
0.322362 0.696162 0.676966
0.386969 0.718898 0.696956
0.436591 0.765866 0.737087
0.759243 0.827848 0.816739
0.838560 0.843198 0.835691
