tools/luts_backup/Lomo Color Implosion 21ˉ_FPE.cube
# (C) 2014 VisionColor & Patchflyer [www.vision-color.com]
# Generator: VC Patchmatch v.2.1.1 [64/53]
# All work and no play makes Jack a dull boy.
# LUT generated from: Lomo Color Implosion 21°_FPE
LUT_3D_SIZE 9
0.038224 0.042695 0.043198
0.057679 0.042695 0.039704
0.090013 0.046983 0.039719
0.147921 0.053468 0.040970
0.212360 0.054795 0.040421
0.280644 0.051286 0.041077
0.357549 0.047364 0.043671
0.428565 0.047822 0.046799
0.480125 0.049714 0.049546
0.035508 0.052171 0.042435
0.062791 0.060288 0.042878
0.107744 0.067369 0.042100
0.185245 0.077226 0.042237
0.300999 0.086992 0.044831
0.411704 0.084459 0.048676
0.495918 0.076692 0.051575
0.558007 0.070512 0.052796
0.597116 0.066606 0.054368
0.033097 0.068574 0.043687
0.061082 0.084199 0.045670
0.147478 0.116686 0.048463
0.274403 0.145586 0.049104
0.421912 0.166598 0.051087
0.550393 0.177722 0.055848
0.635477 0.176867 0.059892
0.691569 0.172869 0.062364
0.725505 0.164813 0.063539
0.030991 0.092973 0.046479
0.056641 0.117784 0.047745
0.164553 0.179583 0.052354
0.335149 0.236027 0.053300
0.524788 0.289357 0.058717
0.665049 0.315908 0.070542
0.756146 0.330556 0.077729
0.815076 0.336034 0.083116
0.848264 0.335531 0.086351
0.030976 0.122728 0.047593
0.048875 0.155657 0.047074
0.181704 0.260685 0.053483
0.379950 0.340871 0.058274
0.587182 0.412268 0.074342
0.765774 0.469474 0.099489
0.858869 0.492927 0.114824
0.909056 0.506249 0.123461
0.931212 0.512749 0.127977
0.033753 0.173907 0.047715
0.046830 0.210605 0.046906
0.194003 0.360998 0.054719
0.445640 0.472908 0.072404
0.637278 0.525322 0.095827
0.820874 0.583764 0.128191
0.907393 0.615183 0.146960
0.940566 0.626520 0.155138
0.951324 0.628550 0.158297
0.039551 0.268009 0.050477
0.048859 0.307927 0.049042
0.208667 0.461326 0.063722
0.493034 0.573327 0.095598
0.698711 0.627878 0.123003
0.848081 0.666896 0.148592
0.928740 0.688823 0.163912
0.949615 0.698558 0.172930
0.955367 0.704402 0.177630
0.041337 0.356970 0.053758
0.063355 0.426230 0.059068
0.264591 0.548241 0.081376
0.534340 0.639826 0.115602
0.735348 0.703914 0.148959
0.876127 0.736782 0.168154
0.936172 0.749279 0.179095
0.951736 0.751522 0.184314
0.956436 0.754376 0.188556
0.045335 0.410040 0.063996
0.083787 0.489723 0.071000
0.313985 0.602319 0.098436
0.564569 0.682094 0.134783
0.748653 0.736080 0.161288
0.881422 0.767544 0.178485
0.940597 0.783764 0.189029
0.953811 0.790875 0.195529
0.956832 0.790570 0.198032
0.035096 0.041306 0.054322
0.057816 0.044373 0.055024
0.091310 0.047608 0.054261
0.148135 0.053666 0.056184
0.214099 0.055406 0.054688
0.278965 0.052628 0.051865
0.346868 0.048692 0.049409
0.424475 0.047868 0.050828
0.482597 0.049561 0.051698
0.033555 0.055436 0.060945
0.061204 0.062837 0.062135
0.109285 0.068406 0.058732
0.171221 0.074327 0.058366
0.245991 0.075990 0.055924
0.323781 0.071824 0.053941
0.418357 0.066026 0.054246
0.501945 0.063630 0.054856
0.555138 0.059892 0.055024
0.031449 0.072068 0.061875
0.060182 0.092454 0.067903
0.195377 0.150271 0.081056
0.320790 0.165911 0.076844
0.436942 0.170474 0.071412
0.533867 0.165042 0.068376
0.603189 0.153841 0.066011
0.655177 0.144427 0.064805
0.696529 0.139239 0.064759
0.030640 0.098726 0.065995
0.047395 0.115175 0.067872
0.204044 0.224948 0.092866
0.442542 0.321477 0.101335
0.591241 0.340032 0.096040
0.688930 0.339391 0.094301
0.750912 0.328862 0.091844
0.796033 0.316243 0.089830
0.836255 0.317861 0.091417
0.031373 0.136934 0.070619
0.040208 0.149401 0.068772
0.197452 0.304921 0.097932
0.466697 0.431617 0.119249
0.697551 0.510262 0.146365
0.816541 0.531212 0.157977
0.876356 0.529793 0.157687
0.916884 0.532067 0.157992
0.940246 0.547402 0.160632
0.035645 0.206989 0.078752
0.041886 0.211795 0.070573
0.189624 0.388113 0.096666
0.493797 0.535760 0.136126
0.711727 0.604044 0.170596
0.867689 0.640345 0.183261
0.920119 0.650889 0.184955
0.948730 0.664347 0.195209
0.957122 0.700282 0.231724
0.040284 0.300267 0.088716
0.044907 0.318883 0.077302
0.195895 0.477409 0.104662
0.508446 0.609628 0.155306
0.729137 0.684306 0.200031
0.876554 0.712489 0.203540
0.934508 0.717983 0.197192
0.953796 0.734890 0.209323
0.961028 0.787167 0.268971
0.042267 0.373632 0.098604
0.055528 0.424994 0.092622
0.250004 0.563439 0.128191
0.529397 0.662928 0.171206
0.733074 0.730297 0.210498
0.876646 0.761196 0.215900
0.938308 0.775540 0.213535
0.955291 0.786801 0.222492
0.961318 0.824430 0.276829
0.045884 0.421241 0.115267
0.068162 0.482551 0.108064
0.287922 0.611841 0.150256
0.552941 0.702708 0.193988
0.735485 0.757351 0.215900
0.880079 0.792584 0.225910
0.942870 0.812192 0.231250
0.957259 0.825010 0.240513
0.961791 0.850385 0.290669
0.033570 0.041321 0.073854
0.056336 0.045914 0.078798
0.094087 0.049424 0.079454
0.153155 0.054994 0.080598
0.221530 0.055955 0.079591
0.292149 0.053132 0.074769
0.358022 0.049592 0.068956
0.430304 0.048585 0.065064
0.484627 0.049699 0.062623
0.032502 0.054948 0.082139
0.055146 0.063508 0.088838
0.108003 0.068803 0.085359
0.167559 0.074342 0.084169
0.231891 0.075944 0.081682
0.306676 0.072786 0.076738
0.385183 0.065995 0.071824
0.463096 0.060853 0.069032
0.532265 0.058412 0.067002
0.031098 0.080919 0.096300
0.046403 0.101930 0.109972
0.154726 0.143786 0.130083
0.270405 0.145769 0.111727
0.384237 0.144976 0.100557
0.470588 0.135210 0.091768
0.542962 0.125643 0.085206
0.603433 0.117235 0.080720
0.674525 0.120928 0.082033
0.031571 0.114641 0.105409
0.041276 0.140429 0.114382
0.130220 0.222797 0.151537
0.449485 0.355627 0.195193
0.594827 0.344991 0.154360
0.679820 0.325322 0.133059
0.736294 0.308309 0.122927
0.772625 0.288365 0.113100
0.811505 0.284779 0.111513
0.032868 0.175051 0.123308
0.040192 0.206683 0.127489
0.130297 0.310109 0.163455
0.476127 0.497215 0.249775
0.731899 0.567086 0.270069
0.848692 0.569772 0.243565
0.896895 0.560861 0.234501
0.921141 0.548211 0.222202
0.930724 0.530968 0.214038
0.038697 0.277134 0.160098
0.041810 0.280644 0.135668
0.156970 0.406180 0.166918
0.511269 0.594903 0.266392
0.748257 0.668971 0.314015
0.913481 0.725170 0.345205
0.946746 0.721828 0.324575
0.958724 0.719463 0.324895
0.962753 0.728542 0.369558
0.042771 0.357488 0.183139
0.045396 0.374182 0.149447
0.175967 0.499474 0.179873
0.519219 0.644556 0.256687
0.747417 0.724758 0.311955
0.904082 0.774044 0.342473
0.949355 0.788663 0.348196
0.963531 0.801526 0.369848
0.968643 0.823133 0.437781
0.043854 0.390295 0.185824
0.052415 0.440436 0.164782
0.209339 0.570153 0.201984
0.528176 0.691936 0.273213
0.725383 0.751217 0.303975
0.879271 0.792157 0.317937
0.946212 0.819654 0.332387
0.963745 0.844282 0.380362
0.969467 0.862776 0.445975
0.044800 0.412451 0.185107
0.056458 0.477409 0.174792
0.224475 0.603754 0.211688
0.529244 0.720439 0.283665
0.723171 0.776822 0.305913
0.888762 0.827329 0.340307
0.951354 0.861494 0.385718
0.964645 0.873106 0.400671
0.969543 0.885496 0.450080
0.033494 0.041794 0.103777
0.054994 0.046662 0.114290
0.106950 0.052644 0.126131
0.165362 0.056077 0.122957
0.255207 0.057313 0.121386
0.342046 0.053788 0.116854
0.409155 0.050156 0.109056
0.468650 0.049958 0.101350
0.513649 0.051057 0.093919
0.033371 0.056092 0.113695
0.049546 0.063264 0.121935
0.126650 0.081132 0.155642
0.214008 0.084489 0.137697
0.281819 0.082139 0.126818
0.343542 0.075044 0.118486
0.404608 0.067460 0.109743
0.467002 0.061051 0.101869
0.535241 0.058961 0.096254
0.033341 0.081224 0.132448
0.042710 0.100557 0.150530
0.102998 0.126528 0.173449
0.239536 0.137499 0.165499
0.318273 0.126207 0.140414
0.400137 0.117266 0.127718
0.473060 0.105348 0.116976
0.536294 0.097063 0.110384
0.630900 0.097627 0.111986
0.033921 0.133028 0.167041
0.041138 0.184756 0.210773
0.068864 0.207355 0.215015
0.342443 0.341054 0.299367
0.488350 0.294957 0.224567
0.592752 0.259525 0.174792
0.667704 0.243244 0.158892
0.723430 0.237644 0.151034
0.777310 0.251972 0.159564
0.034363 0.202090 0.197436
0.040253 0.277714 0.242924
0.063935 0.306538 0.238560
0.268666 0.441688 0.314229
0.657740 0.568963 0.399237
0.791333 0.535592 0.317006
0.866590 0.525399 0.287190
0.895323 0.507424 0.271763
0.906188 0.500908 0.294194
0.039841 0.307790 0.245716
0.045136 0.360586 0.261311
0.081102 0.415457 0.261311
0.369345 0.585382 0.375692
0.698711 0.700877 0.472526
0.881941 0.746532 0.499947
0.948669 0.756558 0.486412
0.961913 0.750484 0.481102
0.961349 0.730556 0.488350
0.044114 0.377127 0.271611
0.046769 0.401190 0.251316
0.112398 0.505013 0.275608
0.487388 0.675639 0.388235
0.723430 0.761898 0.471656
0.881849 0.808881 0.518563
0.955398 0.838254 0.542885
0.968627 0.839475 0.547387
0.971206 0.837125 0.566400
0.046021 0.408072 0.274525
0.049256 0.438727 0.247669
0.143069 0.565576 0.287816
0.521004 0.714382 0.374746
0.741833 0.787778 0.434363
0.891325 0.841260 0.498146
0.956344 0.871260 0.536767
0.970810 0.878386 0.556390
0.974289 0.880796 0.581689
0.046632 0.421134 0.270710
0.051194 0.460838 0.247471
0.139178 0.582589 0.280919
0.504524 0.732830 0.372335
0.729030 0.803082 0.416205
0.888014 0.857984 0.485740
0.953185 0.888014 0.543069
0.971893 0.899657 0.561242
0.975113 0.904311 0.587015
0.032639 0.039902 0.139528
0.056092 0.045609 0.157885
0.119600 0.055482 0.188891
0.209659 0.062135 0.212940
0.287312 0.055955 0.184924
0.403922 0.054551 0.180072
0.472923 0.052567 0.172366
0.515175 0.051835 0.163256
0.546685 0.052262 0.152117
0.033829 0.056092 0.153399
0.045258 0.060960 0.157137
0.111513 0.081392 0.205203
0.231556 0.097505 0.238758
0.359854 0.090944 0.201572
0.426154 0.080079 0.185595
0.479973 0.070726 0.173495
0.521859 0.063966 0.161486
0.566873 0.061357 0.151949
0.035233 0.083986 0.176776
0.041886 0.100847 0.196277
0.081041 0.112215 0.204669
0.225574 0.150088 0.261555
0.383993 0.148928 0.230869
0.446250 0.126268 0.196109
0.503349 0.109545 0.177462
0.550927 0.098054 0.166079
0.627482 0.097780 0.168139
0.036347 0.137453 0.221942
0.041367 0.188113 0.273198
0.060777 0.220829 0.291905
0.181109 0.258076 0.309987
0.437949 0.289815 0.320562
0.526101 0.235798 0.249348
0.590616 0.204150 0.212558
0.649821 0.190829 0.199191
0.741634 0.227420 0.230945
0.038987 0.236683 0.296132
0.043107 0.300511 0.340307
0.055879 0.313313 0.331792
0.123842 0.352850 0.337575
0.561715 0.564599 0.497871
0.688182 0.492592 0.404807
0.772641 0.452079 0.345403
0.828946 0.434104 0.322332
0.878248 0.472541 0.374243
0.039094 0.309102 0.319295
0.045548 0.377737 0.361807
0.061402 0.417731 0.365042
0.156176 0.484413 0.380377
0.498131 0.647654 0.510842
0.818555 0.744152 0.602808
0.910750 0.734997 0.566506
0.943954 0.727672 0.555032
0.950439 0.726253 0.573999
0.045228 0.388434 0.355489
0.047807 0.419974 0.356817
0.064393 0.469551 0.362280
0.224552 0.600641 0.427787
0.630213 0.765637 0.581720
0.842252 0.829953 0.645838
0.935637 0.848585 0.661357
0.965393 0.854246 0.666270
0.969375 0.853086 0.675319
0.047028 0.423117 0.361425
0.049012 0.440986 0.338491
0.065995 0.497337 0.339315
0.303151 0.676432 0.455802
0.715206 0.816205 0.581170
0.857877 0.863096 0.640818
0.937774 0.886748 0.675853
0.970535 0.898604 0.688930
0.976333 0.903487 0.708919
0.047944 0.435782 0.354757
0.050645 0.457359 0.330587
0.071351 0.529335 0.340749
0.338827 0.702831 0.439582
0.732494 0.833539 0.549569
0.875685 0.882963 0.626352
0.937407 0.904860 0.677455
0.972198 0.918029 0.696483
0.978317 0.928359 0.725048
0.034913 0.039246 0.180484
0.060899 0.046784 0.210803
0.126452 0.054307 0.248844
0.209171 0.058595 0.280247
0.318425 0.056245 0.266117
0.427893 0.054597 0.252415
0.506111 0.055756 0.243748
0.539742 0.054215 0.231983
0.567834 0.054231 0.220890
0.035416 0.055131 0.200534
0.044984 0.060380 0.205142
0.107820 0.081193 0.258152
0.203632 0.093324 0.296468
0.334249 0.089448 0.276814
0.455192 0.080308 0.258503
0.512383 0.073381 0.245853
0.554452 0.067765 0.235187
0.586374 0.062837 0.222431
0.037827 0.090349 0.239094
0.042878 0.098695 0.243381
0.074846 0.109529 0.250553
0.202213 0.145892 0.318578
0.343618 0.147311 0.311696
0.460868 0.132876 0.279362
0.518517 0.113848 0.251331
0.573861 0.102632 0.238804
0.639765 0.102708 0.243076
0.039658 0.154437 0.297246
0.043168 0.179980 0.322271
0.057191 0.202869 0.335622
0.127932 0.206973 0.325750
0.389578 0.284077 0.400656
0.550103 0.273335 0.370825
0.607080 0.224887 0.315984
0.653513 0.199176 0.284611
0.752194 0.247425 0.334310
0.044083 0.268864 0.385992
0.046571 0.305928 0.409781
0.055695 0.319097 0.405264
0.096712 0.323171 0.390188
0.349111 0.447990 0.474662
0.645167 0.494362 0.507729
0.714366 0.426246 0.429343
0.770474 0.390494 0.394476
0.842741 0.434791 0.439216
0.046571 0.342428 0.421073
0.048554 0.381338 0.437156
0.057206 0.409598 0.438392
0.104814 0.449882 0.441627
0.280751 0.547921 0.495064
0.758297 0.742611 0.677882
0.848676 0.704097 0.630716
0.901610 0.686137 0.603571
0.931517 0.694408 0.621958
0.047623 0.392706 0.431281
0.051514 0.438270 0.453971
0.062257 0.483436 0.464118
0.128359 0.557885 0.486152
0.362509 0.668940 0.552087
0.757397 0.821698 0.712932
0.916167 0.862440 0.762539
0.955459 0.860151 0.755016
0.965637 0.860105 0.758816
0.049165 0.436942 0.444938
0.052155 0.462257 0.444419
0.062928 0.510307 0.451774
0.136278 0.611658 0.492927
0.546517 0.792203 0.644800
0.830076 0.877592 0.743832
0.924819 0.903151 0.782757
0.963745 0.913725 0.794095
0.974655 0.915923 0.800732
0.049668 0.449928 0.437888
0.053162 0.476646 0.434256
0.063279 0.521721 0.434028
0.132036 0.627909 0.474327
0.619654 0.835843 0.668879
0.847105 0.894163 0.732692
0.928985 0.920363 0.785779
0.966278 0.933272 0.807263
0.975738 0.938979 0.816739
0.036500 0.039948 0.225299
0.061753 0.046601 0.263203
0.130312 0.053300 0.306538
0.192477 0.055390 0.332052
0.284642 0.053010 0.329580
0.428275 0.053529 0.313420
0.510185 0.055955 0.307027
0.547189 0.054917 0.296162
0.576913 0.055192 0.287098
0.037858 0.055528 0.250950
0.047028 0.061952 0.260319
0.119753 0.081590 0.319692
0.197421 0.087282 0.348104
0.277684 0.079423 0.332906
0.421180 0.074372 0.316869
0.519417 0.072389 0.314580
0.563195 0.068421 0.304387
0.592432 0.063462 0.292638
0.039933 0.097856 0.305425
0.042451 0.095949 0.292668
0.070481 0.110613 0.305730
0.183581 0.135592 0.363531
0.305348 0.133700 0.364096
0.458640 0.133959 0.359503
0.527153 0.114168 0.331533
0.579797 0.102235 0.315572
0.649302 0.105409 0.326513
0.043061 0.175021 0.377386
0.044251 0.177569 0.377356
0.053330 0.183352 0.371633
0.111620 0.184771 0.360952
0.315343 0.243717 0.432456
0.544732 0.278157 0.460014
0.622507 0.243809 0.419013
0.667536 0.212818 0.384039
0.766186 0.270512 0.436469
0.048081 0.281483 0.453986
0.048005 0.283360 0.449210
0.054047 0.297551 0.450843
0.083558 0.301015 0.437232
0.239704 0.374105 0.480217
0.605493 0.475151 0.569757
0.725383 0.464637 0.553857
0.778042 0.424094 0.514794
0.847013 0.470039 0.555184
0.050736 0.361898 0.498726
0.051255 0.375555 0.497612
0.057313 0.401144 0.500435
0.082078 0.423926 0.498024
0.179934 0.470314 0.512093
0.610361 0.664912 0.668238
0.813825 0.696803 0.704341
0.871138 0.665263 0.674617
0.914702 0.676356 0.685115
0.050858 0.399832 0.501930
0.054139 0.437934 0.521385
0.061570 0.477485 0.531762
0.095293 0.529397 0.543267
0.231373 0.615488 0.581430
0.577996 0.749645 0.691371
0.882963 0.861280 0.816876
0.936553 0.855100 0.810162
0.958343 0.851850 0.808423
0.052415 0.442405 0.512749
0.056306 0.475425 0.525719
0.066331 0.523369 0.541970
0.109270 0.600183 0.567590
0.298512 0.712703 0.626230
0.693797 0.849226 0.770031
0.895262 0.906142 0.840192
0.954894 0.919661 0.860044
0.972351 0.919448 0.860517
0.052827 0.460426 0.510582
0.056992 0.489067 0.517067
0.067399 0.539162 0.534051
0.107713 0.622889 0.561791
0.338735 0.758541 0.643565
0.792538 0.899840 0.814496
0.912398 0.927459 0.850141
0.956878 0.939757 0.871458
0.973754 0.944762 0.880018
0.038727 0.042039 0.274861
0.059266 0.045945 0.310948
0.123293 0.052583 0.355261
0.179355 0.053193 0.371267
0.239948 0.051102 0.369085
0.367071 0.048554 0.358572
0.497887 0.054536 0.361776
0.546639 0.054566 0.353506
0.573846 0.054627 0.346609
0.040848 0.055604 0.301122
0.047822 0.063279 0.314260
0.120180 0.078370 0.370092
0.188159 0.080735 0.388891
0.260731 0.074357 0.382208
0.374777 0.067063 0.367620
0.494942 0.068132 0.371344
0.561471 0.066346 0.367178
0.594018 0.062699 0.359014
0.043107 0.101930 0.364569
0.043946 0.092958 0.344701
0.076280 0.112276 0.368032
0.188312 0.131365 0.412909
0.281865 0.124041 0.410605
0.433890 0.122774 0.415183
0.535058 0.115358 0.407675
0.585992 0.101106 0.389929
0.652979 0.104219 0.403082
0.046204 0.187259 0.437766
0.046357 0.183856 0.430945
0.050980 0.172732 0.410574
0.104540 0.173327 0.405600
0.262867 0.209064 0.455192
0.497383 0.243122 0.497078
0.638010 0.260975 0.508537
0.673182 0.217578 0.467796
0.760342 0.259815 0.503319
0.048310 0.271794 0.489982
0.048447 0.268284 0.484672
0.053330 0.284962 0.492012
0.076585 0.284535 0.478492
0.191333 0.330190 0.504768
0.544854 0.429511 0.596002
0.720302 0.464866 0.626215
0.781003 0.441505 0.604654
0.847272 0.480751 0.633478
0.052735 0.351293 0.534569
0.052644 0.353185 0.530678
0.057008 0.382467 0.541421
0.074342 0.403235 0.541970
0.148013 0.430213 0.546197
0.530327 0.612314 0.679850
0.784344 0.673869 0.742504
0.864286 0.675074 0.746212
0.912932 0.696132 0.764752
0.054368 0.405356 0.559655
0.056474 0.433463 0.574533
0.062913 0.473426 0.590295
0.084230 0.512596 0.597314
0.160037 0.567681 0.612863
0.431769 0.679088 0.683955
0.821759 0.830045 0.831800
0.920317 0.850141 0.852827
0.948425 0.845884 0.850385
0.055756 0.443183 0.568933
0.059266 0.475578 0.586328
0.066896 0.517327 0.602731
0.092149 0.576226 0.621103
0.201297 0.665415 0.655955
0.532876 0.795453 0.753368
0.831067 0.890227 0.862119
0.941497 0.919921 0.896284
0.964630 0.921569 0.899947
0.056901 0.467720 0.569680
0.060166 0.493614 0.579004
0.068040 0.536706 0.596002
0.094774 0.608743 0.622141
0.228367 0.716533 0.670878
0.602548 0.852598 0.796368
0.872648 0.925017 0.888685
0.947158 0.941176 0.907378
0.968231 0.947387 0.916915
0.040818 0.044312 0.323781
0.057527 0.047578 0.355962
0.115923 0.053712 0.392950
0.166506 0.052033 0.400519
0.234592 0.049607 0.402106
0.328984 0.048493 0.400626
0.434882 0.048844 0.393164
0.527764 0.053559 0.400381
0.573312 0.054490 0.399207
0.043198 0.055787 0.345983
0.046403 0.063981 0.360525
0.115953 0.077623 0.409476
0.174426 0.075639 0.416938
0.249516 0.070405 0.417746
0.357992 0.065476 0.415641
0.460060 0.062440 0.413535
0.534798 0.062119 0.416846
0.596216 0.061891 0.415274
0.045304 0.101946 0.407111
0.045594 0.089220 0.383581
0.075593 0.112886 0.413642
0.179400 0.123125 0.444785
0.267903 0.115038 0.443198
0.402991 0.115084 0.456947
0.533501 0.111269 0.465217
0.593179 0.100603 0.455894
0.663462 0.107073 0.467826
0.048783 0.187884 0.475105
0.048768 0.189548 0.474266
0.051514 0.164004 0.443366
0.109880 0.166735 0.446235
0.248920 0.184771 0.480339
0.451316 0.209201 0.518135
0.616999 0.247044 0.555428
0.700420 0.244312 0.554803
0.769757 0.274372 0.573053
0.049744 0.253635 0.512123
0.050278 0.266545 0.520348
0.053986 0.278874 0.525399
0.072572 0.268101 0.508461
0.178363 0.300938 0.531273
0.481758 0.377615 0.608957
0.686412 0.428687 0.650828
0.789654 0.461997 0.677562
0.854139 0.506554 0.708782
0.051591 0.324422 0.550347
0.052491 0.339956 0.558572
0.056992 0.369238 0.574685
0.070481 0.390158 0.579919
0.131777 0.408316 0.582269
0.468284 0.567956 0.694270
0.747890 0.636255 0.760021
0.855863 0.671183 0.789761
0.913817 0.713115 0.820462
0.056245 0.395193 0.592477
0.057664 0.422492 0.606729
0.062440 0.458457 0.623758
0.075883 0.494179 0.632303
0.127382 0.531380 0.639582
0.384436 0.652262 0.714885
0.800702 0.813230 0.850721
0.905821 0.840452 0.877897
0.944167 0.848356 0.886122
0.058808 0.446433 0.617990
0.062058 0.475792 0.633494
0.068956 0.516304 0.653620
0.089525 0.569879 0.673381
0.162692 0.640467 0.695491
0.448631 0.764355 0.771420
0.785367 0.873686 0.875990
0.925628 0.914107 0.914794
0.961074 0.921401 0.922423
0.059785 0.470741 0.619577
0.063600 0.497642 0.631846
0.070512 0.537728 0.650187
0.091798 0.600061 0.674876
0.175540 0.688762 0.707393
0.485618 0.818250 0.795743
0.821286 0.913573 0.902815
0.934737 0.939773 0.928206
0.964004 0.945846 0.934279
