tools/luts_backup/Lomo Color Implosion 21ˉ_FPE.cube
# (C) 2014 VisionColor & Patchflyer [www.vision-color.com]
# Generator: VC Patchmatch v.2.1.1 [64/53]
# All work and no play makes Jack a dull boy.
# LUT generated from: Lomo Color Implosion 21°_FPE
LUT_3D_SIZE 17
0.038224 0.042695 0.043198
0.047211 0.042741 0.041596
0.057679 0.042695 0.039704
0.070665 0.044312 0.039216
0.090013 0.046983 0.039719
0.116350 0.050370 0.040787
0.147921 0.053468 0.040970
0.180819 0.054948 0.040635
0.212360 0.054795 0.040421
0.244862 0.053513 0.040482
0.280644 0.051286 0.041077
0.318853 0.048631 0.042283
0.357549 0.047364 0.043671
0.394644 0.047196 0.045243
0.428565 0.047822 0.046799
0.457206 0.048737 0.048188
0.480125 0.049714 0.049546
0.037308 0.047135 0.043046
0.047959 0.049271 0.042954
0.059007 0.049378 0.040726
0.074739 0.051240 0.040009
0.094759 0.054276 0.040345
0.123018 0.057740 0.040864
0.157076 0.061479 0.041001
0.196384 0.064393 0.041093
0.238422 0.065415 0.041291
0.280339 0.064363 0.041871
0.319997 0.061601 0.042969
0.359228 0.058259 0.044495
0.400153 0.055924 0.046189
0.440940 0.054704 0.048249
0.473182 0.053590 0.049424
0.499367 0.052964 0.050172
0.520760 0.052964 0.051194
0.035508 0.052171 0.042435
0.047395 0.056413 0.043168
0.062791 0.060288 0.042878
0.081697 0.062806 0.042115
0.107744 0.067369 0.042100
0.141497 0.072084 0.042313
0.185245 0.077226 0.042237
0.240284 0.082643 0.043366
0.300999 0.086992 0.044831
0.359350 0.087465 0.046754
0.411704 0.084459 0.048676
0.456641 0.080690 0.050126
0.495918 0.076692 0.051575
0.530312 0.073350 0.052415
0.558007 0.070512 0.052796
0.579538 0.068727 0.053544
0.597116 0.066606 0.054368
0.034073 0.059266 0.042557
0.045487 0.063371 0.043091
0.063188 0.071534 0.044541
0.093599 0.081193 0.044709
0.129030 0.088869 0.044724
0.172961 0.097108 0.045167
0.228077 0.106218 0.046006
0.295125 0.115328 0.047639
0.364691 0.121080 0.048936
0.430198 0.123934 0.050446
0.488121 0.124239 0.052415
0.535393 0.121706 0.054246
0.572366 0.117723 0.055436
0.602701 0.113375 0.056046
0.627863 0.109331 0.056672
0.647669 0.105806 0.057420
0.664439 0.102785 0.058228
0.033097 0.068574 0.043687
0.043503 0.074647 0.044099
0.061082 0.084199 0.045670
0.099565 0.101579 0.047196
0.147478 0.116686 0.048463
0.207050 0.132418 0.048463
0.274403 0.145586 0.049104
0.348623 0.156985 0.050202
0.421912 0.166598 0.051087
0.490349 0.173632 0.053376
0.550393 0.177722 0.055848
0.597818 0.178515 0.058000
0.635477 0.176867 0.059892
0.665965 0.174716 0.061128
0.691569 0.172869 0.062364
0.710948 0.168627 0.063066
0.725505 0.164813 0.063539
0.032059 0.079988 0.045396
0.042054 0.086717 0.045731
0.059236 0.100099 0.047074
0.099641 0.122927 0.049302
0.160800 0.147738 0.050675
0.229145 0.169390 0.050797
0.315343 0.192523 0.051270
0.396612 0.209430 0.052186
0.475456 0.222446 0.054078
0.547143 0.233234 0.057939
0.607919 0.242161 0.061051
0.657633 0.248447 0.063752
0.696590 0.250217 0.066194
0.728161 0.249760 0.068132
0.754376 0.249805 0.069734
0.774945 0.247364 0.071015
0.788296 0.243778 0.071580
0.030991 0.092973 0.046479
0.039368 0.100603 0.046494
0.056641 0.117784 0.047745
0.100679 0.149233 0.050843
0.164553 0.179583 0.052354
0.248722 0.209842 0.052674
0.335149 0.236027 0.053300
0.441123 0.271458 0.055482
0.524788 0.289357 0.058717
0.601938 0.304326 0.065019
0.665049 0.315908 0.070542
0.715129 0.323888 0.074525
0.756146 0.330556 0.077729
0.788983 0.334173 0.080842
0.815076 0.336034 0.083116
0.833997 0.336828 0.085191
0.848264 0.335531 0.086351
0.030823 0.107088 0.047272
0.036896 0.115557 0.046845
0.052399 0.136416 0.047562
0.099107 0.176684 0.051255
0.174624 0.218463 0.053056
0.259236 0.251545 0.053971
0.360327 0.287922 0.056748
0.459571 0.320897 0.059083
0.571679 0.360922 0.067567
0.651850 0.379705 0.075853
0.717754 0.394125 0.082933
0.771435 0.405020 0.089845
0.811582 0.413626 0.095003
0.843427 0.420111 0.099413
0.868055 0.424155 0.102708
0.883482 0.426749 0.104738
0.896223 0.427649 0.106538
0.030976 0.122728 0.047593
0.035706 0.131777 0.046983
0.048875 0.155657 0.047074
0.095445 0.205097 0.050721
0.181704 0.260685 0.053483
0.281727 0.306050 0.055711
0.379950 0.340871 0.058274
0.485664 0.379095 0.065812
0.587182 0.412268 0.074342
0.694835 0.450721 0.089311
0.765774 0.469474 0.099489
0.819791 0.482780 0.107759
0.858869 0.492927 0.114824
0.888075 0.501411 0.119966
0.909056 0.506249 0.123461
0.923110 0.509773 0.125963
0.931212 0.512749 0.127977
0.031815 0.143496 0.047578
0.035340 0.152743 0.046784
0.047517 0.178882 0.046799
0.092119 0.237766 0.050141
0.186175 0.307378 0.053162
0.305516 0.366384 0.056809
0.411429 0.406989 0.063447
0.507591 0.436118 0.071641
0.614588 0.471565 0.086549
0.714199 0.503151 0.100175
0.802396 0.535012 0.117189
0.855467 0.551354 0.126650
0.890486 0.560555 0.132570
0.916106 0.568734 0.138125
0.931991 0.574121 0.141772
0.942596 0.575845 0.143969
0.947509 0.579004 0.145754
0.033753 0.173907 0.047715
0.036561 0.182391 0.046555
0.046830 0.210605 0.046906
0.091218 0.278248 0.050233
0.194003 0.360998 0.054719
0.325872 0.427222 0.062165
0.445640 0.472908 0.072404
0.543084 0.499901 0.082643
0.637278 0.525322 0.095827
0.737575 0.557931 0.114168
0.820874 0.583764 0.128191
0.878126 0.604242 0.139879
0.907393 0.615183 0.146960
0.929747 0.621988 0.152026
0.940566 0.626520 0.155138
0.949279 0.627817 0.157046
0.951324 0.628550 0.158297
0.036454 0.216358 0.049409
0.038346 0.222889 0.047669
0.047684 0.253544 0.047547
0.090944 0.325505 0.051972
0.200229 0.413947 0.058366
0.345418 0.482963 0.070451
0.472450 0.528496 0.083299
0.578393 0.557595 0.096223
0.668193 0.578515 0.109255
0.753811 0.603174 0.123964
0.836225 0.629206 0.139773
0.891966 0.644724 0.149279
0.922820 0.656382 0.156802
0.937285 0.663188 0.162570
0.945006 0.667582 0.165759
0.952544 0.669642 0.167865
0.953704 0.670253 0.169070
0.039551 0.268009 0.050477
0.040284 0.273823 0.048661
0.048859 0.307927 0.049042
0.094820 0.379171 0.054383
0.208667 0.461326 0.063722
0.360800 0.526070 0.078340
0.493034 0.573327 0.095598
0.604578 0.605219 0.110033
0.698711 0.627878 0.123003
0.776745 0.647791 0.135790
0.848081 0.666896 0.148592
0.900038 0.683207 0.159609
0.928740 0.688823 0.163912
0.943420 0.694194 0.169345
0.949615 0.698558 0.172930
0.954238 0.702205 0.176043
0.955367 0.704402 0.177630
0.040940 0.318654 0.051026
0.043214 0.328084 0.050172
0.052369 0.369863 0.052811
0.109209 0.437140 0.059922
0.232380 0.506386 0.070741
0.380804 0.563424 0.087022
0.512261 0.609232 0.105135
0.624628 0.645457 0.123095
0.720592 0.671672 0.138109
0.798184 0.690883 0.149920
0.863890 0.704646 0.159472
0.907195 0.714977 0.167102
0.932891 0.723812 0.173327
0.945098 0.723995 0.175814
0.951232 0.725338 0.178439
0.955077 0.728084 0.181430
0.955825 0.731762 0.183764
0.041337 0.356970 0.053758
0.045121 0.376043 0.053422
0.063355 0.426230 0.059068
0.132265 0.489403 0.069200
0.264591 0.548241 0.081376
0.407507 0.597101 0.096941
0.534340 0.639826 0.115602
0.643076 0.676585 0.134096
0.735348 0.703914 0.148959
0.812345 0.723323 0.159869
0.876127 0.736782 0.168154
0.912398 0.743435 0.173877
0.936172 0.749279 0.179095
0.946166 0.754086 0.183459
0.951736 0.751522 0.184314
0.955428 0.752239 0.186450
0.956436 0.754376 0.188556
0.043290 0.389731 0.059922
0.048142 0.413108 0.059434
0.072816 0.463996 0.065888
0.157321 0.526955 0.078233
0.294957 0.581872 0.091051
0.430808 0.625406 0.107759
0.551598 0.664332 0.126528
0.657679 0.698207 0.143145
0.745525 0.723354 0.156832
0.818494 0.741436 0.167254
0.879606 0.755016 0.174746
0.917128 0.763531 0.180392
0.938537 0.768994 0.185000
0.949065 0.773373 0.188983
0.952300 0.775830 0.191608
0.955657 0.772519 0.192126
0.956634 0.772290 0.193423
0.045335 0.410040 0.063996
0.050813 0.437568 0.064057
0.083787 0.489723 0.071000
0.178347 0.550317 0.084260
0.313985 0.602319 0.098436
0.447028 0.644831 0.117647
0.564569 0.682094 0.134783
0.666224 0.713771 0.149477
0.748653 0.736080 0.161288
0.820615 0.753613 0.170932
0.881422 0.767544 0.178485
0.919921 0.777462 0.184283
0.940597 0.783764 0.189029
0.950896 0.788449 0.193133
0.953811 0.790875 0.195529
0.956100 0.791974 0.197604
0.956832 0.790570 0.198032
0.037064 0.042237 0.047883
0.046860 0.043229 0.047791
0.057496 0.043137 0.045960
0.071595 0.044541 0.045335
0.090547 0.047059 0.045731
0.115877 0.050156 0.046632
0.146883 0.053361 0.047288
0.180224 0.055039 0.046921
0.212665 0.054871 0.046220
0.244587 0.053773 0.045670
0.277211 0.052033 0.044938
0.312276 0.049760 0.044709
0.350256 0.047700 0.045548
0.390265 0.047135 0.046769
0.426856 0.047745 0.048066
0.455680 0.048493 0.048981
0.481712 0.049561 0.049989
0.036362 0.048371 0.050843
0.046876 0.050370 0.050645
0.058762 0.050233 0.048417
0.074983 0.051637 0.046799
0.096635 0.054734 0.047044
0.124819 0.058534 0.047700
0.156741 0.061982 0.047807
0.189883 0.063722 0.047013
0.223041 0.063630 0.046571
0.258106 0.062531 0.046281
0.296651 0.060212 0.046128
0.338750 0.056733 0.046586
0.381521 0.054536 0.047608
0.422538 0.053895 0.048844
0.457740 0.053193 0.049912
0.486778 0.052491 0.050538
0.510124 0.052369 0.051179
0.034974 0.053605 0.050736
0.046494 0.058091 0.051774
0.064759 0.062776 0.051865
0.085374 0.065049 0.050111
0.111910 0.068894 0.049989
0.145403 0.073259 0.050278
0.186328 0.077348 0.049928
0.232654 0.080125 0.049577
0.283314 0.082444 0.049638
0.332784 0.082246 0.050095
0.379400 0.079026 0.050675
0.424949 0.075654 0.051591
0.469764 0.072984 0.052766
0.507073 0.069795 0.053468
0.537255 0.066636 0.053559
0.561440 0.064424 0.053696
0.579873 0.062821 0.054353
0.032624 0.059770 0.049836
0.044007 0.064561 0.050996
0.066728 0.077241 0.054582
0.105669 0.090135 0.056229
0.143053 0.097078 0.056474
0.186603 0.103670 0.056474
0.240757 0.110369 0.055375
0.301060 0.116228 0.055146
0.363638 0.120409 0.055314
0.422309 0.120790 0.055512
0.473304 0.117906 0.055985
0.516243 0.112917 0.056291
0.552895 0.108659 0.056443
0.583749 0.104433 0.056519
0.610300 0.100618 0.056703
0.631968 0.097749 0.057191
0.648676 0.094881 0.057908
0.032059 0.069520 0.051118
0.040803 0.074479 0.051347
0.062638 0.089708 0.055558
0.111437 0.113375 0.059907
0.175433 0.136584 0.062409
0.237552 0.148806 0.061982
0.302922 0.158160 0.060716
0.370474 0.165774 0.059190
0.436835 0.171908 0.058412
0.497795 0.175357 0.059297
0.549111 0.174914 0.060502
0.589960 0.171359 0.061479
0.622950 0.166705 0.062211
0.650080 0.161700 0.062394
0.673594 0.157000 0.062776
0.693385 0.153277 0.062974
0.709514 0.150515 0.063447
0.031083 0.081025 0.052873
0.038926 0.085863 0.052811
0.058244 0.103548 0.056596
0.107698 0.134279 0.062547
0.187472 0.170245 0.065171
0.275273 0.200259 0.065797
0.360693 0.220508 0.065934
0.433143 0.230060 0.065064
0.502403 0.238071 0.064836
0.566278 0.245014 0.066255
0.617395 0.247883 0.067796
0.658473 0.247868 0.068742
0.691737 0.245716 0.069596
0.719005 0.241688 0.070222
0.740353 0.236027 0.070649
0.758770 0.231144 0.070909
0.772442 0.227268 0.071351
0.030396 0.094133 0.054536
0.036851 0.099107 0.054215
0.053788 0.117632 0.057465
0.104204 0.159014 0.064317
0.188449 0.203082 0.067414
0.290120 0.244816 0.069688
0.394232 0.281666 0.071962
0.491295 0.307988 0.073640
0.564675 0.319219 0.074739
0.629648 0.326665 0.077394
0.683101 0.331441 0.080629
0.725795 0.334676 0.083223
0.758877 0.335485 0.084398
0.787045 0.334585 0.085664
0.808865 0.330419 0.086198
0.824460 0.325887 0.086198
0.838712 0.323705 0.087007
0.030381 0.108995 0.055695
0.034653 0.113832 0.054856
0.048096 0.133364 0.057145
0.097704 0.182849 0.064515
0.191653 0.242222 0.069352
0.298360 0.290867 0.073381
0.410361 0.333822 0.077165
0.521569 0.372107 0.082216
0.617548 0.401266 0.089784
0.687587 0.414130 0.094652
0.743297 0.421653 0.099870
0.787518 0.427039 0.104372
0.821530 0.429679 0.107271
0.848463 0.430869 0.109697
0.869169 0.430350 0.110933
0.882094 0.427756 0.111086
0.896513 0.430014 0.112276
0.030701 0.126497 0.056657
0.033661 0.130068 0.055299
0.044450 0.151293 0.056703
0.091569 0.210269 0.063981
0.191394 0.282765 0.071046
0.315816 0.345724 0.076524
0.425208 0.387564 0.080507
0.540581 0.428626 0.092012
0.647532 0.464576 0.102205
0.735729 0.493095 0.116823
0.796506 0.504479 0.124834
0.838911 0.511131 0.129427
0.871473 0.515282 0.133181
0.897749 0.518898 0.135882
0.913680 0.521218 0.137911
0.926070 0.522057 0.138552
0.933928 0.526696 0.140002
0.031785 0.150469 0.057893
0.033783 0.151934 0.055772
0.043992 0.175402 0.056703
0.088411 0.243366 0.063066
0.192889 0.329061 0.071305
0.329305 0.400519 0.079255
0.451453 0.448615 0.087648
0.556008 0.481849 0.098451
0.667323 0.520760 0.117006
0.761318 0.550896 0.131380
0.832334 0.569238 0.142962
0.870726 0.578256 0.147356
0.899931 0.582376 0.150103
0.923186 0.585702 0.152590
0.935042 0.588678 0.155352
0.944945 0.591913 0.157778
0.948592 0.599664 0.160601
0.033936 0.183352 0.059373
0.035355 0.183139 0.056657
0.044419 0.208759 0.056748
0.086458 0.282643 0.061784
0.194522 0.375982 0.071275
0.341344 0.453819 0.083162
0.474266 0.506111 0.095506
0.582055 0.539544 0.109941
0.679911 0.567620 0.126970
0.775250 0.598444 0.143786
0.850034 0.615442 0.152728
0.892836 0.626688 0.158145
0.913848 0.633371 0.161837
0.932570 0.636576 0.163851
0.942748 0.639857 0.166766
0.950515 0.644373 0.170077
0.953216 0.657023 0.175967
0.036698 0.224613 0.061814
0.037400 0.224384 0.057527
0.045853 0.252995 0.057816
0.085252 0.328252 0.062699
0.194537 0.421332 0.072969
0.351186 0.499107 0.088548
0.490196 0.553918 0.107256
0.606516 0.591409 0.125597
0.700648 0.616388 0.140520
0.783993 0.637354 0.152514
0.863569 0.659129 0.164034
0.903731 0.664698 0.165896
0.925963 0.670893 0.169253
0.938613 0.675212 0.171756
0.946456 0.680262 0.175616
0.953185 0.686519 0.179767
0.955764 0.703395 0.188235
0.039597 0.274250 0.063630
0.039689 0.274006 0.058793
0.047791 0.308293 0.059724
0.086946 0.382239 0.067475
0.200137 0.466011 0.078859
0.360021 0.536309 0.095338
0.503487 0.593072 0.120150
0.622431 0.633234 0.139834
0.719982 0.660960 0.156481
0.797528 0.678065 0.165637
0.868421 0.692454 0.173007
0.910994 0.704677 0.179034
0.931319 0.703029 0.176425
0.944854 0.706264 0.178286
0.950805 0.710781 0.182116
0.954543 0.719112 0.187182
0.956436 0.738323 0.196979
0.041047 0.324453 0.065232
0.042084 0.327077 0.059449
0.050217 0.370947 0.065034
0.100969 0.439933 0.074083
0.222751 0.510140 0.085969
0.374701 0.570886 0.104509
0.515358 0.624292 0.129183
0.633371 0.666300 0.151827
0.730602 0.695232 0.168429
0.809308 0.713252 0.176852
0.872770 0.724315 0.181109
0.914031 0.732754 0.184543
0.935088 0.738750 0.187366
0.946471 0.735637 0.185229
0.951446 0.737530 0.187472
0.955505 0.743328 0.191791
0.957107 0.762753 0.201480
0.041642 0.362524 0.070665
0.043702 0.375143 0.065980
0.060151 0.427008 0.072938
0.123720 0.492027 0.084474
0.252934 0.551766 0.096468
0.399573 0.604288 0.115740
0.531243 0.651118 0.138155
0.644617 0.691798 0.160525
0.736812 0.718914 0.175341
0.813901 0.737087 0.183215
0.876814 0.749737 0.187442
0.917235 0.757244 0.190036
0.937987 0.762905 0.192477
0.948089 0.766369 0.194247
0.952590 0.765240 0.194217
0.956359 0.768048 0.197528
0.957443 0.780926 0.205905
0.043336 0.394675 0.078340
0.046555 0.412284 0.073045
0.068330 0.464332 0.081727
0.148455 0.529290 0.094469
0.284321 0.586740 0.110094
0.422538 0.632532 0.127916
0.546426 0.673854 0.149279
0.654108 0.709972 0.167773
0.741711 0.735302 0.180636
0.814847 0.752056 0.187427
0.877623 0.765194 0.191531
0.919264 0.773968 0.194247
0.939055 0.779797 0.196674
0.949310 0.784222 0.199390
0.953216 0.787625 0.201663
0.956802 0.789685 0.204425
0.957778 0.799847 0.211673
0.045212 0.414572 0.085237
0.049058 0.436988 0.079530
0.077607 0.489632 0.086854
0.166857 0.552041 0.102312
0.301595 0.607492 0.119539
0.436561 0.652277 0.140307
0.557427 0.691768 0.160021
0.657298 0.723674 0.173510
0.740764 0.747112 0.183581
0.815137 0.764920 0.190341
0.877729 0.778225 0.195056
0.921080 0.788190 0.198398
0.940734 0.793698 0.200748
0.950835 0.798733 0.203998
0.954955 0.803967 0.207416
0.957290 0.809598 0.211994
0.958099 0.814435 0.216464
0.035096 0.041306 0.054322
0.045762 0.043214 0.055818
0.057816 0.044373 0.055024
0.071794 0.045579 0.054566
0.091310 0.047608 0.054261
0.116869 0.050507 0.055192
0.148135 0.053666 0.056184
0.181567 0.055451 0.055909
0.214099 0.055406 0.054688
0.246845 0.054307 0.053422
0.278965 0.052628 0.051865
0.310857 0.050752 0.050202
0.346868 0.048692 0.049409
0.386862 0.047486 0.049882
0.424475 0.047868 0.050828
0.455497 0.048508 0.051148
0.482597 0.049561 0.051698
0.034424 0.047410 0.057267
0.045624 0.050355 0.058640
0.058366 0.051408 0.057496
0.075395 0.052476 0.055680
0.097276 0.055253 0.055818
0.124697 0.058762 0.056397
0.155657 0.061875 0.056748
0.187930 0.063584 0.056062
0.220722 0.063539 0.054734
0.255695 0.062562 0.053819
0.292882 0.060624 0.052766
0.331579 0.057572 0.051530
0.371069 0.055070 0.051087
0.411627 0.053651 0.051743
0.448753 0.053132 0.052308
0.479088 0.052583 0.052689
0.502113 0.052140 0.052628
0.033555 0.055436 0.060945
0.044556 0.059632 0.062470
0.061204 0.062837 0.062135
0.083268 0.065110 0.059449
0.109285 0.068406 0.058732
0.138415 0.071489 0.058595
0.171221 0.074327 0.058366
0.207935 0.076005 0.057404
0.245991 0.075990 0.055924
0.282643 0.074296 0.054734
0.323781 0.071824 0.053941
0.370352 0.068544 0.053727
0.418357 0.066026 0.054246
0.464378 0.064897 0.054902
0.501945 0.063630 0.054856
0.530694 0.061479 0.054582
0.555138 0.059892 0.055024
0.031327 0.061753 0.060380
0.042069 0.066300 0.061830
0.066896 0.081025 0.067262
0.110307 0.095277 0.068467
0.150408 0.101045 0.068025
0.192905 0.105180 0.067170
0.241443 0.109041 0.065263
0.292607 0.111666 0.063905
0.344274 0.113176 0.063172
0.392874 0.111864 0.062150
0.439368 0.108248 0.061845
0.484077 0.102953 0.061402
0.522835 0.098283 0.060685
0.556985 0.094362 0.059937
0.585519 0.090623 0.059602
0.610361 0.087892 0.059556
0.629572 0.084749 0.059403
0.031449 0.072068 0.061875
0.038193 0.075608 0.061692
0.060182 0.092454 0.067903
0.118441 0.123919 0.076051
0.195377 0.150271 0.081056
0.259113 0.160678 0.080186
0.320790 0.165911 0.076844
0.381033 0.169268 0.073610
0.436942 0.170474 0.071412
0.488777 0.169467 0.069841
0.533867 0.165042 0.068376
0.571832 0.159594 0.066987
0.603189 0.153841 0.066011
0.630549 0.148760 0.065217
0.655177 0.144427 0.064805
0.676905 0.141024 0.064591
0.696529 0.139239 0.064759
0.031144 0.084627 0.063951
0.037018 0.087831 0.063493
0.053407 0.103868 0.067720
0.109270 0.144060 0.079210
0.206653 0.189624 0.087358
0.311818 0.227634 0.091356
0.393637 0.242374 0.088228
0.459358 0.245930 0.083833
0.518288 0.247471 0.080125
0.570199 0.246983 0.078233
0.613840 0.245151 0.077195
0.648341 0.239521 0.075898
0.676081 0.231861 0.074800
0.700130 0.224475 0.073899
0.721660 0.218112 0.073396
0.742580 0.214878 0.073411
0.763104 0.216800 0.073625
0.030640 0.098726 0.065995
0.034867 0.102266 0.065202
0.047395 0.115175 0.067872
0.100832 0.166033 0.081361
0.204044 0.224948 0.092866
0.324102 0.278462 0.099855
0.442542 0.321477 0.101335
0.529046 0.337926 0.099397
0.591241 0.340032 0.096040
0.644800 0.340795 0.094820
0.688930 0.339391 0.094301
0.724483 0.335607 0.093629
0.750912 0.328862 0.091844
0.774182 0.321843 0.090028
0.796033 0.316243 0.089830
0.815030 0.314015 0.089982
0.836255 0.317861 0.091417
0.030823 0.115572 0.068376
0.033341 0.117968 0.066590
0.043076 0.130404 0.068467
0.091691 0.186664 0.080995
0.202930 0.265278 0.096925
0.330617 0.327504 0.104753
0.459236 0.379568 0.112993
0.571725 0.418082 0.120424
0.653056 0.434089 0.122621
0.709743 0.438621 0.123369
0.757031 0.440391 0.124758
0.792920 0.438895 0.124987
0.821607 0.435004 0.123583
0.845273 0.430686 0.122164
0.866453 0.429084 0.121859
0.884779 0.431388 0.122255
0.902373 0.437415 0.122484
0.031373 0.136934 0.070619
0.032898 0.137011 0.067781
0.040208 0.149401 0.068772
0.083909 0.211612 0.079850
0.197452 0.304921 0.097932
0.341817 0.381842 0.108965
0.466697 0.431617 0.119249
0.590280 0.474983 0.132952
0.697551 0.510262 0.146365
0.768505 0.526513 0.154040
0.816541 0.531212 0.157977
0.850034 0.531243 0.158602
0.876356 0.529793 0.157687
0.900114 0.529580 0.157794
0.916884 0.532067 0.157992
0.932189 0.539879 0.160189
0.940246 0.547402 0.160632
0.032959 0.167010 0.074052
0.033722 0.164309 0.069413
0.040391 0.175067 0.069383
0.079362 0.242603 0.080110
0.193500 0.346700 0.097002
0.347265 0.430564 0.112459
0.482017 0.486870 0.127001
0.595895 0.524224 0.140261
0.710109 0.562158 0.160159
0.800687 0.586618 0.170016
0.852888 0.598718 0.177096
0.882841 0.601053 0.177584
0.906203 0.600214 0.176364
0.924941 0.601602 0.176623
0.939269 0.608026 0.180774
0.947951 0.621057 0.188586
0.951568 0.632609 0.199222
0.035645 0.206989 0.078752
0.035584 0.201587 0.071687
0.041886 0.211795 0.070573
0.077958 0.284504 0.081239
0.189624 0.388113 0.096666
0.350362 0.475227 0.114366
0.493797 0.535760 0.136126
0.611658 0.576501 0.155612
0.711727 0.604044 0.170596
0.807095 0.631556 0.182666
0.867689 0.640345 0.183261
0.903761 0.648615 0.186130
0.920119 0.650889 0.184955
0.935805 0.654200 0.187106
0.948730 0.664347 0.195209
0.953841 0.682216 0.209018
0.957122 0.700282 0.231724
0.038254 0.252232 0.084764
0.038331 0.248234 0.075959
0.043320 0.260502 0.073899
0.078355 0.335531 0.083116
0.186526 0.431174 0.097765
0.354147 0.514351 0.117830
0.501259 0.576379 0.146487
0.624063 0.621073 0.171084
0.721416 0.648157 0.185367
0.805295 0.665904 0.190738
0.876707 0.681926 0.195315
0.911635 0.682170 0.191562
0.928740 0.685069 0.190539
0.940780 0.691218 0.193454
0.951995 0.706355 0.205631
0.956863 0.728161 0.224125
0.959930 0.751507 0.256657
0.040284 0.300267 0.088716
0.040406 0.300847 0.080064
0.044907 0.318883 0.077302
0.080781 0.393118 0.089326
0.195895 0.477409 0.104662
0.360601 0.549065 0.123705
0.508446 0.609628 0.155306
0.631235 0.654566 0.181643
0.729137 0.684306 0.200031
0.808606 0.700679 0.204623
0.876554 0.712489 0.203540
0.919844 0.721889 0.203845
0.934508 0.717983 0.197192
0.946593 0.721981 0.198444
0.953796 0.734890 0.209323
0.957717 0.760067 0.231586
0.961028 0.787167 0.268971
0.041566 0.342443 0.093355
0.042313 0.349447 0.084077
0.047639 0.377935 0.084718
0.094850 0.450629 0.097932
0.222156 0.523247 0.115419
0.375204 0.582925 0.133806
0.515572 0.637034 0.163058
0.635859 0.681132 0.189349
0.731655 0.710475 0.206989
0.811749 0.728496 0.212345
0.876799 0.739467 0.210895
0.920699 0.748150 0.209720
0.937224 0.752712 0.208698
0.947692 0.751247 0.205203
0.954452 0.761379 0.215106
0.958480 0.781765 0.234516
0.961089 0.807157 0.272038
0.042267 0.373632 0.098604
0.044053 0.390585 0.091386
0.055528 0.424994 0.092622
0.116732 0.499168 0.110506
0.250004 0.563439 0.128191
0.399008 0.617044 0.147570
0.529397 0.662928 0.171206
0.641596 0.703456 0.195224
0.733074 0.730297 0.210498
0.811154 0.748043 0.215854
0.876646 0.761196 0.215900
0.920592 0.769497 0.214008
0.938308 0.775540 0.213535
0.949477 0.781079 0.215442
0.955291 0.786801 0.222492
0.958770 0.801038 0.240146
0.961318 0.824430 0.276829
0.044053 0.401633 0.106294
0.046204 0.420432 0.098100
0.060883 0.458045 0.101274
0.134005 0.530678 0.119432
0.273991 0.593744 0.142092
0.417868 0.643900 0.161746
0.542687 0.685130 0.183169
0.647395 0.719936 0.201221
0.734173 0.745281 0.213352
0.810925 0.763210 0.219120
0.875883 0.777234 0.220935
0.921065 0.786786 0.220493
0.939559 0.792889 0.219821
0.950622 0.799939 0.222873
0.955947 0.808225 0.230823
0.959213 0.820981 0.247852
0.961563 0.838499 0.283650
0.045884 0.421241 0.115267
0.047959 0.438788 0.104204
0.068162 0.482551 0.108064
0.147845 0.550973 0.126421
0.287922 0.611841 0.150256
0.430655 0.661784 0.171206
0.552941 0.702708 0.193988
0.652384 0.734051 0.207385
0.735485 0.757351 0.215900
0.814862 0.776913 0.221714
0.880079 0.792584 0.225910
0.924010 0.805066 0.229725
0.942870 0.812192 0.231250
0.952163 0.817456 0.232959
0.957259 0.825010 0.240513
0.959686 0.836042 0.256367
0.961791 0.850385 0.290669
0.033524 0.040848 0.062226
0.043946 0.042908 0.064195
0.057435 0.045167 0.065812
0.072251 0.046693 0.065171
0.092317 0.048554 0.065034
0.118151 0.051102 0.065385
0.149828 0.054185 0.066697
0.183307 0.055848 0.066865
0.216052 0.055802 0.065568
0.249470 0.054749 0.063584
0.282658 0.053071 0.061341
0.314992 0.051209 0.058961
0.348516 0.049531 0.056641
