tools/luts_backup/Lomo Color Implosion 21ˉ_CIN.cube
# (C) 2014 VisionColor & Patchflyer [www.vision-color.com]
# Generator: VC Patchmatch v.2.1.1 [64/53]
# All work and no play makes Jack a dull boy.
# LUT generated from: Lomo Color Implosion 21°_Cineon
LUT_3D_SIZE 9
0.129824 0.117830 0.117830
0.183047 0.115877 0.117189
0.239139 0.117678 0.117250
0.305608 0.123537 0.121340
0.363134 0.127291 0.122621
0.414954 0.127810 0.123629
0.469245 0.130190 0.125490
0.519524 0.132631 0.127352
0.565820 0.134615 0.129824
0.130465 0.169314 0.118471
0.189578 0.174502 0.121828
0.250950 0.177523 0.123140
0.325811 0.188846 0.130404
0.405707 0.204807 0.140108
0.474189 0.218387 0.148348
0.530907 0.225101 0.153170
0.582452 0.231113 0.157107
0.623346 0.233219 0.157351
0.132235 0.221408 0.120211
0.190860 0.229862 0.124392
0.279088 0.257572 0.139803
0.367864 0.280278 0.152407
0.451850 0.301762 0.166415
0.522454 0.318791 0.176669
0.577630 0.329259 0.183658
0.621241 0.335515 0.187076
0.656092 0.336309 0.187686
0.132235 0.271183 0.120241
0.195193 0.285252 0.127993
0.292485 0.327001 0.152316
0.387121 0.356542 0.167819
0.479408 0.389776 0.189670
0.547295 0.408118 0.202884
0.600214 0.421241 0.213260
0.641016 0.429816 0.219852
0.672358 0.433417 0.221927
0.132479 0.320592 0.120394
0.196963 0.336614 0.128603
0.311192 0.397711 0.166812
0.401495 0.427466 0.185855
0.487831 0.458228 0.205997
0.564385 0.487556 0.230655
0.615717 0.502129 0.244297
0.654597 0.512261 0.256443
0.682887 0.518425 0.261570
0.141054 0.385077 0.128237
0.203891 0.397223 0.135958
0.330510 0.472572 0.187198
0.429358 0.509300 0.215946
0.495857 0.521080 0.225254
0.566766 0.543999 0.245090
0.623774 0.561883 0.262272
0.661799 0.570733 0.270542
0.688685 0.574762 0.273838
0.161044 0.482307 0.154269
0.226871 0.484718 0.161898
0.351110 0.544518 0.208774
0.450477 0.578820 0.241794
0.517174 0.589014 0.255772
0.570642 0.595392 0.262577
0.621607 0.602411 0.264652
0.662867 0.609552 0.269108
0.690089 0.614679 0.273350
0.194400 0.576104 0.189670
0.274601 0.586542 0.203830
0.383612 0.615686 0.237797
0.469398 0.633753 0.264500
0.533349 0.644343 0.284123
0.581109 0.644923 0.286137
0.623163 0.642603 0.278233
0.659541 0.642512 0.271061
0.688319 0.645472 0.271763
0.222599 0.637049 0.213138
0.307713 0.647974 0.229252
0.407721 0.665675 0.259342
0.483131 0.673060 0.280766
0.539300 0.675868 0.291234
0.585077 0.675746 0.291264
0.626459 0.674830 0.284123
0.661921 0.674586 0.276860
0.687465 0.673609 0.271763
0.129824 0.117830 0.170626
0.184939 0.117830 0.168673
0.240421 0.118624 0.168643
0.303746 0.123384 0.172061
0.360937 0.125032 0.173434
0.410529 0.125063 0.173434
0.460212 0.126497 0.173495
0.513726 0.130129 0.175723
0.563500 0.133913 0.178103
0.131838 0.170840 0.171328
0.194003 0.174594 0.173465
0.260533 0.179232 0.174411
0.321721 0.181216 0.176638
0.379034 0.183963 0.178286
0.433356 0.187198 0.180697
0.493629 0.193973 0.185702
0.549950 0.202243 0.190890
0.600336 0.208652 0.195865
0.132876 0.222507 0.171969
0.202029 0.242679 0.183352
0.322148 0.290440 0.208865
0.400000 0.298222 0.214969
0.465675 0.304814 0.219608
0.521996 0.309575 0.222934
0.569574 0.311559 0.223941
0.612085 0.315404 0.225895
0.649561 0.320439 0.228611
0.133303 0.274998 0.172702
0.193149 0.285313 0.178775
0.325963 0.360998 0.225650
0.440436 0.408392 0.255192
0.510307 0.418921 0.262028
0.561730 0.421302 0.263340
0.603876 0.421271 0.262974
0.640742 0.421057 0.262455
0.676112 0.426978 0.263676
0.137240 0.333532 0.178317
0.192294 0.334417 0.178927
0.331945 0.426154 0.238010
0.445045 0.474434 0.274296
0.533165 0.504875 0.297765
0.588129 0.516289 0.307927
0.626795 0.517998 0.310124
0.663142 0.522484 0.312993
0.697658 0.533349 0.316136
0.149996 0.414649 0.196170
0.203952 0.404639 0.190982
0.341100 0.488319 0.249241
0.456794 0.539055 0.294591
0.529229 0.555688 0.311620
0.592432 0.567926 0.316136
0.637018 0.576043 0.322393
0.674403 0.585657 0.331792
0.704067 0.604303 0.358465
0.170077 0.505608 0.221561
0.231388 0.500481 0.218692
0.358740 0.552789 0.265782
0.465278 0.592950 0.309239
0.536706 0.609461 0.332647
0.588434 0.610010 0.327062
0.631952 0.610864 0.320470
0.672419 0.621912 0.332158
0.706081 0.647517 0.370703
0.195285 0.582879 0.246891
0.272312 0.589563 0.253941
0.388769 0.620996 0.292485
0.475715 0.637568 0.320867
0.540276 0.647974 0.339971
0.589441 0.648096 0.336400
0.633112 0.647791 0.327520
0.670069 0.653223 0.332860
0.704067 0.673274 0.369207
0.221500 0.640314 0.268986
0.300603 0.645441 0.275059
0.408087 0.665949 0.308568
0.486305 0.673762 0.333074
0.542443 0.677028 0.342077
0.592950 0.679103 0.341222
0.638239 0.680049 0.337835
0.673396 0.683040 0.340581
0.703334 0.694484 0.372168
0.130770 0.118013 0.222354
0.187564 0.119814 0.223484
0.243198 0.119112 0.220432
0.307622 0.124605 0.224033
0.364965 0.126375 0.225071
0.415930 0.127687 0.225437
0.463783 0.127932 0.225376
0.514092 0.129335 0.226444
0.560021 0.131563 0.227817
0.131868 0.170901 0.223606
0.192569 0.177523 0.232670
0.260716 0.176974 0.227176
0.317052 0.177584 0.225376
0.367834 0.177798 0.224826
0.419989 0.179446 0.225620
0.472999 0.182437 0.227543
0.524620 0.185763 0.230076
0.580713 0.192966 0.235203
0.137026 0.231449 0.231449
0.194644 0.251743 0.247471
0.300633 0.283757 0.270848
0.380835 0.277409 0.258061
0.448920 0.278630 0.256992
0.501244 0.279118 0.257755
0.547692 0.281621 0.258824
0.592981 0.285954 0.261509
0.647059 0.304784 0.272221
0.139651 0.291661 0.237247
0.196658 0.314794 0.249393
0.296666 0.367742 0.289036
0.451209 0.426215 0.329015
0.518853 0.420447 0.313542
0.566583 0.412543 0.304295
0.606928 0.409674 0.301488
0.639490 0.405737 0.298863
0.674952 0.410346 0.301213
0.145724 0.369909 0.254429
0.208103 0.389319 0.261692
0.315251 0.438148 0.301366
0.460914 0.507622 0.363134
0.553735 0.528344 0.373388
0.609674 0.531518 0.364477
0.644099 0.530175 0.363745
0.672602 0.527794 0.361242
0.693782 0.522484 0.360204
0.164462 0.469673 0.290044
0.221775 0.459541 0.271855
0.341680 0.501366 0.310063
0.474250 0.565454 0.372778
0.553552 0.581079 0.391211
0.627192 0.601282 0.403235
0.662379 0.603143 0.398291
0.687465 0.604578 0.401984
0.703822 0.608270 0.423468
0.184329 0.546624 0.313512
0.247684 0.538659 0.294133
0.363104 0.567834 0.324895
0.477211 0.603601 0.368841
0.552117 0.621088 0.391180
0.614160 0.630976 0.399115
0.655390 0.636347 0.402564
0.686641 0.644099 0.415686
0.706172 0.654078 0.444190
0.186160 0.592309 0.318669
0.270817 0.601312 0.312078
0.384405 0.625269 0.341802
0.483406 0.643275 0.377020
0.545464 0.649592 0.388952
0.600549 0.654353 0.390112
0.647578 0.659724 0.392828
0.684596 0.670985 0.415076
0.705501 0.679835 0.443091
0.190066 0.631861 0.319738
0.285344 0.646052 0.323461
0.395239 0.663233 0.349248
0.486275 0.674830 0.381476
0.545830 0.677028 0.390082
0.606714 0.685084 0.400031
0.658045 0.693233 0.416327
0.686305 0.694820 0.421241
0.704738 0.698421 0.441016
0.132326 0.120333 0.274968
0.191775 0.124575 0.282353
0.261875 0.131014 0.289921
0.317906 0.128969 0.284306
0.387854 0.135958 0.285557
0.447181 0.140505 0.287388
0.493111 0.139956 0.286290
0.537041 0.139773 0.286046
0.579156 0.140688 0.285222
0.132448 0.172335 0.275700
0.190799 0.179049 0.288060
0.284092 0.198062 0.318151
0.351690 0.192721 0.295628
0.399512 0.190341 0.286931
0.440894 0.187594 0.283330
0.481941 0.185489 0.280858
0.524437 0.184726 0.279637
0.579644 0.190921 0.284215
0.137087 0.230411 0.283604
0.194034 0.249668 0.304234
0.267552 0.269200 0.326757
0.363867 0.265354 0.315007
0.414862 0.252781 0.295048
0.465003 0.249302 0.290501
0.511345 0.249454 0.289616
0.555444 0.251926 0.291173
0.626307 0.273228 0.305455
0.144167 0.308293 0.306798
0.204501 0.352880 0.343420
0.259678 0.359045 0.346868
0.411505 0.419104 0.398383
0.482734 0.388739 0.357275
0.541131 0.372869 0.335424
0.589502 0.370092 0.330938
0.628321 0.374273 0.331823
0.664820 0.389349 0.344060
0.149630 0.389441 0.327337
0.218906 0.440101 0.362036
0.277989 0.443488 0.359625
0.394415 0.491920 0.403449
0.534295 0.526207 0.437781
0.593286 0.512047 0.403861
0.638788 0.511315 0.394354
0.667353 0.507103 0.391272
0.683101 0.505425 0.405341
0.166781 0.484047 0.359716
0.234867 0.509056 0.371069
0.310796 0.519463 0.372595
0.440833 0.570550 0.433143
0.546227 0.595300 0.465705
0.619287 0.604425 0.470069
0.666133 0.610620 0.465187
0.689235 0.610162 0.465736
0.698116 0.601343 0.471626
0.182254 0.553185 0.377569
0.239841 0.554986 0.365667
0.344366 0.582849 0.384802
0.478401 0.618677 0.434058
0.553582 0.634150 0.462654
0.614527 0.640986 0.475013
0.666255 0.651759 0.482551
0.689815 0.653315 0.485908
0.701747 0.650660 0.495125
0.184878 0.597314 0.380316
0.250492 0.600671 0.365881
0.368597 0.630610 0.393469
0.487556 0.647486 0.424292
0.558160 0.658198 0.445319
0.616693 0.669093 0.465492
0.663630 0.677119 0.477882
0.687861 0.678523 0.485939
0.700587 0.678218 0.497200
0.180056 0.630182 0.378332
0.253513 0.638117 0.367529
0.370428 0.660426 0.391058
0.484932 0.674311 0.423224
0.553918 0.680354 0.438300
0.614252 0.689906 0.460670
0.659510 0.696712 0.480262
0.688319 0.698787 0.485939
0.699763 0.697658 0.496223
0.134554 0.123842 0.328252
0.198764 0.131563 0.342412
0.281041 0.145480 0.364294
0.353613 0.155520 0.379980
0.406683 0.144503 0.354040
0.481849 0.157473 0.354040
0.530297 0.158267 0.353002
0.567895 0.155612 0.350378
0.602319 0.153506 0.346349
0.135988 0.177127 0.331792
0.189578 0.180423 0.337652
0.274998 0.202152 0.374975
0.363317 0.213809 0.392584
0.443671 0.211765 0.361944
0.487068 0.208286 0.353765
0.523522 0.204440 0.348333
0.557641 0.200320 0.343389
0.600641 0.201694 0.343175
0.139986 0.235325 0.339544
0.195956 0.251926 0.359777
0.252293 0.255558 0.368200
0.358282 0.278477 0.402777
0.447059 0.273777 0.374792
0.487251 0.260014 0.353399
0.525841 0.255009 0.345678
0.561761 0.252079 0.342626
0.620569 0.267979 0.354040
0.146639 0.313329 0.364233
0.207218 0.355474 0.401648
0.261723 0.368872 0.413001
0.342290 0.374884 0.420356
0.461250 0.379614 0.421973
0.512963 0.350942 0.383932
0.556756 0.338201 0.368536
0.597772 0.336492 0.365240
0.649226 0.368902 0.389990
0.156252 0.409552 0.401556
0.220462 0.449622 0.428931
0.268864 0.443366 0.424048
0.332280 0.450263 0.427192
0.507500 0.526604 0.498024
0.562127 0.489586 0.456321
0.607813 0.474098 0.432059
0.643488 0.470588 0.424048
0.674769 0.490913 0.450752
0.162539 0.479561 0.412085
0.231998 0.514305 0.436500
0.291600 0.519493 0.438758
0.366094 0.532586 0.446479
0.488991 0.583398 0.500389
0.598596 0.598932 0.521782
0.647089 0.594659 0.506401
0.677333 0.593866 0.503288
0.692866 0.594171 0.514488
0.180056 0.554009 0.433356
0.235416 0.560784 0.433478
0.299931 0.569451 0.435431
0.407660 0.600793 0.466224
0.534142 0.641108 0.522332
0.605249 0.647334 0.534386
0.652461 0.647456 0.534844
0.684718 0.651270 0.537224
0.698604 0.650690 0.542535
0.185367 0.601312 0.438361
0.233555 0.596887 0.423316
0.303807 0.608972 0.423407
0.438911 0.649134 0.477333
0.558892 0.667323 0.512871
0.609247 0.673060 0.528527
0.650416 0.675990 0.537743
0.680995 0.677974 0.540337
0.698573 0.681056 0.549157
0.181247 0.632532 0.434974
0.232700 0.631251 0.419776
0.316320 0.648615 0.425971
0.450996 0.675349 0.467536
0.562097 0.685908 0.495766
0.616114 0.693538 0.520317
0.648493 0.696559 0.537377
0.679988 0.698177 0.541955
0.698451 0.701228 0.552789
0.137911 0.128359 0.381872
0.209476 0.139467 0.403418
0.294072 0.157504 0.429664
0.359319 0.168582 0.448646
0.425483 0.158938 0.426856
0.491798 0.163516 0.414374
0.549401 0.168185 0.413153
0.582635 0.163699 0.408484
0.615320 0.159670 0.405035
0.140902 0.184176 0.389502
0.195254 0.187228 0.395148
0.276616 0.207858 0.430610
0.353155 0.221805 0.453223
0.426276 0.208072 0.423590
0.500664 0.215152 0.413062
0.540215 0.212833 0.408301
0.576043 0.209964 0.404395
0.609491 0.207004 0.399207
0.145937 0.251102 0.407019
0.198581 0.253117 0.411872
0.252232 0.254459 0.418799
0.351598 0.279545 0.458839
0.424720 0.269963 0.439185
0.491798 0.265934 0.417273
0.532464 0.258671 0.403632
0.572992 0.258213 0.400336
0.622644 0.271977 0.409155
0.151766 0.333532 0.432135
0.206943 0.349737 0.449195
0.259648 0.357397 0.458259
0.313390 0.342657 0.448615
0.443015 0.376440 0.483467
0.520745 0.369787 0.462593
0.559472 0.345098 0.433356
0.595819 0.336095 0.421729
0.648890 0.375402 0.453040
0.165530 0.434302 0.468147
0.221836 0.451850 0.480354
0.270359 0.447669 0.478920
0.316350 0.432197 0.469947
0.433310 0.476555 0.508019
0.547295 0.484092 0.516533
0.590143 0.458640 0.485115
0.625910 0.446433 0.470222
0.665461 0.470893 0.492287
0.169924 0.496010 0.475105
0.227756 0.511437 0.484535
0.280003 0.512322 0.485390
0.337713 0.514672 0.486671
0.419852 0.540887 0.507897
0.583429 0.600916 0.571344
0.625483 0.579492 0.548424
0.659327 0.573510 0.538598
0.684443 0.579034 0.548913
0.175937 0.548760 0.478553
0.238224 0.568475 0.492470
0.298009 0.575311 0.497414
0.368536 0.586053 0.505638
0.457267 0.610132 0.528832
0.580682 0.648066 0.580255
0.646204 0.651576 0.585870
0.678065 0.649165 0.581384
0.696284 0.649500 0.583764
0.188113 0.605341 0.490547
0.237827 0.606256 0.489448
0.298894 0.614130 0.491585
0.381842 0.631281 0.507866
0.514534 0.666712 0.559106
0.607324 0.679683 0.583215
0.649226 0.682521 0.590814
0.678737 0.682216 0.590661
0.698207 0.683284 0.593561
0.184604 0.637507 0.488380
0.236881 0.639033 0.486091
0.295506 0.644648 0.483009
0.382681 0.660517 0.499123
0.537484 0.693416 0.563348
0.611963 0.695247 0.572778
0.650172 0.700710 0.589136
0.679286 0.702144 0.594598
0.696803 0.702296 0.596582
0.142885 0.134737 0.438880
0.216098 0.147616 0.462745
0.302922 0.166506 0.488075
0.354620 0.173190 0.501091
0.410559 0.165377 0.488930
0.492256 0.163943 0.465583
0.548486 0.169497 0.462501
0.585443 0.165408 0.459937
0.618463 0.162661 0.456916
0.145052 0.191653 0.445228
0.203738 0.196536 0.455756
0.294133 0.217533 0.488746
0.354223 0.226413 0.503960
0.401129 0.209995 0.484016
0.480659 0.206210 0.460121
0.540795 0.213260 0.458534
0.578912 0.211795 0.457679
0.610529 0.207370 0.453956
0.149081 0.269230 0.470649
0.200137 0.256535 0.464149
0.258610 0.260197 0.474708
0.345281 0.276280 0.503563
0.412451 0.267918 0.492653
0.488441 0.266148 0.475868
0.533013 0.260563 0.459510
0.572931 0.258488 0.455695
0.623652 0.275303 0.467720
0.157992 0.356939 0.498329
0.208072 0.351812 0.499550
0.256809 0.344732 0.496925
0.308324 0.330114 0.490059
0.417899 0.358434 0.522026
0.517113 0.369970 0.520226
0.563622 0.356481 0.499489
0.598169 0.342870 0.483375
0.650721 0.382971 0.511955
0.169039 0.444862 0.521630
0.217655 0.438422 0.520195
0.267033 0.436286 0.521385
0.313695 0.422370 0.513970
0.394827 0.443320 0.529137
0.534661 0.473610 0.561212
0.592126 0.468086 0.549676
0.627100 0.454078 0.533989
0.666224 0.478828 0.551751
0.175448 0.508049 0.529137
0.224735 0.505455 0.528832
0.275486 0.506645 0.530205
0.324590 0.503227 0.528008
0.381048 0.505241 0.530297
0.533867 0.571649 0.590478
0.616297 0.574395 0.596246
0.649256 0.561761 0.583612
0.679225 0.568811 0.588952
0.173312 0.547631 0.523674
0.233066 0.562188 0.534478
0.288579 0.568383 0.538903
0.347204 0.573449 0.542596
0.417639 0.587610 0.554314
0.522789 0.623041 0.589258
0.637263 0.652674 0.626276
0.669337 0.645533 0.619348
0.691585 0.644373 0.618952
0.185428 0.602716 0.533745
0.240024 0.611109 0.539361
0.301060 0.620111 0.546593
0.369146 0.629938 0.555596
0.450080 0.645747 0.572717
0.561975 0.672602 0.611994
0.640009 0.684871 0.630762
0.676448 0.684352 0.631647
0.696742 0.683375 0.630671
0.186130 0.639765 0.535882
0.238499 0.643275 0.537865
0.300084 0.652766 0.544915
0.371191 0.661189 0.553552
0.464927 0.678798 0.578058
0.597284 0.700191 0.623316
0.646510 0.702510 0.630121
0.675837 0.703456 0.634302
0.696223 0.703609 0.635035
0.149203 0.144198 0.497230
0.220462 0.155947 0.517998
0.304875 0.172488 0.540978
0.350317 0.173281 0.545129
0.390234 0.163485 0.535027
0.462257 0.154208 0.512840
0.538506 0.163516 0.507225
0.582086 0.163699 0.505089
0.612848 0.159243 0.503319
0.148775 0.197818 0.500725
0.209628 0.204807 0.513176
0.301305 0.223545 0.541772
0.352697 0.225498 0.547265
0.398596 0.212558 0.532708
0.459266 0.200656 0.509422
0.524224 0.205325 0.502647
0.574273 0.209628 0.502953
0.608423 0.206180 0.503807
0.153170 0.283330 0.528435
0.202182 0.262242 0.515709
0.274510 0.269841 0.533867
0.354376 0.278233 0.549767
0.404669 0.267674 0.539696
0.482551 0.266331 0.528740
0.534905 0.264134 0.514763
0.573297 0.259922 0.506188
0.622675 0.275273 0.520867
0.162417 0.371679 0.553704
0.210758 0.361242 0.550561
0.255924 0.340032 0.538140
0.311345 0.326940 0.537255
0.396979 0.338994 0.554528
0.503410 0.355352 0.559686
0.568597 0.365026 0.557214
0.598352 0.346288 0.538567
0.647486 0.376928 0.558862
0.168948 0.442115 0.564385
0.216037 0.431861 0.560693
0.265415 0.430976 0.562310
0.312078 0.414466 0.554162
0.380941 0.424399 0.562249
0.517601 0.457923 0.594903
0.591302 0.467292 0.595178
0.627405 0.459236 0.586114
0.665400 0.479805 0.597467
0.173312 0.502251 0.569146
0.220188 0.492683 0.565881
0.271489 0.497353 0.568933
0.320256 0.493935 0.568017
0.372992 0.489357 0.566278
0.513054 0.550683 0.615900
0.608789 0.563745 0.628748
0.648493 0.562341 0.626459
0.679316 0.572686 0.632288
0.175204 0.550683 0.569696
0.229099 0.556909 0.574639
0.283024 0.564141 0.579004
0.334142 0.564385 0.579278
0.391241 0.568261 0.582574
0.481727 0.594171 0.604181
0.614435 0.638727 0.648646
0.664729 0.642023 0.652522
0.688563 0.640436 0.651392
0.179568 0.596460 0.572076
0.235294 0.605646 0.578698
0.291356 0.612421 0.583642
0.350439 0.618219 0.588617
0.419104 0.628809 0.598505
0.514946 0.654536 0.623835
0.613733 0.677150 0.654658
0.671748 0.684840 0.663539
0.694392 0.683833 0.662867
0.186709 0.639857 0.578180
0.237125 0.640955 0.579065
0.294224 0.650050 0.585901
0.360265 0.658259 0.594446
0.434607 0.669612 0.606226
0.537652 0.689235 0.636164
0.631037 0.702113 0.661585
0.673030 0.703761 0.665339
0.695491 0.704402 0.666010
0.153750 0.156161 0.554223
0.228367 0.166995 0.572564
0.306981 0.178408 0.588830
0.348180 0.171664 0.585473
0.392615 0.161135 0.575250
0.446174 0.154330 0.561547
0.504356 0.148074 0.544610
0.564782 0.154025 0.544762
0.609461 0.158541 0.546380
0.151675 0.205600 0.554620
0.211673 0.213901 0.565850
0.306004 0.228824 0.588495
0.349493 0.221866 0.584558
0.396979 0.211673 0.573510
0.456245 0.203830 0.558556
0.508751 0.198184 0.546380
0.552666 0.198489 0.543359
0.606683 0.205447 0.547448
0.155428 0.291661 0.577264
0.202518 0.264775 0.561486
0.280461 0.276188 0.582300
0.354742 0.276127 0.588495
0.402441 0.264195 0.577111
0.473274 0.265385 0.573877
0.537072 0.266361 0.566339
0.574578 0.261601 0.556542
0.624842 0.279881 0.567681
0.164034 0.378058 0.597650
0.213596 0.371283 0.596246
0.256107 0.337896 0.578973
0.320195 0.324498 0.582269
0.393866 0.324102 0.587823
0.488746 0.337743 0.592523
0.564080 0.361425 0.600122
0.608148 0.361425 0.595728
0.649134 0.383581 0.605768
0.165682 0.432898 0.600702
0.216129 0.434211 0.601709
0.265568 0.429999 0.601678
0.309789 0.406348 0.591272
0.377295 0.410834 0.597009
0.497047 0.435401 0.621302
0.583886 0.455756 0.627375
0.631037 0.466407 0.631067
0.668086 0.489082 0.642115
0.167300 0.487037 0.602716
0.217929 0.489387 0.603571
0.270024 0.493385 0.606683
0.318639 0.489387 0.606226
0.368933 0.480507 0.603082
0.498146 0.534691 0.640803
0.600732 0.550988 0.654658
0.647303 0.560388 0.658106
0.680842 0.578088 0.666682
0.172549 0.545281 0.607141
0.226413 0.552422 0.610895
0.278874 0.557824 0.614252
0.328923 0.557519 0.614557
0.379583 0.554772 0.613947
0.473793 0.583520 0.634760
0.610986 0.632898 0.672999
0.661433 0.637842 0.677607
0.688136 0.639399 0.678950
0.179599 0.597009 0.611597
0.233890 0.603418 0.615564
0.288090 0.610162 0.620233
0.342718 0.613550 0.622827
0.401953 0.618708 0.626612
0.493751 0.641871 0.645991
0.598199 0.669398 0.674067
0.664057 0.680507 0.684169
0.693324 0.682521 0.686824
0.182345 0.637049 0.614527
0.235111 0.639216 0.616083
0.289738 0.646448 0.621057
0.349096 0.651789 0.626001
0.413947 0.659571 0.632074
0.507286 0.678706 0.653254
0.610742 0.697414 0.680629
0.666285 0.702052 0.686610
0.692958 0.702663 0.687465
