tools/luts_backup/Los Angeles.cube
#Generated with IWLTBAP LUT Generator
#Website: http://luts.iwltbap.com
TITLE "Los Angeles"
#LUT size
LUT_3D_SIZE 5
#LUT data points
0.047059 0.047059 0.078431
0.101961 0.050980 0.086275
0.443137 0.000000 0.078431
0.925490 0.000000 0.054902
1.000000 0.227451 0.152941
0.027451 0.098039 0.098039
0.090196 0.121569 0.078431
0.517647 0.172549 0.031373
0.933333 0.258824 0.000000
1.000000 0.392157 0.078431
0.000000 0.305882 0.078431
0.000000 0.286275 0.078431
0.388235 0.517647 0.000000
0.905882 0.678431 0.003922
1.000000 0.635294 0.000000
0.000000 0.603922 0.003922
0.000000 0.576471 0.000000
0.000000 0.658824 0.000000
0.709804 0.843137 0.227451
1.000000 0.905882 0.474510
0.000000 0.952941 0.450980
0.000000 0.952941 0.427451
0.000000 0.952941 0.376471
0.705882 0.960784 0.631373
0.909804 0.980392 0.815686
0.043137 0.054902 0.121569
0.129412 0.058824 0.145098
0.482353 0.003922 0.203922
0.929412 0.000000 0.282353
1.000000 0.337255 0.407843
0.031373 0.129412 0.145098
0.141176 0.152941 0.172549
0.541176 0.160784 0.196078
0.941176 0.223529 0.231373
1.000000 0.435294 0.372549
0.007843 0.423529 0.231373
0.000000 0.388235 0.172549
0.431373 0.541176 0.200000
0.909804 0.639216 0.129412
0.992157 0.639216 0.258824
0.000000 0.670588 0.196078
0.000000 0.639216 0.125490
0.000000 0.654902 0.109804
0.729412 0.835294 0.384314
0.992157 0.890196 0.549020
0.000000 0.956863 0.498039
0.000000 0.949020 0.486275
0.000000 0.945098 0.431373
0.698039 0.960784 0.647059
0.913725 0.980392 0.839216
0.003922 0.058824 0.486275
0.239216 0.027451 0.513725
0.635294 0.000000 0.576471
0.945098 0.262745 0.647059
0.992157 0.584314 0.721569
0.000000 0.196078 0.494118
0.223529 0.219608 0.533333
0.643137 0.305882 0.600000
0.925490 0.462745 0.658824
1.000000 0.647059 0.745098
0.000000 0.564706 0.564706
0.286275 0.584314 0.576471
0.615686 0.623529 0.619608
0.882353 0.662745 0.658824
1.000000 0.733333 0.733333
0.368627 0.819608 0.658824
0.423529 0.819608 0.662745
0.301961 0.749020 0.478431
0.776471 0.854902 0.662745
1.000000 0.878431 0.725490
0.537255 0.956863 0.752941
0.517647 0.956863 0.737255
0.423529 0.956863 0.635294
0.682353 0.956863 0.709804
0.929412 0.980392 0.878431
0.305882 0.145098 0.858824
0.486275 0.176471 0.878431
0.764706 0.325490 0.890196
0.945098 0.537255 0.886275
1.000000 0.717647 0.894118
0.274510 0.321569 0.862745
0.462745 0.364706 0.866667
0.741176 0.486275 0.886275
0.925490 0.643137 0.890196
0.996078 0.776471 0.890196
0.000000 0.592157 0.815686
0.286275 0.607843 0.835294
0.686275 0.690196 0.862745
0.886275 0.788235 0.874510
0.980392 0.854902 0.913725
0.556863 0.850980 0.862745
0.615686 0.854902 0.858824
0.725490 0.866667 0.866667
0.858824 0.874510 0.886275
0.968627 0.898039 0.898039
0.803922 0.968627 0.929412
0.811765 0.960784 0.901961
0.815686 0.964706 0.905882
0.733333 0.956863 0.819608
0.949020 0.980392 0.921569
0.686275 0.647059 0.984314
0.729412 0.674510 0.984314
0.823529 0.725490 0.980392
0.917647 0.807843 0.968627
0.988235 0.858824 0.964706
0.698039 0.698039 0.980392
0.745098 0.725490 0.984314
0.823529 0.768627 0.976471
0.925490 0.831373 0.972549
0.984314 0.874510 0.964706
0.678431 0.788235 0.972549
0.733333 0.800000 0.972549
0.819608 0.831373 0.968627
0.917647 0.866667 0.968627
0.984314 0.901961 0.968627
0.686275 0.886275 0.968627
0.717647 0.882353 0.976471
0.760784 0.882353 0.964706
0.905882 0.913725 0.972549
0.984314 0.937255 0.976471
0.854902 0.980392 0.976471
0.874510 0.976471 0.972549
0.898039 0.976471 0.972549
0.933333 0.980392 0.980392
0.980392 0.988235 0.984314
