tools/luts_backup/Los Angeles.cube
#Generated with IWLTBAP LUT Generator
#Website: http://luts.iwltbap.com
TITLE "Los Angeles"
#LUT size
LUT_3D_SIZE 25
#LUT data points
0.047059 0.047059 0.078431
0.039216 0.050980 0.078431
0.039216 0.050980 0.078431
0.054902 0.050980 0.074510
0.074510 0.054902 0.082353
0.090196 0.050980 0.086275
0.101961 0.050980 0.086275
0.129412 0.054902 0.078431
0.172549 0.050980 0.082353
0.219608 0.031373 0.078431
0.282353 0.015686 0.074510
0.360784 0.000000 0.082353
0.443137 0.000000 0.078431
0.541176 0.000000 0.078431
0.635294 0.000000 0.078431
0.713725 0.000000 0.066667
0.800000 0.000000 0.062745
0.866667 0.003922 0.050980
0.925490 0.000000 0.054902
0.980392 0.003922 0.035294
1.000000 0.000000 0.031373
0.996078 0.000000 0.050980
1.000000 0.062745 0.074510
1.000000 0.164706 0.094118
1.000000 0.227451 0.152941
0.050980 0.047059 0.066667
0.050980 0.050980 0.082353
0.050980 0.054902 0.074510
0.058824 0.054902 0.078431
0.066667 0.054902 0.082353
0.082353 0.054902 0.082353
0.109804 0.058824 0.086275
0.133333 0.054902 0.090196
0.172549 0.050980 0.074510
0.227451 0.047059 0.086275
0.290196 0.023529 0.082353
0.364706 0.000000 0.090196
0.439216 0.003922 0.070588
0.525490 0.003922 0.070588
0.631373 0.000000 0.078431
0.717647 0.003922 0.062745
0.792157 0.000000 0.047059
0.866667 0.000000 0.047059
0.929412 0.000000 0.047059
0.996078 0.000000 0.039216
1.000000 0.000000 0.050980
1.000000 0.003922 0.047059
1.000000 0.105882 0.070588
0.992157 0.184314 0.094118
0.992157 0.243137 0.141176
0.043137 0.054902 0.074510
0.043137 0.062745 0.086275
0.043137 0.054902 0.082353
0.054902 0.058824 0.078431
0.074510 0.066667 0.086275
0.094118 0.058824 0.078431
0.101961 0.058824 0.082353
0.145098 0.062745 0.082353
0.176471 0.062745 0.082353
0.231373 0.054902 0.082353
0.301961 0.043137 0.082353
0.368627 0.011765 0.082353
0.458824 0.000000 0.074510
0.537255 0.000000 0.078431
0.631373 0.000000 0.070588
0.717647 0.003922 0.062745
0.788235 0.003922 0.054902
0.854902 0.003922 0.035294
0.929412 0.000000 0.031373
0.988235 0.000000 0.023529
1.000000 0.000000 0.015686
1.000000 0.050980 0.035294
0.992157 0.145098 0.054902
1.000000 0.207843 0.090196
0.996078 0.254902 0.129412
0.047059 0.066667 0.090196
0.043137 0.058824 0.070588
0.058824 0.062745 0.082353
0.054902 0.066667 0.086275
0.066667 0.070588 0.086275
0.090196 0.074510 0.070588
0.117647 0.078431 0.082353
0.149020 0.074510 0.090196
0.188235 0.070588 0.078431
0.247059 0.066667 0.078431
0.294118 0.062745 0.086275
0.376471 0.043137 0.070588
0.450980 0.007843 0.078431
0.545098 0.003922 0.066667
0.635294 0.003922 0.066667
0.721569 0.000000 0.050980
0.792157 0.000000 0.047059
0.862745 0.000000 0.039216
0.925490 0.003922 0.031373
0.968627 0.003922 0.007843
1.000000 0.039216 0.019608
1.000000 0.121569 0.011765
1.000000 0.176471 0.047059
1.000000 0.231373 0.074510
0.996078 0.278431 0.113725
0.035294 0.074510 0.082353
0.039216 0.070588 0.082353
0.039216 0.070588 0.078431
0.054902 0.074510 0.090196
0.054902 0.078431 0.078431
0.086275 0.086275 0.086275
0.121569 0.090196 0.078431
0.149020 0.090196 0.078431
0.196078 0.098039 0.082353
0.247059 0.090196 0.082353
0.309804 0.094118 0.082353
0.396078 0.078431 0.066667
0.470588 0.066667 0.070588
0.564706 0.039216 0.066667
0.639216 0.003922 0.054902
0.725490 0.000000 0.047059
0.788235 0.000000 0.023529
0.847059 0.000000 0.003922
0.929412 0.039216 0.003922
0.964706 0.098039 0.000000
1.000000 0.137255 0.000000
1.000000 0.176471 0.000000
1.000000 0.219608 0.000000
1.000000 0.258824 0.039216
1.000000 0.294118 0.086275
0.031373 0.086275 0.090196
0.039216 0.082353 0.090196
0.043137 0.082353 0.086275
0.047059 0.086275 0.090196
0.050980 0.090196 0.086275
0.074510 0.098039 0.090196
0.113725 0.113725 0.082353
0.156863 0.125490 0.082353
0.207843 0.129412 0.086275
0.274510 0.129412 0.066667
0.337255 0.137255 0.070588
0.411765 0.125490 0.050980
0.498039 0.125490 0.054902
0.588235 0.117647 0.050980
0.670588 0.129412 0.027451
0.741176 0.121569 0.015686
0.815686 0.141176 0.000000
0.874510 0.156863 0.000000
0.933333 0.176471 0.007843
0.984314 0.200000 0.007843
1.000000 0.235294 0.007843
0.996078 0.262745 0.000000
0.992157 0.298039 0.000000
1.000000 0.325490 0.043137
0.996078 0.364706 0.098039
0.027451 0.098039 0.098039
0.027451 0.101961 0.094118
0.039216 0.101961 0.090196
0.047059 0.094118 0.078431
0.047059 0.105882 0.094118
0.058824 0.117647 0.098039
0.090196 0.121569 0.078431
0.137255 0.149020 0.082353
0.211765 0.168627 0.090196
0.270588 0.176471 0.066667
0.341176 0.180392 0.054902
0.427451 0.192157 0.058824
0.517647 0.172549 0.031373
0.600000 0.188235 0.011765
0.682353 0.196078 0.000000
0.745098 0.203922 0.011765
0.819608 0.215686 0.003922
0.866667 0.239216 0.000000
0.933333 0.258824 0.000000
0.984314 0.274510 0.003922
0.996078 0.301961 0.000000
0.992157 0.325490 0.000000
1.000000 0.341176 0.007843
1.000000 0.368627 0.003922
1.000000 0.392157 0.078431
0.007843 0.121569 0.101961
0.015686 0.121569 0.094118
0.015686 0.113725 0.098039
0.023529 0.125490 0.090196
0.035294 0.125490 0.086275
0.050980 0.129412 0.094118
0.078431 0.141176 0.098039
0.117647 0.164706 0.086275
0.180392 0.192157 0.078431
0.274510 0.243137 0.062745
0.349020 0.250980 0.039216
0.450980 0.262745 0.011765
0.501961 0.262745 0.000000
0.611765 0.250980 0.000000
0.686275 0.266667 0.000000
0.749020 0.274510 0.000000
0.811765 0.290196 0.000000
0.882353 0.305882 0.003922
0.925490 0.313725 0.011765
0.972549 0.341176 0.000000
1.000000 0.356863 0.007843
1.000000 0.376471 0.007843
1.000000 0.388235 0.000000
0.992157 0.411765 0.000000
1.000000 0.435294 0.047059
0.000000 0.145098 0.082353
0.000000 0.141176 0.086275
0.000000 0.145098 0.086275
0.000000 0.141176 0.086275
0.019608 0.149020 0.082353
0.023529 0.156863 0.090196
0.058824 0.172549 0.094118
0.098039 0.196078 0.078431
0.149020 0.215686 0.074510
0.227451 0.250980 0.062745
0.349020 0.321569 0.007843
0.443137 0.337255 0.000000
0.525490 0.341176 0.000000
0.611765 0.349020 0.000000
0.698039 0.345098 0.000000
0.752941 0.345098 0.000000
0.823529 0.360784 0.007843
0.870588 0.364706 0.000000
0.921569 0.388235 0.000000
0.972549 0.400000 0.000000
1.000000 0.407843 0.000000
1.000000 0.431373 0.003922
1.000000 0.439216 0.000000
1.000000 0.450980 0.000000
1.000000 0.458824 0.007843
0.000000 0.176471 0.094118
0.003922 0.176471 0.086275
0.003922 0.172549 0.094118
0.000000 0.176471 0.094118
0.000000 0.168627 0.101961
0.000000 0.184314 0.098039
0.011765 0.203922 0.090196
0.062745 0.223529 0.090196
0.121569 0.250980 0.074510
0.196078 0.286275 0.074510
0.282353 0.329412 0.047059
0.431373 0.403922 0.000000
0.533333 0.431373 0.000000
0.596078 0.431373 0.000000
0.678431 0.435294 0.000000
0.745098 0.439216 0.011765
0.807843 0.431373 0.000000
0.870588 0.439216 0.003922
0.917647 0.439216 0.003922
0.964706 0.458824 0.000000
0.992157 0.474510 0.000000
1.000000 0.478431 0.003922
1.000000 0.478431 0.011765
0.996078 0.486275 0.007843
1.000000 0.498039 0.000000
0.000000 0.223529 0.086275
0.000000 0.223529 0.086275
0.000000 0.223529 0.098039
0.000000 0.223529 0.094118
0.000000 0.215686 0.101961
0.000000 0.215686 0.090196
0.000000 0.235294 0.094118
0.000000 0.258824 0.086275
0.066667 0.298039 0.070588
0.160784 0.321569 0.054902
0.254902 0.372549 0.035294
0.372549 0.423529 0.007843
0.529412 0.509804 0.000000
0.611765 0.533333 0.003922
0.686275 0.537255 0.007843
0.768627 0.537255 0.000000
0.819608 0.541176 0.000000
0.882353 0.529412 0.000000
0.921569 0.517647 0.003922
0.968627 0.529412 0.000000
1.000000 0.529412 0.000000
1.000000 0.541176 0.007843
1.000000 0.537255 0.003922
0.992157 0.549020 0.000000
1.000000 0.556863 0.003922
0.000000 0.262745 0.090196
0.000000 0.254902 0.098039
0.000000 0.258824 0.090196
0.000000 0.258824 0.086275
0.003922 0.239216 0.090196
0.003922 0.243137 0.082353
0.000000 0.258824 0.086275
0.007843 0.274510 0.074510
0.000000 0.313725 0.070588
0.098039 0.360784 0.058824
0.200000 0.400000 0.027451
0.313725 0.450980 0.000000
0.439216 0.505882 0.000000
0.584314 0.576471 0.000000
0.690196 0.619608 0.000000
0.752941 0.619608 0.000000
0.815686 0.607843 0.003922
0.870588 0.611765 0.000000
0.913725 0.596078 0.000000
0.960784 0.596078 0.000000
1.000000 0.584314 0.003922
0.996078 0.580392 0.000000
1.000000 0.588235 0.000000
1.000000 0.592157 0.000000
0.996078 0.600000 0.003922
0.000000 0.305882 0.078431
0.000000 0.301961 0.074510
0.000000 0.301961 0.090196
0.000000 0.290196 0.082353
0.000000 0.286275 0.078431
0.007843 0.282353 0.086275
0.000000 0.286275 0.078431
0.000000 0.309804 0.086275
0.007843 0.341176 0.074510
0.000000 0.372549 0.054902
0.141176 0.415686 0.027451
0.250980 0.466667 0.000000
0.388235 0.517647 0.000000
0.494118 0.568627 0.003922
0.639216 0.643137 0.000000
0.752941 0.686275 0.003922
0.811765 0.690196 0.000000
0.847059 0.686275 0.000000
0.905882 0.678431 0.003922
0.952941 0.670588 0.000000
0.988235 0.654902 0.000000
1.000000 0.643137 0.003922
1.000000 0.627451 0.003922
1.000000 0.631373 0.003922
1.000000 0.635294 0.000000
0.000000 0.349020 0.074510
0.003922 0.345098 0.074510
0.000000 0.337255 0.082353
0.003922 0.345098 0.074510
0.000000 0.337255 0.090196
0.000000 0.321569 0.070588
0.003922 0.309804 0.082353
0.007843 0.329412 0.078431
0.000000 0.364706 0.074510
0.000000 0.400000 0.050980
0.003922 0.439216 0.027451
0.188235 0.486275 0.000000
0.301961 0.541176 0.003922
0.439216 0.588235 0.007843
0.556863 0.639216 0.000000
0.694118 0.698039 0.000000
0.788235 0.733333 0.000000
0.854902 0.741176 0.003922
0.894118 0.741176 0.000000
0.925490 0.725490 0.000000
0.976471 0.717647 0.003922
0.996078 0.709804 0.000000
0.996078 0.694118 0.000000
0.996078 0.682353 0.000000
1.000000 0.666667 0.000000
0.000000 0.392157 0.066667
0.000000 0.388235 0.062745
0.003922 0.388235 0.054902
0.000000 0.380392 0.062745
0.007843 0.380392 0.058824
0.000000 0.368627 0.078431
0.000000 0.352941 0.066667
0.000000 0.352941 0.062745
0.000000 0.384314 0.050980
0.003922 0.419608 0.035294
0.000000 0.458824 0.011765
0.070588 0.509804 0.007843
0.243137 0.549020 0.015686
0.384314 0.607843 0.000000
0.501961 0.647059 0.000000
0.623529 0.690196 0.007843
0.725490 0.745098 0.000000
0.831373 0.784314 0.000000
0.886275 0.784314 0.007843
0.925490 0.784314 0.000000
0.960784 0.772549 0.011765
0.992157 0.760784 0.007843
1.000000 0.745098 0.000000
1.000000 0.733333 0.000000
0.996078 0.721569 0.000000
0.000000 0.462745 0.031373
0.000000 0.454902 0.043137
0.000000 0.450980 0.043137
0.000000 0.447059 0.050980
0.000000 0.443137 0.035294
0.000000 0.427451 0.047059
0.000000 0.415686 0.039216
0.000000 0.411765 0.047059
0.003922 0.419608 0.035294
0.000000 0.466667 0.015686
0.000000 0.501961 0.007843
0.003922 0.549020 0.000000
0.180392 0.592157 0.000000
0.341176 0.635294 0.000000
0.474510 0.678431 0.011765
0.580392 0.721569 0.000000
0.678431 0.760784 0.003922
0.780392 0.796078 0.117647
0.862745 0.835294 0.184314
0.913725 0.839216 0.125490
0.960784 0.831373 0.082353
0.980392 0.811765 0.054902
0.996078 0.807843 0.007843
1.000000 0.792157 0.000000
1.000000 0.780392 0.000000
0.003922 0.498039 0.007843
0.003922 0.498039 0.007843
0.000000 0.498039 0.023529
0.000000 0.494118 0.000000
0.000000 0.486275 0.015686
0.000000 0.482353 0.023529
0.000000 0.462745 0.015686
0.000000 0.454902 0.035294
0.015686 0.443137 0.015686
0.000000 0.478431 0.000000
0.003922 0.517647 0.000000
0.000000 0.560784 0.000000
0.027451 0.615686 0.000000
0.258824 0.654902 0.003922
0.403922 0.698039 0.000000
0.529412 0.733333 0.000000
0.639216 0.772549 0.047059
0.721569 0.800000 0.121569
0.807843 0.835294 0.227451
0.890196 0.862745 0.305882
0.933333 0.866667 0.270588
0.968627 0.866667 0.250980
1.000000 0.847059 0.243137
0.996078 0.843137 0.227451
1.000000 0.823529 0.243137
0.007843 0.549020 0.003922
0.000000 0.552941 0.011765
0.000000 0.549020 0.000000
0.000000 0.541176 0.000000
0.007843 0.545098 0.000000
0.000000 0.529412 0.000000
0.007843 0.517647 0.000000
0.000000 0.513725 0.003922
0.000000 0.482353 0.003922
0.003922 0.498039 0.003922
0.000000 0.545098 0.000000
0.000000 0.592157 0.000000
0.015686 0.627451 0.000000
0.184314 0.666667 0.007843
0.352941 0.709804 0.000000
0.474510 0.752941 0.007843
0.588235 0.784314 0.058824
0.686275 0.807843 0.156863
0.752941 0.831373 0.215686
0.827451 0.862745 0.294118
0.917647 0.886275 0.388235
0.960784 0.894118 0.384314
0.980392 0.886275 0.368627
0.992157 0.882353 0.360784
1.000000 0.866667 0.384314
0.000000 0.603922 0.003922
0.000000 0.603922 0.000000
0.011765 0.600000 0.007843
0.000000 0.600000 0.000000
0.000000 0.592157 0.003922
0.000000 0.592157 0.003922
0.000000 0.576471 0.000000
0.000000 0.560784 0.000000
0.000000 0.545098 0.000000
0.003922 0.537255 0.003922
0.003922 0.576471 0.015686
0.003922 0.615686 0.000000
0.000000 0.658824 0.000000
0.015686 0.694118 0.000000
0.294118 0.733333 0.003922
0.443137 0.768627 0.000000
0.533333 0.807843 0.078431
0.639216 0.823529 0.164706
0.709804 0.843137 0.227451
0.796078 0.862745 0.309804
0.843137 0.878431 0.380392
0.913725 0.898039 0.474510
0.956863 0.909804 0.486275
0.992157 0.905882 0.470588
1.000000 0.905882 0.474510
0.011765 0.650980 0.000000
0.003922 0.658824 0.000000
0.000000 0.654902 0.000000
0.007843 0.654902 0.007843
0.003922 0.654902 0.000000
0.000000 0.647059 0.000000
0.000000 0.639216 0.000000
0.003922 0.623529 0.000000
0.003922 0.611765 0.007843
0.000000 0.588235 0.000000
0.000000 0.615686 0.007843
0.007843 0.643137 0.003922
0.003922 0.682353 0.000000
0.003922 0.717647 0.007843
0.219608 0.756863 0.003922
0.376471 0.788235 0.000000
0.501961 0.815686 0.082353
0.603922 0.835294 0.176471
0.682353 0.866667 0.254902
0.741176 0.878431 0.321569
0.807843 0.886275 0.372549
0.866667 0.901961 0.450980
0.925490 0.917647 0.525490
0.968627 0.925490 0.564706
1.000000 0.925490 0.564706
0.000000 0.749020 0.000000
0.000000 0.749020 0.000000
0.000000 0.741176 0.003922
0.000000 0.737255 0.000000
0.007843 0.729412 0.000000
0.003922 0.725490 0.000000
0.000000 0.713725 0.003922
0.003922 0.705882 0.003922
0.000000 0.698039 0.003922
0.000000 0.674510 0.007843
0.000000 0.674510 0.000000
0.000000 0.701961 0.000000
0.000000 0.737255 0.000000
0.000000 0.772549 0.000000
0.172549 0.792157 0.003922
0.356863 0.827451 0.058824
0.490196 0.843137 0.152941
0.584314 0.866667 0.231373
0.670588 0.874510 0.298039
0.737255 0.894118 0.364706
0.784314 0.905882 0.435294
0.843137 0.917647 0.498039
0.898039 0.917647 0.556863
0.925490 0.937255 0.635294
0.972549 0.941176 0.686275
0.000000 0.803922 0.000000
0.000000 0.792157 0.000000
0.000000 0.796078 0.000000
0.003922 0.792157 0.000000
0.003922 0.792157 0.000000
0.000000 0.792157 0.000000
0.000000 0.788235 0.000000
0.000000 0.784314 0.000000
0.000000 0.764706 0.000000
0.000000 0.764706 0.007843
0.003922 0.745098 0.000000
0.000000 0.752941 0.011765
0.000000 0.784314 0.007843
0.007843 0.803922 0.003922
0.105882 0.827451 0.011765
0.341176 0.850980 0.121569
0.454902 0.874510 0.184314
0.552941 0.890196 0.266667
0.631373 0.898039 0.352941
0.705882 0.905882 0.392157
0.772549 0.925490 0.474510
0.839216 0.925490 0.541176
0.858824 0.933333 0.584314
0.917647 0.929412 0.650980
0.941176 0.956863 0.717647
0.000000 0.854902 0.078431
0.000000 0.862745 0.101961
0.000000 0.858824 0.090196
0.000000 0.858824 0.098039
0.000000 0.850980 0.066667
0.000000 0.854902 0.070588
0.000000 0.850980 0.031373
0.000000 0.835294 0.000000
0.000000 0.843137 0.000000
0.000000 0.835294 0.011765
0.003922 0.819608 0.003922
0.000000 0.819608 0.000000
0.000000 0.839216 0.000000
0.000000 0.854902 0.000000
0.098039 0.870588 0.109804
0.325490 0.890196 0.203922
0.466667 0.898039 0.282353
0.545098 0.909804 0.317647
0.643137 0.913725 0.407843
0.701961 0.925490 0.466667
0.749020 0.937255 0.509804
0.803922 0.933333 0.576471
0.843137 0.949020 0.631373
0.886275 0.949020 0.662745
0.921569 0.952941 0.717647
0.007843 0.925490 0.247059
0.000000 0.909804 0.262745
0.000000 0.913725 0.250980
0.011765 0.913725 0.247059
0.003922 0.917647 0.262745
0.000000 0.909804 0.239216
0.000000 0.905882 0.223529
0.000000 0.905882 0.215686
0.000000 0.905882 0.200000
0.003922 0.898039 0.188235
0.007843 0.894118 0.156863
0.000000 0.898039 0.125490
0.003922 0.894118 0.129412
0.000000 0.905882 0.192157
0.215686 0.921569 0.266667
0.380392 0.917647 0.321569
0.486275 0.937255 0.376471
0.576471 0.941176 0.431373
0.643137 0.933333 0.482353
0.705882 0.952941 0.545098
0.756863 0.949020 0.588235
0.803922 0.952941 0.627451
0.847059 0.952941 0.682353
0.882353 0.960784 0.713725
0.905882 0.952941 0.764706
0.000000 0.952941 0.450980
0.000000 0.956863 0.458824
0.000000 0.964706 0.443137
0.000000 0.956863 0.458824
0.000000 0.952941 0.450980
0.000000 0.956863 0.450980
0.000000 0.952941 0.427451
0.000000 0.952941 0.427451
0.000000 0.952941 0.435294
0.007843 0.937255 0.411765
0.003922 0.956863 0.407843
0.000000 0.952941 0.388235
0.000000 0.952941 0.376471
0.274510 0.941176 0.423529
0.396078 0.945098 0.454902
0.501961 0.960784 0.513725
0.580392 0.952941 0.552941
0.650980 0.968627 0.596078
0.705882 0.960784 0.631373
0.749020 0.968627 0.674510
0.796078 0.972549 0.717647
0.823529 0.972549 0.741176
0.862745 0.968627 0.768627
0.890196 0.976471 0.792157
0.909804 0.980392 0.815686
0.050980 0.050980 0.082353
0.050980 0.050980 0.090196
0.050980 0.054902 0.074510
0.054902 0.050980 0.082353
0.058824 0.054902 0.078431
0.070588 0.058824 0.094118
0.098039 0.054902 0.086275
0.141176 0.058824 0.094118
0.172549 0.043137 0.078431
0.227451 0.039216 0.094118
0.294118 0.011765 0.098039
0.364706 0.000000 0.082353
0.443137 0.000000 0.094118
0.537255 0.003922 0.082353
0.623529 0.000000 0.078431
0.713725 0.000000 0.086275
0.792157 0.003922 0.078431
0.858824 0.003922 0.070588
0.929412 0.000000 0.070588
0.980392 0.000000 0.062745
0.996078 0.003922 0.074510
0.992157 0.000000 0.082353
1.000000 0.062745 0.098039
1.000000 0.160784 0.121569
1.000000 0.231373 0.156863
0.043137 0.054902 0.090196
0.047059 0.066667 0.090196
0.050980 0.050980 0.082353
0.058824 0.054902 0.078431
0.070588 0.058824 0.086275
0.086275 0.062745 0.078431
0.109804 0.058824 0.098039
0.137255 0.054902 0.090196
0.176471 0.054902 0.086275
0.215686 0.047059 0.086275
0.290196 0.023529 0.082353
0.364706 0.000000 0.090196
0.458824 0.000000 0.082353
0.537255 0.003922 0.082353
0.635294 0.003922 0.074510
0.717647 0.000000 0.078431
0.796078 0.003922 0.066667
0.874510 0.000000 0.082353
0.929412 0.000000 0.066667
0.984314 0.000000 0.058824
0.992157 0.003922 0.062745
0.992157 0.000000 0.070588
0.992157 0.109804 0.101961
0.996078 0.184314 0.121569
0.996078 0.247059 0.145098
0.050980 0.062745 0.098039
0.043137 0.054902 0.082353
0.058824 0.058824 0.090196
0.058824 0.062745 0.078431
0.066667 0.058824 0.078431
0.090196 0.066667 0.082353
0.113725 0.062745 0.098039
0.145098 0.066667 0.101961
0.180392 0.058824 0.082353
0.243137 0.050980 0.074510
0.290196 0.043137 0.078431
0.360784 0.015686 0.101961
0.450980 0.007843 0.078431
0.549020 0.000000 0.101961
0.639216 0.000000 0.074510
0.717647 0.000000 0.078431
0.788235 0.000000 0.070588
0.858824 0.003922 0.066667
0.921569 0.000000 0.066667
0.972549 0.000000 0.054902
0.996078 0.007843 0.066667
1.000000 0.043137 0.062745
1.000000 0.137255 0.082353
1.000000 0.203922 0.121569
1.000000 0.258824 0.145098
0.039216 0.066667 0.098039
0.050980 0.062745 0.090196
0.054902 0.066667 0.094118
0.054902 0.066667 0.086275
0.070588 0.074510 0.082353
0.098039 0.074510 0.090196
0.129412 0.070588 0.098039
0.149020 0.074510 0.082353
0.172549 0.070588 0.082353
0.247059 0.070588 0.082353
0.290196 0.058824 0.082353
0.380392 0.039216 0.070588
0.454902 0.000000 0.082353
0.541176 0.003922 0.082353
0.631373 0.000000 0.078431
0.717647 0.000000 0.070588
0.792157 0.000000 0.062745
0.850980 0.003922 0.054902
0.921569 0.003922 0.047059
0.976471 0.000000 0.031373
0.992157 0.035294 0.043137
1.000000 0.113725 0.050980
1.000000 0.168627 0.074510
0.992157 0.239216 0.098039
1.000000 0.286275 0.133333
0.039216 0.070588 0.078431
0.050980 0.070588 0.086275
0.050980 0.070588 0.086275
0.047059 0.078431 0.090196
0.066667 0.070588 0.086275
0.090196 0.090196 0.098039
0.121569 0.086275 0.090196
0.164706 0.090196 0.098039
0.188235 0.094118 0.086275
0.250980 0.098039 0.078431
0.313725 0.086275 0.078431
0.392157 0.078431 0.074510
0.470588 0.058824 0.074510
0.556863 0.031373 0.074510
0.650980 0.000000 0.078431
0.709804 0.003922 0.050980
0.803922 0.003922 0.047059
0.858824 0.000000 0.035294
0.909804 0.023529 0.027451
0.964706 0.078431 0.015686
1.000000 0.129412 0.007843
1.000000 0.168627 0.019608
0.992157 0.211765 0.047059
0.996078 0.258824 0.082353
1.000000 0.290196 0.113725
0.031373 0.086275 0.098039
0.039216 0.082353 0.090196
0.047059 0.086275 0.094118
0.054902 0.090196 0.086275
0.058824 0.090196 0.098039
0.078431 0.094118 0.090196
0.121569 0.109804 0.090196
0.160784 0.125490 0.090196
0.207843 0.133333 0.078431
0.270588 0.121569 0.086275
0.337255 0.125490 0.078431
0.419608 0.117647 0.078431
0.490196 0.125490 0.054902
0.584314 0.113725 0.047059
0.666667 0.117647 0.050980
0.749020 0.121569 0.019608
0.807843 0.121569 0.015686
0.878431 0.145098 0.007843
0.925490 0.172549 0.000000
0.976471 0.203922 0.000000
0.996078 0.231373 0.003922
0.996078 0.258824 0.007843
1.000000 0.290196 0.019608
1.000000 0.321569 0.082353
1.000000 0.360784 0.137255
0.023529 0.098039 0.090196
0.027451 0.101961 0.094118
0.035294 0.109804 0.094118
0.043137 0.098039 0.098039
0.054902 0.101961 0.086275
0.070588 0.121569 0.094118
0.098039 0.125490 0.094118
0.137255 0.152941 0.094118
0.207843 0.164706 0.086275
0.282353 0.180392 0.082353
0.341176 0.180392 0.062745
0.435294 0.176471 0.050980
0.513725 0.184314 0.043137
0.600000 0.184314 0.027451
0.682353 0.184314 0.015686
0.749020 0.200000 0.000000
0.819608 0.207843 0.007843
0.870588 0.235294 0.000000
0.929412 0.247059 0.000000
0.984314 0.266667 0.000000
1.000000 0.294118 0.007843
1.000000 0.317647 0.000000
1.000000 0.341176 0.000000
1.000000 0.364706 0.047059
1.000000 0.400000 0.109804
0.000000 0.125490 0.098039
0.007843 0.121569 0.101961
0.015686 0.117647 0.082353
0.019608 0.121569 0.086275
0.039216 0.129412 0.090196
0.054902 0.133333 0.090196
0.082353 0.149020 0.086275
0.129412 0.164706 0.082353
0.184314 0.203922 0.086275
0.282353 0.239216 0.062745
0.360784 0.243137 0.047059
0.443137 0.250980 0.023529
0.525490 0.250980 0.007843
0.611765 0.250980 0.000000
0.674510 0.262745 0.003922
0.749020 0.274510 0.000000
0.815686 0.278431 0.000000
0.874510 0.301961 0.000000
0.917647 0.317647 0.003922
0.976471 0.329412 0.007843
1.000000 0.349020 0.007843
0.996078 0.376471 0.000000
1.000000 0.388235 0.000000
0.992157 0.407843 0.003922
1.000000 0.435294 0.086275
0.000000 0.149020 0.098039
0.000000 0.156863 0.086275
0.000000 0.145098 0.094118
0.000000 0.152941 0.082353
0.027451 0.152941 0.101961
0.031373 0.160784 0.094118
0.058824 0.172549 0.094118
0.101961 0.200000 0.086275
0.156863 0.215686 0.094118
0.239216 0.250980 0.082353
0.356863 0.321569 0.019608
0.443137 0.333333 0.003922
0.525490 0.337255 0.003922
0.603922 0.341176 0.000000
0.690196 0.337255 0.000000
0.752941 0.337255 0.000000
0.803922 0.352941 0.003922
0.866667 0.368627 0.003922
0.921569 0.380392 0.000000
0.968627 0.396078 0.000000
0.992157 0.411765 0.000000
0.996078 0.423529 0.000000
1.000000 0.435294 0.000000
1.000000 0.443137 0.003922
1.000000 0.470588 0.019608
0.000000 0.184314 0.098039
0.000000 0.192157 0.094118
0.000000 0.184314 0.090196
0.003922 0.180392 0.090196
0.000000 0.176471 0.094118
0.000000 0.184314 0.082353
0.019608 0.200000 0.090196
0.070588 0.223529 0.101961
0.121569 0.250980 0.082353
0.203922 0.282353 0.074510
0.290196 0.329412 0.050980
0.439216 0.403922 0.000000
0.529412 0.427451 0.000000
0.600000 0.431373 0.000000
0.670588 0.427451 0.000000
0.745098 0.427451 0.003922
0.800000 0.427451 0.000000
0.850980 0.427451 0.000000
0.913725 0.443137 0.003922
0.960784 0.447059 0.000000
0.996078 0.462745 0.000000
1.000000 0.470588 0.007843
1.000000 0.478431 0.000000
0.996078 0.490196 0.000000
0.992157 0.501961 0.000000
0.000000 0.231373 0.082353
0.003922 0.227451 0.090196
0.003922 0.227451 0.098039
0.000000 0.223529 0.094118
0.000000 0.219608 0.094118
0.000000 0.215686 0.094118
0.000000 0.235294 0.094118
0.000000 0.262745 0.094118
