tools/luts_backup/Los Angeles.cube
#Generated with IWLTBAP LUT Generator
#Website: http://luts.iwltbap.com
TITLE "Los Angeles"
#LUT size
LUT_3D_SIZE 9
#LUT data points
0.047059 0.047059 0.078431
0.054902 0.050980 0.074510
0.101961 0.050980 0.086275
0.219608 0.031373 0.078431
0.443137 0.000000 0.078431
0.713725 0.000000 0.066667
0.925490 0.000000 0.054902
0.996078 0.000000 0.050980
1.000000 0.227451 0.152941
0.047059 0.066667 0.090196
0.054902 0.066667 0.086275
0.117647 0.078431 0.082353
0.247059 0.066667 0.078431
0.450980 0.007843 0.078431
0.721569 0.000000 0.050980
0.925490 0.003922 0.031373
1.000000 0.121569 0.011765
0.996078 0.278431 0.113725
0.027451 0.098039 0.098039
0.047059 0.094118 0.078431
0.090196 0.121569 0.078431
0.270588 0.176471 0.066667
0.517647 0.172549 0.031373
0.745098 0.203922 0.011765
0.933333 0.258824 0.000000
0.992157 0.325490 0.000000
1.000000 0.392157 0.078431
0.000000 0.176471 0.094118
0.000000 0.176471 0.094118
0.011765 0.203922 0.090196
0.196078 0.286275 0.074510
0.533333 0.431373 0.000000
0.745098 0.439216 0.011765
0.917647 0.439216 0.003922
1.000000 0.478431 0.003922
1.000000 0.498039 0.000000
0.000000 0.305882 0.078431
0.000000 0.290196 0.082353
0.000000 0.286275 0.078431
0.000000 0.372549 0.054902
0.388235 0.517647 0.000000
0.752941 0.686275 0.003922
0.905882 0.678431 0.003922
1.000000 0.643137 0.003922
1.000000 0.635294 0.000000
0.000000 0.462745 0.031373
0.000000 0.447059 0.050980
0.000000 0.415686 0.039216
0.000000 0.466667 0.015686
0.180392 0.592157 0.000000
0.580392 0.721569 0.000000
0.862745 0.835294 0.184314
0.980392 0.811765 0.054902
1.000000 0.780392 0.000000
0.000000 0.603922 0.003922
0.000000 0.600000 0.000000
0.000000 0.576471 0.000000
0.003922 0.537255 0.003922
0.000000 0.658824 0.000000
0.443137 0.768627 0.000000
0.709804 0.843137 0.227451
0.913725 0.898039 0.474510
1.000000 0.905882 0.474510
0.000000 0.803922 0.000000
0.003922 0.792157 0.000000
0.000000 0.788235 0.000000
0.000000 0.764706 0.007843
0.000000 0.784314 0.007843
0.341176 0.850980 0.121569
0.631373 0.898039 0.352941
0.839216 0.925490 0.541176
0.941176 0.956863 0.717647
0.000000 0.952941 0.450980
0.000000 0.956863 0.458824
0.000000 0.952941 0.427451
0.007843 0.937255 0.411765
0.000000 0.952941 0.376471
0.501961 0.960784 0.513725
0.705882 0.960784 0.631373
0.823529 0.972549 0.741176
0.909804 0.980392 0.815686
0.047059 0.058824 0.094118
0.062745 0.054902 0.098039
0.105882 0.058824 0.098039
0.223529 0.039216 0.109804
0.454902 0.000000 0.109804
0.709804 0.003922 0.117647
0.929412 0.000000 0.121569
1.000000 0.003922 0.149020
1.000000 0.250980 0.219608
0.043137 0.062745 0.086275
0.062745 0.074510 0.094118
0.117647 0.066667 0.101961
0.235294 0.066667 0.101961
0.466667 0.000000 0.105882
0.717647 0.000000 0.109804
0.909804 0.000000 0.109804
1.000000 0.074510 0.121569
0.996078 0.270588 0.200000
0.035294 0.113725 0.109804
0.054902 0.117647 0.105882
0.105882 0.129412 0.113725
0.290196 0.168627 0.086275
0.513725 0.168627 0.074510
0.745098 0.176471 0.062745
0.929412 0.239216 0.047059
0.996078 0.305882 0.074510
1.000000 0.400000 0.176471
0.000000 0.200000 0.113725
0.000000 0.203922 0.101961
0.027451 0.200000 0.101961
0.207843 0.286275 0.094118
0.521569 0.407843 0.000000
0.729412 0.407843 0.007843
0.905882 0.423529 0.015686
0.992157 0.458824 0.000000
1.000000 0.490196 0.050980
0.003922 0.329412 0.117647
0.000000 0.329412 0.098039
0.000000 0.298039 0.113725
0.000000 0.384314 0.098039
0.388235 0.521569 0.047059
0.756863 0.674510 0.003922
0.905882 0.658824 0.011765
1.000000 0.635294 0.000000
1.000000 0.639216 0.000000
0.003922 0.478431 0.074510
0.000000 0.466667 0.074510
0.000000 0.443137 0.070588
0.003922 0.454902 0.058824
0.196078 0.588235 0.007843
0.584314 0.717647 0.101961
0.866667 0.827451 0.250980
0.980392 0.807843 0.176471
1.000000 0.772549 0.149020
0.000000 0.615686 0.007843
0.000000 0.615686 0.007843
0.000000 0.588235 0.000000
0.007843 0.545098 0.000000
0.000000 0.650980 0.000000
0.427451 0.772549 0.066667
0.713725 0.847059 0.274510
0.909804 0.898039 0.486275
0.996078 0.898039 0.494118
0.000000 0.815686 0.035294
0.000000 0.800000 0.031373
0.003922 0.784314 0.000000
0.000000 0.760784 0.000000
0.000000 0.780392 0.000000
0.325490 0.847059 0.145098
0.639216 0.905882 0.368627
0.811765 0.929412 0.545098
0.937255 0.949020 0.725490
0.000000 0.949020 0.454902
0.000000 0.956863 0.470588
0.003922 0.949020 0.439216
0.000000 0.956863 0.411765
0.007843 0.945098 0.384314
0.482353 0.956863 0.501961
0.690196 0.976471 0.627451
0.823529 0.972549 0.741176
0.917647 0.976471 0.823529
0.043137 0.054902 0.121569
0.070588 0.058824 0.141176
0.129412 0.058824 0.145098
0.243137 0.050980 0.168627
0.482353 0.003922 0.203922
0.741176 0.000000 0.239216
0.929412 0.000000 0.282353
1.000000 0.090196 0.317647
1.000000 0.337255 0.407843
0.050980 0.078431 0.149020
0.062745 0.074510 0.141176
0.133333 0.082353 0.152941
0.266667 0.082353 0.160784
0.498039 0.000000 0.207843
0.737255 0.000000 0.227451
0.925490 0.000000 0.258824
1.000000 0.152941 0.301961
1.000000 0.349020 0.376471
0.031373 0.129412 0.145098
0.074510 0.133333 0.160784
0.141176 0.152941 0.172549
0.313725 0.156863 0.188235
0.541176 0.160784 0.196078
0.768627 0.164706 0.211765
0.941176 0.223529 0.231373
1.000000 0.333333 0.294118
1.000000 0.435294 0.372549
0.000000 0.262745 0.203922
0.031373 0.270588 0.200000
0.082353 0.258824 0.176471
0.262745 0.313725 0.196078
0.549020 0.392157 0.160784
0.764706 0.372549 0.137255
0.905882 0.419608 0.145098
0.996078 0.454902 0.200000
1.000000 0.509804 0.290196
0.007843 0.423529 0.231373
0.000000 0.407843 0.200000
0.000000 0.388235 0.172549
0.082353 0.403922 0.160784
0.431373 0.541176 0.200000
0.760784 0.662745 0.200000
0.909804 0.639216 0.129412
1.000000 0.623529 0.113725
0.992157 0.639216 0.258824
0.000000 0.552941 0.223529
0.000000 0.545098 0.196078
0.000000 0.509804 0.156863
0.000000 0.470588 0.121569
0.250980 0.592157 0.172549
0.607843 0.729412 0.270588
0.858824 0.831373 0.376471
0.972549 0.811765 0.325490
1.000000 0.764706 0.294118
0.000000 0.670588 0.196078
0.000000 0.662745 0.164706
0.000000 0.639216 0.125490
0.000000 0.588235 0.094118
0.000000 0.654902 0.109804
0.443137 0.760784 0.223529
0.729412 0.835294 0.384314
0.917647 0.898039 0.580392
0.992157 0.890196 0.549020
0.000000 0.823529 0.227451
0.000000 0.819608 0.215686
0.011765 0.803922 0.160784
0.000000 0.792157 0.086275
0.000000 0.760784 0.000000
0.309804 0.843137 0.207843
0.643137 0.901961 0.419608
0.827451 0.925490 0.600000
0.937255 0.952941 0.756863
0.000000 0.956863 0.498039
0.000000 0.949020 0.509804
0.000000 0.949020 0.486275
0.000000 0.945098 0.462745
0.000000 0.945098 0.431373
0.474510 0.949020 0.505882
0.698039 0.960784 0.647059
0.827451 0.976471 0.752941
0.913725 0.980392 0.839216
0.011765 0.062745 0.270588
0.082353 0.054902 0.258824
0.188235 0.054902 0.290196
0.333333 0.019608 0.305882
0.509804 0.000000 0.337255
0.788235 0.000000 0.415686
0.941176 0.011765 0.458824
0.992157 0.294118 0.498039
1.000000 0.490196 0.600000
0.000000 0.078431 0.274510
0.058824 0.094118 0.262745
0.192157 0.086275 0.294118
0.345098 0.090196 0.317647
0.533333 0.054902 0.349020
0.768627 0.027451 0.419608
0.933333 0.156863 0.458824
0.996078 0.321569 0.517647
0.992157 0.505882 0.600000
0.003922 0.164706 0.282353
0.003922 0.164706 0.290196
0.180392 0.180392 0.313725
0.360784 0.211765 0.356863
0.576471 0.239216 0.392157
0.780392 0.258824 0.427451
0.929412 0.333333 0.486275
0.992157 0.447059 0.529412
1.000000 0.549020 0.600000
0.000000 0.305882 0.321569
0.003922 0.313725 0.329412
0.196078 0.333333 0.349020
0.368627 0.360784 0.372549
0.580392 0.384314 0.380392
0.764706 0.407843 0.403922
0.925490 0.447059 0.435294
1.000000 0.505882 0.470588
1.000000 0.568627 0.533333
0.000000 0.525490 0.419608
0.023529 0.529412 0.411765
0.231373 0.533333 0.407843
0.262745 0.490196 0.341176
0.509804 0.576471 0.411765
0.768627 0.643137 0.419608
0.921569 0.615686 0.372549
1.000000 0.631373 0.443137
0.996078 0.674510 0.517647
0.000000 0.662745 0.470588
0.101961 0.666667 0.474510
0.050980 0.647059 0.415686
0.003922 0.592157 0.313725
0.329412 0.619608 0.325490
0.654902 0.749020 0.458824
0.870588 0.823529 0.541176
0.976471 0.792157 0.478431
1.000000 0.749020 0.458824
0.000000 0.749020 0.447059
0.000000 0.752941 0.443137
0.000000 0.725490 0.368627
0.000000 0.686275 0.274510
0.003922 0.643137 0.223529
0.470588 0.768627 0.345098
0.756863 0.847059 0.525490
0.925490 0.901961 0.666667
1.000000 0.890196 0.643137
0.000000 0.854902 0.462745
0.000000 0.854902 0.439216
0.000000 0.847059 0.396078
0.000000 0.831373 0.294118
0.003922 0.784314 0.192157
0.294118 0.835294 0.298039
0.643137 0.898039 0.505882
0.850980 0.921569 0.686275
0.945098 0.949020 0.792157
0.254902 0.956863 0.635294
0.266667 0.956863 0.631373
0.219608 0.952941 0.596078
0.188235 0.956863 0.564706
0.239216 0.960784 0.525490
0.431373 0.952941 0.525490
0.686275 0.960784 0.674510
0.831373 0.972549 0.784314
0.921569 0.984314 0.843137
0.003922 0.058824 0.486275
0.047059 0.047059 0.494118
0.239216 0.027451 0.513725
0.458824 0.000000 0.549020
0.635294 0.000000 0.576471
0.776471 0.019608 0.580392
0.945098 0.262745 0.647059
1.000000 0.423529 0.674510
0.992157 0.584314 0.721569
0.003922 0.105882 0.486275
0.015686 0.105882 0.505882
0.250980 0.105882 0.521569
0.454902 0.105882 0.560784
0.643137 0.129412 0.576471
0.768627 0.168627 0.584314
0.933333 0.313725 0.643137
1.000000 0.443137 0.662745
1.000000 0.588235 0.717647
0.000000 0.196078 0.494118
0.000000 0.200000 0.525490
0.223529 0.219608 0.533333
0.462745 0.247059 0.564706
0.643137 0.305882 0.600000
0.780392 0.345098 0.615686
0.925490 0.462745 0.658824
1.000000 0.552941 0.694118
1.000000 0.647059 0.745098
0.000000 0.352941 0.498039
0.007843 0.356863 0.513725
0.082353 0.360784 0.525490
0.427451 0.407843 0.568627
0.623529 0.470588 0.592157
0.768627 0.513725 0.631373
0.894118 0.560784 0.650980
0.976471 0.611765 0.686275
1.000000 0.674510 0.725490
0.000000 0.564706 0.564706
0.066667 0.576471 0.576471
0.286275 0.584314 0.576471
0.450980 0.603922 0.600000
0.615686 0.623529 0.619608
0.760784 0.639216 0.631373
0.882353 0.662745 0.658824
0.972549 0.694118 0.678431
1.000000 0.733333 0.733333
0.352941 0.752941 0.666667
0.376471 0.741176 0.666667
0.435294 0.741176 0.654902
0.501961 0.733333 0.647059
0.486275 0.686275 0.556863
0.705882 0.764706 0.643137
0.878431 0.803922 0.674510
0.972549 0.768627 0.615686
1.000000 0.784314 0.690196
0.368627 0.819608 0.658824
0.392157 0.819608 0.666667
0.423529 0.819608 0.662745
0.396078 0.796078 0.607843
0.301961 0.749020 0.478431
0.505882 0.768627 0.490196
0.776471 0.854902 0.662745
0.921569 0.901961 0.752941
1.000000 0.878431 0.725490
0.419608 0.882353 0.694118
0.403922 0.882353 0.682353
0.349020 0.878431 0.647059
0.223529 0.870588 0.572549
0.000000 0.839216 0.454902
0.211765 0.815686 0.368627
0.662745 0.886275 0.584314
0.850980 0.917647 0.745098
0.956863 0.956863 0.854902
0.537255 0.956863 0.752941
0.549020 0.956863 0.756863
0.517647 0.956863 0.737255
0.474510 0.956863 0.709804
0.423529 0.956863 0.635294
0.435294 0.949020 0.580392
0.682353 0.956863 0.709804
0.843137 0.968627 0.807843
0.929412 0.980392 0.878431
0.007843 0.054902 0.721569
0.160784 0.050980 0.717647
0.356863 0.031373 0.729412
0.541176 0.031373 0.752941
0.729412 0.164706 0.780392
0.850980 0.254902 0.780392
0.917647 0.325490 0.768627
1.000000 0.513725 0.780392
0.996078 0.674510 0.831373
0.000000 0.133333 0.690196
0.149020 0.121569 0.729412
0.337255 0.129412 0.729412
0.533333 0.145098 0.741176
0.709804 0.239216 0.764706
0.854902 0.313725 0.788235
0.901961 0.368627 0.760784
0.996078 0.521569 0.792157
1.000000 0.666667 0.800000
0.003922 0.247059 0.721569
0.058824 0.254902 0.705882
0.333333 0.262745 0.741176
0.529412 0.305882 0.749020
0.717647 0.396078 0.780392
0.827451 0.462745 0.780392
0.894118 0.501961 0.776471
0.976471 0.635294 0.803922
1.000000 0.717647 0.823529
0.000000 0.380392 0.682353
0.000000 0.388235 0.694118
0.207843 0.407843 0.717647
0.474510 0.443137 0.737255
0.670588 0.521569 0.760784
0.796078 0.572549 0.772549
0.866667 0.603922 0.764706
0.960784 0.690196 0.800000
0.996078 0.741176 0.827451
0.000000 0.580392 0.721569
0.000000 0.580392 0.709804
0.192157 0.596078 0.717647
0.400000 0.596078 0.725490
0.635294 0.650980 0.764706
0.784314 0.709804 0.788235
0.874510 0.737255 0.815686
0.941176 0.776471 0.823529
0.984314 0.803922 0.843137
0.337255 0.764706 0.752941
0.396078 0.752941 0.756863
0.454902 0.760784 0.760784
0.560784 0.772549 0.772549
0.662745 0.772549 0.784314
0.764706 0.788235 0.780392
0.862745 0.803922 0.792157
0.941176 0.807843 0.803922
0.988235 0.831373 0.831373
0.596078 0.858824 0.823529
0.603922 0.862745 0.815686
0.623529 0.858824 0.811765
0.650980 0.854902 0.803922
0.678431 0.843137 0.788235
0.643137 0.807843 0.713725
0.811765 0.858824 0.780392
0.917647 0.886275 0.803922
1.000000 0.858824 0.788235
0.623529 0.913725 0.815686
0.639216 0.909804 0.827451
0.635294 0.909804 0.815686
0.647059 0.898039 0.796078
0.631373 0.894118 0.764706
0.486275 0.862745 0.623529
0.662745 0.878431 0.662745
0.870588 0.925490 0.823529
0.960784 0.956863 0.878431
0.705882 0.956863 0.854902
0.725490 0.960784 0.858824
0.721569 0.956863 0.858824
0.698039 0.960784 0.839216
0.647059 0.952941 0.788235
0.588235 0.952941 0.737255
0.639216 0.952941 0.713725
0.847059 0.968627 0.835294
0.933333 0.980392 0.901961
0.305882 0.145098 0.858824
0.368627 0.149020 0.882353
0.486275 0.176471 0.878431
0.619608 0.223529 0.874510
0.764706 0.325490 0.890196
0.870588 0.470588 0.898039
0.945098 0.537255 0.886275
0.980392 0.572549 0.874510
1.000000 0.717647 0.894118
0.282353 0.200000 0.847059
0.356863 0.211765 0.862745
0.470588 0.231373 0.878431
0.615686 0.278431 0.870588
0.756863 0.364706 0.882353
0.858824 0.498039 0.886275
0.929412 0.556863 0.886275
0.968627 0.576471 0.858824
0.996078 0.721569 0.866667
0.274510 0.321569 0.862745
0.349020 0.333333 0.870588
0.462745 0.364706 0.866667
0.603922 0.411765 0.874510
0.741176 0.486275 0.886275
0.839216 0.588235 0.878431
0.925490 0.643137 0.890196
0.956863 0.666667 0.874510
0.996078 0.776471 0.890196
0.101961 0.443137 0.847059
0.239216 0.454902 0.850980
0.407843 0.482353 0.854902
0.560784 0.521569 0.858824
0.713725 0.580392 0.870588
0.827451 0.670588 0.878431
0.898039 0.709804 0.874510
0.937255 0.717647 0.862745
0.984314 0.796078 0.882353
0.000000 0.592157 0.815686
0.000000 0.596078 0.819608
0.286275 0.607843 0.835294
0.517647 0.639216 0.862745
0.686275 0.690196 0.862745
0.807843 0.749020 0.870588
0.886275 0.788235 0.874510
0.917647 0.811765 0.886275
0.980392 0.854902 0.913725
0.321569 0.752941 0.843137
0.360784 0.760784 0.850980
0.427451 0.760784 0.843137
0.521569 0.760784 0.843137
0.619608 0.760784 0.854902
0.780392 0.803922 0.866667
0.878431 0.839216 0.882353
0.929412 0.862745 0.894118
0.968627 0.882353 0.894118
0.556863 0.850980 0.862745
0.572549 0.850980 0.866667
0.615686 0.854902 0.858824
0.666667 0.854902 0.862745
0.725490 0.866667 0.866667
0.796078 0.874510 0.870588
0.858824 0.874510 0.886275
0.917647 0.882353 0.886275
0.968627 0.898039 0.898039
0.760784 0.929412 0.901961
0.772549 0.925490 0.905882
0.776471 0.933333 0.901961
0.800000 0.921569 0.898039
0.803922 0.925490 0.901961
0.811765 0.913725 0.878431
0.760784 0.882353 0.811765
0.890196 0.929412 0.886275
0.976471 0.941176 0.905882
0.803922 0.968627 0.929412
0.811765 0.960784 0.909804
0.811765 0.960784 0.901961
0.811765 0.960784 0.909804
0.815686 0.964706 0.905882
0.807843 0.960784 0.886275
0.733333 0.956863 0.819608
0.831373 0.968627 0.850980
0.949020 0.980392 0.921569
0.513725 0.356863 0.949020
0.545098 0.364706 0.952941
0.607843 0.400000 0.949020
0.690196 0.450980 0.956863
0.776471 0.529412 0.949020
0.866667 0.615686 0.952941
0.929412 0.709804 0.949020
0.964706 0.745098 0.937255
0.992157 0.768627 0.937255
0.498039 0.384314 0.941176
0.533333 0.400000 0.945098
0.592157 0.427451 0.952941
0.674510 0.474510 0.937255
0.776471 0.549020 0.949020
0.858824 0.635294 0.945098
0.917647 0.717647 0.937255
0.976471 0.749020 0.937255
0.996078 0.756863 0.921569
0.494118 0.482353 0.941176
0.533333 0.494118 0.945098
0.607843 0.521569 0.945098
0.678431 0.560784 0.945098
0.772549 0.627451 0.941176
0.854902 0.690196 0.937255
0.917647 0.764706 0.941176
0.968627 0.788235 0.933333
0.976471 0.792157 0.925490
0.466667 0.560784 0.937255
0.517647 0.584314 0.929412
0.572549 0.603922 0.921569
0.666667 0.639216 0.941176
0.756863 0.686275 0.929412
0.847059 0.729412 0.933333
0.901961 0.792157 0.941176
0.945098 0.807843 0.937255
0.968627 0.815686 0.929412
0.407843 0.658824 0.937255
0.462745 0.674510 0.925490
0.545098 0.686275 0.929412
0.639216 0.717647 0.925490
0.745098 0.749020 0.929412
0.831373 0.792157 0.929412
0.909804 0.839216 0.941176
0.941176 0.854902 0.945098
0.956863 0.874510 0.933333
0.400000 0.760784 0.921569
0.427451 0.760784 0.913725
0.470588 0.756863 0.917647
0.556863 0.764706 0.921569
0.705882 0.796078 0.921569
0.815686 0.831373 0.929412
0.890196 0.874510 0.933333
0.941176 0.886275 0.945098
0.960784 0.898039 0.937255
0.560784 0.858824 0.913725
0.592157 0.854902 0.921569
0.611765 0.862745 0.909804
0.658824 0.862745 0.917647
0.709804 0.866667 0.913725
0.764706 0.854902 0.909804
0.870588 0.886275 0.929412
0.937255 0.917647 0.941176
0.956863 0.933333 0.933333
0.737255 0.929412 0.917647
0.737255 0.925490 0.925490
0.760784 0.925490 0.917647
0.788235 0.929412 0.929412
0.807843 0.925490 0.925490
0.847059 0.925490 0.929412
0.886275 0.933333 0.933333
0.925490 0.941176 0.937255
0.968627 0.945098 0.945098
0.870588 0.968627 0.956863
0.874510 0.972549 0.956863
0.878431 0.964706 0.956863
0.882353 0.968627 0.956863
0.894118 0.968627 0.960784
0.890196 0.972549 0.945098
0.901961 0.968627 0.945098
0.870588 0.964706 0.909804
0.968627 0.980392 0.952941
0.686275 0.647059 0.984314
0.701961 0.654902 0.984314
0.729412 0.674510 0.984314
0.776471 0.698039 0.980392
0.823529 0.725490 0.980392
0.882353 0.768627 0.980392
0.917647 0.807843 0.968627
0.960784 0.847059 0.968627
0.988235 0.858824 0.964706
0.682353 0.650980 0.988235
0.690196 0.662745 0.976471
0.729412 0.674510 0.984314
0.768627 0.701961 0.980392
0.827451 0.729412 0.984314
0.874510 0.768627 0.968627
0.921569 0.811765 0.972549
0.960784 0.847059 0.968627
0.980392 0.862745 0.972549
0.698039 0.698039 0.980392
0.717647 0.705882 0.984314
0.745098 0.725490 0.984314
0.780392 0.741176 0.980392
0.823529 0.768627 0.976471
0.882353 0.796078 0.976471
0.925490 0.831373 0.972549
0.956863 0.858824 0.972549
0.984314 0.874510 0.964706
0.690196 0.733333 0.984314
0.705882 0.745098 0.976471
0.733333 0.752941 0.972549
0.772549 0.772549 0.976471
0.823529 0.796078 0.968627
0.866667 0.819608 0.968627
0.909804 0.843137 0.968627
0.952941 0.874510 0.972549
0.976471 0.882353 0.968627
0.678431 0.788235 0.972549
0.705882 0.792157 0.976471
0.733333 0.800000 0.972549
0.768627 0.815686 0.972549
0.819608 0.831373 0.968627
0.870588 0.850980 0.968627
0.917647 0.866667 0.968627
0.952941 0.894118 0.968627
0.984314 0.901961 0.968627
0.650980 0.823529 0.968627
0.670588 0.827451 0.968627
0.705882 0.831373 0.980392
0.749020 0.843137 0.976471
0.803922 0.858824 0.972549
0.858824 0.878431 0.964706
0.913725 0.894118 0.972549
0.956863 0.913725 0.968627
0.968627 0.925490 0.980392
0.686275 0.886275 0.968627
0.713725 0.878431 0.964706
0.717647 0.882353 0.976471
0.737255 0.878431 0.972549
0.760784 0.882353 0.964706
0.831373 0.890196 0.964706
0.905882 0.913725 0.972549
0.945098 0.933333 0.976471
0.984314 0.937255 0.976471
0.803922 0.937255 0.976471
0.792157 0.945098 0.972549
0.807843 0.937255 0.972549
0.819608 0.937255 0.968627
0.827451 0.937255 0.980392
0.858824 0.937255 0.980392
0.878431 0.929412 0.964706
0.937255 0.949020 0.976471
0.968627 0.960784 0.964706
0.854902 0.980392 0.976471
0.862745 0.976471 0.968627
0.874510 0.976471 0.972549
0.882353 0.976471 0.976471
0.898039 0.976471 0.972549
0.905882 0.976471 0.976471
0.933333 0.980392 0.980392
0.956863 0.976471 0.988235
0.980392 0.988235 0.984314
