tools/luts_backup/LPP Tetrachrome 400_CIN.cube
# (C) 2014 VisionColor & Patchflyer [www.vision-color.com]
# Generator: VC Patchmatch v.2.1.1 [64/53]
# All work and no play makes Jack a dull boy.
# LUT generated from: LPP Tetrachrome 400_Cineon
LUT_3D_SIZE 5
0.086275 0.090181 0.090181
0.266850 0.115267 0.089509
0.362615 0.125246 0.091890
0.432319 0.131624 0.091341
0.498024 0.156863 0.101961
0.097047 0.244480 0.118898
0.312139 0.282841 0.105501
0.416815 0.295933 0.111147
0.473243 0.297337 0.116976
0.525597 0.309850 0.122652
0.109926 0.358679 0.149020
0.388067 0.429572 0.117403
0.478401 0.441444 0.145083
0.532006 0.446906 0.165835
0.578546 0.452522 0.168521
0.115969 0.446265 0.168612
0.236057 0.463325 0.166781
0.439002 0.493935 0.118196
0.562524 0.529503 0.250156
0.608576 0.524926 0.203037
0.117647 0.490181 0.180392
0.237797 0.507073 0.163851
0.492164 0.560510 0.180926
0.571893 0.575952 0.274662
0.584314 0.560754 0.239231
0.082368 0.118105 0.271092
0.237003 0.103914 0.288579
0.360601 0.119905 0.260868
0.452522 0.121736 0.261601
0.531762 0.165560 0.310063
0.104829 0.260044 0.275029
0.319738 0.307439 0.319554
0.430915 0.178470 0.135927
0.497322 0.175998 0.121675
0.551843 0.309483 0.290166
0.121370 0.377447 0.313207
0.155154 0.434028 0.191470
0.549767 0.515892 0.260624
0.579156 0.450355 0.180026
0.617243 0.481300 0.345342
0.124941 0.445533 0.279057
0.139864 0.490181 0.201938
0.487861 0.551995 0.199847
0.592767 0.563775 0.261265
0.634485 0.557061 0.369940
0.171572 0.508782 0.347265
0.314244 0.535943 0.399298
0.503990 0.572076 0.320562
0.603113 0.597559 0.391669
0.634730 0.598779 0.406622
0.090059 0.139223 0.360906
0.227451 0.106111 0.381292
0.380133 0.115694 0.391882
0.474525 0.123049 0.403510
0.539055 0.182223 0.433173
0.113252 0.277501 0.374823
0.130648 0.190799 0.414862
0.477882 0.184298 0.465034
0.532280 0.185458 0.431586
0.561669 0.318029 0.453132
0.131258 0.392004 0.407691
0.265934 0.485298 0.498451
0.493843 0.495949 0.490059
0.561913 0.363119 0.346212
0.627283 0.503655 0.487831
0.252384 0.503594 0.467475
0.276799 0.549920 0.481544
0.338582 0.525139 0.393378
0.628412 0.591546 0.420081
0.647059 0.581292 0.501152
0.278019 0.556848 0.487953
0.330663 0.549310 0.479316
0.464698 0.580377 0.480018
0.601678 0.611475 0.490639
0.647059 0.615778 0.490333
0.092012 0.157870 0.425147
0.238010 0.114168 0.446571
0.408362 0.121553 0.468757
0.493263 0.155642 0.477607
0.529412 0.156252 0.481239
0.115694 0.284489 0.438819
0.110445 0.178622 0.470588
0.435340 0.195438 0.521630
0.528984 0.181003 0.514611
0.546136 0.292515 0.498817
0.138216 0.411597 0.474525
0.168338 0.430060 0.522332
0.287709 0.367330 0.511559
0.556237 0.358511 0.540154
0.616876 0.491371 0.553613
0.305425 0.523125 0.531212
0.318730 0.568994 0.578424
0.446448 0.587243 0.595819
0.591760 0.590356 0.582452
0.635279 0.592035 0.578637
0.315190 0.576349 0.545647
0.406744 0.587457 0.556207
0.511437 0.615290 0.577417
0.583520 0.628107 0.579614
0.640070 0.634974 0.583581
0.094118 0.160769 0.474525
0.244388 0.122988 0.498024
0.450599 0.199985 0.529381
0.491188 0.159213 0.517632
0.529412 0.164706 0.517632
0.117708 0.293919 0.486549
0.232425 0.311101 0.500969
0.417853 0.308080 0.546624
0.512016 0.309422 0.536370
0.549920 0.304021 0.533928
0.145754 0.427710 0.525444
0.321782 0.461219 0.555657
0.503105 0.515251 0.613458
0.578576 0.506157 0.608789
0.619471 0.501701 0.601923
0.259068 0.514031 0.563989
0.390265 0.536065 0.584253
0.514122 0.574639 0.619745
0.590448 0.590692 0.629786
0.634699 0.596643 0.628809
0.301976 0.572534 0.580377
0.424201 0.594873 0.605127
0.527428 0.623377 0.627314
0.600122 0.637507 0.636072
0.647059 0.647059 0.647059
