tools/luts_backup/LPP Tetrachrome 400_VS.cube
# (C) 2014 VisionColor & Patchflyer [www.vision-color.com]
# Generator: VC Patchmatch v.2.1.1 [64/53]
# All work and no play makes Jack a dull boy.
# LUT generated from: LPP Tetrachrome 400_VisionSpace
LUT_3D_SIZE 17
0.028199 0.029999 0.029999
0.056611 0.030335 0.028809
0.088624 0.037476 0.033082
0.114717 0.045960 0.036866
0.138674 0.049989 0.039582
0.159823 0.052644 0.041718
0.180636 0.055909 0.043732
0.203006 0.060395 0.046601
0.223941 0.061769 0.048096
0.244144 0.063142 0.049592
0.264530 0.066194 0.051514
0.282567 0.067201 0.051972
0.304143 0.071046 0.054322
0.330083 0.077638 0.058076
0.357885 0.083558 0.061067
0.377691 0.087617 0.063508
0.403998 0.094331 0.069459
0.026276 0.049805 0.030579
0.053803 0.053590 0.031067
0.092042 0.060517 0.038758
0.123232 0.070436 0.044373
0.154147 0.078553 0.049226
0.177829 0.082033 0.051820
0.199252 0.084565 0.053681
0.223758 0.089204 0.057923
0.247471 0.093080 0.061189
0.266423 0.095155 0.062287
0.283726 0.096956 0.063874
0.301122 0.097444 0.065034
0.322026 0.100771 0.067079
0.345983 0.107607 0.071351
0.375433 0.116487 0.077302
0.401923 0.121767 0.080934
0.428321 0.128908 0.084504
0.032868 0.077699 0.040406
0.056825 0.087770 0.041413
0.099550 0.094087 0.048157
0.136263 0.103395 0.053529
0.167666 0.110811 0.058167
0.195499 0.114809 0.060670
0.221775 0.121096 0.064393
0.246891 0.125521 0.068574
0.270176 0.127901 0.071229
0.289036 0.129915 0.072450
0.305669 0.131991 0.074281
0.322698 0.132601 0.075593
0.341039 0.134127 0.076936
0.366003 0.139345 0.080842
0.393957 0.147005 0.085206
0.421210 0.154055 0.090181
0.441657 0.161624 0.093416
0.043732 0.106355 0.052552
0.060639 0.118868 0.050111
0.107607 0.129915 0.057923
0.151034 0.137240 0.062531
0.182406 0.144045 0.066712
0.214420 0.150057 0.070192
0.241886 0.154940 0.073823
0.267948 0.161196 0.077668
0.291264 0.164858 0.080568
0.311315 0.166445 0.082277
0.328161 0.165652 0.083650
0.344244 0.166079 0.085206
0.364019 0.169467 0.087587
0.388556 0.174441 0.091066
0.414679 0.182132 0.095369
0.438178 0.188632 0.099214
0.455604 0.193149 0.102205
0.052796 0.134188 0.062104
0.070375 0.146609 0.061555
0.118563 0.161715 0.066865
0.165713 0.176486 0.072206
0.201205 0.178103 0.074769
0.232639 0.186007 0.079500
0.264195 0.192386 0.083833
0.289677 0.197208 0.087068
0.310887 0.198581 0.088258
0.330449 0.200992 0.090517
0.348638 0.202457 0.092714
0.367010 0.202640 0.095003
0.386542 0.206088 0.098238
0.410132 0.210300 0.101289
0.436072 0.216922 0.105592
0.455177 0.222232 0.109499
0.472847 0.226352 0.113283
0.060609 0.160708 0.071748
0.081941 0.177646 0.071229
0.133669 0.197330 0.075959
0.188235 0.215518 0.081514
0.229557 0.225345 0.086793
0.261265 0.228946 0.091127
0.291386 0.238193 0.095766
0.316716 0.242161 0.098970
0.336187 0.241886 0.100038
0.355200 0.241306 0.101747
0.374731 0.244327 0.104982
0.395117 0.246128 0.107637
0.415869 0.249210 0.111116
0.436347 0.252720 0.114687
0.458900 0.255619 0.117983
0.476356 0.260166 0.122316
0.494697 0.263676 0.127382
0.068208 0.187106 0.081483
0.093507 0.208652 0.080049
0.155764 0.236210 0.085664
0.215305 0.257816 0.093172
0.264866 0.275669 0.101472
0.296971 0.279240 0.105348
0.324773 0.284764 0.111391
0.350622 0.293004 0.114137
0.368872 0.292790 0.116884
0.387671 0.291661 0.119417
0.408637 0.294499 0.122683
0.428717 0.296208 0.125551
0.450874 0.297490 0.129366
0.469947 0.301060 0.133089
0.488136 0.303349 0.136477
0.508110 0.306981 0.141482
0.527031 0.310033 0.145754
0.075532 0.216709 0.091310
0.109194 0.243412 0.089448
0.179599 0.275792 0.096162
0.246738 0.303014 0.106386
0.295415 0.320195 0.115511
0.330388 0.329229 0.122560
0.360388 0.332769 0.127535
0.381476 0.336461 0.133791
0.405097 0.343236 0.136934
0.422431 0.342657 0.142092
0.443824 0.345190 0.146853
0.464912 0.349035 0.150576
0.485756 0.350713 0.155154
0.504173 0.352422 0.159365
0.521202 0.354070 0.162020
0.540124 0.356786 0.167117
0.557763 0.364080 0.172793
0.083925 0.249210 0.101778
0.129458 0.282261 0.099611
0.201389 0.312078 0.105867
0.264225 0.337285 0.115816
0.311986 0.356847 0.124941
0.348058 0.369299 0.132601
0.384161 0.379309 0.143648
0.412543 0.381811 0.151858
0.430915 0.383856 0.158755
0.452522 0.387854 0.163821
0.472236 0.389868 0.171420
0.494850 0.393744 0.178317
0.517693 0.400275 0.185580
0.540764 0.406195 0.192172
0.556695 0.406012 0.194064
0.569787 0.406622 0.196750
0.584955 0.415961 0.202365
0.092256 0.281041 0.112367
0.141024 0.317357 0.108705
0.209110 0.340398 0.112825
0.263523 0.360327 0.121126
0.302251 0.374884 0.128084
0.339605 0.389349 0.134798
0.380896 0.408148 0.146212
0.423468 0.423255 0.162264
0.453651 0.426246 0.175662
0.475257 0.428595 0.186587
0.498238 0.433478 0.196231
0.523583 0.441505 0.208194
0.548913 0.446723 0.217044
0.571771 0.454383 0.222721
0.588861 0.456001 0.223545
0.599451 0.455238 0.222782
0.610956 0.459266 0.223392
0.099763 0.312688 0.122957
0.137423 0.342840 0.119326
0.191684 0.361425 0.119448
0.236728 0.373693 0.123354
0.267643 0.382605 0.128176
0.302525 0.393896 0.133730
0.350134 0.413581 0.142977
0.398352 0.435645 0.155825
0.449195 0.458381 0.176211
0.489998 0.468116 0.201053
0.519707 0.474311 0.220432
0.550744 0.486763 0.237858
0.579492 0.497932 0.249058
0.596582 0.497261 0.248356
0.610925 0.498054 0.244388
0.621973 0.498878 0.242039
0.633631 0.497780 0.238346
0.106752 0.342992 0.131594
0.129915 0.363897 0.131167
0.163546 0.376318 0.130953
0.193912 0.383856 0.131075
0.219486 0.388159 0.132723
0.246235 0.394842 0.134676
0.299123 0.411627 0.139712
0.361532 0.435676 0.150546
0.420096 0.464607 0.166690
0.479286 0.496651 0.198428
0.528801 0.512932 0.235935
0.566369 0.523003 0.260410
0.596613 0.532799 0.273777
0.613306 0.532799 0.271244
0.623987 0.529839 0.263737
0.637842 0.534539 0.262669
0.647700 0.530877 0.256168
0.112093 0.368475 0.137423
0.130709 0.382727 0.142214
0.148196 0.392798 0.143313
0.167910 0.398749 0.145968
0.189029 0.402136 0.147768
0.209201 0.404822 0.147311
0.251057 0.416144 0.143984
0.324575 0.439246 0.148562
0.398032 0.470649 0.163851
0.461616 0.505730 0.190585
0.524620 0.537987 0.237278
0.574975 0.556329 0.277775
0.602411 0.559167 0.292424
0.620081 0.559136 0.292912
0.631189 0.556664 0.288487
0.643366 0.557336 0.285771
0.654444 0.555840 0.280522
0.117739 0.390295 0.143435
0.133852 0.399023 0.148013
0.150088 0.409583 0.151125
0.167514 0.415442 0.154696
0.184939 0.418952 0.156741
0.206912 0.424475 0.157565
0.243473 0.434211 0.154543
0.308431 0.455177 0.153780
0.390707 0.485145 0.167056
0.462333 0.521416 0.196750
0.524681 0.555810 0.240879
0.579950 0.582300 0.288029
0.609705 0.587793 0.308202
0.619623 0.578546 0.306432
0.633661 0.579553 0.306737
0.639185 0.575036 0.303288
0.653895 0.576684 0.303532
0.123964 0.410803 0.151614
0.138613 0.417975 0.154452
0.153414 0.426032 0.155917
0.170718 0.433845 0.158572
0.189914 0.437537 0.159335
0.221561 0.447059 0.159396
0.270604 0.462959 0.159152
0.335058 0.482673 0.162875
0.408133 0.510399 0.178866
0.478599 0.545892 0.215274
0.543694 0.583429 0.264378
0.588708 0.606561 0.303288
0.617792 0.613550 0.322789
0.624628 0.603998 0.318822
0.629023 0.592126 0.311376
0.638575 0.590539 0.311192
0.642603 0.584192 0.307103
0.127810 0.429938 0.158267
0.142916 0.433753 0.159945
0.159152 0.446326 0.161410
0.175937 0.455238 0.163272
0.201511 0.463478 0.162203
0.250492 0.477455 0.159762
0.320348 0.497078 0.165103
0.388220 0.519005 0.177707
0.453529 0.549157 0.206485
0.520058 0.588434 0.254398
0.573266 0.617761 0.300847
0.611322 0.631556 0.328496
0.630426 0.634211 0.338293
0.635126 0.625788 0.332921
0.636530 0.617823 0.323583
0.640162 0.611200 0.317693
0.643397 0.594446 0.310430
0.131563 0.445563 0.162325
0.148074 0.453559 0.166690
0.164675 0.465309 0.168856
0.180850 0.475135 0.170718
0.211307 0.484474 0.168002
0.274571 0.503349 0.164309
0.357580 0.527764 0.175723
0.437690 0.564752 0.204440
0.509911 0.603815 0.254887
0.569940 0.631128 0.306279
0.611963 0.645502 0.336065
0.631922 0.648524 0.344366
0.639429 0.644312 0.343877
0.643580 0.639643 0.341863
0.642390 0.632380 0.333745
0.646174 0.630945 0.328618
0.646357 0.618891 0.318517
0.025574 0.032410 0.068421
0.051789 0.032532 0.072145
0.090181 0.038819 0.066316
0.119173 0.045167 0.065309
0.145876 0.049531 0.062959
0.167300 0.052705 0.062348
0.186801 0.054444 0.061006
0.207614 0.056825 0.060090
0.228428 0.059419 0.061097
0.250767 0.063386 0.064363
0.274846 0.067720 0.067048
0.294713 0.069368 0.066743
0.315099 0.072480 0.067872
0.338262 0.076600 0.070771
0.365820 0.083070 0.076051
0.390661 0.090455 0.080873
0.412634 0.095583 0.083223
0.030335 0.054231 0.060731
0.056458 0.064912 0.067201
0.114168 0.049073 0.042939
0.135927 0.049317 0.040467
0.157809 0.052338 0.041474
0.179629 0.055207 0.043030
0.200778 0.058259 0.045594
0.222446 0.060487 0.047669
0.243992 0.061982 0.049012
0.263584 0.064576 0.050874
0.282719 0.067872 0.052888
0.305241 0.071931 0.055055
0.329595 0.078798 0.058717
0.356176 0.083986 0.061463
0.380743 0.089906 0.065217
0.400397 0.098421 0.071839
0.430793 0.129274 0.099672
0.038697 0.083375 0.064179
0.044465 0.102327 0.054231
0.135378 0.123354 0.063539
0.164248 0.109499 0.058350
0.188815 0.104585 0.058228
0.211368 0.102693 0.059419
0.234012 0.104768 0.062501
0.254307 0.105959 0.064790
0.272618 0.105287 0.065980
0.289128 0.105226 0.066285
0.306004 0.106020 0.067201
0.325597 0.107332 0.069001
0.350408 0.113375 0.073121
0.377295 0.121340 0.077943
0.402777 0.126986 0.081514
0.424781 0.136202 0.087770
0.450690 0.165530 0.111940
0.046601 0.108461 0.071382
0.052857 0.133089 0.062287
0.119234 0.160464 0.067994
0.197330 0.176150 0.075685
0.215854 0.159640 0.071809
0.239322 0.154421 0.073060
0.263279 0.152499 0.074983
0.283848 0.152346 0.077577
0.298772 0.148867 0.077699
0.315831 0.147433 0.078492
0.333532 0.147890 0.079744
0.351324 0.148684 0.081239
0.374640 0.153292 0.084718
0.401373 0.159609 0.088777
0.424628 0.164401 0.092226
0.444862 0.172274 0.098878
0.467079 0.197879 0.122744
0.054383 0.135775 0.079927
0.060792 0.160922 0.072724
0.116060 0.190280 0.074586
0.199374 0.217380 0.084169
0.260502 0.229343 0.091737
0.275639 0.213443 0.089082
0.292973 0.204532 0.088533
0.311833 0.200107 0.089357
0.327825 0.196567 0.090028
0.341161 0.191226 0.089662
0.358190 0.189364 0.091310
0.377478 0.189731 0.093263
0.398810 0.192874 0.096071
0.425361 0.198856 0.100557
0.445472 0.202853 0.103487
0.463844 0.209079 0.110048
0.485237 0.233219 0.134493
0.061555 0.161563 0.088075
0.068330 0.187900 0.081209
0.123629 0.220981 0.081575
0.213657 0.258701 0.094362
0.278782 0.277409 0.104433
0.323796 0.285130 0.110506
0.334874 0.268925 0.107210
0.346288 0.257176 0.105348
0.359808 0.249424 0.104921
0.374670 0.244327 0.104982
0.390204 0.240299 0.105867
0.408301 0.239841 0.108248
0.428412 0.239689 0.110445
0.449134 0.242039 0.113893
0.468177 0.246372 0.118196
0.485817 0.250614 0.124086
0.510185 0.274998 0.149447
0.068757 0.187686 0.095644
0.075563 0.216922 0.090944
0.138857 0.255741 0.091157
0.228641 0.295537 0.103212
0.298192 0.320684 0.115816
0.345190 0.330999 0.125154
0.380407 0.336065 0.132509
0.390082 0.322698 0.129610
0.402045 0.312566 0.128023
0.415717 0.304784 0.127108
0.431769 0.299596 0.127626
0.448371 0.296574 0.129091
0.466072 0.296056 0.131075
0.480568 0.294255 0.132570
0.498085 0.295659 0.136751
0.516777 0.299809 0.143801
0.541222 0.324987 0.173068
0.075441 0.215152 0.104158
0.083772 0.248539 0.101625
0.154513 0.291997 0.100862
0.238743 0.326207 0.111543
0.306615 0.352605 0.123384
0.357641 0.371496 0.135134
0.400885 0.381048 0.149111
0.432197 0.383062 0.158297
0.443153 0.374578 0.157992
0.456794 0.364477 0.156527
0.475410 0.361822 0.158755
0.491463 0.358251 0.159945
0.508019 0.356634 0.161471
0.521904 0.354040 0.162783
0.535454 0.352239 0.164706
0.551659 0.355993 0.172671
0.574578 0.379980 0.203098
0.083345 0.245212 0.115114
0.091829 0.280217 0.112093
0.160220 0.323705 0.109987
0.236454 0.351690 0.117708
0.294133 0.371984 0.127047
0.342748 0.388922 0.136172
0.397436 0.414252 0.152773
0.443702 0.425635 0.171359
0.479957 0.428901 0.188327
0.495460 0.423072 0.190707
0.510613 0.417304 0.193606
0.532464 0.419593 0.199374
0.549676 0.418921 0.200534
0.563745 0.416266 0.200320
0.573297 0.411200 0.198947
0.586053 0.410712 0.203281
0.604028 0.428779 0.228336
0.092836 0.278599 0.127840
0.099702 0.311498 0.121859
0.149508 0.347509 0.120027
0.212650 0.369848 0.123537
0.257115 0.380529 0.127443
0.299550 0.393591 0.133822
0.360769 0.418494 0.145968
0.424735 0.447181 0.165042
0.478798 0.464607 0.194644
0.523613 0.476936 0.223209
0.544579 0.472023 0.227848
0.565454 0.474403 0.234195
0.582574 0.472053 0.233219
0.596216 0.470436 0.230228
0.606653 0.466255 0.227604
0.614893 0.461616 0.227237
0.626215 0.468330 0.243534
0.100893 0.311772 0.138918
0.106447 0.341558 0.130220
0.136416 0.366674 0.131044
0.178531 0.382788 0.133394
0.213077 0.387701 0.134035
0.246387 0.396551 0.136324
0.306050 0.416327 0.141665
0.383017 0.445197 0.155367
0.453605 0.480049 0.180377
0.521447 0.511101 0.230320
0.566888 0.524468 0.260471
0.588617 0.519799 0.264408
0.607324 0.520775 0.263249
0.617426 0.513878 0.254093
0.628656 0.510979 0.249210
0.638911 0.509117 0.247257
0.645716 0.510887 0.260777
0.107332 0.342199 0.146090
0.112551 0.367987 0.137972
0.134554 0.383642 0.143008
0.159640 0.396063 0.144228
0.184634 0.399573 0.145907
0.210208 0.404913 0.147127
0.258808 0.419867 0.145144
0.343557 0.447181 0.152834
0.424186 0.481697 0.171847
0.501915 0.525628 0.218845
0.567620 0.554192 0.271977
0.599481 0.555657 0.289403
0.615686 0.550225 0.287083
0.628382 0.546838 0.280339
0.639490 0.544305 0.273869
0.652552 0.545190 0.269352
0.661585 0.549310 0.280491
0.113313 0.369024 0.151247
0.118135 0.390448 0.144686
0.137789 0.401892 0.149844
0.157046 0.411994 0.151461
0.178225 0.416968 0.154238
0.202853 0.422644 0.155978
0.245655 0.433570 0.153109
0.324361 0.459876 0.156130
0.415152 0.496651 0.176150
0.490791 0.535637 0.217807
0.560143 0.573938 0.273442
0.605158 0.585534 0.304417
0.618341 0.575250 0.304692
0.629541 0.570611 0.300145
0.640711 0.568689 0.298558
0.655116 0.568811 0.294713
0.669123 0.572290 0.295109
0.119173 0.392645 0.157290
0.123232 0.410590 0.151308
0.141817 0.419013 0.155154
0.160006 0.431434 0.157107
0.181582 0.436927 0.159152
0.213016 0.444739 0.159304
0.265324 0.460945 0.160067
0.338827 0.484657 0.164706
0.427054 0.522271 0.189822
0.505104 0.562188 0.235782
0.566552 0.594446 0.283665
0.606989 0.609583 0.314855
0.623957 0.604181 0.319219
0.630701 0.593378 0.312474
0.639063 0.587671 0.310277
0.650874 0.585901 0.312078
0.671748 0.590845 0.312413
0.125643 0.415656 0.166354
0.128786 0.429358 0.158053
0.145815 0.435065 0.161044
0.163668 0.448951 0.162631
0.188205 0.459632 0.164828
0.230198 0.470741 0.161135
0.299748 0.491981 0.164157
0.380407 0.519585 0.178775
0.459892 0.554406 0.214481
0.536385 0.594995 0.265843
0.589563 0.622431 0.309026
0.620386 0.631525 0.330449
0.633173 0.627771 0.334356
0.635431 0.617853 0.325567
0.640375 0.609796 0.318456
0.649775 0.601587 0.318212
0.672847 0.607111 0.332403
0.130190 0.436042 0.174197
0.134310 0.445350 0.165957
0.153780 0.452216 0.172152
0.173892 0.469856 0.173983
0.202182 0.483528 0.176120
0.255070 0.500175 0.171511
0.335683 0.521416 0.176913
0.427268 0.557336 0.205905
0.505287 0.597009 0.254124
0.569390 0.626947 0.303685
0.613550 0.642908 0.333898
0.637049 0.648829 0.345190
0.648249 0.647211 0.348699
0.648249 0.636622 0.341894
0.652369 0.632105 0.335698
0.651637 0.621942 0.327062
0.676234 0.627100 0.344579
0.134249 0.453132 0.179232
0.156710 0.457893 0.192599
0.186801 0.484169 0.209415
0.211978 0.506706 0.211460
0.253819 0.523033 0.216983
0.321233 0.536156 0.212039
0.402350 0.558587 0.217716
0.484352 0.595911 0.258152
0.551415 0.630732 0.307012
0.597314 0.649226 0.340642
0.630518 0.655848 0.353765
0.651850 0.656886 0.354681
0.662623 0.656092 0.355230
0.669367 0.653925 0.358251
0.676356 0.649470 0.358740
0.680995 0.648707 0.359899
0.681086 0.643671 0.358770
0.027985 0.037324 0.090455
0.045502 0.033631 0.100160
0.077577 0.038819 0.101289
0.109773 0.043580 0.098085
0.138857 0.049378 0.096132
0.164401 0.053285 0.090639
0.185855 0.055940 0.086946
0.206394 0.057740 0.083131
0.227329 0.059663 0.081971
0.249241 0.063233 0.084047
0.274418 0.067628 0.087007
0.298070 0.069490 0.088411
0.321172 0.071107 0.089937
0.348058 0.073487 0.092439
0.377050 0.078889 0.097627
0.408118 0.086854 0.105318
0.432929 0.095521 0.111055
0.036866 0.063081 0.091737
0.036011 0.048920 0.107057
0.095705 0.047181 0.125154
0.135775 0.049928 0.097169
0.164096 0.052979 0.079988
0.185641 0.054505 0.071351
0.207126 0.057099 0.069215
0.228275 0.059632 0.068574
0.251377 0.063844 0.070466
0.273320 0.066773 0.070344
0.293828 0.068421 0.069429
0.318975 0.071473 0.071229
0.344854 0.077424 0.074678
0.368658 0.084627 0.079042
0.393835 0.092073 0.085023
0.419196 0.100710 0.091432
0.457038 0.131502 0.124178
0.042176 0.086885 0.092164
0.054200 0.107942 0.115084
0.101717 0.101350 0.102235
0.169802 0.080537 0.068971
0.183597 0.069734 0.056641
0.201907 0.063264 0.050080
0.222904 0.061280 0.048341
0.243870 0.063569 0.049989
0.264256 0.065156 0.051179
0.283482 0.066957 0.052277
0.306249 0.072877 0.055665
0.330602 0.079042 0.058778
0.356573 0.084169 0.061830
0.379431 0.089723 0.066255
0.403082 0.101747 0.075196
0.431617 0.130343 0.098604
0.466346 0.164828 0.133669
0.049866 0.113405 0.095583
0.057008 0.138186 0.102113
0.064057 0.147189 0.075807
0.197269 0.174746 0.093629
0.227787 0.152041 0.080201
0.250889 0.137850 0.073823
0.268406 0.128054 0.070893
0.283421 0.122652 0.070466
0.298405 0.119692 0.070558
0.314916 0.117678 0.071107
0.332982 0.117617 0.072297
0.355657 0.121584 0.075563
0.380591 0.127779 0.079255
0.407568 0.135378 0.084291
0.429328 0.146426 0.092866
0.453864 0.170718 0.114626
0.480171 0.200565 0.147311
0.057374 0.139712 0.102968
0.063325 0.164279 0.103059
0.072572 0.179660 0.085634
0.186007 0.224704 0.093324
0.285985 0.252110 0.110506
0.299840 0.221805 0.095491
0.309819 0.200076 0.089662
0.320531 0.184482 0.086824
0.330938 0.174197 0.085023
0.344762 0.169741 0.084962
0.364263 0.169192 0.087190
0.385657 0.170352 0.089754
0.407874 0.174136 0.093050
0.431800 0.179080 0.097230
0.452338 0.187869 0.105715
0.473640 0.208591 0.127321
0.497047 0.238621 0.159945
0.064118 0.165408 0.110719
0.069856 0.189364 0.107790
0.076081 0.212100 0.091402
0.194125 0.273167 0.100374
0.299992 0.311406 0.117525
0.368811 0.326482 0.133150
0.366400 0.288609 0.117556
0.367864 0.261234 0.109133
0.374914 0.243320 0.105348
0.385168 0.232517 0.103426
0.399298 0.226566 0.103517
0.418280 0.224125 0.105409
0.437934 0.223697 0.108003
0.456703 0.224796 0.111513
0.474434 0.231693 0.120150
0.495460 0.250095 0.142031
0.523583 0.280949 0.176242
0.070680 0.191226 0.120424
0.076600 0.216098 0.113832
0.083436 0.246311 0.101076
0.195987 0.307652 0.106172
0.298375 0.347723 0.122621
0.376165 0.374060 0.141634
0.429053 0.383001 0.158999
0.423316 0.345006 0.144411
0.427832 0.324498 0.136660
0.435981 0.307851 0.131685
0.447242 0.296437 0.128908
0.459846 0.287266 0.127321
0.474861 0.283299 0.128664
0.489479 0.281773 0.131746
0.508110 0.287541 0.141329
0.528313 0.303868 0.164645
0.555291 0.334539 0.201785
0.077974 0.220035 0.131777
0.083284 0.244480 0.121553
0.092622 0.281529 0.113405
0.190524 0.332677 0.112551
0.278965 0.365789 0.124178
0.349248 0.391089 0.138369
0.425422 0.419959 0.163699
0.477729 0.430488 0.188296
0.479286 0.401404 0.178531
0.490303 0.385824 0.173739
0.500755 0.372854 0.169284
0.510369 0.359701 0.164034
0.521263 0.352102 0.161959
0.532860 0.349218 0.163851
0.546380 0.350896 0.171969
0.564874 0.365240 0.194980
0.589227 0.392615 0.230350
0.086549 0.250492 0.141970
0.090974 0.275517 0.130861
0.100649 0.312993 0.122988
0.170840 0.354406 0.120912
0.241215 0.376379 0.126101
0.299077 0.392920 0.133822
0.380621 0.426184 0.152163
0.463783 0.461250 0.185672
0.524620 0.478920 0.223667
0.536980 0.459586 0.219821
0.549706 0.445762 0.215396
0.559991 0.435813 0.210422
0.567102 0.423484 0.203983
0.575372 0.416129 0.201663
0.585077 0.412451 0.205539
0.600092 0.423346 0.225010
0.616754 0.442878 0.253239
0.094942 0.281193 0.149813
0.099641 0.309300 0.140291
0.106294 0.340856 0.130037
0.150790 0.372351 0.132113
0.199588 0.386236 0.134279
0.241566 0.396551 0.137148
0.316518 0.420264 0.143618
0.414206 0.461524 0.166735
0.501991 0.501610 0.215854
0.566857 0.523339 0.259892
0.584833 0.509361 0.256626
0.596826 0.500298 0.249607
0.604944 0.487526 0.239506
0.610773 0.477180 0.232822
0.617914 0.470405 0.232944
0.627924 0.471992 0.246525
0.639612 0.483955 0.270085
0.101442 0.310582 0.156405
0.106661 0.341222 0.147585
0.111971 0.366186 0.137179
0.139803 0.387854 0.141665
0.175479 0.399847 0.145541
0.206790 0.406195 0.147829
0.262806 0.422492 0.146212
0.365621 0.458473 0.157778
0.463462 0.505760 0.194507
0.550805 0.546258 0.258732
0.598047 0.554681 0.287633
0.612757 0.542931 0.280552
0.625116 0.536767 0.270909
0.632990 0.526513 0.259281
0.642756 0.521508 0.256107
0.650477 0.520378 0.267002
0.658839 0.527306 0.291173
0.107271 0.339178 0.163027
0.112459 0.367132 0.153903
0.117464 0.388708 0.144198
0.140536 0.402472 0.150393
0.166415 0.415717 0.152438
0.196109 0.421454 0.155642
0.245411 0.434760 0.153750
0.335805 0.465797 0.158602
0.443381 0.512901 0.190478
0.532708 0.558953 0.247440
0.594965 0.583307 0.297581
0.617823 0.575586 0.303624
0.628870 0.566278 0.296910
0.641657 0.560235 0.290471
0.653559 0.555657 0.281102
0.665034 0.558801 0.287144
0.675532 0.567620 0.316960
0.113466 0.366644 0.168795
0.118746 0.390692 0.160525
0.123476 0.410864 0.151461
0.145174 0.420996 0.157443
0.167269 0.433265 0.157656
0.198672 0.440192 0.159152
0.254612 0.456947 0.158877
0.339773 0.486305 0.165133
0.445975 0.533043 0.201724
0.532357 0.575006 0.254093
0.591608 0.603174 0.302464
0.620356 0.604089 0.318059
0.630884 0.593500 0.312352
0.639063 0.583307 0.307713
0.655604 0.581384 0.309758
0.671382 0.583703 0.306889
0.684565 0.593805 0.332830
0.119081 0.390021 0.173678
0.124544 0.414435 0.168185
0.128695 0.427710 0.158236
0.150149 0.437903 0.163699
0.173404 0.454658 0.165438
0.208713 0.464607 0.164340
0.278294 0.485878 0.164706
0.370260 0.518029 0.178653
0.468589 0.561669 0.224308
0.552438 0.602502 0.277562
0.603357 0.623743 0.316716
0.629206 0.629267 0.333684
0.635523 0.619043 0.327947
0.641230 0.609155 0.318944
0.652399 0.601373 0.320287
0.673854 0.604791 0.329107
0.684993 0.606531 0.336614
0.125795 0.414649 0.182101
0.130587 0.434577 0.176699
0.136995 0.445167 0.169009
0.162356 0.458259 0.177737
0.188174 0.478218 0.180606
0.228824 0.491768 0.177890
0.308339 0.513268 0.177340
0.411643 0.551904 0.204105
0.503304 0.593805 0.256657
0.578439 0.628107 0.308629
0.623316 0.643977 0.336767
0.642786 0.645319 0.345159
0.651850 0.641535 0.346471
0.652705 0.632685 0.339269
0.655573 0.624231 0.331151
0.677058 0.625147 0.343847
0.689418 0.624170 0.351232
0.133120 0.435828 0.193118
0.138674 0.453498 0.188663
0.158877 0.459236 0.195254
0.189700 0.485084 0.211215
0.221042 0.509972 0.212924
0.280644 0.527947 0.214664
0.364721 0.548974 0.214298
0.457298 0.584527 0.245151
0.538354 0.622736 0.297551
0.596979 0.646967 0.338628
0.634150 0.654688 0.352575
0.655543 0.656001 0.356146
0.667842 0.656825 0.360876
0.673640 0.652033 0.361028
0.678462 0.649226 0.359655
0.681910 0.645289 0.358099
0.693751 0.642298 0.363348
0.141360 0.455268 0.203891
0.171847 0.475105 0.229892
0.203403 0.500725 0.254795
0.228000 0.525139 0.264469
0.226566 0.562402 0.224887
0.338537 0.564202 0.260777
0.424781 0.584894 0.264988
0.502617 0.614954 0.294499
0.566033 0.643214 0.337163
0.608698 0.656001 0.359564
0.640925 0.662806 0.367041
0.665431 0.668086 0.372290
0.680842 0.671077 0.378698
0.690425 0.671778 0.383124
0.696132 0.665980 0.381323
0.699580 0.663172 0.378912
0.698970 0.659510 0.376226
0.031434 0.044862 0.116915
0.043580 0.036652 0.126772
0.067689 0.036103 0.129061
0.098909 0.042878 0.132815
0.125460 0.045563 0.129854
0.154421 0.050965 0.126772
0.180667 0.055665 0.121126
0.202487 0.057710 0.115023
0.225345 0.060182 0.111543
0.250492 0.064240 0.113466
0.276799 0.068421 0.116060
0.302678 0.070069 0.117647
0.327184 0.070558 0.121126
