tools/luts_backup/LPP Tetrachrome 400_FPE.cube
# (C) 2014 VisionColor & Patchflyer [www.vision-color.com]
# Generator: VC Patchmatch v.2.1.1 [64/53]
# All work and no play makes Jack a dull boy.
# LUT generated from: LPP Tetrachrome 400_FPE
LUT_3D_SIZE 9
0.032944 0.036393 0.037034
0.059602 0.040681 0.034897
0.113771 0.048981 0.036530
0.163119 0.053407 0.037140
0.216648 0.054002 0.037629
0.268116 0.052049 0.038880
0.314656 0.050324 0.040650
0.373281 0.051377 0.043610
0.417151 0.052598 0.046082
0.028656 0.049607 0.040574
0.071443 0.067247 0.039261
0.152514 0.084794 0.038819
0.226703 0.093324 0.039475
0.293767 0.096086 0.041108
0.340658 0.094667 0.042267
0.384054 0.089876 0.043915
0.443153 0.090791 0.046952
0.490486 0.095033 0.049577
0.028473 0.075624 0.045808
0.073136 0.113664 0.043427
0.201343 0.144701 0.040513
0.300389 0.160555 0.041917
0.372442 0.165164 0.044556
0.423041 0.164218 0.046586
0.466712 0.161379 0.048157
0.520241 0.164599 0.050523
0.556527 0.167102 0.052506
0.029877 0.108370 0.052445
0.091920 0.176593 0.041672
0.303761 0.253925 0.043061
0.409216 0.268299 0.046479
0.475746 0.274861 0.049363
0.527459 0.272435 0.052979
0.576242 0.270695 0.057084
0.615579 0.270939 0.059464
0.656184 0.270069 0.061830
0.031540 0.149493 0.058106
0.133623 0.253880 0.040391
0.369314 0.342473 0.047501
0.516030 0.386709 0.060044
0.576028 0.385611 0.063783
0.628290 0.388037 0.068376
0.683436 0.393942 0.074327
0.731243 0.393515 0.079393
0.768658 0.399847 0.084154
0.034821 0.193637 0.064378
0.082338 0.278264 0.041871
0.241306 0.340856 0.043793
0.426734 0.400717 0.054017
0.611765 0.468101 0.077012
0.695155 0.477684 0.087999
0.772808 0.495048 0.101274
0.820981 0.490486 0.104265
0.851713 0.485161 0.106569
0.037369 0.228107 0.065660
0.038987 0.252934 0.058167
0.055955 0.292744 0.051911
0.167712 0.348318 0.045365
0.504845 0.456550 0.064820
0.704707 0.537133 0.099153
0.797528 0.555596 0.122728
0.844846 0.549020 0.121202
0.880018 0.543450 0.122286
0.038666 0.252171 0.067720
0.039261 0.268696 0.061021
0.048402 0.305028 0.054643
0.177310 0.384054 0.047059
0.503151 0.482414 0.068147
0.714519 0.571359 0.106462
0.818173 0.615137 0.141238
0.838285 0.587472 0.132387
0.857740 0.576593 0.130129
0.039399 0.269825 0.067643
0.040116 0.288441 0.060182
0.053025 0.335790 0.048997
0.372076 0.469505 0.059159
0.646006 0.573739 0.097368
0.789075 0.637247 0.144289
0.846555 0.646311 0.152865
0.856565 0.632227 0.145602
0.868360 0.614984 0.137591
0.028443 0.037476 0.064805
0.052155 0.041611 0.073381
0.109621 0.048997 0.067735
0.163561 0.054215 0.059190
0.215076 0.054398 0.051759
0.271534 0.053849 0.050370
0.323690 0.050065 0.048310
0.380896 0.048692 0.049470
0.434256 0.052277 0.052750
0.028031 0.055863 0.069795
0.063066 0.074159 0.076158
0.161242 0.060075 0.040253
0.214862 0.053910 0.037659
0.267445 0.051652 0.038865
0.317617 0.051026 0.040864
0.372290 0.051591 0.043595
0.420066 0.055558 0.046479
0.495872 0.094331 0.057328
0.029068 0.084428 0.075044
0.030106 0.105379 0.057893
0.335363 0.226520 0.046235
0.370504 0.166659 0.044511
0.389548 0.134066 0.044709
0.425223 0.121462 0.045808
0.470466 0.116991 0.048188
0.514000 0.121447 0.050889
0.567605 0.174807 0.062333
0.030243 0.116930 0.085084
0.031388 0.147555 0.058091
0.340215 0.328603 0.045838
0.572747 0.384466 0.063447
0.559411 0.309331 0.056611
0.571679 0.269718 0.056687
0.591852 0.245762 0.056718
0.623240 0.241947 0.058427
0.679225 0.292500 0.073472
0.032044 0.157931 0.097093
0.034806 0.193820 0.064103
0.179873 0.321157 0.042832
0.488090 0.421881 0.060212
0.701778 0.481804 0.089479
0.730083 0.442802 0.085801
0.748806 0.412879 0.083696
0.765179 0.394156 0.083482
0.795224 0.420569 0.098100
0.034913 0.199832 0.100328
0.037278 0.226856 0.065919
0.047318 0.279423 0.052781
0.192203 0.359808 0.045792
0.616556 0.500389 0.081529
0.792691 0.551400 0.120226
0.841672 0.529198 0.115236
0.865476 0.508400 0.112779
0.869642 0.507378 0.118456
0.037263 0.234730 0.101259
0.038682 0.252125 0.067674
0.040879 0.281926 0.058564
0.140154 0.369009 0.047089
0.566110 0.509575 0.077668
0.779721 0.599588 0.127291
0.841047 0.588693 0.132906
0.871489 0.571176 0.130709
0.900587 0.577356 0.139590
0.038819 0.260914 0.102220
0.039445 0.272236 0.073777
0.042481 0.311589 0.067170
0.234607 0.431556 0.050889
0.635889 0.566690 0.095293
0.814939 0.639536 0.145144
0.866972 0.643656 0.154635
0.873487 0.619547 0.142275
0.902327 0.614069 0.151034
0.040116 0.284306 0.115434
0.042924 0.341558 0.161730
0.088853 0.418097 0.171847
0.449195 0.533303 0.092195
0.692546 0.628031 0.157000
0.828214 0.667674 0.182620
0.893263 0.680415 0.184665
0.910842 0.669764 0.181903
0.914305 0.657603 0.169696
0.030045 0.039521 0.101930
0.040970 0.038407 0.111467
0.085252 0.044770 0.121111
0.153216 0.052201 0.117693
0.215457 0.054185 0.102770
0.287114 0.052949 0.099214
0.344350 0.048768 0.093919
0.412589 0.048997 0.107622
0.472969 0.054490 0.127153
0.031006 0.061906 0.115328
0.031403 0.045838 0.128756
0.134142 0.052003 0.158938
0.215564 0.054795 0.102647
0.282414 0.053468 0.077424
0.335515 0.050080 0.066651
0.394919 0.049516 0.066529
0.452995 0.055451 0.076081
0.517632 0.092683 0.133639
0.031678 0.095125 0.133822
0.034211 0.133974 0.185916
0.177584 0.173022 0.179889
0.296925 0.111589 0.065888
0.326177 0.068605 0.044144
0.372808 0.053513 0.043793
0.423697 0.057786 0.046967
0.492393 0.091798 0.056870
0.564569 0.158724 0.112169
0.031586 0.133165 0.147768
0.033051 0.181292 0.174884
0.043778 0.192508 0.089006
0.527871 0.375006 0.096529
0.556100 0.275837 0.057939
0.545357 0.197955 0.052338
0.561807 0.178027 0.053208
0.614267 0.217731 0.065934
0.703899 0.312306 0.150698
0.033219 0.185077 0.182467
0.034958 0.212757 0.146304
0.036728 0.224582 0.074128
0.369329 0.403037 0.053376
0.755566 0.529183 0.119234
0.788067 0.458457 0.094636
0.764828 0.394202 0.083528
0.776150 0.396658 0.093980
0.816785 0.457237 0.194095
0.035431 0.223056 0.180652
0.037156 0.238849 0.124849
0.038605 0.251896 0.069718
0.077317 0.334447 0.049561
0.647028 0.543450 0.092592
0.841443 0.589380 0.134752
0.876280 0.541711 0.121828
0.879469 0.524697 0.123827
0.874052 0.552651 0.220035
0.037171 0.246098 0.152667
0.038941 0.266133 0.127810
0.039551 0.276066 0.079652
0.078813 0.365667 0.055253
0.627771 0.562661 0.094194
0.851926 0.647868 0.154864
0.875685 0.621286 0.144350
0.901045 0.601373 0.148135
0.902190 0.622538 0.257008
0.039109 0.280446 0.168933
0.040345 0.302739 0.159884
0.042512 0.339330 0.160967
0.183108 0.459205 0.131075
0.648814 0.601724 0.126711
0.847166 0.671504 0.185153
0.900832 0.679683 0.193668
0.914137 0.661387 0.176089
0.914870 0.674327 0.294179
0.041367 0.329885 0.229541
0.046754 0.381491 0.275898
0.079606 0.441764 0.303899
0.331106 0.519921 0.187259
0.631952 0.614374 0.175891
0.805966 0.686076 0.277195
0.878767 0.717083 0.323415
0.902663 0.718578 0.350591
0.921035 0.720012 0.350057
0.030259 0.038071 0.132174
0.035386 0.037446 0.140322
0.072679 0.040330 0.153948
0.135714 0.045792 0.160250
0.227222 0.048814 0.162325
0.305669 0.048859 0.159869
0.363394 0.046433 0.161273
0.431312 0.049805 0.183169
0.497642 0.058122 0.211612
0.033188 0.065507 0.151781
0.031998 0.040604 0.168017
0.071305 0.040833 0.189319
0.242710 0.045350 0.218967
0.314565 0.047456 0.183658
0.364340 0.046845 0.161563
0.427131 0.049653 0.164569
0.488380 0.059266 0.186709
0.532525 0.096803 0.232395
0.034211 0.099001 0.176562
0.036698 0.105898 0.219059
0.042008 0.089570 0.203204
0.309270 0.115175 0.269963
0.352728 0.057176 0.164263
0.413993 0.050141 0.130312
0.472465 0.058961 0.133150
0.524514 0.094255 0.173327
0.589990 0.174594 0.254582
0.034073 0.142245 0.202731
0.038697 0.210803 0.294789
0.042283 0.231586 0.294026
0.353948 0.343145 0.332525
0.462959 0.214954 0.145068
0.456748 0.125399 0.074327
0.494820 0.095918 0.059342
0.572671 0.162890 0.114031
0.706477 0.325734 0.272282
0.035950 0.200656 0.241138
0.038437 0.266911 0.301442
0.037446 0.277394 0.265202
0.112856 0.305272 0.138277
0.673640 0.512764 0.249348
0.731807 0.424308 0.120211
0.723751 0.339147 0.084977
0.766384 0.388846 0.169512
0.819425 0.491356 0.346334
0.037018 0.255756 0.277455
0.038514 0.301625 0.284581
0.039734 0.301274 0.213993
0.041718 0.292576 0.131289
0.574853 0.525567 0.099886
0.864591 0.618250 0.187640
0.889174 0.557305 0.135332
0.874128 0.551385 0.215900
0.878828 0.605142 0.407279
0.038605 0.302617 0.290181
0.040574 0.325200 0.269474
0.041276 0.331579 0.230350
0.043107 0.341695 0.166720
0.507134 0.548257 0.097307
0.869337 0.678370 0.196155
0.914626 0.668452 0.188037
0.907546 0.647837 0.265797
0.907393 0.669474 0.434073
0.041489 0.341375 0.299016
0.043122 0.361166 0.302358
0.047669 0.389914 0.303365
0.079194 0.438972 0.296971
0.515358 0.571023 0.150912
0.804273 0.687251 0.275288
0.894667 0.719951 0.337545
0.920943 0.716197 0.332967
0.918975 0.706691 0.432074
0.044663 0.380362 0.340749
0.049989 0.411017 0.355184
0.073533 0.449592 0.362234
0.203021 0.517617 0.349157
0.564797 0.611719 0.266545
0.762570 0.704860 0.393256
0.877256 0.747784 0.436896
0.903136 0.752270 0.457710
0.929183 0.752514 0.465660
0.032029 0.040864 0.168460
0.034791 0.039124 0.169451
0.072587 0.040543 0.190280
0.142336 0.042145 0.206836
0.243626 0.044770 0.220706
0.333715 0.045319 0.231449
0.391241 0.046296 0.235248
0.445548 0.050477 0.250950
0.501884 0.058610 0.273655
0.035065 0.067552 0.191409
0.034272 0.042908 0.200488
0.055177 0.040925 0.213687
0.189303 0.041215 0.253635
0.352865 0.045487 0.277562
0.398886 0.046845 0.263340
0.445731 0.050706 0.260410
0.496681 0.059342 0.271290
0.533654 0.094606 0.298100
0.036759 0.107118 0.221866
0.037903 0.095125 0.245975
0.036011 0.055512 0.224887
0.145663 0.050446 0.266499
0.409598 0.060746 0.316579
0.445853 0.051164 0.281743
0.493996 0.059922 0.273106
0.536049 0.097398 0.289662
0.596780 0.183169 0.335897
0.036912 0.154864 0.254749
0.039506 0.180957 0.309804
0.040345 0.175418 0.320684
0.075441 0.178317 0.301106
0.483375 0.255467 0.398047
0.480491 0.108553 0.284596
0.533227 0.100938 0.255512
0.597833 0.183200 0.304387
0.713848 0.352544 0.400671
0.038865 0.213169 0.297398
0.045518 0.306767 0.402380
0.053895 0.367926 0.449454
0.094377 0.369833 0.412955
0.528222 0.505287 0.471687
0.640894 0.374380 0.303136
0.615000 0.237766 0.182864
0.703243 0.322255 0.270710
0.808881 0.515221 0.454444
0.041840 0.286397 0.350072
0.054765 0.401450 0.437430
0.068467 0.464988 0.476020
0.069413 0.418647 0.398032
0.269780 0.459754 0.320974
0.802365 0.626139 0.392218
0.854429 0.567498 0.305470
0.860883 0.567987 0.382803
0.869352 0.632136 0.511009
0.049317 0.381949 0.409216
0.058869 0.444648 0.449744
0.055695 0.446082 0.437720
0.053849 0.424384 0.381003
0.116564 0.446418 0.294942
0.759106 0.668910 0.321508
0.904982 0.708705 0.378759
0.911665 0.682124 0.431586
0.904524 0.705272 0.546197
0.056687 0.436439 0.437812
0.055802 0.448203 0.440253
0.057420 0.444800 0.418311
0.077012 0.463844 0.397620
0.203113 0.520989 0.354818
0.694316 0.673915 0.357687
0.884352 0.748837 0.446021
0.927672 0.750668 0.462409
0.915740 0.738689 0.548516
0.056153 0.453544 0.448325
0.059846 0.454688 0.430655
0.086961 0.482719 0.432639
0.182177 0.544671 0.451316
0.423346 0.621653 0.464439
0.679576 0.708309 0.512551
0.841230 0.760800 0.544991
0.894377 0.770596 0.548028
0.927733 0.775296 0.548455
0.034318 0.042420 0.201053
0.034806 0.043442 0.198489
0.071794 0.041001 0.220706
0.154192 0.040803 0.245670
0.261204 0.041855 0.265446
0.355093 0.045304 0.278691
0.408804 0.048249 0.288243
0.450965 0.051377 0.299382
0.486015 0.054170 0.307561
0.036149 0.067781 0.224872
0.036149 0.044694 0.227802
0.049271 0.041047 0.234913
0.165148 0.041657 0.278828
0.321004 0.044190 0.306569
0.424475 0.051713 0.325078
0.454871 0.052064 0.316075
0.482887 0.054841 0.316152
0.520119 0.082490 0.333227
0.038575 0.112734 0.260243
0.037919 0.083925 0.261372
0.037537 0.047013 0.249210
0.105974 0.043061 0.285542
0.347189 0.049042 0.338979
0.467185 0.056138 0.357870
0.484276 0.055879 0.332418
0.520165 0.081117 0.339773
0.584451 0.175525 0.380240
0.039109 0.165148 0.298772
0.040955 0.171496 0.333761
0.041016 0.134249 0.326986
0.041062 0.101350 0.286870
0.270283 0.107317 0.355871
0.507912 0.128298 0.394629
0.519295 0.083513 0.352514
0.586007 0.176226 0.382010
0.699443 0.345006 0.454734
0.041016 0.219059 0.337530
0.045533 0.272923 0.409491
0.048371 0.299153 0.453407
0.048478 0.276753 0.417533
0.195056 0.336080 0.433783
0.642313 0.423865 0.525582
0.617121 0.254963 0.411383
0.705730 0.349737 0.440970
0.794583 0.516533 0.528420
0.045457 0.304784 0.403662
0.063386 0.430503 0.506432
0.073594 0.483650 0.563043
0.148425 0.525338 0.560906
0.362799 0.564401 0.557198
0.654398 0.623987 0.585046
0.770123 0.542046 0.483116
0.804440 0.506874 0.445823
0.850126 0.637705 0.582910
0.063447 0.428641 0.471412
0.078553 0.493248 0.526223
0.076234 0.506661 0.538857
0.103151 0.533989 0.536004
0.214099 0.572457 0.525154
0.500694 0.618143 0.503487
0.863600 0.724300 0.552758
0.903166 0.703395 0.543694
0.889326 0.724498 0.624018
0.079561 0.494514 0.508217
0.071962 0.499352 0.517052
0.089708 0.516655 0.511086
0.140764 0.552834 0.513817
0.231693 0.588510 0.512551
0.429603 0.623911 0.466285
0.831434 0.758862 0.543038
0.926619 0.776730 0.552422
0.906615 0.769787 0.643915
0.068727 0.495354 0.507515
0.083696 0.506416 0.498360
0.136858 0.550851 0.512413
0.259800 0.609827 0.543297
0.467826 0.678004 0.577279
0.646296 0.728389 0.600717
0.779538 0.780240 0.640696
0.876768 0.805432 0.658244
0.916945 0.805142 0.649607
0.035996 0.044358 0.225330
0.036393 0.046098 0.226749
0.075608 0.041428 0.247745
0.163439 0.041505 0.277821
0.277409 0.041901 0.301122
0.367819 0.047333 0.315282
0.426764 0.051667 0.325536
0.459678 0.052964 0.329168
0.480858 0.053132 0.328222
0.037003 0.064988 0.246006
0.037598 0.045823 0.249836
0.044938 0.043000 0.253803
0.163958 0.043900 0.308537
0.321248 0.047852 0.338033
0.408331 0.051133 0.349020
0.466514 0.054551 0.357168
0.486107 0.055482 0.348470
0.515465 0.075257 0.354742
0.039185 0.109926 0.283925
0.038682 0.078843 0.280171
0.038895 0.049577 0.270237
0.079454 0.045014 0.294606
0.326116 0.063279 0.373953
0.423819 0.055772 0.371939
0.493141 0.058106 0.378042
0.517662 0.076829 0.370352
0.564706 0.148898 0.396048
0.041047 0.174151 0.335790
0.042374 0.167971 0.356390
0.041276 0.122271 0.335897
0.040284 0.078187 0.301259
0.198459 0.082170 0.361639
0.443595 0.092821 0.401862
0.516640 0.078386 0.398444
0.566659 0.149081 0.408392
0.671550 0.313771 0.479179
0.043519 0.235904 0.380484
0.046479 0.263844 0.428275
0.046998 0.261280 0.444617
0.045502 0.231601 0.425635
0.066896 0.218173 0.401862
0.487816 0.275532 0.496895
0.613550 0.251133 0.480873
0.665278 0.307500 0.483818
0.780331 0.511131 0.573434
0.047822 0.315984 0.441657
0.053925 0.386343 0.511711
0.057404 0.407172 0.540078
0.070481 0.424628 0.545357
0.184436 0.475029 0.557488
0.467185 0.524346 0.593423
0.754314 0.565026 0.637675
0.777981 0.513481 0.577066
0.835981 0.637644 0.644373
0.068147 0.441093 0.511482
0.070878 0.480446 0.567025
0.074662 0.505333 0.597360
0.117815 0.559503 0.619577
0.313344 0.642969 0.656306
0.580194 0.696788 0.681605
0.771237 0.727733 0.693736
0.845655 0.670161 0.617945
0.865064 0.734020 0.693355
0.081254 0.503792 0.546136
0.073777 0.507744 0.566445
0.108629 0.550225 0.576745
0.214740 0.619242 0.605432
0.379965 0.678248 0.638117
0.541344 0.724971 0.658442
0.686793 0.740459 0.631815
0.897505 0.802945 0.681620
0.884978 0.783856 0.722576
0.071031 0.504829 0.545174
0.102022 0.536538 0.547173
0.201755 0.605631 0.581582
0.368215 0.669474 0.618418
0.543069 0.727779 0.662715
0.667536 0.765087 0.687785
0.761303 0.790494 0.704311
0.846616 0.821881 0.736873
0.898253 0.830442 0.744778
0.037568 0.046021 0.249592
0.037171 0.046494 0.247227
0.077821 0.041672 0.273915
0.192615 0.044373 0.317617
0.306645 0.047684 0.337301
0.375769 0.049882 0.344656
0.433143 0.053330 0.355398
0.465431 0.055100 0.358724
0.488167 0.053895 0.354910
0.038315 0.065492 0.269718
0.038804 0.047623 0.268269
0.042329 0.047623 0.270054
0.158236 0.048219 0.332280
0.338506 0.064561 0.380072
0.397574 0.055329 0.370428
0.448844 0.054414 0.373632
0.491463 0.056748 0.377279
0.515984 0.075380 0.377188
0.039887 0.107424 0.304707
0.039780 0.081636 0.301991
0.040131 0.073411 0.298192
0.070527 0.069322 0.311162
0.281529 0.091096 0.389273
0.422843 0.093004 0.401251
0.473793 0.077455 0.399161
0.515480 0.073823 0.399268
0.567468 0.150576 0.418540
0.042832 0.184176 0.368429
0.043244 0.169375 0.376593
0.043015 0.152239 0.364904
0.048600 0.150042 0.364340
0.193591 0.160662 0.408362
0.454490 0.188312 0.459388
0.532433 0.172442 0.452430
0.583597 0.167819 0.451545
0.670024 0.313298 0.503929
0.045930 0.253025 0.421714
0.046983 0.258930 0.443992
0.047532 0.268193 0.452903
0.063005 0.301045 0.477256
0.146746 0.328038 0.497704
0.502968 0.361471 0.562020
0.624506 0.348287 0.553765
0.690150 0.346731 0.551705
0.780438 0.515068 0.619989
0.050340 0.333730 0.479164
0.052873 0.357351 0.512886
0.060426 0.385733 0.527184
0.115206 0.445304 0.559472
0.296864 0.526543 0.623560
0.479606 0.525780 0.640269
0.698726 0.543114 0.662974
0.782925 0.532906 0.655955
0.830594 0.643153 0.685237
0.060899 0.424903 0.531182
0.061753 0.443519 0.564187
0.088075 0.484398 0.579828
0.187060 0.552483 0.616312
0.356588 0.615228 0.664836
0.535225 0.661479 0.704005
0.669261 0.659480 0.709438
0.822232 0.682261 0.727230
0.857114 0.737026 0.737697
0.070222 0.478325 0.568292
0.072969 0.503655 0.598291
0.110399 0.555337 0.619898
0.228916 0.631876 0.662654
0.396292 0.698466 0.707271
0.589502 0.756924 0.751369
0.730083 0.789487 0.773281
0.846677 0.804166 0.779904
0.884230 0.808392 0.784161
0.069886 0.502037 0.577752
0.109606 0.552422 0.590188
0.223011 0.629938 0.630076
0.397421 0.693660 0.668009
0.580484 0.750805 0.712886
0.702434 0.785824 0.739620
0.777768 0.810391 0.763851
0.852094 0.839216 0.795193
0.901793 0.855848 0.814054
0.038743 0.044755 0.266712
0.038132 0.046616 0.266072
0.072877 0.041764 0.294057
0.224323 0.056626 0.363455
0.353658 0.065476 0.385901
0.386923 0.054780 0.372976
0.420050 0.050919 0.369726
0.462364 0.053681 0.375921
0.487434 0.054475 0.376089
0.039704 0.063905 0.291432
0.040253 0.073533 0.298650
0.048096 0.077684 0.301411
0.133486 0.059678 0.332387
0.314092 0.095888 0.395361
0.413153 0.096422 0.403601
0.454444 0.081346 0.399145
0.482719 0.073732 0.397772
0.511666 0.071061 0.395789
0.041184 0.113970 0.333837
0.041703 0.122499 0.338766
0.047150 0.142916 0.356832
0.091890 0.159716 0.375677
0.308476 0.171298 0.438788
0.452003 0.191623 0.458137
0.508873 0.177493 0.449760
0.548257 0.171313 0.451331
0.578317 0.164157 0.448478
0.044388 0.191089 0.398276
0.044007 0.199924 0.404074
0.053666 0.246357 0.437736
0.146365 0.326802 0.497276
0.390677 0.360571 0.551812
0.546151 0.364599 0.564370
0.607538 0.352102 0.552941
0.659022 0.351370 0.556542
0.694667 0.350500 0.554162
0.047150 0.255802 0.445716
0.048508 0.282216 0.463706
0.078202 0.355566 0.508507
0.272007 0.475990 0.601862
0.497230 0.533913 0.646677
0.620722 0.538689 0.658488
0.701183 0.542809 0.664118
0.750256 0.542565 0.667735
0.787610 0.538430 0.660380
0.051011 0.327352 0.497688
0.057527 0.369726 0.518868
0.115373 0.445563 0.558892
0.313359 0.548943 0.636652
0.525673 0.612757 0.685069
0.644511 0.640955 0.711284
0.730861 0.655406 0.722316
0.775662 0.661570 0.726070
0.825589 0.663005 0.727138
0.055238 0.399802 0.544167
0.072786 0.443366 0.558236
0.161975 0.516243 0.597009
0.344884 0.599420 0.657008
0.537972 0.661128 0.704463
0.655390 0.697230 0.734356
0.750027 0.724498 0.756481
0.810330 0.742199 0.771389
0.854810 0.750927 0.777188
0.061189 0.450172 0.572106
0.095552 0.504189 0.588357
0.213352 0.584573 0.634684
0.386221 0.653330 0.684688
0.565591 0.712627 0.732250
0.688991 0.745418 0.757488
0.771130 0.776364 0.785168
0.836210 0.802411 0.809445
0.883131 0.816785 0.823835
0.069078 0.496544 0.599161
0.109285 0.552605 0.616251
0.231159 0.633707 0.664317
0.390982 0.696742 0.706310
0.582071 0.759060 0.753460
0.716854 0.798871 0.786786
0.791730 0.822721 0.809400
0.856352 0.850706 0.836591
0.897093 0.858854 0.848402
