tools/luts_backup/LPP Tetrachrome 400_VS.cube
# (C) 2014 VisionColor & Patchflyer [www.vision-color.com]
# Generator: VC Patchmatch v.2.1.1 [64/53]
# All work and no play makes Jack a dull boy.
# LUT generated from: LPP Tetrachrome 400_VisionSpace
LUT_3D_SIZE 5
0.028199 0.029999 0.029999
0.138674 0.049989 0.039582
0.223941 0.061769 0.048096
0.304143 0.071046 0.054322
0.403998 0.094331 0.069459
0.052796 0.134188 0.062104
0.201205 0.178103 0.074769
0.310887 0.198581 0.088258
0.386542 0.206088 0.098238
0.472847 0.226352 0.113283
0.083925 0.249210 0.101778
0.311986 0.356847 0.124941
0.430915 0.383856 0.158755
0.517693 0.400275 0.185580
0.584955 0.415961 0.202365
0.112093 0.368475 0.137423
0.189029 0.402136 0.147768
0.398032 0.470649 0.163851
0.602411 0.559167 0.292424
0.654444 0.555840 0.280522
0.131563 0.445563 0.162325
0.211307 0.484474 0.168002
0.509911 0.603815 0.254887
0.639429 0.644312 0.343877
0.646357 0.618891 0.318517
0.032624 0.046693 0.136416
0.117769 0.045350 0.154788
0.224918 0.060792 0.142489
0.330632 0.070375 0.150515
0.458442 0.110048 0.203098
0.062684 0.149722 0.160891
0.220249 0.204807 0.220035
0.311070 0.101106 0.079072
0.405127 0.107546 0.080842
0.548119 0.224369 0.207828
0.097475 0.274998 0.217441
0.126711 0.352239 0.146548
0.578912 0.531792 0.282994
0.585321 0.412802 0.207065
0.670710 0.470863 0.315496
0.119142 0.369085 0.210605
0.142550 0.446784 0.175570
0.498741 0.589136 0.256794
0.658625 0.625818 0.335271
0.720790 0.622980 0.375463
0.177676 0.486793 0.297704
0.260288 0.561730 0.348821
0.533928 0.632166 0.333806
0.698177 0.690822 0.395117
0.739559 0.695552 0.416907
0.040009 0.060883 0.215274
0.112642 0.048280 0.237552
0.244999 0.063996 0.256718
0.360265 0.079225 0.275853
0.465675 0.129671 0.321935
0.072419 0.168429 0.251408
0.066041 0.097688 0.282353
0.372992 0.121767 0.355993
0.456733 0.130404 0.320226
0.547753 0.243992 0.382971
0.110536 0.295476 0.311925
0.233692 0.449393 0.469871
0.487724 0.491173 0.481025
0.623270 0.273640 0.253925
0.707668 0.518349 0.490013
0.231693 0.484260 0.431464
0.278172 0.575402 0.474418
0.248081 0.553185 0.316472
0.731533 0.683955 0.422675
0.751095 0.671473 0.547234
0.284916 0.587213 0.487343
0.298497 0.585687 0.469825
0.449332 0.658900 0.475822
0.702876 0.716213 0.531060
0.761868 0.726040 0.538628
0.044892 0.074220 0.285771
0.122896 0.055329 0.312352
0.275975 0.073610 0.347753
0.389258 0.106752 0.367071
0.442908 0.114778 0.373388
0.077455 0.176730 0.323247
0.057557 0.090578 0.348211
0.318151 0.127749 0.436042
0.443366 0.134920 0.423621
0.503563 0.224186 0.433753
0.126009 0.323522 0.399359
0.155215 0.352529 0.476509
0.201801 0.276661 0.478477
0.554513 0.290913 0.529671
0.689632 0.494865 0.599939
0.290074 0.528374 0.540276
0.342046 0.612055 0.623743
0.437919 0.667628 0.679561
0.685389 0.684199 0.676753
0.731716 0.693477 0.679713
0.335790 0.624353 0.585534
0.379156 0.665675 0.616815
0.567102 0.714565 0.666072
0.697688 0.736568 0.693568
0.760006 0.755520 0.706264
0.047913 0.077821 0.350591
0.130037 0.062776 0.385718
0.336889 0.133944 0.447395
0.383917 0.112459 0.423102
0.440436 0.124361 0.424414
0.083070 0.187472 0.388861
0.150790 0.210391 0.433051
0.328939 0.219455 0.525170
0.456611 0.237339 0.492409
0.507134 0.240635 0.484840
0.142733 0.348119 0.479194
0.265812 0.414206 0.561288
0.514992 0.536950 0.678981
0.638025 0.525826 0.677424
0.692958 0.519936 0.670649
0.262211 0.506249 0.573175
0.346288 0.569970 0.649073
0.560143 0.650263 0.707210
0.687037 0.687282 0.719509
0.736324 0.703151 0.731167
0.335058 0.615717 0.625238
0.413458 0.677638 0.691798
0.602533 0.728450 0.732723
0.723140 0.755306 0.754055
0.775540 0.775540 0.775540
