tools/luts_backup/LPP Tetrachrome 400_VS.cube
# (C) 2014 VisionColor & Patchflyer [www.vision-color.com]
# Generator: VC Patchmatch v.2.1.1 [64/53]
# All work and no play makes Jack a dull boy.
# LUT generated from: LPP Tetrachrome 400_VisionSpace
LUT_3D_SIZE 9
0.028199 0.029999 0.029999
0.088624 0.037476 0.033082
0.138674 0.049989 0.039582
0.180636 0.055909 0.043732
0.223941 0.061769 0.048096
0.264530 0.066194 0.051514
0.304143 0.071046 0.054322
0.357885 0.083558 0.061067
0.403998 0.094331 0.069459
0.032868 0.077699 0.040406
0.099550 0.094087 0.048157
0.167666 0.110811 0.058167
0.221775 0.121096 0.064393
0.270176 0.127901 0.071229
0.305669 0.131991 0.074281
0.341039 0.134127 0.076936
0.393957 0.147005 0.085206
0.441657 0.161624 0.093416
0.052796 0.134188 0.062104
0.118563 0.161715 0.066865
0.201205 0.178103 0.074769
0.264195 0.192386 0.083833
0.310887 0.198581 0.088258
0.348638 0.202457 0.092714
0.386542 0.206088 0.098238
0.436072 0.216922 0.105592
0.472847 0.226352 0.113283
0.068208 0.187106 0.081483
0.155764 0.236210 0.085664
0.264866 0.275669 0.101472
0.324773 0.284764 0.111391
0.368872 0.292790 0.116884
0.408637 0.294499 0.122683
0.450874 0.297490 0.129366
0.488136 0.303349 0.136477
0.527031 0.310033 0.145754
0.083925 0.249210 0.101778
0.201389 0.312078 0.105867
0.311986 0.356847 0.124941
0.384161 0.379309 0.143648
0.430915 0.383856 0.158755
0.472236 0.389868 0.171420
0.517693 0.400275 0.185580
0.556695 0.406012 0.194064
0.584955 0.415961 0.202365
0.099763 0.312688 0.122957
0.191684 0.361425 0.119448
0.267643 0.382605 0.128176
0.350134 0.413581 0.142977
0.449195 0.458381 0.176211
0.519707 0.474311 0.220432
0.579492 0.497932 0.249058
0.610925 0.498054 0.244388
0.633631 0.497780 0.238346
0.112093 0.368475 0.137423
0.148196 0.392798 0.143313
0.189029 0.402136 0.147768
0.251057 0.416144 0.143984
0.398032 0.470649 0.163851
0.524620 0.537987 0.237278
0.602411 0.559167 0.292424
0.631189 0.556664 0.288487
0.654444 0.555840 0.280522
0.123964 0.410803 0.151614
0.153414 0.426032 0.155917
0.189914 0.437537 0.159335
0.270604 0.462959 0.159152
0.408133 0.510399 0.178866
0.543694 0.583429 0.264378
0.617792 0.613550 0.322789
0.629023 0.592126 0.311376
0.642603 0.584192 0.307103
0.131563 0.445563 0.162325
0.164675 0.465309 0.168856
0.211307 0.484474 0.168002
0.357580 0.527764 0.175723
0.509911 0.603815 0.254887
0.611963 0.645502 0.336065
0.639429 0.644312 0.343877
0.642390 0.632380 0.333745
0.646357 0.618891 0.318517
0.027985 0.037324 0.090455
0.077577 0.038819 0.101289
0.138857 0.049378 0.096132
0.185855 0.055940 0.086946
0.227329 0.059663 0.081971
0.274418 0.067628 0.087007
0.321172 0.071107 0.089937
0.377050 0.078889 0.097627
0.432929 0.095521 0.111055
0.042176 0.086885 0.092164
0.101717 0.101350 0.102235
0.183597 0.069734 0.056641
0.222904 0.061280 0.048341
0.264256 0.065156 0.051179
0.306249 0.072877 0.055665
0.356573 0.084169 0.061830
0.403082 0.101747 0.075196
0.466346 0.164828 0.133669
0.057374 0.139712 0.102968
0.072572 0.179660 0.085634
0.285985 0.252110 0.110506
0.309819 0.200076 0.089662
0.330938 0.174197 0.085023
0.364263 0.169192 0.087190
0.407874 0.174136 0.093050
0.452338 0.187869 0.105715
0.497047 0.238621 0.159945
0.070680 0.191226 0.120424
0.083436 0.246311 0.101076
0.298375 0.347723 0.122621
0.429053 0.383001 0.158999
0.427832 0.324498 0.136660
0.447242 0.296437 0.128908
0.474861 0.283299 0.128664
0.508110 0.287541 0.141329
0.555291 0.334539 0.201785
0.086549 0.250492 0.141970
0.100649 0.312993 0.122988
0.241215 0.376379 0.126101
0.380621 0.426184 0.152163
0.524620 0.478920 0.223667
0.549706 0.445762 0.215396
0.567102 0.423484 0.203983
0.585077 0.412451 0.205539
0.616754 0.442878 0.253239
0.101442 0.310582 0.156405
0.111971 0.366186 0.137179
0.175479 0.399847 0.145541
0.262806 0.422492 0.146212
0.463462 0.505760 0.194507
0.598047 0.554681 0.287633
0.625116 0.536767 0.270909
0.642756 0.521508 0.256107
0.658839 0.527306 0.291173
0.113466 0.366644 0.168795
0.123476 0.410864 0.151461
0.167269 0.433265 0.157656
0.254612 0.456947 0.158877
0.445975 0.533043 0.201724
0.591608 0.603174 0.302464
0.630884 0.593500 0.312352
0.655604 0.581384 0.309758
0.684565 0.593805 0.332830
0.125795 0.414649 0.182101
0.136995 0.445167 0.169009
0.188174 0.478218 0.180606
0.308339 0.513268 0.177340
0.503304 0.593805 0.256657
0.623316 0.643977 0.336767
0.651850 0.641535 0.346471
0.655573 0.624231 0.331151
0.689418 0.624170 0.351232
0.141360 0.455268 0.203891
0.203403 0.500725 0.254795
0.226566 0.562402 0.224887
0.424781 0.584894 0.264988
0.566033 0.643214 0.337163
0.640925 0.662806 0.367041
0.680842 0.671077 0.378698
0.696132 0.665980 0.381323
0.698970 0.659510 0.376226
0.032624 0.046693 0.136416
0.063630 0.036622 0.148989
0.117769 0.045350 0.154788
0.174411 0.054566 0.151583
0.224918 0.060792 0.142489
0.281132 0.069245 0.147158
0.330632 0.070375 0.150515
0.398077 0.084291 0.175082
0.458442 0.110048 0.203098
0.050263 0.098054 0.145296
0.046082 0.064424 0.170169
0.164645 0.062501 0.195193
0.225193 0.061830 0.142519
0.277806 0.067903 0.124117
0.325933 0.071046 0.120363
0.386023 0.080903 0.130953
0.445228 0.106416 0.152346
0.500175 0.165225 0.217380
0.062684 0.149722 0.160891
0.087343 0.201450 0.214176
0.220249 0.204807 0.220035
0.296696 0.143862 0.116152
0.311070 0.101106 0.079072
0.355749 0.087953 0.065461
0.405127 0.107546 0.080842
0.464149 0.161715 0.132082
0.548119 0.224369 0.207828
0.076387 0.206241 0.179294
0.097078 0.270634 0.211063
0.117342 0.290776 0.119356
0.426551 0.380041 0.210758
0.441535 0.303716 0.152651
0.449042 0.244770 0.117708
0.475044 0.235752 0.123781
0.524437 0.275212 0.176608
0.612329 0.348943 0.263554
0.097475 0.274998 0.217441
0.107515 0.319768 0.196719
0.126711 0.352239 0.146548
0.336950 0.429541 0.167147
0.578912 0.531792 0.282994
0.591241 0.466026 0.229969
0.585321 0.412802 0.207065
0.607538 0.421622 0.244999
0.670710 0.470863 0.315496
0.112337 0.327794 0.225010
0.114626 0.365545 0.187259
0.125002 0.409247 0.153536
0.220264 0.443458 0.159335
0.498955 0.558923 0.240284
0.632471 0.594202 0.315526
0.652644 0.554131 0.282536
0.665522 0.544182 0.302159
0.699916 0.562554 0.350225
0.119142 0.369085 0.210605
0.130831 0.413977 0.202182
0.142550 0.446784 0.175570
0.240436 0.494820 0.184573
0.498741 0.589136 0.256794
0.642359 0.644526 0.345830
0.658625 0.625818 0.335271
0.688045 0.613825 0.346410
0.720790 0.622980 0.375463
0.140810 0.421180 0.235843
0.160464 0.463783 0.242222
0.201602 0.498939 0.254063
0.315038 0.558190 0.254856
0.533272 0.624964 0.311192
0.650172 0.663569 0.369909
0.689693 0.670314 0.384833
0.700465 0.661463 0.379614
0.731899 0.663233 0.392004
0.177676 0.486793 0.297704
0.226139 0.523400 0.337530
0.260288 0.561730 0.348821
0.365225 0.593194 0.274083
0.533928 0.632166 0.333806
0.644678 0.673243 0.370520
0.698177 0.690822 0.395117
0.722744 0.692592 0.411688
0.739559 0.695552 0.416907
0.033845 0.048585 0.172396
0.058808 0.042542 0.187411
0.108705 0.043183 0.193637
0.163333 0.050599 0.194858
0.232029 0.060761 0.199832
0.291936 0.069947 0.203616
0.342046 0.071443 0.210880
0.408026 0.091768 0.238926
0.471077 0.125063 0.272343
0.054139 0.104616 0.185946
0.039796 0.060243 0.214908
0.111543 0.049226 0.236820
0.244388 0.064759 0.254948
0.296818 0.069734 0.224521
0.342870 0.073121 0.211368
0.405615 0.090883 0.223667
0.463813 0.125032 0.252140
0.499672 0.173342 0.295048
0.065583 0.155428 0.202823
0.072694 0.166629 0.248814
0.102846 0.134951 0.262852
0.300298 0.145235 0.305028
0.332036 0.092012 0.214237
0.395331 0.089082 0.194156
0.455055 0.118807 0.207919
0.500114 0.168521 0.249332
0.561700 0.233646 0.318730
0.081239 0.213718 0.227512
0.110079 0.292699 0.309880
0.153689 0.299229 0.316503
0.348730 0.347967 0.352209
0.460273 0.240085 0.198428
0.428473 0.179187 0.151492
0.466835 0.165560 0.137026
0.554376 0.228824 0.210727
0.689937 0.344106 0.326757
0.103182 0.285863 0.264012
0.140322 0.364492 0.322698
0.155673 0.379248 0.300053
0.189883 0.390539 0.165499
0.569757 0.508904 0.303563
0.582788 0.437095 0.267536
0.582422 0.373129 0.225727
0.642176 0.411124 0.290501
0.715084 0.488762 0.383169
0.129946 0.356298 0.302800
0.163058 0.418189 0.321157
0.158602 0.435462 0.273701
0.175204 0.423224 0.209476
0.469261 0.541344 0.260578
0.666743 0.617365 0.362432
0.675959 0.574212 0.324315
0.698451 0.561730 0.349706
0.734585 0.596857 0.432990
0.163546 0.418921 0.325353
0.177554 0.459205 0.319188
0.183078 0.482979 0.298131
0.203525 0.498543 0.257481
0.450645 0.589502 0.272251
0.663386 0.664546 0.376837
0.704433 0.665431 0.386389
0.724392 0.643122 0.382513
0.746151 0.649439 0.452399
0.191959 0.476844 0.344732
0.205020 0.508904 0.354467
0.231846 0.527245 0.357519
0.258030 0.559838 0.342657
0.466575 0.607233 0.305272
0.643778 0.675074 0.370672
0.712947 0.693477 0.404761
0.737942 0.693812 0.410864
0.749020 0.679866 0.454017
0.220493 0.530541 0.387549
0.248417 0.543297 0.399512
0.274998 0.560693 0.403998
0.296666 0.610040 0.354833
0.494347 0.638178 0.322103
0.638483 0.690059 0.413794
0.713100 0.710597 0.451667
0.735683 0.714076 0.468360
0.756252 0.714565 0.478065
0.040009 0.060883 0.215274
0.060578 0.053498 0.227359
0.112642 0.048280 0.237552
0.174350 0.054078 0.247044
0.244999 0.063996 0.256718
0.310582 0.073335 0.268681
0.360265 0.079225 0.275853
0.414557 0.096651 0.295506
0.465675 0.129671 0.321935
0.057404 0.111910 0.230411
0.042512 0.068788 0.253849
0.095583 0.053864 0.271885
0.211948 0.059876 0.296239
0.327337 0.081575 0.316045
0.366613 0.085206 0.303288
0.412970 0.098451 0.303716
0.460029 0.129885 0.319219
0.489784 0.175174 0.345647
0.072419 0.168429 0.251408
0.071077 0.155123 0.283970
0.066041 0.097688 0.282353
0.187076 0.080598 0.320653
0.372992 0.121767 0.355993
0.409155 0.102358 0.322423
0.456733 0.130404 0.320226
0.493599 0.177401 0.339513
0.547753 0.243992 0.382971
0.090272 0.229709 0.277653
0.102327 0.261662 0.331640
0.116670 0.252049 0.348241
0.167941 0.228367 0.379492
0.470985 0.263188 0.458259
0.440894 0.171862 0.328023
0.496651 0.177554 0.312932
0.557549 0.242161 0.358129
0.677089 0.358099 0.444068
0.110536 0.295476 0.311925
0.176410 0.394919 0.413138
0.233692 0.449393 0.469871
0.239719 0.421500 0.443809
0.487724 0.491173 0.481025
0.613062 0.371603 0.334936
0.623270 0.273640 0.253925
0.688991 0.341100 0.325414
0.707668 0.518349 0.490013
0.154604 0.378271 0.362127
0.249577 0.498085 0.459937
0.299229 0.570306 0.511681
0.261295 0.506798 0.427604
0.309087 0.509789 0.324498
0.669932 0.611322 0.407401
0.707271 0.566445 0.367010
0.727016 0.563607 0.414435
0.732509 0.616144 0.524529
0.231693 0.484260 0.431464
0.280644 0.558648 0.482918
0.278172 0.575402 0.474418
0.259739 0.548882 0.420310
0.248081 0.553185 0.316472
0.624643 0.658961 0.370245
0.731533 0.683955 0.422675
0.746517 0.659663 0.450904
0.751095 0.671473 0.547234
0.272465 0.551904 0.469642
0.279942 0.578882 0.477546
0.277256 0.567864 0.456153
0.286442 0.571344 0.436622
0.298924 0.613184 0.360906
0.592630 0.673274 0.384497
0.719783 0.711208 0.458228
0.754971 0.713252 0.475532
0.756802 0.697108 0.543542
0.284916 0.587213 0.487343
0.285588 0.576562 0.468757
0.298497 0.585687 0.469825
0.320684 0.625483 0.473213
0.449332 0.658900 0.475822
0.606104 0.691279 0.509361
0.702876 0.716213 0.531060
0.737240 0.721645 0.534905
0.761868 0.726040 0.538628
0.042237 0.067689 0.255070
0.066682 0.067445 0.268376
0.115419 0.051667 0.276005
0.187106 0.056245 0.290867
0.260380 0.066468 0.304387
0.329168 0.081483 0.317235
0.375586 0.092226 0.328679
0.414771 0.104402 0.341131
0.448096 0.117433 0.351324
0.060487 0.117128 0.270176
0.045838 0.075227 0.289036
0.090089 0.060548 0.305699
0.199374 0.061860 0.332067
0.306859 0.082643 0.351659
0.387060 0.106661 0.366461
0.416632 0.108797 0.358099
0.442573 0.119936 0.358679
0.471168 0.165255 0.373358
0.077668 0.177737 0.293767
0.067445 0.143313 0.307347
0.050721 0.081849 0.317662
0.157168 0.066407 0.357458
0.327535 0.100404 0.389990
0.422126 0.123720 0.401373
0.441718 0.124605 0.374792
0.470283 0.164767 0.379248
0.525994 0.241032 0.419440
0.096925 0.243168 0.322972
0.101137 0.251072 0.361151
0.090944 0.208423 0.367987
0.115663 0.160235 0.353429
0.286366 0.157916 0.418082
0.452674 0.198322 0.431189
0.468177 0.167727 0.391546
0.526970 0.241947 0.421180
0.655360 0.352590 0.508476
0.115846 0.303807 0.353704
0.151598 0.363180 0.425055
0.176867 0.391104 0.474693
0.190936 0.350912 0.448798
0.275822 0.357992 0.514672
0.595331 0.401877 0.568475
0.581491 0.285054 0.463416
0.662959 0.355718 0.490455
0.697353 0.511208 0.561181
0.173220 0.394568 0.413855
0.281010 0.520806 0.534173
0.323796 0.581018 0.592279
0.333471 0.586679 0.599603
0.411093 0.577844 0.586938
0.600916 0.603449 0.591608
0.671992 0.537331 0.509804
0.706844 0.510292 0.482048
0.718379 0.623926 0.600488
0.274693 0.519524 0.498360
0.323369 0.592615 0.562280
0.335485 0.617426 0.578729
0.336034 0.630762 0.577783
0.354864 0.629938 0.555886
0.497063 0.625544 0.515358
0.720913 0.684016 0.545068
0.749783 0.669978 0.544793
0.743984 0.684565 0.621668
0.321233 0.596490 0.547509
0.328771 0.616144 0.559442
0.329015 0.621668 0.553613
0.334936 0.636225 0.550958
0.365209 0.649897 0.541024
0.453788 0.659724 0.477989
0.696925 0.715969 0.529747
0.761105 0.726711 0.542107
0.755764 0.716091 0.630640
0.324468 0.618463 0.551568
0.324712 0.614649 0.541222
0.334325 0.636378 0.550256
0.387854 0.661494 0.572229
0.504265 0.687770 0.593500
0.618555 0.704097 0.612970
0.688014 0.730587 0.633783
0.737758 0.740078 0.635554
0.762295 0.741024 0.629664
0.044892 0.074220 0.285771
0.073457 0.076417 0.306645
0.122896 0.055329 0.312352
0.198032 0.061067 0.330938
0.275975 0.073610 0.347753
0.341161 0.092226 0.358404
0.389258 0.106752 0.367071
0.419623 0.113252 0.371344
0.442908 0.114778 0.373388
0.057404 0.115846 0.296544
0.048219 0.079225 0.319463
0.088258 0.069520 0.340032
0.203342 0.073548 0.374945
0.309422 0.096284 0.391180
0.373083 0.108736 0.396521
0.422065 0.119936 0.401587
0.442084 0.125185 0.392432
0.464454 0.159854 0.394446
0.077455 0.176730 0.323247
0.066621 0.139498 0.334112
0.057557 0.090578 0.348211
0.136782 0.073610 0.381933
0.318151 0.127749 0.436042
0.385595 0.122988 0.422400
0.443366 0.134920 0.423621
0.464240 0.163577 0.410620
0.503563 0.224186 0.433753
0.102266 0.254093 0.362951
0.101961 0.247562 0.390600
0.091890 0.196750 0.388556
0.097322 0.137789 0.378759
0.240681 0.138033 0.442695
0.402045 0.169589 0.450843
0.459541 0.167636 0.440009
0.503380 0.226047 0.446510
0.624720 0.331456 0.537682
0.126009 0.323522 0.399359
0.147402 0.354772 0.452033
0.155215 0.352529 0.476509
0.165972 0.314656 0.470192
0.201801 0.276661 0.478477
0.473365 0.293782 0.579660
0.554513 0.290913 0.529671
0.617182 0.327199 0.542351
0.689632 0.494865 0.599939
0.186252 0.408606 0.458167
0.248997 0.485390 0.539147
0.269902 0.506432 0.569879
0.293675 0.504082 0.579614
0.327916 0.514168 0.618250
0.479850 0.521675 0.631434
0.665187 0.543099 0.645838
0.687922 0.496666 0.602594
0.711971 0.621027 0.648219
0.290074 0.528374 0.540276
0.321599 0.581842 0.595728
0.342046 0.612055 0.623743
0.360418 0.641199 0.653132
0.437919 0.667628 0.679561
0.579767 0.675624 0.678340
0.685389 0.684199 0.676753
0.715328 0.646082 0.626215
0.731716 0.693477 0.679713
0.331029 0.603815 0.581933
0.339544 0.620233 0.600427
0.349889 0.642329 0.615412
0.391882 0.673335 0.639063
0.471992 0.694942 0.657679
0.565011 0.712825 0.662501
0.645350 0.705928 0.639277
0.752651 0.737728 0.657710
0.748592 0.726680 0.696864
0.335790 0.624353 0.585534
0.339696 0.633143 0.589044
0.379156 0.665675 0.616815
0.461555 0.691249 0.640650
0.567102 0.714565 0.666072
0.644495 0.727016 0.681056
0.697688 0.736568 0.693568
0.737026 0.752804 0.707332
0.760006 0.755520 0.706264
0.048768 0.079622 0.318944
0.074006 0.079866 0.334569
0.130007 0.059083 0.350683
0.223850 0.076692 0.382239
0.299626 0.094667 0.391913
0.348730 0.104341 0.394385
0.392401 0.115023 0.400580
0.420661 0.121248 0.402930
0.445136 0.120882 0.402045
0.059632 0.119844 0.327428
0.053681 0.085359 0.348211
0.091157 0.083131 0.370367
0.203891 0.087617 0.411994
0.326696 0.130953 0.442084
0.365911 0.120455 0.423987
0.405737 0.121157 0.422187
0.442298 0.131563 0.423590
0.461738 0.162478 0.417914
0.078187 0.176425 0.351446
0.073915 0.146853 0.365118
0.092164 0.131868 0.375647
0.142763 0.118135 0.411414
0.295766 0.153231 0.461799
0.387396 0.167452 0.454017
0.423957 0.159487 0.443915
0.458289 0.162875 0.441352
0.502556 0.228061 0.456886
0.108400 0.266178 0.400763
0.108217 0.250950 0.420722
0.125795 0.229007 0.420966
0.156893 0.217655 0.441108
0.260884 0.207309 0.525505
0.422004 0.241154 0.513268
0.472297 0.237522 0.491890
0.510887 0.244144 0.487709
0.616510 0.333074 0.561700
0.140169 0.343450 0.447333
0.149722 0.350774 0.476112
0.181918 0.353765 0.491554
0.234104 0.365621 0.530312
0.274983 0.361395 0.609461
0.495079 0.363272 0.650263
0.583062 0.352163 0.613275
0.629236 0.357855 0.604089
0.689143 0.497795 0.641840
0.203952 0.429541 0.501732
0.228397 0.455238 0.540764
0.264500 0.468788 0.560510
0.308873 0.503624 0.615259
0.399939 0.548653 0.676997
0.501961 0.529610 0.677791
0.636133 0.526040 0.676448
0.690150 0.514168 0.667903
0.712947 0.621363 0.676600
0.281804 0.519860 0.561730
0.298100 0.548608 0.593378
0.326696 0.566461 0.616022
0.368017 0.603754 0.660334
0.452369 0.631159 0.692470
0.558206 0.650721 0.707027
0.634455 0.639277 0.694667
0.710842 0.649409 0.702235
0.732021 0.694820 0.709377
0.320684 0.579858 0.597070
0.339910 0.614313 0.624140
0.359472 0.641016 0.652796
0.411841 0.676326 0.690517
0.494820 0.704341 0.714809
0.605829 0.726040 0.730495
0.685237 0.735683 0.734035
0.739345 0.738766 0.734249
0.756130 0.743770 0.738521
0.335546 0.622065 0.608454
0.352667 0.642084 0.626093
0.402289 0.678981 0.661677
0.487556 0.703609 0.681514
0.595972 0.724605 0.702846
0.668238 0.737118 0.715511
0.712551 0.748745 0.730678
0.751614 0.764492 0.748562
0.772793 0.772763 0.754940
0.047913 0.077821 0.350591
0.074250 0.082490 0.363195
0.130037 0.062776 0.385718
0.253330 0.110597 0.440497
0.336889 0.133944 0.447395
0.358434 0.119692 0.428687
0.383917 0.112459 0.423102
0.416938 0.119936 0.424048
0.440436 0.124361 0.424414
0.060273 0.121553 0.360632
0.093751 0.131777 0.377295
0.122866 0.131380 0.403326
0.189548 0.108278 0.418738
0.316533 0.159762 0.463783
0.381079 0.169467 0.458198
0.409583 0.161410 0.446723
0.430823 0.156008 0.441474
0.455421 0.158785 0.438209
0.083070 0.187472 0.388861
0.114107 0.194644 0.401953
0.150790 0.210391 0.433051
0.196262 0.214023 0.512123
0.328939 0.219455 0.525170
0.420874 0.242313 0.512596
0.456611 0.237339 0.492409
0.482216 0.238041 0.487831
0.507134 0.240635 0.484840
0.113191 0.275547 0.440772
0.144900 0.283391 0.451392
0.201877 0.315038 0.494301
0.274617 0.360342 0.609491
0.418112 0.371649 0.663050
0.528923 0.365332 0.641901
0.571954 0.353658 0.615686
0.606073 0.355505 0.609491
0.632868 0.360906 0.606256
0.142733 0.348119 0.479194
0.188449 0.368750 0.500084
0.265812 0.414206 0.561288
0.374594 0.495583 0.674037
0.514992 0.536950 0.678981
0.590326 0.530617 0.680323
0.638025 0.525826 0.677424
0.667536 0.521767 0.676936
0.692958 0.519936 0.670649
0.202152 0.426276 0.525444
0.250553 0.454047 0.551415
0.308812 0.503899 0.614588
0.414069 0.569543 0.682887
0.547234 0.608484 0.698146
0.621302 0.626307 0.699458
0.665187 0.632288 0.702754
0.687404 0.633844 0.703273
0.713222 0.633783 0.703792
0.262211 0.506249 0.573175
0.306249 0.525750 0.591730
0.346288 0.569970 0.649073
0.441932 0.617121 0.688777
0.560143 0.650263 0.707210
0.636347 0.672328 0.716182
0.687037 0.687282 0.719509
0.716426 0.697719 0.727718
0.736324 0.703151 0.731167
0.301244 0.561608 0.600183
0.335210 0.586328 0.625818
0.388067 0.630488 0.672511
0.477852 0.664149 0.702541
0.585840 0.692409 0.721706
0.659358 0.707362 0.727321
0.706508 0.724971 0.738979
0.739864 0.739956 0.751522
0.761257 0.748470 0.760159
0.335058 0.615717 0.625238
0.357610 0.638453 0.649165
0.413458 0.677638 0.691798
0.492256 0.703792 0.714504
0.602533 0.728450 0.732723
0.680079 0.743770 0.743343
0.723140 0.755306 0.754055
0.757565 0.771847 0.769802
0.775540 0.775540 0.775540
