tools/luts_backup/LPP Tetrachrome 400_FPE.cube
# (C) 2014 VisionColor & Patchflyer [www.vision-color.com]
# Generator: VC Patchmatch v.2.1.1 [64/53]
# All work and no play makes Jack a dull boy.
# LUT generated from: LPP Tetrachrome 400_FPE
LUT_3D_SIZE 5
0.032944 0.036393 0.037034
0.113771 0.048981 0.036530
0.216648 0.054002 0.037629
0.314656 0.050324 0.040650
0.417151 0.052598 0.046082
0.028473 0.075624 0.045808
0.201343 0.144701 0.040513
0.372442 0.165164 0.044556
0.466712 0.161379 0.048157
0.556527 0.167102 0.052506
0.031540 0.149493 0.058106
0.369314 0.342473 0.047501
0.576028 0.385611 0.063783
0.683436 0.393942 0.074327
0.768658 0.399847 0.084154
0.037369 0.228107 0.065660
0.055955 0.292744 0.051911
0.504845 0.456550 0.064820
0.797528 0.555596 0.122728
0.880018 0.543450 0.122286
0.039399 0.269825 0.067643
0.053025 0.335790 0.048997
0.646006 0.573739 0.097368
0.846555 0.646311 0.152865
0.868360 0.614984 0.137591
0.030045 0.039521 0.101930
0.085252 0.044770 0.121111
0.215457 0.054185 0.102770
0.344350 0.048768 0.093919
0.472969 0.054490 0.127153
0.031678 0.095125 0.133822
0.177584 0.173022 0.179889
0.326177 0.068605 0.044144
0.423697 0.057786 0.046967
0.564569 0.158724 0.112169
0.033219 0.185077 0.182467
0.036728 0.224582 0.074128
0.755566 0.529183 0.119234
0.764828 0.394202 0.083528
0.816785 0.457237 0.194095
0.037171 0.246098 0.152667
0.039551 0.276066 0.079652
0.627771 0.562661 0.094194
0.875685 0.621286 0.144350
0.902190 0.622538 0.257008
0.041367 0.329885 0.229541
0.079606 0.441764 0.303899
0.631952 0.614374 0.175891
0.878767 0.717083 0.323415
0.921035 0.720012 0.350057
0.032029 0.040864 0.168460
0.072587 0.040543 0.190280
0.243626 0.044770 0.220706
0.391241 0.046296 0.235248
0.501884 0.058610 0.273655
0.036759 0.107118 0.221866
0.036011 0.055512 0.224887
0.409598 0.060746 0.316579
0.493996 0.059922 0.273106
0.596780 0.183169 0.335897
0.038865 0.213169 0.297398
0.053895 0.367926 0.449454
0.528222 0.505287 0.471687
0.615000 0.237766 0.182864
0.808881 0.515221 0.454444
0.049317 0.381949 0.409216
0.055695 0.446082 0.437720
0.116564 0.446418 0.294942
0.904982 0.708705 0.378759
0.904524 0.705272 0.546197
0.056153 0.453544 0.448325
0.086961 0.482719 0.432639
0.423346 0.621653 0.464439
0.841230 0.760800 0.544991
0.927733 0.775296 0.548455
0.035996 0.044358 0.225330
0.075608 0.041428 0.247745
0.277409 0.041901 0.301122
0.426764 0.051667 0.325536
0.480858 0.053132 0.328222
0.039185 0.109926 0.283925
0.038895 0.049577 0.270237
0.326116 0.063279 0.373953
0.493141 0.058106 0.378042
0.564706 0.148898 0.396048
0.043519 0.235904 0.380484
0.046998 0.261280 0.444617
0.066896 0.218173 0.401862
0.613550 0.251133 0.480873
0.780331 0.511131 0.573434
0.068147 0.441093 0.511482
0.074662 0.505333 0.597360
0.313344 0.642969 0.656306
0.771237 0.727733 0.693736
0.865064 0.734020 0.693355
0.071031 0.504829 0.545174
0.201755 0.605631 0.581582
0.543069 0.727779 0.662715
0.761303 0.790494 0.704311
0.898253 0.830442 0.744778
0.038743 0.044755 0.266712
0.072877 0.041764 0.294057
0.353658 0.065476 0.385901
0.420050 0.050919 0.369726
0.487434 0.054475 0.376089
0.041184 0.113970 0.333837
0.047150 0.142916 0.356832
0.308476 0.171298 0.438788
0.508873 0.177493 0.449760
0.578317 0.164157 0.448478
0.047150 0.255802 0.445716
0.078202 0.355566 0.508507
0.497230 0.533913 0.646677
0.701183 0.542809 0.664118
0.787610 0.538430 0.660380
0.055238 0.399802 0.544167
0.161975 0.516243 0.597009
0.537972 0.661128 0.704463
0.750027 0.724498 0.756481
0.854810 0.750927 0.777188
0.069078 0.496544 0.599161
0.231159 0.633707 0.664317
0.582071 0.759060 0.753460
0.791730 0.822721 0.809400
0.897093 0.858854 0.848402
