tools/luts_backup/LPP Tetrachrome 400_FC.cube
# (C) 2014 VisionColor & Patchflyer [www.vision-color.com]
# Generator: VC Patchmatch v.2.1.1 [64/53]
# All work and no play makes Jack a dull boy.
# LUT generated from: LPP Tetrachrome 400_FC01
LUT_3D_SIZE 17
0.023331 0.025345 0.025345
0.049699 0.024811 0.022644
0.086336 0.027344 0.021881
0.124086 0.030213 0.019287
0.158862 0.031022 0.018723
0.193103 0.031205 0.018524
0.226658 0.031922 0.018143
0.265400 0.033661 0.018250
0.306050 0.033234 0.018067
0.345907 0.032959 0.018082
0.387350 0.033967 0.018036
0.427344 0.033616 0.017090
0.471138 0.035157 0.017304
0.520958 0.038483 0.017929
0.573922 0.041291 0.017731
0.612345 0.043183 0.017945
0.658595 0.046494 0.020462
0.016281 0.041917 0.022370
0.042252 0.041993 0.020645
0.084062 0.043992 0.018647
0.121233 0.048936 0.018433
0.162341 0.052232 0.018463
0.198398 0.052644 0.018463
0.233295 0.052934 0.018372
0.273594 0.054734 0.020157
0.316381 0.055894 0.021057
0.354452 0.056062 0.020508
0.390143 0.056153 0.020737
0.428275 0.055253 0.020737
0.470054 0.056382 0.020829
0.514717 0.059831 0.021973
0.567468 0.064439 0.023804
0.617716 0.066773 0.024292
0.663630 0.070695 0.024247
0.013397 0.065385 0.023072
0.035584 0.069459 0.020356
0.077638 0.070420 0.017975
0.120638 0.074266 0.017487
0.162280 0.077104 0.017868
0.202197 0.077745 0.017655
0.242802 0.080629 0.018280
0.285496 0.082185 0.019852
0.328450 0.082124 0.020768
0.365377 0.082185 0.020569
0.398733 0.082551 0.020951
0.435111 0.081758 0.021057
0.471702 0.081773 0.021088
0.521462 0.084138 0.021851
0.572595 0.088396 0.022324
0.622919 0.091920 0.023285
0.655726 0.096605 0.023102
0.014038 0.090303 0.024247
0.032151 0.096193 0.021317
0.071702 0.101671 0.016022
0.122423 0.102510 0.015930
0.163989 0.104753 0.016632
0.209705 0.106538 0.017044
0.253803 0.107942 0.018006
0.295216 0.110933 0.018952
0.339529 0.112032 0.019562
0.378485 0.111604 0.019867
0.414969 0.109178 0.020401
0.446876 0.108110 0.020935
0.486030 0.109606 0.021103
0.533776 0.112215 0.021515
0.580224 0.117021 0.021820
0.621607 0.120928 0.022171
0.652888 0.123522 0.022583
0.013870 0.116777 0.023316
0.030182 0.122728 0.021103
0.071733 0.131258 0.015656
0.122576 0.139071 0.014633
0.171557 0.135317 0.015213
0.216602 0.139193 0.016129
0.266835 0.141833 0.016922
0.310292 0.143877 0.017517
0.349248 0.143008 0.017502
0.387243 0.143328 0.017929
0.423041 0.142962 0.018585
0.461997 0.141314 0.019516
0.501396 0.142809 0.020356
0.545754 0.144717 0.020691
0.592660 0.148455 0.021134
0.626032 0.151644 0.021866
0.664256 0.153460 0.022736
0.013031 0.144259 0.024140
0.030472 0.156298 0.019486
0.075944 0.168017 0.013870
0.135927 0.177050 0.013596
0.188495 0.180865 0.014313
0.238727 0.180392 0.015457
0.283665 0.186694 0.016022
0.328588 0.187854 0.016724
0.366781 0.185260 0.016892
0.404395 0.182605 0.017487
0.441688 0.183917 0.018280
0.483284 0.183734 0.018921
0.523903 0.184817 0.019745
0.563119 0.186099 0.020462
0.605493 0.186587 0.021073
0.642618 0.189075 0.022156
0.686992 0.189960 0.023819
0.012070 0.173495 0.025437
0.031495 0.191089 0.017380
0.086961 0.209796 0.012787
0.153368 0.224414 0.012848
0.216678 0.236362 0.013672
0.266758 0.234852 0.014694
0.315297 0.237125 0.016632
0.358602 0.243244 0.016434
0.393683 0.240528 0.017350
0.433021 0.237095 0.018326
0.474327 0.238087 0.018997
0.513115 0.237766 0.019608
0.556802 0.236347 0.020661
0.593088 0.238010 0.021469
0.634287 0.237736 0.022248
0.679744 0.238636 0.024018
0.724468 0.239155 0.025589
0.011170 0.207965 0.026841
0.035538 0.234272 0.015274
0.099519 0.256031 0.012024
0.177005 0.276661 0.013031
0.242710 0.289570 0.014359
0.296834 0.294484 0.015946
0.351278 0.294255 0.017227
0.389929 0.295689 0.019623
0.432074 0.301427 0.019165
0.467140 0.297642 0.022522
0.507973 0.297978 0.024475
0.546807 0.300084 0.024964
0.587732 0.299123 0.026886
0.630335 0.298390 0.028550
0.669978 0.297612 0.028840
0.717144 0.297536 0.030915
0.762020 0.303655 0.032242
0.010208 0.250446 0.028046
0.042924 0.283696 0.013108
0.112703 0.301167 0.011643
0.186938 0.320989 0.012711
0.250355 0.338613 0.013733
0.305455 0.348852 0.014954
0.365743 0.355474 0.017823
0.419974 0.354086 0.022141
0.455070 0.353719 0.026200
0.494499 0.355444 0.027817
0.531014 0.353933 0.032197
0.573373 0.355398 0.035340
0.621958 0.360494 0.037858
0.671748 0.364752 0.039872
0.717128 0.361822 0.039872
0.754986 0.360204 0.040620
0.790555 0.370352 0.041291
0.009705 0.293919 0.029877
0.043809 0.335241 0.012070
0.111986 0.341405 0.011048
0.175204 0.356420 0.011841
0.226795 0.367163 0.012924
0.281056 0.379492 0.013550
0.343389 0.399054 0.015320
0.413046 0.412604 0.019898
0.470619 0.411475 0.028138
0.510353 0.409888 0.034897
0.550896 0.412070 0.040391
0.601328 0.417273 0.046357
0.656001 0.419379 0.050294
0.712779 0.426520 0.050340
0.761425 0.426246 0.048234
0.795102 0.423362 0.046296
0.830381 0.427283 0.043763
0.008301 0.343221 0.031327
0.034058 0.378317 0.016632
0.083619 0.382620 0.011002
0.133059 0.385168 0.011002
0.170977 0.389410 0.011917
0.218280 0.396231 0.012894
0.285679 0.414435 0.013733
0.359045 0.437568 0.015366
0.440757 0.460395 0.020798
0.512139 0.465629 0.035554
0.566842 0.467048 0.048600
0.626917 0.476936 0.059648
0.690883 0.485832 0.063493
0.742046 0.481727 0.059327
0.787106 0.480980 0.051209
0.825422 0.480751 0.046510
0.867445 0.477501 0.041138
0.007355 0.391135 0.031495
0.022995 0.416907 0.024292
0.049760 0.421210 0.018479
0.078172 0.419074 0.015396
0.105379 0.415793 0.014664
0.135225 0.417350 0.013581
0.203616 0.426169 0.013077
0.292912 0.446036 0.013931
0.382284 0.476341 0.015473
0.473381 0.510369 0.026230
0.558343 0.521904 0.050553
0.633417 0.525826 0.070268
0.704295 0.532097 0.077363
0.754086 0.528023 0.069856
0.795041 0.522347 0.058595
0.839658 0.526955 0.051957
0.879545 0.521019 0.044511
0.006409 0.431662 0.030579
0.017502 0.450904 0.028580
0.032944 0.454871 0.028489
0.048539 0.454719 0.027878
0.067796 0.450187 0.027222
0.087007 0.446204 0.024674
0.133043 0.449775 0.016571
0.229786 0.462043 0.013214
0.338842 0.489601 0.014237
0.434485 0.528542 0.018860
0.531273 0.564279 0.043931
0.626429 0.579141 0.076616
0.693446 0.575418 0.088563
0.744167 0.570657 0.085145
0.784207 0.563424 0.076951
0.827283 0.561807 0.069520
0.870100 0.557504 0.060426
0.006226 0.467292 0.030289
0.015717 0.478828 0.029221
0.030777 0.482597 0.031785
0.045182 0.481727 0.033173
0.060304 0.478630 0.032898
0.079210 0.478813 0.030274
0.116533 0.481147 0.022080
0.196124 0.492638 0.013519
0.317052 0.513298 0.013794
0.425742 0.552407 0.019898
0.518715 0.596033 0.041169
0.617441 0.623407 0.077043
0.686564 0.622538 0.095247
0.722560 0.604013 0.094179
0.763317 0.602029 0.090684
0.788418 0.592569 0.086305
0.838132 0.591165 0.081193
0.006287 0.502037 0.031891
0.015274 0.510262 0.030152
0.029007 0.511376 0.031327
0.042771 0.513939 0.031540
0.058854 0.509896 0.029755
0.086412 0.512200 0.024353
0.139483 0.517678 0.017929
0.223743 0.526268 0.013443
0.333181 0.547555 0.014801
0.438621 0.591379 0.026825
0.535103 0.638422 0.053193
0.616190 0.667140 0.084276
0.683604 0.670588 0.100740
0.712352 0.648997 0.098116
0.736950 0.625391 0.092088
0.768322 0.619867 0.089937
0.790066 0.607736 0.086030
0.005600 0.532067 0.033371
0.015564 0.535882 0.031281
0.028504 0.544381 0.030579
0.040803 0.549538 0.029160
0.061112 0.550576 0.023835
0.110506 0.548852 0.016266
0.195453 0.553414 0.012741
0.293217 0.566964 0.013947
0.389380 0.604044 0.021180
0.485939 0.656138 0.043870
0.571603 0.695644 0.078935
0.647898 0.709758 0.102083
0.696986 0.708690 0.109163
0.719249 0.690501 0.103975
0.732830 0.675242 0.093462
0.751003 0.660777 0.087694
0.781796 0.625696 0.085313
0.005356 0.556405 0.033082
0.015045 0.567025 0.031952
0.027741 0.574273 0.031601
0.039994 0.580316 0.030594
0.064515 0.580926 0.023316
0.130800 0.579950 0.013336
0.237278 0.592020 0.012787
0.350576 0.636439 0.017365
0.455085 0.692439 0.040467
0.552834 0.724117 0.081163
0.635569 0.737697 0.106279
0.686885 0.737911 0.110369
0.712123 0.727245 0.109010
0.728649 0.716548 0.107057
0.733913 0.703136 0.098726
0.747738 0.700099 0.090654
0.764691 0.675303 0.082597
0.017578 0.027543 0.071702
0.045563 0.025360 0.068849
0.088670 0.026780 0.059556
0.123232 0.029374 0.052613
0.160021 0.030594 0.046006
0.195148 0.031205 0.042420
0.228595 0.031052 0.038621
0.267964 0.031327 0.035050
0.308141 0.031724 0.033661
0.350118 0.033097 0.034226
0.399908 0.034791 0.034058
0.446296 0.034562 0.031754
0.490257 0.035462 0.030533
0.537865 0.037034 0.030854
0.592081 0.040116 0.032547
0.636576 0.044099 0.033783
0.676966 0.046479 0.033219
0.016022 0.045060 0.052354
0.042435 0.049393 0.051560
0.107683 0.034821 0.027955
0.153338 0.030869 0.020645
0.189914 0.031144 0.018479
0.225818 0.031464 0.017548
0.263554 0.032197 0.017929
0.304479 0.032380 0.018082
0.347189 0.032105 0.017762
0.387701 0.032822 0.017853
0.426917 0.034073 0.017899
0.472511 0.035721 0.017762
0.518502 0.039368 0.018296
0.569711 0.041703 0.018128
0.616098 0.044678 0.018860
0.646403 0.049683 0.021714
0.669627 0.070222 0.039002
0.015290 0.069139 0.045624
0.019593 0.083650 0.030198
0.107836 0.091936 0.022889
0.157702 0.076341 0.018784
0.198734 0.069429 0.018463
0.238819 0.065980 0.018906
0.278538 0.065827 0.020127
0.315297 0.065095 0.021225
0.355779 0.063188 0.021408
0.391089 0.061997 0.020905
0.427817 0.061357 0.020630
0.467781 0.061082 0.021088
0.515602 0.063890 0.022141
0.565316 0.068360 0.023087
0.613123 0.071092 0.023438
0.651301 0.076768 0.025315
0.673350 0.098192 0.039536
0.014115 0.091524 0.042969
0.014481 0.115343 0.024155
0.073075 0.129671 0.017182
0.167208 0.133806 0.016449
0.205463 0.115068 0.016419
0.249500 0.107774 0.017609
0.293660 0.103792 0.018570
0.335882 0.101640 0.019837
0.369177 0.097322 0.020050
0.405982 0.094636 0.020310
0.442786 0.093690 0.020478
0.479652 0.093065 0.020706
0.525826 0.095064 0.021286
0.575555 0.098222 0.021851
0.618509 0.100237 0.022400
0.654963 0.104753 0.024933
0.679500 0.125582 0.039734
0.013642 0.117342 0.042161
0.013138 0.144396 0.025025
0.058793 0.163500 0.015320
0.149950 0.176837 0.014755
0.237232 0.180941 0.015778
0.272099 0.161685 0.016342
0.311116 0.150912 0.016907
0.350317 0.144366 0.017914
0.386084 0.139116 0.018616
0.417868 0.132647 0.018982
0.455009 0.129213 0.019928
0.496300 0.127794 0.020508
0.538064 0.128954 0.021012
0.587228 0.131884 0.021759
0.623331 0.133684 0.022080
0.662593 0.137301 0.024506
0.688853 0.157565 0.039841
0.012909 0.143572 0.041535
0.012009 0.174441 0.024933
0.056718 0.198306 0.013931
0.150759 0.225940 0.013382
0.237949 0.235370 0.014771
0.312947 0.237736 0.016114
0.344259 0.216159 0.016754
0.375937 0.201144 0.017273
0.407660 0.191165 0.017823
0.441611 0.183917 0.018280
0.478569 0.177630 0.019059
0.517113 0.175128 0.019974
0.558221 0.172442 0.020584
0.598764 0.172503 0.021469
0.636301 0.174670 0.022507
0.677867 0.176562 0.024781
0.710735 0.199435 0.040421
0.012055 0.172091 0.040513
0.011139 0.208301 0.026368
0.061555 0.240864 0.013077
0.155001 0.270466 0.012665
0.246708 0.289708 0.014405
0.323018 0.294362 0.016678
0.388174 0.295399 0.018708
0.416342 0.275914 0.018967
0.448249 0.260853 0.019333
0.482002 0.249348 0.019593
0.517479 0.241260 0.020096
0.552728 0.235569 0.020752
0.589105 0.232563 0.021347
0.623331 0.228138 0.021912
0.665827 0.226719 0.023529
0.706706 0.228504 0.027497
0.746090 0.254047 0.046021
0.011307 0.203677 0.041077
0.010254 0.249485 0.028092
0.066697 0.286915 0.012406
0.154681 0.312596 0.012085
0.244129 0.333379 0.013687
0.321370 0.349920 0.015610
0.397284 0.354925 0.020935
0.458198 0.352438 0.025925
0.485496 0.338399 0.026886
0.519097 0.321859 0.027024
0.557809 0.315450 0.028107
0.594934 0.308064 0.028687
0.635935 0.303319 0.028992
0.671626 0.297429 0.029480
0.707851 0.292424 0.030457
0.751476 0.293843 0.035050
0.788678 0.321202 0.055268
0.010330 0.242313 0.042741
0.009598 0.292805 0.029892
0.062043 0.335348 0.011810
0.141466 0.350835 0.011460
0.215351 0.365377 0.012833
0.286442 0.378408 0.014099
0.369451 0.404944 0.016907
0.451606 0.412680 0.025467
0.519097 0.409323 0.036011
0.552758 0.397360 0.038514
0.590570 0.384970 0.041215
0.640162 0.384527 0.043656
0.683574 0.380865 0.042939
0.727443 0.374762 0.041886
0.760784 0.365896 0.040925
0.797971 0.362676 0.043793
0.830655 0.383948 0.062074
0.009903 0.287922 0.045029
0.008438 0.341665 0.030457
0.043778 0.380484 0.015351
0.104372 0.388846 0.011551
0.156146 0.389914 0.011765
0.213611 0.396796 0.012955
0.300877 0.419867 0.014252
0.401297 0.449332 0.016983
0.493111 0.462928 0.031952
0.573739 0.469825 0.049882
0.625269 0.457023 0.054215
0.673762 0.455146 0.057343
0.726635 0.449348 0.053803
0.769024 0.445502 0.049088
0.807645 0.437888 0.046265
0.840314 0.429648 0.046235
0.865568 0.436286 0.059968
0.008637 0.339117 0.046220
0.007431 0.388937 0.030564
0.028000 0.418204 0.022965
0.062959 0.423972 0.018585
0.097917 0.417121 0.016281
0.134630 0.419928 0.014557
0.211994 0.431571 0.013260
0.326452 0.455253 0.014405
0.435569 0.491981 0.017929
0.543465 0.521477 0.046479
0.633616 0.527886 0.069657
0.694743 0.515251 0.072145
0.749142 0.512200 0.065934
0.791180 0.501503 0.054673
0.834638 0.496193 0.048295
0.872221 0.491936 0.045212
0.888548 0.492180 0.058305
0.007507 0.387060 0.045167
0.006577 0.431174 0.030945
0.021286 0.449302 0.029297
0.041505 0.454932 0.027359
0.064088 0.448371 0.026215
0.088136 0.445930 0.024399
0.141222 0.453086 0.016434
0.256565 0.469245 0.013703
0.379370 0.500908 0.015183
0.497459 0.549020 0.033265
0.612314 0.578241 0.071153
0.688823 0.570245 0.086854
0.740688 0.556481 0.082597
0.787289 0.547295 0.071366
0.831281 0.541390 0.061189
0.878096 0.540932 0.051987
0.897063 0.545052 0.061707
0.006653 0.430396 0.042771
0.006332 0.467567 0.031266
0.018936 0.480797 0.030320
0.036332 0.482734 0.031250
0.053971 0.479454 0.031128
0.075563 0.477958 0.029297
0.119646 0.479438 0.020874
0.218448 0.494896 0.013642
0.353338 0.525307 0.015198
0.469139 0.569848 0.030411
0.580026 0.615106 0.065766
0.676768 0.620203 0.092073
0.722011 0.598642 0.093782
0.760159 0.587839 0.087083
0.801633 0.581231 0.082261
0.853529 0.578332 0.072709
0.894682 0.581430 0.067582
0.006363 0.468910 0.042130
0.006073 0.501274 0.032044
0.017823 0.509880 0.030381
0.034043 0.516045 0.031449
0.051392 0.513726 0.030274
0.078111 0.512291 0.025467
0.133562 0.516228 0.019394
0.228138 0.528603 0.013901
0.358343 0.563210 0.017609
0.476967 0.612802 0.036790
0.577356 0.650660 0.068376
0.658656 0.666728 0.093935
0.710140 0.649409 0.098894
0.740353 0.627085 0.092576
0.773068 0.614664 0.089906
0.815076 0.607782 0.089693
0.881621 0.611032 0.081254
0.006256 0.507454 0.044297
0.006012 0.532387 0.032807
0.017746 0.536110 0.031785
0.032593 0.544656 0.031678
0.050462 0.550072 0.028443
0.088701 0.547433 0.019745
0.168124 0.552712 0.014054
0.278813 0.571176 0.014313
0.397055 0.611505 0.025681
0.511925 0.664149 0.051240
0.604715 0.700099 0.083909
0.672938 0.707362 0.101701
0.711604 0.694972 0.105653
0.729122 0.675044 0.096849
0.752850 0.657496 0.089479
0.793820 0.636637 0.090669
0.862684 0.639109 0.101335
0.005631 0.539025 0.046540
0.006287 0.558190 0.035142
0.020127 0.559762 0.036805
0.037354 0.571145 0.037491
0.057343 0.580850 0.032349
0.106859 0.583719 0.020523
0.205768 0.589670 0.015274
0.336034 0.626032 0.021485
0.451164 0.678676 0.042741
0.555077 0.715877 0.079637
0.642680 0.732479 0.103593
0.700923 0.737301 0.109529
0.733364 0.730190 0.111910
0.744503 0.708751 0.107500
0.765286 0.699565 0.098512
0.776501 0.678950 0.091356
0.849912 0.679622 0.107393
0.005325 0.565469 0.046860
0.020447 0.564202 0.054734
0.046510 0.578500 0.068620
0.077119 0.583978 0.076631
0.108751 0.605386 0.068299
0.175235 0.617716 0.043885
0.289631 0.634989 0.033783
0.413367 0.680461 0.051942
0.513344 0.726070 0.087724
0.597574 0.746914 0.117067
0.674449 0.752361 0.122515
0.733242 0.750317 0.114595
0.769482 0.745251 0.111925
0.794095 0.737530 0.115785
0.822629 0.726070 0.116747
0.839139 0.722759 0.117266
0.844862 0.712001 0.118685
0.016953 0.030030 0.108003
0.039536 0.024628 0.117647
0.074723 0.025834 0.110002
0.114397 0.027008 0.096559
0.151431 0.029480 0.085985
0.189929 0.030686 0.074372
0.224384 0.031189 0.067002
0.262806 0.031159 0.060563
0.303258 0.031159 0.056855
0.345037 0.032288 0.056199
0.396735 0.034012 0.055940
0.450431 0.033799 0.054963
0.501686 0.033494 0.054429
0.559777 0.033539 0.054383
0.616510 0.035813 0.056077
0.670207 0.039796 0.059342
0.709087 0.044892 0.061067
0.017884 0.050507 0.091188
0.022156 0.037705 0.124269
0.091432 0.029999 0.136614
0.145708 0.030182 0.087465
0.189425 0.030869 0.062303
0.226596 0.030671 0.050233
0.265919 0.031174 0.045075
0.306844 0.031617 0.041901
0.350011 0.033188 0.040803
0.397192 0.034028 0.038071
0.443946 0.033951 0.035050
0.498024 0.034562 0.034302
0.549584 0.037308 0.034348
0.593637 0.041260 0.035233
0.637736 0.045289 0.037675
0.679088 0.050034 0.040162
0.700206 0.071397 0.063294
0.015534 0.070527 0.078111
0.021668 0.086488 0.097627
0.073747 0.073442 0.074281
0.155062 0.056428 0.044831
0.212070 0.043107 0.028580
0.258274 0.036027 0.021622
0.304448 0.032929 0.018631
0.344839 0.033295 0.018418
0.388312 0.033219 0.017960
0.429877 0.033371 0.017456
0.473579 0.036378 0.018097
0.520348 0.039490 0.018235
0.570535 0.041779 0.018448
0.613687 0.044602 0.020020
0.648585 0.051774 0.023835
0.671153 0.070985 0.037385
0.690318 0.097063 0.062058
0.014847 0.094575 0.069261
0.014694 0.117678 0.065980
0.036210 0.116564 0.047501
0.165576 0.131914 0.037308
0.231449 0.106554 0.024796
0.283330 0.092210 0.021241
0.324559 0.082444 0.020493
0.360678 0.076478 0.020768
0.395651 0.072847 0.020859
0.433722 0.069902 0.021027
0.471641 0.068589 0.021363
0.517586 0.070130 0.022049
0.564981 0.073472 0.022477
0.614420 0.077607 0.023499
0.651881 0.084627 0.026932
0.674907 0.102129 0.040558
0.687251 0.127535 0.064866
0.014603 0.119112 0.066285
0.013336 0.145083 0.056764
0.020523 0.160052 0.034226
0.127382 0.189242 0.019837
0.266316 0.203357 0.024613
0.313024 0.167086 0.018418
0.346822 0.144488 0.018204
0.381598 0.128099 0.018997
0.412284 0.117220 0.019425
0.443671 0.111711 0.019944
0.486534 0.109361 0.020874
0.531350 0.108598 0.021515
0.574075 0.110094 0.022126
0.619379 0.112398 0.023011
0.658686 0.118181 0.026490
0.684306 0.134905 0.040726
0.693904 0.161883 0.065049
0.013474 0.145647 0.064942
0.012284 0.172519 0.052567
0.013077 0.200885 0.028534
0.118029 0.249836 0.014466
0.253956 0.276173 0.016327
0.372290 0.284001 0.022202
0.393317 0.235630 0.018433
0.415076 0.203464 0.018173
0.443412 0.182696 0.018662
0.474845 0.169406 0.019135
0.509285 0.161959 0.019577
0.550530 0.157473 0.020371
0.591287 0.154833 0.021332
0.628885 0.153826 0.022644
0.667842 0.157992 0.027054
0.697017 0.173861 0.041672
0.723064 0.204440 0.066697
0.012192 0.173556 0.066499
0.011795 0.203494 0.050385
0.010544 0.246265 0.028199
0.107103 0.296529 0.012421
0.233936 0.327901 0.014069
0.353857 0.349371 0.017823
0.451926 0.352712 0.026780
0.467140 0.300359 0.023972
0.492393 0.273121 0.021775
0.521050 0.250385 0.020829
0.550622 0.235523 0.020722
0.582986 0.222965 0.020981
0.618891 0.215900 0.021836
0.657786 0.211505 0.023407
0.696635 0.215137 0.029328
0.729549 0.230411 0.045304
0.761822 0.263813 0.074327
0.011490 0.206714 0.069230
0.010422 0.240314 0.049409
0.009796 0.294453 0.030732
0.091585 0.337026 0.011826
0.194949 0.360388 0.012467
0.296193 0.380362 0.014679
0.419181 0.407416 0.021836
0.513787 0.412146 0.035706
0.536645 0.368734 0.034913
0.569375 0.345418 0.033799
0.604852 0.326162 0.032151
0.638941 0.306859 0.030274
0.671778 0.294957 0.029313
0.703059 0.288869 0.030808
0.740551 0.287999 0.036439
0.775189 0.302556 0.052796
0.804868 0.335546 0.082994
0.010986 0.245930 0.069780
0.009369 0.282918 0.049210
0.008621 0.344045 0.030884
0.063432 0.381353 0.013718
0.136797 0.388708 0.011704
0.213123 0.395987 0.013031
0.332296 0.427222 0.015381
0.466529 0.461128 0.026719
0.574594 0.472587 0.049561
0.617990 0.440635 0.050477
0.658976 0.418036 0.048890
0.697124 0.402670 0.045823
0.730251 0.384329 0.042634
0.762020 0.372335 0.041764
0.792767 0.365225 0.045609
0.823590 0.376989 0.060929
0.845396 0.401114 0.086427
0.010376 0.288197 0.068009
0.008423 0.334585 0.048615
0.007462 0.387808 0.030579
0.038666 0.420508 0.021332
0.083101 0.420081 0.017639
0.128634 0.421485 0.015488
0.226307 0.434607 0.013550
0.372778 0.473381 0.016052
0.512886 0.512093 0.037797
0.634409 0.526223 0.069383
0.694759 0.501060 0.067277
0.739818 0.485893 0.059480
0.777951 0.467414 0.051026
0.809888 0.452461 0.047013
0.840314 0.441489 0.048539
0.866423 0.441123 0.061891
0.881666 0.455131 0.085420
0.008957 0.333852 0.065415
0.007355 0.384848 0.047272
0.006561 0.428336 0.030701
0.026169 0.452110 0.027909
0.055222 0.453376 0.026474
0.083742 0.449714 0.024933
0.145144 0.455924 0.016617
0.287831 0.479912 0.013947
0.437766 0.527977 0.022049
0.581476 0.569970 0.060990
0.686122 0.569055 0.085237
0.740703 0.544793 0.077852
0.789334 0.531609 0.064668
0.831586 0.516564 0.052247
0.871092 0.508217 0.049012
0.893263 0.504463 0.060960
0.897551 0.511711 0.088441
0.007767 0.378592 0.064012
0.006531 0.426429 0.046296
0.006271 0.464515 0.031403
0.021668 0.479484 0.030838
0.043275 0.484581 0.030350
0.069383 0.479179 0.029755
0.118868 0.481422 0.021180
0.233158 0.500404 0.013825
0.395422 0.543526 0.018906
0.531487 0.599268 0.045411
0.651652 0.619791 0.086336
0.720638 0.599542 0.092241
0.763363 0.580530 0.084886
0.816541 0.566690 0.074800
0.866880 0.557321 0.061524
0.896620 0.559960 0.064881
0.903777 0.570901 0.098772
0.006806 0.423270 0.061784
0.006363 0.464973 0.045914
0.006134 0.501854 0.032013
0.020691 0.510475 0.032074
0.039719 0.515251 0.030930
0.065843 0.511162 0.027771
0.122026 0.513603 0.019898
0.228809 0.530770 0.013840
0.385962 0.577157 0.022507
0.519203 0.627665 0.046311
0.625803 0.659312 0.084138
0.700435 0.650431 0.098161
0.740826 0.627283 0.092271
0.778241 0.607080 0.088487
0.836820 0.598428 0.087160
0.887648 0.599481 0.077256
0.903807 0.612085 0.105745
0.006470 0.461250 0.059846
0.006012 0.504372 0.046891
0.006149 0.529915 0.033249
0.020722 0.537804 0.033173
0.039643 0.548165 0.032303
0.067826 0.547601 0.025208
0.140490 0.550851 0.017014
0.262058 0.572045 0.014923
0.407782 0.621881 0.030915
0.538323 0.673747 0.059617
0.635081 0.698054 0.090593
0.699214 0.699443 0.104936
0.727642 0.676951 0.099947
0.756207 0.655756 0.090227
0.802335 0.635004 0.092958
0.869825 0.634134 0.097047
0.895308 0.634211 0.104051
0.006287 0.502800 0.060624
0.005890 0.536965 0.049149
0.007660 0.558389 0.037003
0.026856 0.561898 0.041306
0.049668 0.573220 0.042374
0.080034 0.580896 0.030030
0.169589 0.584329 0.019226
0.311437 0.620859 0.022980
0.449577 0.671626 0.046647
0.574655 0.714900 0.083543
0.668437 0.732189 0.103792
0.720455 0.728298 0.109255
0.750225 0.717418 0.110643
0.764660 0.699870 0.103975
0.786267 0.681971 0.094636
0.855070 0.675181 0.107149
0.889403 0.668574 0.115602
0.006455 0.537942 0.064546
0.006714 0.568978 0.054185
0.022019 0.564446 0.056962
0.050309 0.575982 0.071260
0.084001 0.587213 0.075349
0.130739 0.611704 0.056901
0.231998 0.628687 0.037034
0.370871 0.666072 0.045182
0.494820 0.714031 0.081239
0.598566 0.742428 0.115114
0.685893 0.749157 0.119417
0.744778 0.746548 0.116106
0.784924 0.744045 0.118807
0.809857 0.731594 0.119966
0.829755 0.724804 0.117647
0.846357 0.715312 0.116091
0.882902 0.704646 0.122515
0.007691 0.568933 0.068482
0.028382 0.578332 0.088441
0.057786 0.588571 0.114412
0.090501 0.600305 0.131792
0.134646 0.616327 0.132845
0.205661 0.638758 0.104707
0.316716 0.665537 0.078889
0.436255 0.705211 0.090425
0.535790 0.740276 0.129442
0.617395 0.753338 0.149401
0.693339 0.761761 0.144976
0.759380 0.768750 0.139086
0.805173 0.770748 0.144778
0.834730 0.768841 0.150271
0.861555 0.753368 0.145769
0.874571 0.746441 0.139147
0.877379 0.738231 0.134905
0.017044 0.034913 0.151797
0.035065 0.026413 0.164675
0.064149 0.022919 0.165484
0.099443 0.025681 0.155459
0.134997 0.025803 0.142504
0.175174 0.027878 0.127764
0.214298 0.029831 0.112718
0.254536 0.030198 0.100755
0.297917 0.030655 0.092241
0.344518 0.032029 0.090364
0.398306 0.033478 0.088808
0.456947 0.032990 0.087785
0.513283 0.031678 0.089769
0.576013 0.031220 0.094545
