tools/luts_backup/LPP Tetrachrome 400_FC.cube
# (C) 2014 VisionColor & Patchflyer [www.vision-color.com]
# Generator: VC Patchmatch v.2.1.1 [64/53]
# All work and no play makes Jack a dull boy.
# LUT generated from: LPP Tetrachrome 400_FC01
LUT_3D_SIZE 9
0.023331 0.025345 0.025345
0.086336 0.027344 0.021881
0.158862 0.031022 0.018723
0.226658 0.031922 0.018143
0.306050 0.033234 0.018067
0.387350 0.033967 0.018036
0.471138 0.035157 0.017304
0.573922 0.041291 0.017731
0.658595 0.046494 0.020462
0.013397 0.065385 0.023072
0.077638 0.070420 0.017975
0.162280 0.077104 0.017868
0.242802 0.080629 0.018280
0.328450 0.082124 0.020768
0.398733 0.082551 0.020951
0.471702 0.081773 0.021088
0.572595 0.088396 0.022324
0.655726 0.096605 0.023102
0.013870 0.116777 0.023316
0.071733 0.131258 0.015656
0.171557 0.135317 0.015213
0.266835 0.141833 0.016922
0.349248 0.143008 0.017502
0.423041 0.142962 0.018585
0.501396 0.142809 0.020356
0.592660 0.148455 0.021134
0.664256 0.153460 0.022736
0.012070 0.173495 0.025437
0.086961 0.209796 0.012787
0.216678 0.236362 0.013672
0.315297 0.237125 0.016632
0.393683 0.240528 0.017350
0.474327 0.238087 0.018997
0.556802 0.236347 0.020661
0.634287 0.237736 0.022248
0.724468 0.239155 0.025589
0.010208 0.250446 0.028046
0.112703 0.301167 0.011643
0.250355 0.338613 0.013733
0.365743 0.355474 0.017823
0.455070 0.353719 0.026200
0.531014 0.353933 0.032197
0.621958 0.360494 0.037858
0.717128 0.361822 0.039872
0.790555 0.370352 0.041291
0.008301 0.343221 0.031327
0.083619 0.382620 0.011002
0.170977 0.389410 0.011917
0.285679 0.414435 0.013733
0.440757 0.460395 0.020798
0.566842 0.467048 0.048600
0.690883 0.485832 0.063493
0.787106 0.480980 0.051209
0.867445 0.477501 0.041138
0.006409 0.431662 0.030579
0.032944 0.454871 0.028489
0.067796 0.450187 0.027222
0.133043 0.449775 0.016571
0.338842 0.489601 0.014237
0.531273 0.564279 0.043931
0.693446 0.575418 0.088563
0.784207 0.563424 0.076951
0.870100 0.557504 0.060426
0.006287 0.502037 0.031891
0.029007 0.511376 0.031327
0.058854 0.509896 0.029755
0.139483 0.517678 0.017929
0.333181 0.547555 0.014801
0.535103 0.638422 0.053193
0.683604 0.670588 0.100740
0.736950 0.625391 0.092088
0.790066 0.607736 0.086030
0.005356 0.556405 0.033082
0.027741 0.574273 0.031601
0.064515 0.580926 0.023316
0.237278 0.592020 0.012787
0.455085 0.692439 0.040467
0.635569 0.737697 0.106279
0.712123 0.727245 0.109010
0.733913 0.703136 0.098726
0.764691 0.675303 0.082597
0.016953 0.030030 0.108003
0.074723 0.025834 0.110002
0.151431 0.029480 0.085985
0.224384 0.031189 0.067002
0.303258 0.031159 0.056855
0.396735 0.034012 0.055940
0.501686 0.033494 0.054429
0.616510 0.035813 0.056077
0.709087 0.044892 0.061067
0.015534 0.070527 0.078111
0.073747 0.073442 0.074281
0.212070 0.043107 0.028580
0.304448 0.032929 0.018631
0.388312 0.033219 0.017960
0.473579 0.036378 0.018097
0.570535 0.041779 0.018448
0.648585 0.051774 0.023835
0.690318 0.097063 0.062058
0.014603 0.119112 0.066285
0.020523 0.160052 0.034226
0.266316 0.203357 0.024613
0.346822 0.144488 0.018204
0.412284 0.117220 0.019425
0.486534 0.109361 0.020874
0.574075 0.110094 0.022126
0.658686 0.118181 0.026490
0.693904 0.161883 0.065049
0.012192 0.173556 0.066499
0.010544 0.246265 0.028199
0.233936 0.327901 0.014069
0.451926 0.352712 0.026780
0.492393 0.273121 0.021775
0.550622 0.235523 0.020722
0.618891 0.215900 0.021836
0.696635 0.215137 0.029328
0.761822 0.263813 0.074327
0.010986 0.245930 0.069780
0.008621 0.344045 0.030884
0.136797 0.388708 0.011704
0.332296 0.427222 0.015381
0.574594 0.472587 0.049561
0.658976 0.418036 0.048890
0.730251 0.384329 0.042634
0.792767 0.365225 0.045609
0.845396 0.401114 0.086427
0.008957 0.333852 0.065415
0.006561 0.428336 0.030701
0.055222 0.453376 0.026474
0.145144 0.455924 0.016617
0.437766 0.527977 0.022049
0.686122 0.569055 0.085237
0.789334 0.531609 0.064668
0.871092 0.508217 0.049012
0.897551 0.511711 0.088441
0.006806 0.423270 0.061784
0.006134 0.501854 0.032013
0.039719 0.515251 0.030930
0.122026 0.513603 0.019898
0.385962 0.577157 0.022507
0.625803 0.659312 0.084138
0.740826 0.627283 0.092271
0.836820 0.598428 0.087160
0.903807 0.612085 0.105745
0.006287 0.502800 0.060624
0.007660 0.558389 0.037003
0.049668 0.573220 0.042374
0.169589 0.584329 0.019226
0.449577 0.671626 0.046647
0.668437 0.732189 0.103792
0.750225 0.717418 0.110643
0.786267 0.681971 0.094636
0.889403 0.668574 0.115602
0.007691 0.568933 0.068482
0.057786 0.588571 0.114412
0.134646 0.616327 0.132845
0.316716 0.665537 0.078889
0.535790 0.740276 0.129442
0.693339 0.761761 0.144976
0.805173 0.770748 0.144778
0.861555 0.753368 0.145769
0.877379 0.738231 0.134905
0.017075 0.035767 0.190951
0.058396 0.023255 0.209125
0.123232 0.025391 0.190906
0.204608 0.028428 0.163455
0.294621 0.030121 0.134676
0.406088 0.032807 0.128740
0.517617 0.030274 0.126986
0.646769 0.035248 0.148516
0.743267 0.049821 0.169650
0.018708 0.077043 0.154101
0.025284 0.047990 0.234516
0.179095 0.034333 0.239231
0.293843 0.030915 0.133913
0.401465 0.032761 0.099306
0.509758 0.032120 0.088746
0.630304 0.035355 0.092439
0.716869 0.050828 0.103182
0.736797 0.093889 0.160540
0.015106 0.124437 0.144305
0.021851 0.175235 0.199161
0.170565 0.155398 0.170321
0.334142 0.095521 0.065675
0.441306 0.057313 0.033936
0.563836 0.044663 0.020981
0.646265 0.055619 0.027512
0.688807 0.094713 0.061463
0.740154 0.151354 0.131395
0.012451 0.185534 0.140368
0.012329 0.267140 0.153216
0.061158 0.265599 0.063218
0.437522 0.345006 0.089143
0.531273 0.242359 0.041566
0.599878 0.175097 0.023255
0.665049 0.161791 0.029450
0.728969 0.198016 0.069169
0.821042 0.281132 0.157244
0.011597 0.272648 0.160830
0.010025 0.343191 0.108751
0.022034 0.396262 0.041215
0.251789 0.443336 0.028748
0.651057 0.533623 0.095155
0.758160 0.439811 0.051011
0.792599 0.365576 0.047013
0.834409 0.372259 0.086763
0.891600 0.437278 0.185809
0.010712 0.352712 0.144396
0.007126 0.418647 0.081254
0.006729 0.499886 0.033295
0.086244 0.506676 0.025360
0.467140 0.607645 0.043107
0.743770 0.627588 0.096101
0.864134 0.554833 0.064469
0.898863 0.534432 0.093568
0.906783 0.560250 0.199115
0.008209 0.422324 0.107271
0.007691 0.501137 0.079698
0.011551 0.556741 0.042283
0.092149 0.579171 0.034836
0.444480 0.661936 0.050126
0.719738 0.726452 0.111009
0.793637 0.683864 0.099123
0.894636 0.647715 0.114717
0.913375 0.657649 0.220905
0.013367 0.502831 0.117189
0.019898 0.566186 0.106981
0.055894 0.587472 0.113619
0.179721 0.632944 0.104875
0.485008 0.715434 0.103410
0.717144 0.760784 0.146044
0.832441 0.764294 0.156558
0.877455 0.741665 0.142245
0.910857 0.732296 0.242817
0.026368 0.588464 0.172732
0.068696 0.610544 0.217578
0.131884 0.628428 0.247562
0.267247 0.653620 0.150408
0.487724 0.720424 0.146975
0.694789 0.769238 0.218173
0.818372 0.797879 0.251926
0.875135 0.797650 0.278080
0.908644 0.802289 0.281239
0.016449 0.035737 0.275471
0.048219 0.027680 0.295857
0.110826 0.023072 0.286152
0.188052 0.024842 0.255055
0.305272 0.027771 0.235096
0.424689 0.030533 0.221118
0.535607 0.028092 0.224079
0.650599 0.037812 0.250782
0.747967 0.057221 0.278172
0.019272 0.081025 0.229923
0.017578 0.043519 0.377020
0.108995 0.026490 0.390585
0.321401 0.028138 0.348379
0.434913 0.029358 0.260990
0.535042 0.029236 0.223636
0.648127 0.037858 0.223163
0.728771 0.058824 0.241611
0.731884 0.096376 0.280430
0.015137 0.128496 0.216419
0.017090 0.136843 0.310536
0.062028 0.099062 0.311666
0.335119 0.090471 0.345022
0.481163 0.045014 0.215228
0.631495 0.038407 0.175082
0.717769 0.056748 0.172213
0.735149 0.094942 0.205249
0.754253 0.155947 0.278767
0.013367 0.189990 0.219318
0.014633 0.288151 0.331212
0.062760 0.276265 0.311940
0.303624 0.302617 0.308843
0.484779 0.184283 0.142519
0.570077 0.114961 0.083986
0.685802 0.097917 0.065934
0.751019 0.155123 0.133242
0.838087 0.293217 0.271641
0.012406 0.283009 0.238285
0.023423 0.391546 0.294301
0.036210 0.407767 0.235264
0.127962 0.372091 0.106401
0.600000 0.498238 0.206012
0.728298 0.398856 0.118502
0.798413 0.310018 0.086152
0.861311 0.357809 0.170169
0.897612 0.466056 0.314565
0.016815 0.384985 0.261082
0.030594 0.472511 0.250843
0.024063 0.512428 0.161883
0.056123 0.472221 0.091875
0.423575 0.576425 0.083375
0.811460 0.657923 0.158602
0.897856 0.581430 0.106996
0.906737 0.558938 0.195926
0.919676 0.611261 0.351568
0.030549 0.473091 0.258457
0.032975 0.536248 0.221576
0.032639 0.576623 0.174853
0.058534 0.584085 0.118517
0.359014 0.667399 0.081865
0.753323 0.757443 0.154986
0.880323 0.748333 0.156268
0.911116 0.695430 0.225025
0.929702 0.702586 0.362051
0.040482 0.554635 0.256046
0.043702 0.602350 0.253010
0.072084 0.612528 0.248188
0.130709 0.625864 0.240116
0.385458 0.686824 0.129259
0.692073 0.773800 0.216983
0.855497 0.801511 0.265400
0.907515 0.799084 0.268116
0.927443 0.763363 0.353216
0.050416 0.632471 0.300572
0.082048 0.631296 0.314122
0.130846 0.630640 0.321996
0.224598 0.656321 0.292653
0.452796 0.709133 0.211917
0.676799 0.798047 0.312184
0.843183 0.836576 0.346563
0.889189 0.841321 0.367590
0.930327 0.839780 0.378515
0.017578 0.044022 0.376989
0.044114 0.035172 0.384573
0.111101 0.025605 0.394400
0.200000 0.025345 0.374640
0.323522 0.027481 0.353719
0.458091 0.029694 0.351873
0.562127 0.030472 0.349020
0.654673 0.038819 0.365255
0.728969 0.058595 0.380377
0.018921 0.085451 0.332311
0.016403 0.049470 0.488746
0.083635 0.030716 0.504646
0.261219 0.025605 0.483406
0.482048 0.033158 0.453391
0.566842 0.033509 0.406775
0.648402 0.040009 0.382666
0.713695 0.059449 0.375036
0.713191 0.095506 0.382940
0.016327 0.138750 0.314870
0.018036 0.122667 0.419623
0.031250 0.069261 0.496284
0.196002 0.043275 0.529274
0.528267 0.059525 0.487205
0.634287 0.042512 0.422873
0.704341 0.060105 0.377417
0.717464 0.097627 0.366888
0.740459 0.160235 0.388678
0.014984 0.206882 0.312123
0.014908 0.244129 0.416403
0.032059 0.223560 0.458045
0.113375 0.179400 0.409293
0.484993 0.203998 0.466087
0.596536 0.099657 0.353353
0.719036 0.099306 0.311696
0.750286 0.160922 0.341924
0.826566 0.304280 0.421927
0.014237 0.292363 0.333547
0.045426 0.417258 0.463081
0.093095 0.473411 0.518380
0.149218 0.409964 0.447776
0.470832 0.476890 0.460212
0.668238 0.329274 0.283223
0.742168 0.213825 0.190906
0.835355 0.289967 0.270420
0.895262 0.497169 0.454215
0.031495 0.404318 0.365606
0.096025 0.544060 0.463645
0.130602 0.646036 0.509316
0.124758 0.544289 0.389197
0.250782 0.507927 0.268727
0.769238 0.639933 0.321340
0.884321 0.568383 0.260060
0.911757 0.562646 0.335744
0.917205 0.637690 0.476890
0.079728 0.533486 0.418189
0.109834 0.637446 0.464897
0.098772 0.674846 0.437049
0.094026 0.632975 0.349889
0.161288 0.586587 0.238926
0.657923 0.734020 0.251408
0.893004 0.776150 0.303273
0.928191 0.721538 0.356237
0.934691 0.739101 0.493660
0.103090 0.629786 0.444556
0.099046 0.681910 0.440696
0.105379 0.657526 0.406134
0.139361 0.642802 0.373281
0.226139 0.662181 0.299519
0.595560 0.765454 0.283513
0.858412 0.837018 0.355505
0.928161 0.837125 0.375158
0.935393 0.797436 0.482444
0.100099 0.698558 0.453681
0.112200 0.668666 0.424781
0.153475 0.658015 0.426627
0.231128 0.690044 0.437232
0.387198 0.741650 0.424598
0.607279 0.803769 0.446723
0.812696 0.848157 0.465492
0.889052 0.855283 0.466728
0.936019 0.860395 0.468223
0.016495 0.048508 0.495064
0.044236 0.045167 0.472084
0.111299 0.027085 0.504631
0.218662 0.024826 0.489464
0.351720 0.026963 0.470863
0.486183 0.032883 0.456092
0.576150 0.037293 0.458518
0.643442 0.042756 0.465705
0.705989 0.049088 0.468223
0.019226 0.088624 0.439521
0.016922 0.053452 0.595956
0.072358 0.035615 0.605539
0.233936 0.026947 0.590890
0.433936 0.034150 0.553689
0.580926 0.045762 0.531563
0.642039 0.045106 0.502541
0.688228 0.051179 0.484443
0.688960 0.086168 0.458930
0.017273 0.145632 0.414969
0.017105 0.110826 0.510140
0.019181 0.057298 0.675837
0.159197 0.032914 0.692302
0.456809 0.045029 0.617517
0.635554 0.053651 0.587686
0.679896 0.053986 0.519265
0.688701 0.085328 0.473518
0.707576 0.154757 0.470939
0.015473 0.220462 0.415152
0.015640 0.227741 0.511131
0.017731 0.174701 0.591546
0.062364 0.116793 0.541466
0.300649 0.097276 0.596704
0.597986 0.116472 0.552651
0.680262 0.087434 0.499733
0.709743 0.155398 0.473777
0.800809 0.293370 0.516655
0.015122 0.300603 0.428351
0.028489 0.377172 0.536812
0.041459 0.408408 0.616938
0.078218 0.334920 0.558389
0.218448 0.316091 0.532204
0.654154 0.357443 0.606760
0.704784 0.213230 0.482872
0.810773 0.298238 0.489616
0.882399 0.484733 0.569268
0.041642 0.419181 0.467765
0.119951 0.564446 0.600015
0.143755 0.656245 0.691234
0.220081 0.630076 0.658701
0.351766 0.598016 0.614267
0.621210 0.627268 0.602029
0.819196 0.521508 0.480003
0.893095 0.487770 0.444953
0.908217 0.644038 0.594491
0.118898 0.564645 0.519829
0.151614 0.676463 0.600015
0.150011 0.728557 0.619593
0.186435 0.729946 0.602045
0.263310 0.696559 0.555535
0.445960 0.682048 0.473594
0.868421 0.772625 0.490440
0.932998 0.736171 0.490669
0.925795 0.763577 0.608133
0.152850 0.683742 0.561929
0.141787 0.731136 0.577218
0.167315 0.724361 0.558419
0.214847 0.723598 0.546563
0.275547 0.732067 0.525063
0.391989 0.743603 0.426093
0.797681 0.848264 0.464149
0.934691 0.861601 0.472999
0.932692 0.835691 0.612833
0.134600 0.740291 0.558221
0.157778 0.716686 0.536599
0.211582 0.725673 0.544884
0.300252 0.752270 0.574563
0.444984 0.805280 0.591897
0.597940 0.841642 0.587289
0.750805 0.878416 0.614618
0.880552 0.886168 0.615290
0.932891 0.884138 0.603571
0.016251 0.052842 0.588098
0.047272 0.050950 0.577371
0.117830 0.028275 0.607095
0.232227 0.026474 0.589944
0.375860 0.029755 0.569650
0.497826 0.038712 0.543801
0.585641 0.045594 0.532540
0.642786 0.047623 0.529625
0.698512 0.046250 0.528069
0.015885 0.087129 0.530678
0.017380 0.055451 0.692103
0.065263 0.042267 0.697810
0.229358 0.034318 0.692866
0.421546 0.043198 0.633509
0.548806 0.047089 0.606714
0.640986 0.050706 0.593759
0.683299 0.053132 0.561517
0.684565 0.080232 0.517449
0.016449 0.143450 0.503548
0.016648 0.106355 0.603525
0.022416 0.062516 0.749386
0.122927 0.039689 0.766720
0.402182 0.065446 0.694377
0.558175 0.055512 0.647517
0.675593 0.058473 0.623636
0.681987 0.082185 0.551461
0.686473 0.136584 0.524346
0.015640 0.231678 0.512627
0.016144 0.220874 0.599695
0.021363 0.160372 0.669123
0.048356 0.098161 0.689998
0.236408 0.082277 0.714900
0.532326 0.092912 0.649027
0.669551 0.084047 0.618280
0.686809 0.137179 0.551095
0.763302 0.263691 0.581888
0.016876 0.324834 0.524407
0.025025 0.363607 0.617578
0.031708 0.354452 0.678889
0.058152 0.289799 0.673030
0.123873 0.227543 0.626245
0.497307 0.229160 0.687388
0.688090 0.209110 0.632029
0.753933 0.257511 0.596216
0.865507 0.464210 0.646708
0.047379 0.434119 0.556710
0.085847 0.523690 0.664942
0.101305 0.546075 0.725460
0.140383 0.528618 0.728008
0.244511 0.514687 0.703868
0.450477 0.512993 0.730480
0.797803 0.523903 0.741665
0.861479 0.466468 0.652445
0.898970 0.634409 0.705562
0.130312 0.573022 0.603403
0.137789 0.660670 0.703609
0.146777 0.717296 0.753033
0.212757 0.739422 0.772183
0.356085 0.761242 0.790051
0.550515 0.770642 0.776410
0.776852 0.771847 0.743801
0.894072 0.684977 0.633844
0.906920 0.777920 0.731563
0.156756 0.695720 0.636484
0.144945 0.736446 0.676783
0.197391 0.748730 0.678477
0.286900 0.783780 0.700389
0.399496 0.820462 0.724208
0.517662 0.856428 0.718532
0.647303 0.842206 0.631586
0.914839 0.878508 0.656291
0.917128 0.855207 0.750240
0.140002 0.748684 0.632914
0.187106 0.734997 0.623606
0.272099 0.769451 0.657038
0.387152 0.812970 0.690639
0.520027 0.859297 0.725261
0.638560 0.878828 0.735546
0.751247 0.890745 0.737377
0.866621 0.908629 0.762371
0.920104 0.907668 0.755673
0.017853 0.055695 0.688701
0.045533 0.052766 0.671107
0.123735 0.029511 0.714336
0.264027 0.034836 0.689723
0.401724 0.042710 0.642145
0.499901 0.045914 0.615885
0.582879 0.049805 0.603342
0.636118 0.051774 0.595346
0.699916 0.048707 0.590478
0.016037 0.089296 0.623667
0.020157 0.058778 0.766979
0.061860 0.052399 0.753491
0.216739 0.044450 0.765713
0.416815 0.067048 0.703655
0.517739 0.055482 0.659846
0.605035 0.051972 0.645853
0.678157 0.055970 0.628641
0.679103 0.080812 0.570718
0.016449 0.141909 0.589166
0.020096 0.110796 0.684886
0.044923 0.093614 0.699321
0.106355 0.075502 0.728145
0.325216 0.089570 0.721325
0.503029 0.092714 0.661036
0.593515 0.081163 0.644923
0.674281 0.079561 0.629877
0.684474 0.138354 0.572183
0.016526 0.244373 0.603296
0.019883 0.222126 0.675395
0.045563 0.188006 0.669169
0.086397 0.167269 0.664317
0.220356 0.147799 0.719951
0.486152 0.161929 0.687114
0.600473 0.149996 0.650401
0.693614 0.150744 0.633448
0.756878 0.262333 0.634867
0.021805 0.348333 0.621973
0.026810 0.354620 0.686473
0.060426 0.343069 0.686412
0.124102 0.339925 0.707652
0.208148 0.318990 0.729747
0.500618 0.312444 0.785183
0.662150 0.289815 0.727428
0.774105 0.290623 0.713054
0.863157 0.465950 0.737194
0.056306 0.457862 0.640116
0.071870 0.485237 0.711055
0.114351 0.487419 0.721111
0.198215 0.509834 0.746426
0.334081 0.554116 0.818555
0.478767 0.520180 0.848417
0.724193 0.504402 0.830625
0.860075 0.485252 0.799954
0.892821 0.634211 0.784039
0.114687 0.563363 0.675471
0.116289 0.609995 0.745129
0.171695 0.615930 0.752529
0.266209 0.649424 0.779278
0.385657 0.687282 0.832242
0.525948 0.717479 0.863645
0.670634 0.683635 0.858717
0.872160 0.686824 0.843412
0.904524 0.777249 0.824445
0.136858 0.656931 0.710170
0.141344 0.724330 0.755673
0.205661 0.742519 0.774975
0.308873 0.786709 0.821012
0.427482 0.837736 0.857664
0.581827 0.873198 0.878172
0.727993 0.884794 0.874678
0.880140 0.878050 0.859724
0.924498 0.881437 0.860914
0.132845 0.747036 0.702174
0.199298 0.747463 0.705394
0.298161 0.794308 0.746960
0.418784 0.837980 0.777249
0.563195 0.873533 0.811460
0.687709 0.891783 0.825971
0.787350 0.906676 0.846891
0.883955 0.926513 0.869490
0.934035 0.933944 0.876524
0.016526 0.053361 0.800504
0.043687 0.053712 0.767483
0.120592 0.031388 0.805982
0.285924 0.057343 0.768017
0.435203 0.068345 0.710735
0.502007 0.055314 0.676799
0.569360 0.047379 0.666484
0.631861 0.049760 0.650706
0.685115 0.050462 0.641733
0.015229 0.089540 0.728084
0.046632 0.093278 0.700450
0.079271 0.089769 0.693675
0.175937 0.061723 0.745846
0.360159 0.093217 0.710597
0.486336 0.095048 0.669627
0.559853 0.084535 0.651102
0.612955 0.077226 0.642206
0.672374 0.076448 0.627237
0.016480 0.151659 0.684398
0.045655 0.151568 0.667338
0.082109 0.160845 0.660029
0.139193 0.160143 0.673396
0.322942 0.151873 0.726528
0.481025 0.163897 0.680247
0.562387 0.152697 0.649653
0.624918 0.148974 0.639979
0.686534 0.147906 0.630289
0.016266 0.253986 0.699474
0.045930 0.253056 0.674891
0.102647 0.277501 0.680278
0.207813 0.317739 0.730404
0.390692 0.327886 0.796597
0.551308 0.312413 0.771282
0.634913 0.293614 0.727733
0.714061 0.291112 0.721172
0.780758 0.294240 0.715557
0.020554 0.353704 0.707164
0.061677 0.363699 0.693416
0.151110 0.400122 0.718563
0.311406 0.484215 0.821073
0.495430 0.528359 0.854749
0.625391 0.513771 0.850889
0.728176 0.503944 0.832807
0.802441 0.496406 0.823514
0.864881 0.492042 0.805249
0.052415 0.452827 0.715145
0.102358 0.470817 0.717235
0.198230 0.510185 0.744274
0.347921 0.584787 0.826841
0.521324 0.638285 0.864698
0.647227 0.660105 0.877974
0.755367 0.662562 0.868009
0.817746 0.661433 0.860304
0.882506 0.656672 0.852781
0.088533 0.549874 0.746777
0.146456 0.559442 0.740841
0.244327 0.597604 0.766979
0.374624 0.661662 0.827543
0.528695 0.716472 0.864591
0.652979 0.752148 0.878660
0.772229 0.773068 0.884535
0.855177 0.788510 0.886091
0.903365 0.794568 0.882750
0.112169 0.633768 0.756146
0.183291 0.644297 0.752499
0.289448 0.695338 0.794736
0.413214 0.749340 0.845899
0.557855 0.804944 0.876509
0.685725 0.830549 0.882246
0.794171 0.859052 0.897078
0.877852 0.878050 0.910842
0.927749 0.887678 0.916518
0.129717 0.733349 0.763775
0.203357 0.738506 0.767651
0.310796 0.789425 0.823514
0.423728 0.836759 0.857389
0.575906 0.877562 0.881254
0.712947 0.899550 0.892012
0.814359 0.913802 0.903624
0.893690 0.935180 0.921675
0.935699 0.935699 0.927932
