tools/luts_backup/LPP Tetrachrome 400_FPE.cube
# (C) 2014 VisionColor & Patchflyer [www.vision-color.com]
# Generator: VC Patchmatch v.2.1.1 [64/53]
# All work and no play makes Jack a dull boy.
# LUT generated from: LPP Tetrachrome 400_FPE
LUT_3D_SIZE 17
0.032944 0.036393 0.037034
0.040375 0.037354 0.036011
0.059602 0.040681 0.034897
0.087419 0.045594 0.035309
0.113771 0.048981 0.036530
0.137957 0.051408 0.037095
0.163119 0.053407 0.037140
0.190509 0.054673 0.037369
0.216648 0.054002 0.037629
0.242649 0.052796 0.038025
0.268116 0.052049 0.038880
0.290044 0.050568 0.039551
0.314656 0.050324 0.040650
0.344839 0.051133 0.042100
0.373281 0.051377 0.043610
0.393378 0.052003 0.044663
0.417151 0.052598 0.046082
0.030076 0.040848 0.038865
0.039734 0.044266 0.037552
0.065248 0.049363 0.036072
0.097047 0.056931 0.037034
0.133227 0.062943 0.037797
0.162676 0.065934 0.037919
0.190341 0.068009 0.038087
0.222141 0.070787 0.038987
0.254475 0.071626 0.039658
0.280140 0.070787 0.040009
0.302083 0.069444 0.040787
0.323232 0.066743 0.041596
0.347982 0.065599 0.042710
0.375402 0.066300 0.044038
0.407202 0.067247 0.045701
0.432792 0.067002 0.047044
0.458122 0.068391 0.048310
0.028656 0.049607 0.040574
0.035935 0.055665 0.039384
0.071443 0.067247 0.039261
0.112963 0.077302 0.038926
0.152514 0.084794 0.038819
0.189563 0.088441 0.038651
0.226703 0.093324 0.039475
0.261723 0.095949 0.040406
0.293767 0.096086 0.041108
0.319295 0.095552 0.041535
0.340658 0.094667 0.042267
0.361471 0.091920 0.042985
0.384054 0.089876 0.043915
0.411643 0.089113 0.045243
0.443153 0.090791 0.046952
0.469459 0.091798 0.048478
0.490486 0.095033 0.049577
0.028153 0.060777 0.042741
0.034195 0.069520 0.042512
0.070726 0.089738 0.041978
0.130068 0.103822 0.040421
0.174105 0.112169 0.039582
0.220325 0.118608 0.039780
0.260884 0.122759 0.040955
0.301656 0.127947 0.042435
0.334569 0.129381 0.043153
0.361791 0.128588 0.043915
0.382040 0.124605 0.044282
0.401846 0.122103 0.044892
0.424903 0.121798 0.045823
0.452857 0.122179 0.047150
0.481300 0.125261 0.048646
0.504875 0.127214 0.050019
0.521523 0.128176 0.051011
0.028473 0.075624 0.045808
0.033188 0.085817 0.045441
0.073136 0.113664 0.043427
0.143908 0.137850 0.041413
0.201343 0.144701 0.040513
0.250263 0.153948 0.040818
0.300389 0.160555 0.041917
0.340230 0.164813 0.043198
0.372442 0.165164 0.044556
0.399512 0.165606 0.045701
0.423041 0.164218 0.046586
0.444282 0.161028 0.047364
0.466712 0.161379 0.048157
0.493095 0.161975 0.049241
0.520241 0.164599 0.050523
0.539055 0.166873 0.051530
0.556527 0.167102 0.052506
0.029343 0.091691 0.049073
0.033631 0.106554 0.047257
0.077409 0.141573 0.043320
0.166995 0.175265 0.040574
0.247837 0.196033 0.041382
0.299306 0.201007 0.041901
0.349722 0.211795 0.043046
0.389212 0.215213 0.044434
0.417487 0.213352 0.045914
0.443915 0.210697 0.047486
0.470146 0.212161 0.049180
0.494682 0.211261 0.050431
0.518273 0.211460 0.051606
0.539986 0.212222 0.052735
0.561975 0.211368 0.053605
0.580072 0.213153 0.054520
0.598520 0.212848 0.055390
0.029877 0.108370 0.052445
0.034257 0.128405 0.047700
0.091920 0.176593 0.041672
0.200793 0.219760 0.040009
0.303761 0.253925 0.043061
0.365759 0.262882 0.045182
0.409216 0.268299 0.046479
0.450217 0.277333 0.048234
0.475746 0.274861 0.049363
0.499794 0.271153 0.050996
0.527459 0.272435 0.052979
0.551705 0.272114 0.054902
0.576242 0.270695 0.057084
0.596948 0.272114 0.058412
0.615579 0.270939 0.059464
0.636637 0.270939 0.060792
0.656184 0.270069 0.061830
0.030381 0.127520 0.055161
0.036454 0.156024 0.047044
0.111650 0.216007 0.040345
0.244495 0.270314 0.041032
0.350790 0.305028 0.045655
0.427848 0.326879 0.050782
0.472557 0.328710 0.052476
0.501869 0.330571 0.053819
0.536934 0.337499 0.056489
0.558221 0.334173 0.057939
0.584161 0.334462 0.060029
0.609674 0.336858 0.062486
0.633021 0.335836 0.064607
0.654154 0.334508 0.066636
0.673548 0.333532 0.068452
0.694072 0.332235 0.069917
0.716686 0.337316 0.072023
0.031540 0.149493 0.058106
0.040421 0.190158 0.045365
0.133623 0.253880 0.040391
0.263783 0.305440 0.042390
0.369314 0.342473 0.047501
0.447440 0.367864 0.053422
0.516030 0.386709 0.060044
0.553307 0.385962 0.062196
0.576028 0.385611 0.063783
0.604974 0.388403 0.066316
0.628290 0.388037 0.068376
0.655314 0.389654 0.070939
0.683436 0.393942 0.074327
0.711925 0.397482 0.077668
0.731243 0.393515 0.079393
0.746990 0.391073 0.080964
0.768658 0.399847 0.084154
0.033249 0.172183 0.061418
0.041138 0.216876 0.044495
0.131838 0.277806 0.041047
0.246891 0.322515 0.042939
0.333425 0.351781 0.046342
0.416342 0.379828 0.051774
0.499641 0.410254 0.060075
0.577432 0.435218 0.070207
0.613901 0.434089 0.072862
0.637842 0.433249 0.074983
0.665385 0.435996 0.078050
0.697108 0.441718 0.082353
0.728557 0.443824 0.085908
0.759884 0.448508 0.090043
0.783520 0.447196 0.092500
0.797131 0.444099 0.093553
0.813352 0.446143 0.095567
0.034821 0.193637 0.064378
0.038560 0.225895 0.048920
0.082338 0.278264 0.041871
0.172030 0.317006 0.042527
0.241306 0.340856 0.043793
0.321355 0.365881 0.046784
0.426734 0.400717 0.054017
0.523293 0.436011 0.064103
0.611765 0.468101 0.077012
0.663844 0.476051 0.083894
0.695155 0.477684 0.087999
0.732631 0.486778 0.095232
0.772808 0.495048 0.101274
0.798398 0.491768 0.102647
0.820981 0.490486 0.104265
0.836820 0.489296 0.105715
0.851713 0.485161 0.106569
0.036225 0.212909 0.066194
0.036973 0.228504 0.056275
0.045274 0.262272 0.047852
0.073350 0.290822 0.044785
0.116472 0.311696 0.043839
0.175433 0.334295 0.043900
0.299962 0.375525 0.047211
0.440589 0.420325 0.056413
0.554162 0.462104 0.069795
0.649012 0.500130 0.085710
0.710979 0.515770 0.097017
0.752331 0.521767 0.105974
0.793683 0.528069 0.113008
0.822843 0.526665 0.113237
0.841703 0.522240 0.113207
0.861891 0.524056 0.115358
0.874693 0.517143 0.115343
0.037369 0.228107 0.065660
0.037812 0.239872 0.062593
0.038987 0.252934 0.058167
0.043885 0.271870 0.055039
0.055955 0.292744 0.051911
0.080095 0.310018 0.049149
0.167712 0.348318 0.045365
0.347723 0.406149 0.050813
0.504845 0.456550 0.064820
0.614450 0.499580 0.081163
0.704707 0.537133 0.099153
0.763516 0.556054 0.115908
0.797528 0.555596 0.122728
0.826322 0.553231 0.122972
0.844846 0.549020 0.121202
0.862928 0.547692 0.122103
0.880018 0.543450 0.122286
0.038087 0.240375 0.065568
0.038331 0.248737 0.063630
0.038727 0.260029 0.061234
0.042252 0.276310 0.059998
0.049210 0.293690 0.057389
0.066285 0.316060 0.053437
0.129137 0.350301 0.047257
0.293477 0.406821 0.049912
0.480201 0.461585 0.063737
0.607385 0.508721 0.081621
0.698451 0.548852 0.099626
0.770993 0.581842 0.121630
0.806561 0.585809 0.131960
0.821607 0.574090 0.129885
0.844327 0.573236 0.129870
0.852277 0.567376 0.127947
0.871504 0.566552 0.128786
0.038666 0.252171 0.067720
0.038911 0.259388 0.064469
0.039261 0.268696 0.061021
0.041947 0.285267 0.058610
0.048402 0.305028 0.054643
0.077790 0.336675 0.048966
0.177310 0.384054 0.047059
0.345190 0.435462 0.054231
0.503151 0.482414 0.068147
0.623636 0.528771 0.086427
0.714519 0.571359 0.106462
0.772381 0.601022 0.126482
0.818173 0.615137 0.141238
0.829252 0.602396 0.137758
0.838285 0.587472 0.132387
0.852125 0.584268 0.132326
0.857740 0.576593 0.130129
0.039185 0.262333 0.068498
0.039384 0.268421 0.065370
0.039780 0.279133 0.059663
0.041444 0.295125 0.056153
0.050278 0.322194 0.049378
0.117998 0.372442 0.045991
0.292821 0.433783 0.052247
0.453437 0.479255 0.064256
0.573648 0.521096 0.080079
0.672160 0.567514 0.099428
0.740047 0.603601 0.120378
0.796857 0.627070 0.141283
0.833234 0.636774 0.150454
0.843854 0.627008 0.146685
0.849439 0.615488 0.139254
0.857801 0.607340 0.136675
0.860578 0.587472 0.132326
0.039399 0.269825 0.067643
0.039689 0.278080 0.065507
0.040116 0.288441 0.060182
0.041642 0.303578 0.056611
0.053025 0.335790 0.048997
0.160327 0.402823 0.047059
0.372076 0.469505 0.059159
0.532769 0.522683 0.076204
0.646006 0.573739 0.097368
0.725551 0.611551 0.120867
0.789075 0.637247 0.144289
0.828290 0.646830 0.151492
0.846555 0.646311 0.152865
0.856046 0.642252 0.152087
0.856565 0.632227 0.145602
0.865766 0.629129 0.142382
0.868360 0.614984 0.137591
0.028321 0.036057 0.050568
0.036149 0.037034 0.049912
0.061677 0.041657 0.049699
0.086900 0.045579 0.047883
0.114382 0.049088 0.046052
0.138705 0.051774 0.044877
0.161288 0.053330 0.042878
0.185733 0.053849 0.041138
0.210636 0.053788 0.040742
0.238163 0.053712 0.040940
0.267384 0.053223 0.041459
0.292988 0.051331 0.041566
0.317525 0.050172 0.042176
0.343130 0.049577 0.043198
0.371710 0.050233 0.044511
0.397879 0.051637 0.045869
0.418860 0.052018 0.046876
0.028428 0.042176 0.049317
0.038834 0.050538 0.053483
0.077470 0.046250 0.038148
0.109468 0.048569 0.036942
0.135531 0.051194 0.037064
0.162173 0.053117 0.037003
0.187533 0.053864 0.037232
0.214328 0.053574 0.037552
0.242267 0.052293 0.037964
0.266514 0.051469 0.038819
0.290166 0.050782 0.039612
0.316091 0.050645 0.040757
0.344976 0.051728 0.042130
0.371939 0.051591 0.043565
0.397086 0.052628 0.044907
0.416709 0.054444 0.046143
0.454658 0.068528 0.049943
0.028290 0.053147 0.050767
0.029465 0.059510 0.044312
0.107836 0.090455 0.043000
0.147768 0.083589 0.039155
0.179141 0.080339 0.038529
0.208560 0.079118 0.038712
0.238788 0.080079 0.039353
0.266270 0.079713 0.039994
0.289921 0.076982 0.040467
0.311177 0.074479 0.041077
0.331777 0.071885 0.041825
0.355047 0.069322 0.042969
0.382666 0.069291 0.044282
0.412284 0.071015 0.045792
0.437537 0.071000 0.047150
0.460044 0.074540 0.048478
0.493996 0.096239 0.051713
0.028641 0.065049 0.053468
0.028534 0.075135 0.045960
0.074205 0.112703 0.044083
0.194827 0.142260 0.040879
0.223789 0.127749 0.039887
0.257160 0.122423 0.040757
0.292988 0.119738 0.041840
0.320180 0.117311 0.042329
0.338399 0.111803 0.042542
0.359213 0.107744 0.042878
0.380896 0.104860 0.043641
0.401587 0.102098 0.044480
0.427665 0.101732 0.045731
0.456519 0.102296 0.047379
0.479042 0.101671 0.048798
0.498970 0.104753 0.050187
0.527779 0.128603 0.053101
0.028962 0.079728 0.057404
0.029358 0.091966 0.049531
0.055055 0.129335 0.044953
0.188251 0.180179 0.040970
0.297734 0.201358 0.042023
0.321630 0.183688 0.042100
0.346792 0.173037 0.043137
0.373800 0.166690 0.044633
0.394080 0.160372 0.045502
0.409201 0.151949 0.045869
0.428351 0.146532 0.046418
0.449393 0.143267 0.047013
0.473274 0.142443 0.048157
0.499947 0.143114 0.049607
0.519417 0.143114 0.050675
0.537514 0.145541 0.051698
0.565591 0.170336 0.054704
0.029603 0.095140 0.061082
0.029877 0.108751 0.052110
0.050782 0.151354 0.044373
0.196094 0.219821 0.040177
0.335042 0.260502 0.044663
0.408194 0.268940 0.046433
0.421515 0.246937 0.046113
0.434745 0.230900 0.046784
0.451987 0.220081 0.047852
0.470085 0.212161 0.049180
0.486458 0.204364 0.049851
0.506127 0.200397 0.050690
0.525277 0.196139 0.051408
0.545556 0.194842 0.052171
0.564569 0.196201 0.053071
0.582055 0.196551 0.054108
0.614206 0.222080 0.057908
0.030137 0.111467 0.063645
0.030381 0.127550 0.054826
0.056764 0.180346 0.043687
0.207095 0.256352 0.040269
0.357580 0.306767 0.045975
0.450233 0.327977 0.051637
0.501076 0.330449 0.053681
0.511482 0.311879 0.053239
0.524132 0.297017 0.053330
0.539239 0.285084 0.053910
0.555856 0.276036 0.055268
0.572992 0.269780 0.056809
0.590585 0.265843 0.057725
0.603372 0.259953 0.058152
0.620630 0.257313 0.059068
0.639338 0.257710 0.060182
0.672328 0.284169 0.065217
0.030655 0.129229 0.066270
0.031510 0.149050 0.058106
0.062058 0.211841 0.042679
0.209415 0.284443 0.040894
0.358679 0.336645 0.046799
0.467292 0.373358 0.055360
0.537804 0.386435 0.061158
0.577890 0.384543 0.063798
0.590158 0.372335 0.063584
0.604898 0.357885 0.063539
0.624811 0.351812 0.064897
0.641703 0.344594 0.065949
0.660075 0.339437 0.067445
0.674052 0.333227 0.068498
0.686687 0.327123 0.068910
0.704433 0.326772 0.070222
0.732952 0.350561 0.076661
0.031693 0.149920 0.070619
0.033219 0.171603 0.061372
0.056428 0.234562 0.042969
0.187228 0.302129 0.041825
0.314427 0.345647 0.045533
0.423270 0.380652 0.052323
0.531014 0.420493 0.063630
0.602335 0.434989 0.072038
0.643351 0.433021 0.075486
0.661112 0.424674 0.075883
0.678523 0.415961 0.076570
0.704219 0.414740 0.079118
0.725322 0.411154 0.080873
0.742596 0.404807 0.081910
0.752895 0.396399 0.082048
0.766339 0.391897 0.083192
0.785473 0.406806 0.088945
0.033463 0.174273 0.076188
0.034730 0.192676 0.063478
0.041535 0.237293 0.046708
0.117601 0.297551 0.042252
0.216281 0.333700 0.043305
0.313664 0.364141 0.046510
0.448829 0.408743 0.055924
0.570459 0.453025 0.070680
0.650690 0.473808 0.082170
0.699916 0.479789 0.088960
0.725567 0.472663 0.090761
0.753201 0.472816 0.094026
0.776959 0.467018 0.094881
0.796902 0.463172 0.096269
0.809537 0.455787 0.096559
0.817334 0.447303 0.096269
0.826093 0.450065 0.098726
0.035019 0.196811 0.079912
0.036149 0.211826 0.065171
0.037858 0.234409 0.054383
0.054398 0.277775 0.047120
0.102037 0.306447 0.044388
0.173388 0.335042 0.044190
0.314656 0.381994 0.048112
0.484581 0.435737 0.060945
0.611612 0.482231 0.078660
0.703532 0.515175 0.095720
0.753704 0.523323 0.106157
0.783261 0.515755 0.108064
0.814603 0.515160 0.109682
0.831250 0.506172 0.108614
0.846922 0.500832 0.109117
0.859236 0.495979 0.109621
0.861784 0.494011 0.110246
0.036347 0.215930 0.080705
0.037354 0.228000 0.066209
0.037827 0.241596 0.062211
0.040986 0.263310 0.055680
0.052750 0.287968 0.051316
0.081926 0.310948 0.048966
0.184405 0.355688 0.045594
0.389487 0.419821 0.053803
0.554116 0.473228 0.071183
0.674281 0.523796 0.092332
0.756069 0.554086 0.113054
0.793896 0.552224 0.121157
0.820478 0.544244 0.120027
0.842710 0.539269 0.118318
0.861433 0.534340 0.118166
0.880186 0.531640 0.119173
0.887144 0.533227 0.121050
0.037385 0.231312 0.079118
0.038102 0.240726 0.066712
0.038407 0.251499 0.063798
0.039673 0.266056 0.059663
0.046006 0.287022 0.056825
0.062684 0.312154 0.052964
0.136202 0.351888 0.046891
0.332021 0.417487 0.051881
0.526650 0.477653 0.069215
0.650034 0.526482 0.089525
0.743358 0.570260 0.112703
0.801114 0.583886 0.129671
0.819638 0.570672 0.128969
0.840009 0.564385 0.126757
0.855039 0.560174 0.125597
0.876509 0.557534 0.126085
0.894881 0.557488 0.127687
0.038102 0.244373 0.078706
0.038666 0.251942 0.067659
0.038972 0.260899 0.063890
0.039689 0.275135 0.059846
0.045243 0.296696 0.056184
0.066758 0.328237 0.049958
0.163912 0.378820 0.047166
0.352865 0.438224 0.054780
0.535576 0.496300 0.072511
0.660746 0.546777 0.094240
0.744579 0.585504 0.115404
0.802213 0.609567 0.135348
0.827939 0.602792 0.138231
0.840620 0.588586 0.132921
0.852247 0.581094 0.131701
0.865675 0.576883 0.131823
0.894240 0.578073 0.133654
0.038788 0.257588 0.082139
0.039170 0.262303 0.068467
0.039429 0.269978 0.065187
0.039948 0.282704 0.059541
0.044709 0.307836 0.054093
0.081483 0.351293 0.046845
0.237156 0.417823 0.049516
0.432990 0.476127 0.062867
0.580941 0.526818 0.081895
0.695964 0.576822 0.104570
0.766522 0.611765 0.126406
0.816068 0.630014 0.143297
0.840421 0.630014 0.148028
0.846311 0.616236 0.140795
0.857023 0.605676 0.136797
0.866224 0.594247 0.135592
0.889097 0.596597 0.141283
0.039277 0.268345 0.084337
0.039414 0.271077 0.071229
0.039719 0.280278 0.069322
0.040330 0.295674 0.063447
0.046799 0.325673 0.055924
0.106859 0.382071 0.047272
0.311635 0.453605 0.055085
0.510887 0.515373 0.073869
0.639872 0.568673 0.095857
0.727443 0.608545 0.120073
0.794812 0.635493 0.142824
0.839109 0.648554 0.152361
0.861860 0.651270 0.156817
0.863020 0.638086 0.151812
0.869749 0.629786 0.145327
0.870390 0.617624 0.140734
0.893874 0.620386 0.148638
0.039612 0.276387 0.084565
0.039826 0.288029 0.093156
0.041001 0.316594 0.103716
0.046555 0.347906 0.105089
0.080308 0.389654 0.090242
0.224125 0.446799 0.059846
0.439704 0.506310 0.068696
0.591562 0.561273 0.091203
0.686397 0.606683 0.118883
0.754299 0.637858 0.148623
0.816617 0.653971 0.159243
0.863752 0.660029 0.159289
0.880522 0.658457 0.158404
0.887297 0.654902 0.159304
0.894560 0.648066 0.157946
0.899519 0.646250 0.158007
0.898680 0.640589 0.157366
0.028443 0.037476 0.064805
0.032609 0.037003 0.068894
0.052155 0.041611 0.073381
0.081117 0.045747 0.072236
0.109621 0.048997 0.067735
0.137881 0.052033 0.062516
0.163561 0.054215 0.059190
0.188876 0.054597 0.054719
0.215076 0.054398 0.051759
0.242390 0.054231 0.051057
0.271534 0.053849 0.050370
0.298344 0.052140 0.048920
0.323690 0.050065 0.048310
0.351446 0.048585 0.048142
0.380896 0.048692 0.049470
0.410681 0.050080 0.051225
0.434256 0.052277 0.052750
0.028534 0.046403 0.067155
0.029648 0.041260 0.075868
0.064057 0.046067 0.092699
0.105684 0.048997 0.068711
0.136843 0.051728 0.055619
0.161975 0.053376 0.048875
0.187701 0.054124 0.045914
0.212604 0.054063 0.044175
0.240665 0.054032 0.043824
0.265797 0.053025 0.042710
0.289754 0.051225 0.042008
0.317800 0.049485 0.042741
0.347478 0.049378 0.043839
0.373831 0.050813 0.045151
0.399908 0.052338 0.046616
0.425559 0.054292 0.048142
0.466194 0.069215 0.055833
0.028031 0.055863 0.069795
0.029358 0.067979 0.087755
0.063066 0.074159 0.076158
0.125933 0.066255 0.049760
0.161242 0.060075 0.040253
0.187854 0.056229 0.038193
0.214862 0.053910 0.037659
0.242267 0.053025 0.038087
0.267445 0.051652 0.038865
0.290822 0.050385 0.039628
0.317617 0.051026 0.040864
0.346105 0.051759 0.042191
0.372290 0.051591 0.043595
0.395346 0.052598 0.044892
0.420066 0.055558 0.046479
0.456443 0.069032 0.049851
0.495872 0.094331 0.057328
0.028443 0.069154 0.071214
0.029038 0.083513 0.074495
0.034211 0.086290 0.060761
0.183169 0.138537 0.053620
0.235355 0.119142 0.042329
0.269352 0.106325 0.041352
0.291630 0.096422 0.041032
0.309712 0.089967 0.041138
0.327657 0.084840 0.041688
0.346441 0.079713 0.042390
0.367361 0.076143 0.043427
0.392508 0.075013 0.044617
0.419593 0.075975 0.046006
0.446616 0.077241 0.047517
0.469291 0.082170 0.049058
0.499458 0.100526 0.052018
0.528984 0.130282 0.060441
0.029068 0.084428 0.075044
0.029633 0.098650 0.072847
0.030106 0.105379 0.057893
0.152865 0.180407 0.044572
0.335363 0.226520 0.046235
0.358511 0.191302 0.043503
0.370504 0.166659 0.044511
0.380285 0.147478 0.044800
0.389548 0.134066 0.044709
0.404654 0.126390 0.045014
0.425223 0.121462 0.045808
0.447791 0.117891 0.046906
0.470466 0.116991 0.048188
0.493431 0.116701 0.049577
0.514000 0.121447 0.050889
0.539544 0.139910 0.053681
0.567605 0.174807 0.062333
0.029664 0.100145 0.079225
0.030213 0.114290 0.073747
0.030304 0.124865 0.056214
0.141909 0.221195 0.041260
0.365316 0.298833 0.046754
0.478767 0.317739 0.052354
0.470008 0.269200 0.048981
0.465705 0.233707 0.048600
0.469810 0.210803 0.049210
0.477272 0.195010 0.049180
0.490608 0.185061 0.049622
0.507744 0.177905 0.050141
0.525612 0.173251 0.050736
0.541527 0.169711 0.051652
0.559609 0.172961 0.052873
0.584421 0.190707 0.056107
0.618357 0.226246 0.065461
0.030243 0.116930 0.085084
0.030793 0.131518 0.074815
0.031388 0.147555 0.058091
0.124147 0.247333 0.040818
0.340215 0.328603 0.045838
0.503151 0.380606 0.058915
0.572747 0.384466 0.063447
0.559060 0.336812 0.058244
0.559411 0.309331 0.056611
0.562829 0.286168 0.055848
0.571679 0.269718 0.056687
0.580072 0.254765 0.056550
0.591852 0.245762 0.056718
0.604166 0.239429 0.057008
0.623240 0.241947 0.058427
0.646891 0.257588 0.062043
0.679225 0.292500 0.073472
0.030961 0.136568 0.092088
0.031754 0.150652 0.076967
0.033295 0.172747 0.062196
0.096376 0.260044 0.041184
0.280354 0.333852 0.043961
0.436774 0.385016 0.053437
0.578424 0.430915 0.069688
0.640925 0.435080 0.075563
0.638117 0.401480 0.070527
0.647852 0.380209 0.069413
0.656397 0.361593 0.068864
0.663340 0.342824 0.067979
0.672602 0.330724 0.068238
0.682078 0.323445 0.068254
0.695583 0.320775 0.069139
0.716197 0.333257 0.072999
0.742794 0.363363 0.087037
0.032044 0.157931 0.097093
0.033326 0.172808 0.079973
0.034806 0.193820 0.064103
0.056977 0.258061 0.044190
0.179873 0.321157 0.042832
0.312718 0.363439 0.046448
0.488090 0.421881 0.060212
0.633600 0.472480 0.080293
0.701778 0.481804 0.089479
0.715587 0.460410 0.087022
0.730083 0.442802 0.085801
0.741909 0.429099 0.085222
0.748806 0.412879 0.083696
0.756817 0.402045 0.083131
0.765179 0.394156 0.083482
0.779431 0.401282 0.087434
0.795224 0.420569 0.098100
0.033509 0.179889 0.099229
0.034913 0.195651 0.082246
0.036118 0.211398 0.065141
0.040070 0.248356 0.051514
0.078233 0.295842 0.045792
0.160388 0.331502 0.044343
0.338796 0.389624 0.049317
0.542611 0.457938 0.068116
0.681712 0.507973 0.091920
0.753719 0.522179 0.105852
0.779583 0.505867 0.104738
0.799359 0.495125 0.103395
0.811139 0.480186 0.101198
0.817411 0.467506 0.099397
0.822736 0.456977 0.098299
0.828611 0.454063 0.099779
0.836271 0.463951 0.107225
0.034913 0.199832 0.100328
0.036301 0.215808 0.083024
0.037278 0.226856 0.065919
0.037995 0.245243 0.059052
0.047318 0.279423 0.052781
0.075044 0.308492 0.049393
0.192203 0.359808 0.045792
0.436576 0.436027 0.057832
0.616556 0.500389 0.081529
0.738293 0.547692 0.107897
0.792691 0.551400 0.120226
0.818280 0.537011 0.116899
0.841672 0.529198 0.115236
0.854017 0.516487 0.113039
0.865476 0.508400 0.112779
0.868925 0.503334 0.113054
0.869642 0.507378 0.118456
0.036179 0.218402 0.101686
0.037293 0.231022 0.083024
0.038056 0.239765 0.066758
0.038422 0.252705 0.063523
0.041810 0.275593 0.057755
0.056336 0.305776 0.053452
0.134371 0.352224 0.047013
0.357916 0.426551 0.053422
0.573678 0.497032 0.076478
0.709438 0.552728 0.101991
0.788815 0.582834 0.126513
0.819898 0.571160 0.128389
0.839704 0.559853 0.125154
0.858213 0.550973 0.122972
0.878569 0.543420 0.122194
0.890410 0.543069 0.123827
0.890150 0.548974 0.130770
0.037263 0.234730 0.101259
0.038087 0.244144 0.083452
0.038682 0.252125 0.067674
0.039017 0.263188 0.064851
0.040879 0.281926 0.058564
0.053712 0.314397 0.051987
0.140154 0.369009 0.047089
0.354330 0.439628 0.054963
0.566110 0.509575 0.077668
0.700984 0.562814 0.102327
0.779721 0.599588 0.127291
0.822736 0.603220 0.137636
0.841047 0.588693 0.132906
0.852293 0.576364 0.130358
0.871489 0.571176 0.130709
0.894911 0.569863 0.131289
0.900587 0.577356 0.139590
0.038056 0.247318 0.099886
0.038758 0.257374 0.085130
0.039124 0.261631 0.069154
0.039521 0.272709 0.065660
0.040955 0.292363 0.059068
0.055360 0.329229 0.050050
0.178729 0.399207 0.047593
0.408133 0.470817 0.061158
0.591699 0.534493 0.084382
0.718212 0.586480 0.110399
0.788891 0.617151 0.132586
0.834531 0.632212 0.147799
0.845548 0.618280 0.142824
0.857527 0.604776 0.136873
0.868116 0.593484 0.136233
0.891203 0.593149 0.139071
0.901595 0.592325 0.141985
0.038819 0.260914 0.102220
0.039292 0.268467 0.088014
0.039445 0.272236 0.073777
0.039963 0.287251 0.072831
0.042481 0.311589 0.067170
0.064424 0.353704 0.052781
0.234607 0.431556 0.050889
0.476905 0.506462 0.070359
0.635889 0.566690 0.095293
0.742367 0.612284 0.123537
0.814939 0.639536 0.145144
0.852888 0.648142 0.153979
0.866972 0.643656 0.154635
0.868772 0.631525 0.148302
0.873487 0.619547 0.142275
0.894667 0.617853 0.148089
0.902327 0.614069 0.151034
0.039506 0.273198 0.108705
0.039811 0.279561 0.096056
0.039887 0.289891 0.095628
0.041169 0.319646 0.106188
0.053178 0.356847 0.102510
0.124697 0.412940 0.073350
0.343191 0.481315 0.061524
0.543328 0.544015 0.082841
0.669367 0.597482 0.113115
0.755535 0.635798 0.147066
0.826123 0.653666 0.157900
0.870878 0.660914 0.161273
0.884733 0.659510 0.161990
0.890806 0.652506 0.160739
0.896681 0.647456 0.158175
0.900374 0.641886 0.156756
0.908492 0.635843 0.158404
0.040116 0.284306 0.115434
0.040558 0.308400 0.135836
0.042924 0.341558 0.161730
0.054032 0.377340 0.177661
0.088853 0.418097 0.171847
0.239185 0.476921 0.126726
0.449195 0.533303 0.092195
0.599268 0.583551 0.111360
0.692546 0.628031 0.157000
0.762264 0.653529 0.184039
0.828214 0.667674 0.182620
0.875349 0.677974 0.180896
0.893263 0.680415 0.184665
0.903288 0.679973 0.188052
0.910842 0.669764 0.181903
0.914199 0.663264 0.174319
0.914305 0.657603 0.169696
0.029709 0.039643 0.086213
0.032044 0.038056 0.089158
0.044205 0.039582 0.095369
0.067857 0.044053 0.100481
0.097551 0.046952 0.100237
0.128939 0.050843 0.094682
0.159411 0.054124 0.086900
0.186282 0.054749 0.079759
0.215396 0.054780 0.074418
0.248295 0.054627 0.072541
0.280629 0.054002 0.070512
0.310079 0.052110 0.067964
0.337011 0.049851 0.067124
0.366354 0.048661 0.068254
