tools/luts_backup/LPP Tetrachrome 400_CIN.cube
# (C) 2014 VisionColor & Patchflyer [www.vision-color.com]
# Generator: VC Patchmatch v.2.1.1 [64/53]
# All work and no play makes Jack a dull boy.
# LUT generated from: LPP Tetrachrome 400_Cineon
LUT_3D_SIZE 17
0.086275 0.090181 0.090181
0.134981 0.091432 0.087190
0.190249 0.101503 0.090364
0.234195 0.111330 0.088716
0.266850 0.115267 0.089509
0.293492 0.117159 0.090181
0.317632 0.120180 0.090272
0.341131 0.125582 0.092042
0.362615 0.125246 0.091890
0.382116 0.125124 0.091951
0.399908 0.128206 0.092470
0.415595 0.127687 0.090303
0.432319 0.131624 0.091341
0.451667 0.139254 0.093935
0.469886 0.145449 0.094179
0.482918 0.149599 0.095247
0.498024 0.156863 0.101961
0.079194 0.126497 0.091005
0.132235 0.131868 0.091371
0.196262 0.140078 0.091615
0.240208 0.152438 0.095338
0.279545 0.161898 0.098299
0.307652 0.164340 0.099153
0.331518 0.165682 0.099123
0.356298 0.169986 0.104005
0.378637 0.173098 0.106538
0.396063 0.174044 0.105135
0.410956 0.174838 0.105715
0.425574 0.173617 0.105592
0.441535 0.176181 0.105806
0.458412 0.183352 0.109041
0.477516 0.192752 0.114137
0.493751 0.196841 0.115572
0.508873 0.203220 0.115816
0.082155 0.170443 0.102296
0.131624 0.182681 0.101228
0.198825 0.189914 0.097963
0.249973 0.199130 0.099702
0.288792 0.205905 0.102419
0.320684 0.208530 0.102419
0.347509 0.214267 0.104707
0.371710 0.217624 0.108949
0.393347 0.218509 0.110780
0.409766 0.219333 0.109834
0.423590 0.220401 0.110780
0.437079 0.219486 0.110811
0.451270 0.219699 0.110567
0.468025 0.223819 0.112886
0.486030 0.230472 0.114687
0.501793 0.235966 0.117586
0.513268 0.242893 0.117617
0.091554 0.210025 0.112886
0.133577 0.222263 0.111269
0.200412 0.235508 0.102571
0.260838 0.240635 0.102602
0.298344 0.246098 0.104799
0.333318 0.250553 0.105715
0.361028 0.254002 0.108370
0.385290 0.259037 0.110689
0.405554 0.261112 0.112032
0.422614 0.261234 0.112306
0.436194 0.258915 0.113008
0.448829 0.258061 0.113985
0.462501 0.260014 0.114412
0.478920 0.263279 0.115755
0.494575 0.269169 0.116793
0.508110 0.273960 0.117891
0.518303 0.277195 0.119051
0.097047 0.244480 0.118898
0.136385 0.256168 0.117556
0.207279 0.271275 0.106783
0.269230 0.283879 0.105043
0.312139 0.282841 0.105501
0.344884 0.289006 0.108705
0.375372 0.293156 0.111086
0.398260 0.296086 0.112276
0.416815 0.295933 0.111147
0.432319 0.296818 0.111727
0.446571 0.296849 0.113069
0.460029 0.295506 0.114870
0.473243 0.297337 0.116976
0.488441 0.299626 0.117311
0.503532 0.303899 0.118288
0.514549 0.307500 0.120455
0.525597 0.309850 0.122652
0.100740 0.274205 0.127138
0.143740 0.289891 0.121706
0.218967 0.307469 0.109041
0.287694 0.321843 0.106264
0.332982 0.328191 0.107912
0.365179 0.329351 0.111299
0.392309 0.335821 0.112734
0.414130 0.337713 0.113832
0.430274 0.336095 0.112886
0.445533 0.334203 0.113619
0.459571 0.335485 0.115480
0.473640 0.335576 0.116518
0.487251 0.336797 0.118563
0.499458 0.338293 0.119966
0.512901 0.339117 0.121004
0.523644 0.341741 0.123873
0.535454 0.343236 0.128389
0.104311 0.301549 0.134829
0.151431 0.320623 0.123781
0.239017 0.342962 0.110597
0.309361 0.358465 0.110079
0.359106 0.370398 0.112703
0.389593 0.371435 0.114260
0.413428 0.374304 0.119692
0.433356 0.379553 0.116915
0.448005 0.378180 0.119203
0.461891 0.375921 0.121218
0.476326 0.376806 0.122286
0.489387 0.376806 0.123171
0.502922 0.376196 0.125216
0.514244 0.377722 0.127047
0.525902 0.378119 0.128267
0.538750 0.379431 0.131380
0.551263 0.380377 0.133791
0.105928 0.330053 0.141390
0.165042 0.352056 0.124880
0.260655 0.375555 0.113710
0.333989 0.393561 0.114321
0.379767 0.403998 0.117556
0.409949 0.408850 0.121462
0.434394 0.409796 0.124025
0.450721 0.411322 0.130800
0.466529 0.415015 0.128511
0.478889 0.413428 0.135134
0.492470 0.413855 0.138399
0.505028 0.415320 0.138552
0.517845 0.415106 0.141726
0.529992 0.414984 0.144137
0.541131 0.414954 0.143740
0.554101 0.415473 0.147127
0.566400 0.419501 0.149111
0.109926 0.358679 0.149020
0.184360 0.383795 0.125917
0.278660 0.402838 0.115999
0.344793 0.418524 0.116121
0.388067 0.429572 0.117403
0.417823 0.436164 0.119722
0.445228 0.441047 0.128969
0.465705 0.441138 0.137026
0.478401 0.441444 0.145083
0.491981 0.442847 0.147524
0.503990 0.442908 0.156130
0.517662 0.444068 0.161868
0.532006 0.446906 0.165835
0.546624 0.449317 0.168734
0.558618 0.448005 0.167422
0.568536 0.447425 0.167910
0.578546 0.452522 0.168521
0.113802 0.384619 0.157015
0.191165 0.409949 0.128817
0.280858 0.423255 0.117647
0.338506 0.434180 0.116579
0.374701 0.442176 0.116640
0.406348 0.450172 0.115572
0.437324 0.459571 0.120272
0.466621 0.466468 0.133059
0.487068 0.466621 0.149905
0.500175 0.466773 0.163577
0.513726 0.468330 0.173831
0.529259 0.471504 0.184817
0.545434 0.473030 0.191379
0.561242 0.476112 0.189883
0.574182 0.475990 0.184085
0.582818 0.474861 0.179171
0.592309 0.476478 0.172976
0.115267 0.408301 0.164187
0.176730 0.427955 0.141695
0.251926 0.438209 0.125032
0.305058 0.444434 0.119905
0.337407 0.449042 0.119692
0.370642 0.454566 0.118715
0.410620 0.464118 0.117830
0.446082 0.474983 0.120943
0.478920 0.485664 0.134920
0.503349 0.488624 0.165499
0.521111 0.490181 0.191012
0.539635 0.494820 0.207889
0.558282 0.498970 0.212406
0.571832 0.497719 0.204501
0.583490 0.497414 0.189731
0.593347 0.497230 0.178958
0.604181 0.496040 0.166720
0.116884 0.429389 0.168368
0.158419 0.441779 0.160983
0.206821 0.449195 0.147585
0.247898 0.452888 0.139132
0.279850 0.454444 0.136049
0.310170 0.457343 0.132143
0.363088 0.465095 0.123537
0.416083 0.476600 0.119783
0.457191 0.490059 0.120821
0.492134 0.503807 0.146639
0.520500 0.509483 0.195224
0.543633 0.512444 0.224948
0.564019 0.515740 0.233494
0.577295 0.514916 0.220981
0.587610 0.512901 0.202090
0.599237 0.514580 0.189700
0.609155 0.512230 0.173281
0.115969 0.446265 0.168612
0.148959 0.454292 0.171206
0.180392 0.458839 0.171542
0.207553 0.461891 0.169284
0.236057 0.463325 0.166781
0.261692 0.464393 0.160189
0.309743 0.469581 0.139956
0.381765 0.480232 0.122438
0.439002 0.493935 0.118196
0.479164 0.509300 0.131716
0.513451 0.523003 0.183291
0.543206 0.529656 0.234623
0.562524 0.529503 0.250156
0.576318 0.528527 0.243687
0.586633 0.526635 0.230808
0.597803 0.526329 0.218357
0.608576 0.524926 0.203037
0.117311 0.459449 0.170443
0.146670 0.463783 0.174014
0.177951 0.468330 0.179843
0.203800 0.471077 0.181765
0.227329 0.472724 0.180148
0.253941 0.475532 0.173709
0.295598 0.480354 0.154299
0.361929 0.489326 0.129641
0.430091 0.501549 0.118746
0.476753 0.517296 0.134798
0.510369 0.532677 0.178561
0.541741 0.543450 0.235538
0.561975 0.544427 0.259739
0.571527 0.538933 0.257450
0.582574 0.538720 0.251133
0.588861 0.535973 0.244114
0.601892 0.536034 0.235386
0.120699 0.471077 0.176730
0.147005 0.474647 0.177462
0.175845 0.477974 0.180423
0.201389 0.481819 0.180240
0.227024 0.483650 0.175082
0.264256 0.487984 0.162295
0.319188 0.494484 0.144350
0.381292 0.502312 0.126925
0.438880 0.513726 0.123537
0.483223 0.529717 0.150729
0.517357 0.546441 0.201297
0.542748 0.556786 0.246220
0.562402 0.558892 0.266056
0.569879 0.552789 0.262333
0.576043 0.545800 0.253849
0.584344 0.544396 0.249912
0.589685 0.540764 0.243656
0.117739 0.482246 0.179812
0.148409 0.483619 0.181003
0.176577 0.488869 0.180667
0.199741 0.492927 0.177340
0.231754 0.496803 0.164187
0.291661 0.502403 0.143038
0.363348 0.510033 0.128298
0.420996 0.518975 0.122774
0.464820 0.532555 0.139742
0.501518 0.550683 0.186526
0.530114 0.564508 0.239750
0.553368 0.570062 0.268406
0.567254 0.570397 0.275303
0.572900 0.565148 0.268772
0.576043 0.560510 0.255833
0.580560 0.556420 0.247044
0.587915 0.546319 0.242832
0.117647 0.490181 0.180392
0.148440 0.493446 0.183993
0.176608 0.498360 0.184237
0.199832 0.502678 0.182010
0.237797 0.507073 0.163851
0.312627 0.514641 0.135073
0.391608 0.524773 0.122499
0.450355 0.541619 0.132357
0.492164 0.560510 0.180926
0.525231 0.572595 0.243656
0.550683 0.578302 0.273503
0.565148 0.578882 0.276860
0.571893 0.575952 0.274662
0.576196 0.572931 0.272007
0.577111 0.568811 0.262272
0.580621 0.567895 0.251225
0.584314 0.560754 0.239231
0.076081 0.095430 0.162081
0.130709 0.094392 0.162875
0.194980 0.101564 0.156405
0.234867 0.110506 0.150668
0.269291 0.115450 0.143130
0.296117 0.118288 0.138705
0.318914 0.118868 0.133333
0.341405 0.120485 0.128115
0.362737 0.122377 0.126345
0.383917 0.126680 0.129000
0.405035 0.131106 0.129732
0.423011 0.130831 0.124849
0.439277 0.132906 0.122560
0.456428 0.136568 0.123934
0.474739 0.143404 0.128939
0.490059 0.152041 0.132357
0.502861 0.157229 0.131746
0.080842 0.134707 0.144900
0.137758 0.148501 0.151522
0.219821 0.122225 0.108431
0.262547 0.114748 0.093416
0.291173 0.116884 0.089998
0.316777 0.118929 0.088685
0.339300 0.121767 0.090669
0.361395 0.123049 0.091585
0.382239 0.122927 0.090913
0.399420 0.125246 0.091676
0.415656 0.128878 0.092409
0.433051 0.132876 0.092653
0.451148 0.141146 0.095125
0.468696 0.146334 0.095277
0.484627 0.152865 0.097902
0.495460 0.163638 0.106050
0.509636 0.203311 0.148562
0.088594 0.178836 0.144564
0.103059 0.202670 0.124697
0.242222 0.225223 0.117678
0.284611 0.204501 0.104341
0.315129 0.195834 0.102449
0.340307 0.190921 0.102815
0.363195 0.191531 0.105928
0.382635 0.191135 0.108156
0.399573 0.188144 0.108400
0.414160 0.186343 0.106813
0.428077 0.185550 0.105989
0.443275 0.185336 0.106844
0.460670 0.191226 0.109804
0.478187 0.199039 0.112947
0.493690 0.203616 0.114137
0.506035 0.213046 0.120150
0.518090 0.246189 0.154147
0.093263 0.212802 0.148348
0.098451 0.242954 0.120424
0.208835 0.269718 0.110842
0.308019 0.280980 0.109133
0.332799 0.261570 0.104829
0.358648 0.253605 0.107210
0.382513 0.249149 0.109010
0.401251 0.247105 0.111940
0.415076 0.241642 0.111788
0.429328 0.238376 0.111543
0.443275 0.237308 0.111482
0.456519 0.236606 0.111727
0.472145 0.239841 0.113497
0.489082 0.244755 0.115267
0.502678 0.247990 0.116518
0.514153 0.255070 0.124086
0.525170 0.280613 0.157931
0.097597 0.246098 0.153567
0.101045 0.274388 0.129244
0.194888 0.301396 0.112978
0.300450 0.322850 0.109926
0.364355 0.329747 0.112612
0.382361 0.313420 0.111635
0.399878 0.303197 0.111574
0.417395 0.297368 0.112703
0.430945 0.292546 0.113222
0.442420 0.285771 0.112703
0.455695 0.282261 0.114473
0.469154 0.280949 0.115236
0.483558 0.282536 0.116457
0.499153 0.286381 0.118410
0.510918 0.288762 0.119081
0.521965 0.293248 0.126558
0.532982 0.314916 0.160830
0.100923 0.274815 0.158785
0.104219 0.302342 0.133974
0.196353 0.330938 0.113344
0.307164 0.359289 0.112490
0.372412 0.370977 0.115908
0.412482 0.374670 0.117800
0.424781 0.360418 0.116274
0.435889 0.349340 0.115663
0.447913 0.341283 0.115785
0.459541 0.335485 0.115480
0.471046 0.330571 0.116487
0.483742 0.328801 0.118654
0.496132 0.327001 0.119265
0.508568 0.327459 0.121218
0.520043 0.329778 0.124056
0.531273 0.331945 0.130312
0.544335 0.351659 0.164187
0.104341 0.301823 0.162539
0.105898 0.330236 0.140566
0.208408 0.361151 0.117342
0.315770 0.388891 0.113710
0.382391 0.404211 0.117525
0.422461 0.409339 0.123262
0.449958 0.411109 0.128573
0.459022 0.400366 0.126833
0.469032 0.391882 0.126070
0.479866 0.384894 0.125246
0.490883 0.379370 0.125185
0.501488 0.375616 0.125673
0.512474 0.373816 0.126253
0.522057 0.371130 0.126772
0.533562 0.370764 0.130159
0.545464 0.372595 0.137911
0.559533 0.390692 0.176913
0.106020 0.328283 0.167147
0.109926 0.358129 0.148989
0.220584 0.390143 0.120882
0.319738 0.411536 0.116213
0.383856 0.426947 0.117159
0.425269 0.437171 0.121614
0.457557 0.441291 0.135012
0.479438 0.440833 0.144320
0.487984 0.434424 0.145357
0.497902 0.426703 0.144289
0.509819 0.423743 0.145541
0.520623 0.420264 0.145693
0.531975 0.417884 0.145083
0.541619 0.414862 0.145113
0.551263 0.412390 0.146242
0.563073 0.413764 0.155276
0.575891 0.428626 0.195651
0.109804 0.355077 0.175479
0.113222 0.383978 0.156832
0.218753 0.413794 0.125734
0.310582 0.429633 0.118135
0.367346 0.440589 0.117800
0.409216 0.449714 0.118044
0.449409 0.462409 0.126436
0.480537 0.466804 0.144533
0.503044 0.466682 0.165621
0.513573 0.462348 0.169680
0.524498 0.457984 0.174014
0.538811 0.458015 0.177646
0.550866 0.456580 0.174929
0.562188 0.454078 0.171420
0.570428 0.450294 0.168490
0.580194 0.448951 0.173312
0.591333 0.458534 0.206149
0.115206 0.382300 0.185550
0.115663 0.407446 0.162600
0.194827 0.430640 0.138888
0.276616 0.442939 0.126436
0.326635 0.448127 0.121462
0.367758 0.454505 0.119753
0.419043 0.466529 0.119722
0.463508 0.480537 0.126040
0.496956 0.487404 0.158267
0.523278 0.491310 0.193484
0.538231 0.487648 0.199161
0.552331 0.487739 0.202976
0.566186 0.485603 0.196078
0.577203 0.484077 0.185855
0.586938 0.480934 0.178897
0.595239 0.477546 0.177768
0.603204 0.480537 0.202426
0.117128 0.407263 0.192538
0.116945 0.428443 0.166476
0.168307 0.443458 0.158175
0.227176 0.452735 0.147250
0.271794 0.454383 0.140047
0.309804 0.458320 0.134524
0.368826 0.467567 0.123720
0.431998 0.481239 0.119387
0.478157 0.496559 0.129046
0.515953 0.508995 0.187716
0.543755 0.513176 0.223972
0.560632 0.509575 0.226169
0.575219 0.509117 0.214847
0.585565 0.505119 0.195987
0.596490 0.503044 0.182345
0.606195 0.501488 0.174899
0.611322 0.501762 0.199374
0.117556 0.428595 0.194095
0.117189 0.445899 0.169741
0.156893 0.454536 0.172702
0.196323 0.460578 0.168704
0.230655 0.462043 0.164828
0.262943 0.464424 0.159487
0.317830 0.471443 0.139254
0.397543 0.484077 0.122896
0.457008 0.498573 0.120302
0.501518 0.517601 0.162112
0.538781 0.529015 0.226932
0.561059 0.527794 0.247776
0.574884 0.523980 0.240116
0.586816 0.521538 0.222416
0.597955 0.519585 0.205234
0.609857 0.519371 0.188510
0.617182 0.520836 0.204227
0.117494 0.446387 0.192691
0.117983 0.459510 0.172580
0.153597 0.465187 0.176425
0.188663 0.469490 0.178531
0.217655 0.471901 0.176822
0.248753 0.474678 0.171847
0.298421 0.479896 0.151339
0.376455 0.491157 0.127993
0.447333 0.506493 0.123384
0.492775 0.523583 0.157229
0.530144 0.540185 0.219516
0.559075 0.543511 0.255863
0.571221 0.537224 0.256870
0.581231 0.534173 0.246067
0.591943 0.532494 0.237919
0.605371 0.531792 0.222629
0.618158 0.532830 0.213260
0.118379 0.460609 0.193912
0.119234 0.470985 0.176394
0.152804 0.475105 0.178042
0.186099 0.480690 0.180819
0.215305 0.483497 0.176913
0.254185 0.487007 0.165225
0.313481 0.493629 0.148043
0.384497 0.503166 0.129091
0.451362 0.519219 0.132540
0.496956 0.537133 0.171298
0.530480 0.551171 0.224063
0.555138 0.557305 0.258854
0.569299 0.552911 0.263279
0.577050 0.546380 0.254459
0.585473 0.542809 0.249729
0.596490 0.541100 0.248203
0.614740 0.542596 0.234257
0.120851 0.473701 0.200015
0.120912 0.481788 0.180026
0.153414 0.484199 0.182132
0.184787 0.489815 0.182895
0.215396 0.494942 0.175082
0.267796 0.499672 0.152712
0.343267 0.508141 0.133852
0.413886 0.519585 0.126741
0.468116 0.535088 0.150149
0.510521 0.553582 0.199161
0.540154 0.566278 0.245914
0.560296 0.569543 0.267308
0.570916 0.566430 0.270909
0.575097 0.560510 0.260319
0.581048 0.555505 0.249577
0.591577 0.549859 0.250187
0.610346 0.551385 0.262333
0.118318 0.485359 0.204105
0.124880 0.489815 0.187503
0.159731 0.492531 0.193484
0.195346 0.499580 0.195529
0.227909 0.506310 0.184207
0.289769 0.513695 0.154177
0.371832 0.522148 0.134737
0.443366 0.538018 0.143008
0.490517 0.556603 0.185916
0.525689 0.570184 0.241367
0.552483 0.576715 0.270207
0.569024 0.578790 0.275517
0.577966 0.577111 0.277440
0.580468 0.570825 0.272129
0.585534 0.568017 0.261173
0.587854 0.562066 0.251499
0.607904 0.563165 0.269291
0.118013 0.493782 0.205722
0.160098 0.495247 0.223087
0.209903 0.505760 0.244694
0.256321 0.513390 0.255589
0.293065 0.522423 0.242741
0.353368 0.529839 0.200198
0.422461 0.539483 0.173922
0.476722 0.556634 0.204074
0.513146 0.573053 0.254582
0.539849 0.581018 0.286961
0.562249 0.583337 0.291051
0.578424 0.582910 0.280430
0.587976 0.581659 0.276310
0.594476 0.579705 0.280034
0.601831 0.576532 0.280308
0.606165 0.575738 0.280491
0.607507 0.572656 0.281987
0.078004 0.103243 0.204074
0.120821 0.093599 0.215213
0.177462 0.099977 0.215885
0.226230 0.105165 0.207736
0.263523 0.113039 0.200900
0.294102 0.117586 0.189029
0.318578 0.119997 0.180056
0.340764 0.120638 0.171084
0.362341 0.121370 0.166415
0.383215 0.125032 0.166629
0.405066 0.129702 0.167880
0.425574 0.129458 0.167147
0.444068 0.128969 0.166567
0.463630 0.129183 0.167086
0.482826 0.134157 0.171237
0.500664 0.142763 0.178500
0.514153 0.153780 0.182986
0.089601 0.147738 0.198611
0.093874 0.123445 0.225040
0.203037 0.112886 0.246494
0.259159 0.114626 0.202335
0.293309 0.117800 0.171023
0.318395 0.118166 0.152773
0.341314 0.120272 0.145541
0.362799 0.122255 0.141085
0.384558 0.127077 0.140536
0.403876 0.129488 0.136721
0.421973 0.129580 0.131594
0.441688 0.131136 0.130648
0.460395 0.137270 0.131594
0.475959 0.145876 0.134371
0.491188 0.154635 0.140108
0.505394 0.164706 0.145998
0.520897 0.205478 0.193576
0.090639 0.183536 0.192996
0.110597 0.209995 0.221439
0.198550 0.198184 0.199100
0.276524 0.170199 0.151369
0.313085 0.145327 0.117983
0.338384 0.131197 0.100496
0.361639 0.124483 0.093080
0.381750 0.125978 0.092897
0.399878 0.126284 0.092042
0.416449 0.127108 0.091127
0.433722 0.134310 0.093660
0.451850 0.141421 0.095033
0.468971 0.146517 0.096101
0.483833 0.152743 0.100649
0.496742 0.168002 0.111757
0.510185 0.204532 0.145602
0.524376 0.245060 0.195956
0.096620 0.218723 0.189517
0.101106 0.248295 0.192203
0.147372 0.250431 0.166110
0.306371 0.278904 0.156924
0.346380 0.251652 0.128054
0.373022 0.232700 0.115114
0.391760 0.218906 0.110140
0.406134 0.210300 0.109224
0.419837 0.204990 0.108675
0.433295 0.200717 0.108370
0.447486 0.198856 0.108705
0.463264 0.201602 0.110689
0.479652 0.207126 0.112337
0.495674 0.214023 0.115602
0.507683 0.225803 0.126131
0.519524 0.251987 0.156741
0.529534 0.283299 0.203647
0.101106 0.250095 0.193118
0.102876 0.277317 0.184360
0.125154 0.292058 0.151186
0.282292 0.330144 0.130587
0.384466 0.348638 0.139742
0.402869 0.319890 0.118349
0.415625 0.297459 0.113741
0.427100 0.280156 0.112673
0.437049 0.268040 0.111574
0.448646 0.262058 0.111635
0.462715 0.259709 0.113649
0.477455 0.259098 0.115267
0.491341 0.261112 0.116884
0.505364 0.264134 0.119417
0.517082 0.271458 0.130037
0.528222 0.291417 0.160952
0.536889 0.319829 0.206943
0.103517 0.278355 0.196902
0.105318 0.303166 0.183261
0.110872 0.325475 0.144442
0.279667 0.372473 0.122072
0.386053 0.397040 0.125032
0.442237 0.404425 0.136629
0.446784 0.374792 0.123018
0.452338 0.351507 0.118074
0.459876 0.334539 0.116701
0.468605 0.323827 0.116030
0.479286 0.316838 0.116396
0.491798 0.312718 0.117952
0.503899 0.310521 0.119692
0.515251 0.309880 0.123201
0.526177 0.314824 0.134249
0.537560 0.330114 0.165438
0.549920 0.356023 0.211856
0.105318 0.304753 0.203616
0.107851 0.328862 0.183993
0.110414 0.356268 0.148989
0.272862 0.399786 0.119387
0.376837 0.424048 0.119234
0.439734 0.437903 0.129213
0.477211 0.440955 0.146426
0.479164 0.415106 0.138430
0.485298 0.399237 0.132235
0.492500 0.385931 0.128634
0.500816 0.375555 0.125643
0.509697 0.366918 0.124361
0.519707 0.362371 0.125734
0.529686 0.359808 0.129458
0.541344 0.362951 0.141543
0.552941 0.374517 0.174960
0.565911 0.396887 0.225193
0.108003 0.332067 0.212100
0.109926 0.354284 0.187320
0.114382 0.384985 0.158907
0.259037 0.418921 0.123293
0.353674 0.437140 0.117830
0.414557 0.450843 0.120394
0.468544 0.464393 0.137240
0.501427 0.467750 0.165164
0.506767 0.450263 0.162295
0.515801 0.439002 0.158419
0.524742 0.429480 0.153384
0.533135 0.419928 0.147890
0.541466 0.413428 0.144656
0.549767 0.410285 0.147036
0.559869 0.410254 0.158358
0.571038 0.419318 0.191257
0.582635 0.436103 0.238102
0.113527 0.358801 0.218235
0.112367 0.379767 0.192203
0.116945 0.408515 0.163943
0.224796 0.434424 0.134279
0.309514 0.446021 0.123873
0.367437 0.454139 0.120272
0.433600 0.470192 0.122957
0.488136 0.486427 0.147280
0.523613 0.492287 0.192813
0.535302 0.481361 0.193179
0.546166 0.472419 0.188388
0.555688 0.465888 0.180758
0.563470 0.458137 0.173007
0.571160 0.453223 0.170260
0.579095 0.450172 0.177157
0.589014 0.455604 0.204471
0.597467 0.465888 0.242649
0.117678 0.383917 0.220340
0.115450 0.405432 0.195743
0.116976 0.427985 0.166415
0.188968 0.446906 0.154238
0.254978 0.454017 0.143801
0.304097 0.458503 0.136965
0.378225 0.469429 0.123507
0.453513 0.488716 0.124620
0.505425 0.505180 0.170367
0.543938 0.512596 0.223484
0.559991 0.504479 0.218387
0.571405 0.499275 0.204807
0.580530 0.492348 0.189609
0.588220 0.486702 0.180423
0.596002 0.482551 0.182589
0.603815 0.482582 0.205478
0.609735 0.488014 0.240726
0.117861 0.406073 0.220829
0.116487 0.427924 0.196933
0.116884 0.444709 0.169070
0.167086 0.456458 0.170413
0.217746 0.462440 0.166018
0.258228 0.465278 0.161074
0.321798 0.472816 0.139528
0.414786 0.488991 0.121370
0.480400 0.509209 0.138933
0.529107 0.525811 0.211490
0.560235 0.527367 0.245487
0.574395 0.520256 0.233280
0.586694 0.516350 0.211856
0.596704 0.510735 0.190555
0.606683 0.507591 0.182712
0.613367 0.506340 0.203403
0.618219 0.509056 0.244419
0.117647 0.426368 0.221988
0.116335 0.445106 0.197757
0.117372 0.458534 0.172427
0.159335 0.465309 0.177493
0.200748 0.471534 0.176242
0.240116 0.474159 0.173190
0.297780 0.480598 0.152132
0.386252 0.493751 0.127138
0.464866 0.513634 0.133684
0.514794 0.533928 0.186954
0.551904 0.542992 0.248234
0.570825 0.537469 0.254643
0.581811 0.531884 0.242802
0.595270 0.527947 0.226871
0.607782 0.524865 0.204837
0.617884 0.525750 0.209079
0.624048 0.529381 0.258488
0.117647 0.444556 0.221530
0.117983 0.459480 0.199680
0.119631 0.471138 0.176516
0.158907 0.476020 0.181552
0.196475 0.481605 0.179324
0.236912 0.484962 0.170687
0.302159 0.491951 0.149783
0.385031 0.503960 0.128847
0.462593 0.524193 0.142824
0.511711 0.542596 0.189853
0.545403 0.554589 0.245731
0.566583 0.553094 0.262699
0.577173 0.546441 0.254002
0.586603 0.540459 0.247532
0.601953 0.538384 0.243961
0.616663 0.538781 0.228336
0.625818 0.542962 0.266148
0.117983 0.458930 0.220798
0.118837 0.473030 0.203464
0.121828 0.480781 0.181186
0.160281 0.485451 0.185153
0.197910 0.492409 0.183871
0.241428 0.497108 0.166537
0.321508 0.505760 0.142733
0.405066 0.519127 0.130465
0.472694 0.538598 0.161959
0.519371 0.557031 0.211551
0.549218 0.566125 0.254765
0.567529 0.567590 0.270390
0.574823 0.561151 0.263951
0.581933 0.555047 0.250553
0.593896 0.549493 0.253239
0.612024 0.549981 0.257176
0.622736 0.550072 0.264378
0.120272 0.472969 0.225284
0.119936 0.484565 0.208713
0.131014 0.489540 0.192966
0.174014 0.494942 0.201205
0.215366 0.503014 0.202945
0.260166 0.509911 0.177279
0.346014 0.518730 0.146700
0.431830 0.535698 0.147860
0.489845 0.554681 0.194156
0.531548 0.570275 0.246372
0.559686 0.576806 0.269749
0.574243 0.576349 0.274723
0.582269 0.573480 0.275547
0.585534 0.568231 0.267460
0.590631 0.563104 0.255924
0.609186 0.561913 0.268925
0.621393 0.560265 0.277195
0.123903 0.484932 0.233646
0.128481 0.493568 0.220981
0.163455 0.495796 0.226688
0.215915 0.505821 0.248356
0.264591 0.515129 0.253574
0.315892 0.525658 0.224369
0.391424 0.535576 0.184207
0.459754 0.551293 0.194675
0.506493 0.569116 0.245701
0.540063 0.579705 0.284703
0.565332 0.582422 0.287297
0.581567 0.582025 0.281895
0.592248 0.581598 0.283787
0.598657 0.578180 0.284398
0.603723 0.576226 0.281132
0.607904 0.573632 0.279026
0.620111 0.570825 0.285069
0.131014 0.494331 0.242374
0.176913 0.503014 0.269780
0.227939 0.512993 0.299077
0.271885 0.521508 0.316228
0.318151 0.530083 0.316320
0.374121 0.540215 0.285710
0.436408 0.551232 0.249638
0.486061 0.565698 0.260899
0.520623 0.578363 0.301396
0.546075 0.583612 0.319799
0.568109 0.586542 0.313329
0.586297 0.588739 0.305669
0.598596 0.589532 0.310094
0.606531 0.589197 0.314794
0.613550 0.584985 0.309575
0.618402 0.583001 0.302403
0.619257 0.580682 0.298070
0.081453 0.115633 0.244144
0.114626 0.098726 0.254093
0.162173 0.093477 0.259892
0.210269 0.102937 0.260624
0.247898 0.104707 0.254368
0.283848 0.111635 0.246006
0.313542 0.117678 0.234714
0.337377 0.118929 0.223636
0.360967 0.120607 0.215427
0.384833 0.124788 0.215152
0.407752 0.128878 0.215763
0.429694 0.127871 0.215366
0.449561 0.124697 0.218479
0.470008 0.123903 0.225742
