tools/luts_backup/LPP Tetrachrome 400_FC.cube
# (C) 2014 VisionColor & Patchflyer [www.vision-color.com]
# Generator: VC Patchmatch v.2.1.1 [64/53]
# All work and no play makes Jack a dull boy.
# LUT generated from: LPP Tetrachrome 400_FC01
LUT_3D_SIZE 5
0.023331 0.025345 0.025345
0.158862 0.031022 0.018723
0.306050 0.033234 0.018067
0.471138 0.035157 0.017304
0.658595 0.046494 0.020462
0.013870 0.116777 0.023316
0.171557 0.135317 0.015213
0.349248 0.143008 0.017502
0.501396 0.142809 0.020356
0.664256 0.153460 0.022736
0.010208 0.250446 0.028046
0.250355 0.338613 0.013733
0.455070 0.353719 0.026200
0.621958 0.360494 0.037858
0.790555 0.370352 0.041291
0.006409 0.431662 0.030579
0.067796 0.450187 0.027222
0.338842 0.489601 0.014237
0.693446 0.575418 0.088563
0.870100 0.557504 0.060426
0.005356 0.556405 0.033082
0.064515 0.580926 0.023316
0.455085 0.692439 0.040467
0.712123 0.727245 0.109010
0.764691 0.675303 0.082597
0.017075 0.035767 0.190951
0.123232 0.025391 0.190906
0.294621 0.030121 0.134676
0.517617 0.030274 0.126986
0.743267 0.049821 0.169650
0.015106 0.124437 0.144305
0.170565 0.155398 0.170321
0.441306 0.057313 0.033936
0.646265 0.055619 0.027512
0.740154 0.151354 0.131395
0.011597 0.272648 0.160830
0.022034 0.396262 0.041215
0.651057 0.533623 0.095155
0.792599 0.365576 0.047013
0.891600 0.437278 0.185809
0.008209 0.422324 0.107271
0.011551 0.556741 0.042283
0.444480 0.661936 0.050126
0.793637 0.683864 0.099123
0.913375 0.657649 0.220905
0.026368 0.588464 0.172732
0.131884 0.628428 0.247562
0.487724 0.720424 0.146975
0.818372 0.797879 0.251926
0.908644 0.802289 0.281239
0.017578 0.044022 0.376989
0.111101 0.025605 0.394400
0.323522 0.027481 0.353719
0.562127 0.030472 0.349020
0.728969 0.058595 0.380377
0.016327 0.138750 0.314870
0.031250 0.069261 0.496284
0.528267 0.059525 0.487205
0.704341 0.060105 0.377417
0.740459 0.160235 0.388678
0.014237 0.292363 0.333547
0.093095 0.473411 0.518380
0.470832 0.476890 0.460212
0.742168 0.213825 0.190906
0.895262 0.497169 0.454215
0.079728 0.533486 0.418189
0.098772 0.674846 0.437049
0.161288 0.586587 0.238926
0.893004 0.776150 0.303273
0.934691 0.739101 0.493660
0.100099 0.698558 0.453681
0.153475 0.658015 0.426627
0.387198 0.741650 0.424598
0.812696 0.848157 0.465492
0.936019 0.860395 0.468223
0.016251 0.052842 0.588098
0.117830 0.028275 0.607095
0.375860 0.029755 0.569650
0.585641 0.045594 0.532540
0.698512 0.046250 0.528069
0.016449 0.143450 0.503548
0.022416 0.062516 0.749386
0.402182 0.065446 0.694377
0.675593 0.058473 0.623636
0.686473 0.136584 0.524346
0.016876 0.324834 0.524407
0.031708 0.354452 0.678889
0.123873 0.227543 0.626245
0.688090 0.209110 0.632029
0.865507 0.464210 0.646708
0.130312 0.573022 0.603403
0.146777 0.717296 0.753033
0.356085 0.761242 0.790051
0.776852 0.771847 0.743801
0.906920 0.777920 0.731563
0.140002 0.748684 0.632914
0.272099 0.769451 0.657038
0.520027 0.859297 0.725261
0.751247 0.890745 0.737377
0.920104 0.907668 0.755673
0.016526 0.053361 0.800504
0.120592 0.031388 0.805982
0.435203 0.068345 0.710735
0.569360 0.047379 0.666484
0.685115 0.050462 0.641733
0.016480 0.151659 0.684398
0.082109 0.160845 0.660029
0.322942 0.151873 0.726528
0.562387 0.152697 0.649653
0.686534 0.147906 0.630289
0.020554 0.353704 0.707164
0.151110 0.400122 0.718563
0.495430 0.528359 0.854749
0.728176 0.503944 0.832807
0.864881 0.492042 0.805249
0.088533 0.549874 0.746777
0.244327 0.597604 0.766979
0.528695 0.716472 0.864591
0.772229 0.773068 0.884535
0.903365 0.794568 0.882750
0.129717 0.733349 0.763775
0.310796 0.789425 0.823514
0.575906 0.877562 0.881254
0.814359 0.913802 0.903624
0.935699 0.935699 0.927932
