tools/luts_backup/LPP Tetrachrome 400_CIN.cube
# (C) 2014 VisionColor & Patchflyer [www.vision-color.com]
# Generator: VC Patchmatch v.2.1.1 [64/53]
# All work and no play makes Jack a dull boy.
# LUT generated from: LPP Tetrachrome 400_Cineon
LUT_3D_SIZE 9
0.086275 0.090181 0.090181
0.190249 0.101503 0.090364
0.266850 0.115267 0.089509
0.317632 0.120180 0.090272
0.362615 0.125246 0.091890
0.399908 0.128206 0.092470
0.432319 0.131624 0.091341
0.469886 0.145449 0.094179
0.498024 0.156863 0.101961
0.082155 0.170443 0.102296
0.198825 0.189914 0.097963
0.288792 0.205905 0.102419
0.347509 0.214267 0.104707
0.393347 0.218509 0.110780
0.423590 0.220401 0.110780
0.451270 0.219699 0.110567
0.486030 0.230472 0.114687
0.513268 0.242893 0.117617
0.097047 0.244480 0.118898
0.207279 0.271275 0.106783
0.312139 0.282841 0.105501
0.375372 0.293156 0.111086
0.416815 0.295933 0.111147
0.446571 0.296849 0.113069
0.473243 0.297337 0.116976
0.503532 0.303899 0.118288
0.525597 0.309850 0.122652
0.104311 0.301549 0.134829
0.239017 0.342962 0.110597
0.359106 0.370398 0.112703
0.413428 0.374304 0.119692
0.448005 0.378180 0.119203
0.476326 0.376806 0.122286
0.502922 0.376196 0.125216
0.525902 0.378119 0.128267
0.551263 0.380377 0.133791
0.109926 0.358679 0.149020
0.278660 0.402838 0.115999
0.388067 0.429572 0.117403
0.445228 0.441047 0.128969
0.478401 0.441444 0.145083
0.503990 0.442908 0.156130
0.532006 0.446906 0.165835
0.558618 0.448005 0.167422
0.578546 0.452522 0.168521
0.115267 0.408301 0.164187
0.251926 0.438209 0.125032
0.337407 0.449042 0.119692
0.410620 0.464118 0.117830
0.478920 0.485664 0.134920
0.521111 0.490181 0.191012
0.558282 0.498970 0.212406
0.583490 0.497414 0.189731
0.604181 0.496040 0.166720
0.115969 0.446265 0.168612
0.180392 0.458839 0.171542
0.236057 0.463325 0.166781
0.309743 0.469581 0.139956
0.439002 0.493935 0.118196
0.513451 0.523003 0.183291
0.562524 0.529503 0.250156
0.586633 0.526635 0.230808
0.608576 0.524926 0.203037
0.120699 0.471077 0.176730
0.175845 0.477974 0.180423
0.227024 0.483650 0.175082
0.319188 0.494484 0.144350
0.438880 0.513726 0.123537
0.517357 0.546441 0.201297
0.562402 0.558892 0.266056
0.576043 0.545800 0.253849
0.589685 0.540764 0.243656
0.117647 0.490181 0.180392
0.176608 0.498360 0.184237
0.237797 0.507073 0.163851
0.391608 0.524773 0.122499
0.492164 0.560510 0.180926
0.550683 0.578302 0.273503
0.571893 0.575952 0.274662
0.577111 0.568811 0.262272
0.584314 0.560754 0.239231
0.078004 0.103243 0.204074
0.177462 0.099977 0.215885
0.263523 0.113039 0.200900
0.318578 0.119997 0.180056
0.362341 0.121370 0.166415
0.405066 0.129702 0.167880
0.444068 0.128969 0.166567
0.482826 0.134157 0.171237
0.514153 0.153780 0.182986
0.090639 0.183536 0.192996
0.198550 0.198184 0.199100
0.313085 0.145327 0.117983
0.361639 0.124483 0.093080
0.399878 0.126284 0.092042
0.433722 0.134310 0.093660
0.468971 0.146517 0.096101
0.496742 0.168002 0.111757
0.524376 0.245060 0.195956
0.101106 0.250095 0.193118
0.125154 0.292058 0.151186
0.384466 0.348638 0.139742
0.415625 0.297459 0.113741
0.437049 0.268040 0.111574
0.462715 0.259709 0.113649
0.491341 0.261112 0.116884
0.517082 0.271458 0.130037
0.536889 0.319829 0.206943
0.105318 0.304753 0.203616
0.110414 0.356268 0.148989
0.376837 0.424048 0.119234
0.477211 0.440955 0.146426
0.485298 0.399237 0.132235
0.500816 0.375555 0.125643
0.519707 0.362371 0.125734
0.541344 0.362951 0.141543
0.565911 0.396887 0.225193
0.113527 0.358801 0.218235
0.116945 0.408515 0.163943
0.309514 0.446021 0.123873
0.433600 0.470192 0.122957
0.523613 0.492287 0.192813
0.546166 0.472419 0.188388
0.563470 0.458137 0.173007
0.579095 0.450172 0.177157
0.597467 0.465888 0.242649
0.117861 0.406073 0.220829
0.116884 0.444709 0.169070
0.217746 0.462440 0.166018
0.321798 0.472816 0.139528
0.480400 0.509209 0.138933
0.560235 0.527367 0.245487
0.586694 0.516350 0.211856
0.606683 0.507591 0.182712
0.618219 0.509056 0.244419
0.117647 0.444556 0.221530
0.119631 0.471138 0.176516
0.196475 0.481605 0.179324
0.302159 0.491951 0.149783
0.462593 0.524193 0.142824
0.545403 0.554589 0.245731
0.577173 0.546441 0.254002
0.601953 0.538384 0.243961
0.625818 0.542962 0.266148
0.120272 0.472969 0.225284
0.131014 0.489540 0.192966
0.215366 0.503014 0.202945
0.346014 0.518730 0.146700
0.489845 0.554681 0.194156
0.559686 0.576806 0.269749
0.582269 0.573480 0.275547
0.590631 0.563104 0.255924
0.621393 0.560265 0.277195
0.131014 0.494331 0.242374
0.227939 0.512993 0.299077
0.318151 0.530083 0.316320
0.436408 0.551232 0.249638
0.520623 0.578363 0.301396
0.568109 0.586542 0.313329
0.598596 0.589532 0.310094
0.613550 0.584985 0.309575
0.619257 0.580682 0.298070
0.082368 0.118105 0.271092
0.153750 0.093965 0.286809
0.237003 0.103914 0.288579
0.306981 0.114382 0.277897
0.360601 0.119905 0.260868
0.411933 0.127626 0.260960
0.452522 0.121736 0.261601
0.496620 0.134493 0.285740
0.531762 0.165560 0.310063
0.101747 0.196994 0.267887
0.106661 0.146304 0.305638
0.292363 0.129335 0.329046
0.360540 0.121950 0.260563
0.408972 0.127108 0.228336
0.448463 0.125856 0.217227
0.488807 0.133822 0.225254
0.521080 0.166690 0.243778
0.542412 0.241184 0.311070
0.104829 0.260044 0.275029
0.134401 0.311406 0.326696
0.319738 0.307439 0.319554
0.400427 0.239841 0.200809
0.430915 0.178470 0.135927
0.467842 0.152773 0.103090
0.497322 0.175998 0.121675
0.523369 0.241581 0.194705
0.551843 0.309483 0.290166
0.108827 0.318029 0.284031
0.123018 0.373907 0.306493
0.212863 0.378759 0.215824
0.472969 0.437964 0.254582
0.496132 0.381628 0.171756
0.508324 0.329824 0.128023
0.526055 0.318761 0.139620
0.550927 0.350835 0.215396
0.587549 0.407721 0.321172
0.121370 0.377447 0.313207
0.123934 0.412146 0.274937
0.155154 0.434028 0.191470
0.394629 0.473884 0.161135
0.549767 0.515892 0.260624
0.574121 0.481758 0.190051
0.579156 0.450355 0.180026
0.593164 0.453956 0.243290
0.617243 0.481300 0.345342
0.128145 0.417670 0.308385
0.119173 0.443580 0.248844
0.123537 0.470130 0.180484
0.263905 0.486183 0.164279
0.493553 0.535515 0.185199
0.578119 0.546654 0.259220
0.607172 0.524041 0.209537
0.620386 0.517357 0.251621
0.628840 0.525872 0.355444
0.124941 0.445533 0.279057
0.129122 0.472297 0.253941
0.139864 0.490181 0.201938
0.274220 0.510948 0.186801
0.487861 0.551995 0.199847
0.574060 0.575860 0.276768
0.592767 0.563775 0.261265
0.623133 0.554101 0.276188
0.634485 0.557061 0.369940
0.141482 0.475898 0.295354
0.158267 0.497932 0.289403
0.225071 0.512291 0.298222
0.355810 0.537163 0.286778
0.503166 0.569909 0.274205
0.574853 0.586480 0.313848
0.606012 0.588067 0.321263
0.619593 0.581720 0.305394
0.635035 0.579309 0.384649
0.171572 0.508782 0.347265
0.242649 0.524041 0.380774
0.314244 0.535943 0.399298
0.411078 0.548638 0.329534
0.503990 0.572076 0.320562
0.568627 0.589105 0.371557
0.603113 0.597559 0.391669
0.621210 0.597498 0.405707
0.634730 0.598779 0.406622
0.082521 0.119905 0.316533
0.140871 0.104952 0.330480
0.224521 0.098695 0.336583
0.294987 0.105531 0.333043
0.367956 0.115145 0.332525
0.421790 0.123354 0.331548
0.461189 0.117281 0.336828
0.503319 0.140108 0.360357
0.540612 0.179934 0.385168
0.105409 0.204044 0.317510
0.089845 0.138216 0.360662
0.225559 0.108217 0.380163
0.379339 0.117403 0.390082
0.426001 0.120699 0.355200
0.461555 0.120302 0.336980
0.501518 0.140383 0.343359
0.534203 0.183566 0.363409
0.546807 0.243992 0.393866
0.106538 0.265019 0.325658
0.114931 0.275547 0.372503
0.192050 0.236851 0.373358
0.406867 0.234470 0.411048
0.449470 0.155673 0.335760
0.494545 0.141604 0.308965
0.527153 0.179812 0.313909
0.544335 0.242344 0.346838
0.562005 0.314061 0.399969
0.113344 0.324010 0.339696
0.131777 0.389929 0.406317
0.217044 0.390814 0.406256
0.418250 0.417731 0.420752
0.478920 0.338720 0.303105
0.493416 0.268330 0.230152
0.523644 0.246342 0.201968
0.555444 0.313420 0.292241
0.596674 0.414130 0.402014
0.124941 0.385534 0.362737
0.156313 0.440467 0.402930
0.183291 0.449470 0.377081
0.301671 0.441535 0.279423
0.535912 0.503899 0.364721
0.566827 0.464866 0.284810
0.579522 0.423514 0.242512
0.603754 0.447913 0.332647
0.623865 0.492195 0.427039
0.142458 0.435554 0.386267
0.174777 0.472633 0.389288
0.164309 0.483406 0.335134
0.220600 0.472999 0.268956
0.477317 0.526146 0.250874
0.598749 0.557000 0.324224
0.622126 0.532860 0.267918
0.628656 0.525444 0.352941
0.637568 0.542687 0.444953
0.174655 0.473030 0.393042
0.182193 0.494545 0.376959
0.184054 0.506462 0.348699
0.228824 0.511833 0.302983
0.455314 0.552911 0.252201
0.584924 0.585992 0.322087
0.621332 0.583734 0.319310
0.634089 0.568322 0.372412
0.642847 0.570459 0.449165
0.196689 0.502770 0.397375
0.203159 0.518700 0.398688
0.246891 0.525872 0.398474
0.313207 0.534905 0.395056
0.465827 0.560327 0.305882
0.567864 0.590326 0.370733
0.613336 0.598566 0.398840
0.634241 0.597894 0.399115
0.642390 0.588006 0.444190
0.213993 0.529564 0.423621
0.259831 0.533654 0.431373
0.311711 0.537774 0.436530
0.384497 0.550317 0.423743
0.491463 0.569390 0.372427
0.563500 0.597284 0.426825
0.610071 0.608270 0.441291
0.627314 0.609583 0.450874
0.643915 0.609155 0.454994
0.090059 0.139223 0.360906
0.139223 0.124422 0.367620
0.227451 0.106111 0.381292
0.306218 0.107942 0.387335
0.380133 0.115694 0.391882
0.437324 0.121645 0.399359
0.474525 0.123049 0.403510
0.508659 0.141543 0.417517
0.539055 0.182223 0.433173
0.106661 0.212100 0.364996
0.090364 0.150423 0.397559
0.198489 0.117739 0.412421
0.347112 0.110262 0.430152
0.450721 0.129976 0.440986
0.479011 0.130312 0.428168
0.507683 0.143984 0.424811
0.534722 0.184085 0.430701
0.544152 0.242039 0.441596
0.113252 0.277501 0.374823
0.114504 0.262181 0.408453
0.130648 0.190799 0.414862
0.313176 0.150210 0.446174
0.477882 0.184298 0.465034
0.505455 0.149111 0.441138
0.532280 0.185458 0.431586
0.545495 0.245243 0.435248
0.561669 0.318029 0.453132
0.122469 0.337224 0.388556
0.128389 0.364080 0.431464
0.160922 0.354681 0.445747
0.271519 0.328069 0.436591
0.488411 0.355627 0.482155
0.508110 0.248463 0.426596
0.544915 0.248203 0.410315
0.563439 0.318975 0.432380
0.598138 0.420203 0.473854
0.131258 0.392004 0.407691
0.197955 0.457435 0.471229
0.265934 0.485298 0.498451
0.322454 0.463569 0.476509
0.493843 0.495949 0.490059
0.551141 0.432731 0.409506
0.561913 0.363119 0.346212
0.595697 0.412207 0.401251
0.627283 0.503655 0.487831
0.172274 0.448737 0.434821
0.271366 0.509483 0.485023
0.308202 0.544945 0.505608
0.302785 0.511254 0.460578
0.396902 0.502647 0.406790
0.588586 0.551781 0.431388
0.620844 0.528557 0.397070
0.633143 0.526665 0.437354
0.638544 0.551110 0.496040
0.252384 0.503594 0.467475
0.288182 0.540215 0.489845
0.276799 0.549920 0.481544
0.272679 0.535790 0.447303
0.338582 0.525139 0.393378
0.557778 0.579370 0.394232
0.628412 0.591546 0.420081
0.642359 0.576104 0.446113
0.647059 0.581292 0.501152
0.280949 0.537041 0.482490
0.277073 0.551965 0.483101
0.284672 0.545190 0.469886
0.319432 0.542931 0.458625
0.385534 0.552117 0.427070
0.539132 0.587671 0.413336
0.614862 0.608392 0.445472
0.643030 0.608423 0.453681
0.647059 0.597436 0.496345
0.278019 0.556848 0.487953
0.291905 0.549432 0.477333
0.330663 0.549310 0.479316
0.387335 0.561852 0.485023
0.464698 0.580377 0.480018
0.542229 0.598993 0.486458
0.601678 0.611475 0.490639
0.627405 0.613703 0.490303
0.647059 0.615778 0.490333
0.090181 0.148562 0.398871
0.144717 0.146242 0.401160
0.229343 0.110262 0.416724
0.320500 0.107515 0.426856
0.394659 0.114321 0.434852
0.452216 0.129397 0.442054
0.485023 0.138155 0.449287
0.509514 0.149386 0.456916
0.531365 0.162509 0.462562
0.109163 0.217472 0.402747
0.093874 0.159274 0.427649
0.186313 0.129702 0.439490
0.332647 0.113619 0.459541
0.434058 0.132113 0.470130
0.491768 0.156039 0.477150
0.510887 0.154269 0.469917
0.527214 0.166720 0.468055
0.536675 0.228092 0.468421
0.117983 0.286320 0.413336
0.110353 0.247990 0.431159
0.100862 0.167697 0.449805
0.280446 0.127535 0.478248
0.449042 0.154971 0.495338
0.514092 0.171695 0.500114
0.526452 0.172305 0.480171
0.536767 0.226810 0.473487
0.553643 0.311711 0.483345
0.126650 0.348363 0.427375
0.128267 0.354742 0.457343
0.126436 0.315084 0.468605
0.197894 0.262806 0.454841
0.395468 0.244495 0.496742
0.516320 0.269612 0.502342
0.535149 0.229892 0.482612
0.554406 0.312352 0.484474
0.592065 0.413611 0.508659
0.133516 0.397528 0.442573
0.164446 0.438117 0.486458
0.189654 0.454948 0.514397
0.241566 0.426139 0.498573
0.369772 0.423789 0.502007
0.552575 0.446555 0.538140
0.558831 0.361898 0.492439
0.594659 0.416602 0.499184
0.623285 0.499031 0.528588
0.191806 0.457496 0.472114
0.295293 0.519768 0.529137
0.317510 0.550622 0.559655
0.375494 0.545373 0.553338
0.447028 0.537469 0.542168
0.546044 0.547967 0.539605
0.602411 0.512718 0.497536
0.626032 0.500175 0.484382
0.635615 0.553002 0.536797
0.295476 0.519005 0.505394
0.326207 0.556115 0.534813
0.324712 0.571160 0.541741
0.353613 0.573175 0.537865
0.403540 0.565515 0.524712
0.487404 0.563745 0.497536
0.619410 0.590570 0.500053
0.645960 0.580468 0.500114
0.642969 0.588067 0.540032
0.327855 0.557916 0.523919
0.318151 0.571008 0.529046
0.339452 0.570275 0.524224
0.374334 0.572045 0.521721
0.411170 0.575921 0.515892
0.466651 0.581018 0.480629
0.597528 0.611505 0.490333
0.646235 0.616266 0.492073
0.645594 0.608026 0.540581
0.311528 0.572869 0.523430
0.332372 0.567407 0.517327
0.372137 0.572503 0.521202
0.423468 0.582605 0.531487
0.485939 0.598993 0.537163
0.538659 0.609674 0.534966
0.584070 0.623102 0.541985
0.623926 0.626245 0.540734
0.645472 0.625422 0.536706
0.092012 0.157870 0.425147
0.152804 0.158785 0.432898
0.238010 0.114168 0.446571
0.331365 0.112367 0.458839
0.408362 0.121553 0.468757
0.460365 0.141543 0.473487
0.493263 0.155642 0.477607
0.512810 0.159548 0.479866
0.529412 0.156252 0.481239
0.101137 0.215213 0.426947
0.096193 0.164065 0.451881
0.179080 0.143496 0.463325
0.334051 0.131930 0.489174
0.434424 0.151186 0.496803
0.483101 0.158938 0.498939
0.514885 0.165682 0.501091
0.528099 0.170382 0.493660
0.535271 0.218692 0.487007
0.115694 0.284489 0.438819
0.108644 0.242710 0.453712
0.110445 0.178622 0.470588
0.250553 0.141573 0.493233
0.435340 0.195438 0.521630
0.490059 0.175814 0.514763
0.528984 0.181003 0.514611
0.535637 0.221683 0.498238
0.546136 0.292515 0.498817
0.128908 0.357244 0.458228
0.128603 0.350866 0.479652
0.132296 0.302678 0.485084
0.170535 0.236942 0.481147
0.356497 0.222293 0.518151
0.491279 0.237949 0.524193
0.533532 0.224430 0.519249
0.546899 0.293065 0.507713
0.580804 0.395911 0.528893
0.138216 0.411597 0.474525
0.156069 0.432349 0.505699
0.168338 0.430060 0.522332
0.210040 0.400854 0.520195
0.287709 0.367330 0.511559
0.495918 0.373251 0.552789
0.556237 0.358511 0.540154
0.578027 0.392248 0.532952
0.616876 0.491371 0.553613
0.200748 0.464973 0.500328
0.256657 0.503716 0.541039
0.273442 0.513420 0.559838
0.313329 0.510002 0.563684
0.390631 0.507958 0.563775
0.486488 0.509514 0.575891
0.598138 0.513603 0.582757
0.615381 0.492226 0.555383
0.632258 0.550134 0.571984
0.305425 0.523125 0.531212
0.311437 0.551598 0.562737
0.318730 0.568994 0.578424
0.368109 0.578302 0.587274
0.446448 0.587243 0.595819
0.521691 0.590143 0.592309
0.591760 0.590356 0.582452
0.630213 0.565209 0.549279
0.635279 0.592035 0.578637
0.329625 0.562219 0.546105
0.318791 0.573693 0.557885
0.359625 0.579644 0.560693
0.414069 0.592065 0.569207
0.465522 0.603510 0.577050
0.510735 0.614069 0.575433
0.553735 0.609827 0.548730
0.637995 0.623133 0.553704
0.639033 0.613672 0.583246
0.315190 0.576349 0.545647
0.353674 0.574823 0.544396
0.406744 0.587457 0.556207
0.461128 0.601160 0.567041
0.511437 0.615290 0.577417
0.549798 0.623285 0.579767
0.583520 0.628107 0.579614
0.617212 0.635370 0.585840
0.640070 0.634974 0.583581
0.097383 0.164584 0.451423
0.151095 0.162783 0.456306
0.246159 0.118074 0.474830
0.356146 0.133608 0.493507
0.426246 0.150240 0.497444
0.465187 0.156649 0.498054
0.495552 0.164279 0.501030
0.513726 0.167849 0.501793
0.532219 0.161257 0.501823
0.102571 0.219272 0.451698
0.104158 0.171359 0.471534
0.178836 0.164523 0.480476
0.330816 0.153262 0.511101
0.442237 0.197971 0.525719
0.476020 0.175906 0.515923
0.504509 0.168368 0.515557
0.528984 0.175906 0.515312
0.534844 0.219425 0.503960
0.115419 0.283391 0.461067
0.119203 0.250034 0.475166
0.163485 0.230289 0.480690
0.245151 0.208438 0.497108
0.407660 0.233310 0.531029
0.481270 0.237705 0.526299
0.509270 0.220127 0.523247
0.534264 0.217227 0.521874
0.546807 0.294255 0.514763
0.131533 0.366461 0.484321
0.136233 0.352972 0.499184
0.181430 0.331090 0.499519
0.238926 0.317754 0.504509
0.358114 0.303441 0.534905
0.486946 0.318700 0.545647
0.524010 0.306523 0.537652
0.552392 0.306920 0.535424
0.579767 0.394995 0.545159
0.148836 0.424933 0.504295
0.158724 0.429206 0.522637
0.216037 0.428748 0.529839
0.293950 0.432349 0.545159
0.362463 0.426093 0.556939
0.501884 0.423835 0.585901
0.553857 0.411322 0.572381
0.586877 0.411566 0.569909
0.617365 0.491981 0.581292
0.213993 0.476326 0.526238
0.236088 0.489265 0.548730
0.287205 0.493721 0.557244
0.359289 0.505302 0.572778
0.437201 0.523522 0.600031
0.496925 0.512200 0.610956
0.577356 0.506340 0.608087
0.617426 0.499184 0.600275
0.630610 0.550072 0.595789
0.289158 0.519646 0.549279
0.289891 0.534966 0.569574
0.339452 0.539971 0.576165
0.402289 0.553033 0.589685
0.459693 0.565881 0.607446
0.513115 0.574945 0.619287
0.560845 0.564813 0.619318
0.623133 0.565759 0.613336
0.634882 0.591852 0.606653
0.310460 0.550500 0.564324
0.313359 0.570733 0.578790
0.363226 0.578973 0.587884
0.423346 0.594079 0.604364
0.474525 0.609125 0.617365
0.529564 0.621546 0.625971
0.575525 0.625757 0.623865
0.623804 0.622950 0.617121
0.641962 0.624323 0.617548
0.306157 0.575891 0.564721
0.360296 0.579583 0.568322
0.419318 0.595575 0.583032
0.472267 0.608728 0.592645
0.524498 0.621485 0.602411
0.563561 0.628595 0.605737
0.592798 0.634607 0.611505
0.624170 0.642634 0.620233
0.645991 0.645930 0.622797
0.094118 0.160769 0.474525
0.148928 0.165133 0.478065
0.244388 0.122988 0.498024
0.378332 0.179843 0.527153
0.450599 0.199985 0.529381
0.470588 0.175601 0.519615
0.491188 0.159213 0.517632
0.512718 0.163638 0.517632
0.529412 0.164706 0.517632
0.101106 0.220401 0.475563
0.166354 0.230045 0.481361
0.214878 0.228000 0.487984
0.307408 0.187869 0.509270
0.425055 0.238621 0.531640
0.475868 0.241123 0.528527
0.498817 0.225620 0.524193
0.514916 0.213809 0.522606
0.532952 0.212314 0.520348
0.117708 0.293919 0.486549
0.176516 0.298405 0.490944
0.232425 0.311101 0.500969
0.295872 0.314305 0.515190
0.417853 0.308080 0.546624
0.485267 0.320775 0.543786
0.512016 0.309422 0.536370
0.531426 0.305455 0.535393
0.549920 0.304021 0.533928
0.131411 0.373449 0.509239
0.188510 0.377600 0.512993
0.268467 0.397986 0.528984
0.362203 0.425452 0.557000
0.459846 0.431250 0.586450
0.519707 0.423865 0.583673
0.545678 0.413611 0.572076
0.569390 0.412055 0.571496
0.588983 0.413672 0.570886
0.145754 0.427710 0.525444
0.218692 0.438636 0.533776
0.321782 0.461219 0.555657
0.426001 0.498512 0.597192
0.503105 0.515251 0.613458
0.547234 0.509819 0.613581
0.578576 0.506157 0.608789
0.600122 0.503349 0.606989
0.619471 0.501701 0.601923
0.206912 0.474495 0.544274
0.273808 0.486915 0.553857
0.359319 0.505425 0.572229
0.443763 0.533776 0.603601
0.512078 0.551293 0.619593
0.553796 0.557794 0.627253
0.586572 0.558526 0.623804
0.604639 0.558190 0.620691
0.627436 0.556756 0.617639
0.259068 0.514031 0.563989
0.319249 0.520836 0.569085
0.390265 0.536065 0.584253
0.455482 0.558190 0.605737
0.514122 0.574639 0.619745
0.554742 0.584924 0.627344
0.590448 0.590692 0.629786
0.614923 0.594965 0.630304
0.634699 0.596643 0.628809
0.285222 0.542199 0.572992
0.348455 0.549371 0.577966
0.414679 0.567285 0.595422
0.470130 0.584283 0.612146
0.522881 0.599756 0.625086
0.563806 0.606653 0.627894
0.595605 0.615259 0.633814
0.622858 0.622950 0.639551
0.643519 0.626856 0.641932
0.301976 0.572534 0.580377
0.361822 0.577661 0.585657
0.424201 0.594873 0.605127
0.473030 0.608850 0.617243
0.527428 0.623377 0.627314
0.570520 0.631769 0.631281
0.600122 0.637507 0.636072
0.627741 0.646754 0.643519
0.647059 0.647059 0.647059
