tools/luts_backup/New York.cube
#Generated with IWLTBAP LUT Generator
#Website: http://luts.iwltbap.com
TITLE "Seattle"
#LUT size
LUT_3D_SIZE 25
#LUT data points
0.152941 0.152941 0.152941
0.152941 0.152941 0.152941
0.152941 0.152941 0.152941
0.152941 0.152941 0.152941
0.156863 0.156863 0.156863
0.156863 0.156863 0.156863
0.156863 0.156863 0.156863
0.156863 0.156863 0.156863
0.160784 0.160784 0.160784
0.164706 0.164706 0.164706
0.164706 0.164706 0.164706
0.172549 0.172549 0.172549
0.180392 0.180392 0.180392
0.188235 0.188235 0.188235
0.196078 0.196078 0.196078
0.203922 0.203922 0.203922
0.211765 0.211765 0.211765
0.223529 0.223529 0.223529
0.235294 0.235294 0.235294
0.247059 0.247059 0.247059
0.266667 0.266667 0.266667
0.286275 0.286275 0.286275
0.309804 0.309804 0.309804
0.341176 0.341176 0.341176
0.380392 0.380392 0.380392
0.152941 0.152941 0.152941
0.152941 0.152941 0.152941
0.156863 0.156863 0.156863
0.156863 0.156863 0.156863
0.156863 0.156863 0.156863
0.156863 0.156863 0.156863
0.160784 0.160784 0.160784
0.160784 0.160784 0.160784
0.160784 0.160784 0.160784
0.164706 0.164706 0.164706
0.176471 0.176471 0.176471
0.176471 0.176471 0.176471
0.180392 0.180392 0.180392
0.188235 0.188235 0.188235
0.196078 0.196078 0.196078
0.207843 0.207843 0.207843
0.211765 0.211765 0.211765
0.227451 0.227451 0.227451
0.235294 0.235294 0.235294
0.254902 0.254902 0.254902
0.266667 0.266667 0.266667
0.286275 0.286275 0.286275
0.313725 0.313725 0.313725
0.341176 0.341176 0.341176
0.380392 0.380392 0.380392
0.156863 0.156863 0.156863
0.152941 0.152941 0.152941
0.156863 0.156863 0.156863
0.156863 0.156863 0.156863
0.156863 0.156863 0.156863
0.156863 0.156863 0.156863
0.160784 0.160784 0.160784
0.160784 0.160784 0.160784
0.168627 0.168627 0.168627
0.172549 0.172549 0.172549
0.172549 0.172549 0.172549
0.176471 0.176471 0.176471
0.184314 0.184314 0.184314
0.192157 0.192157 0.192157
0.196078 0.196078 0.196078
0.207843 0.207843 0.207843
0.215686 0.215686 0.215686
0.227451 0.227451 0.227451
0.239216 0.239216 0.239216
0.254902 0.254902 0.254902
0.270588 0.270588 0.270588
0.290196 0.290196 0.290196
0.313725 0.313725 0.313725
0.349020 0.349020 0.349020
0.384314 0.384314 0.384314
0.160784 0.160784 0.160784
0.156863 0.156863 0.156863
0.152941 0.152941 0.152941
0.160784 0.160784 0.160784
0.160784 0.160784 0.160784
0.164706 0.164706 0.164706
0.164706 0.164706 0.164706
0.168627 0.168627 0.168627
0.168627 0.168627 0.168627
0.172549 0.172549 0.172549
0.180392 0.180392 0.180392
0.184314 0.184314 0.184314
0.188235 0.188235 0.188235
0.192157 0.192157 0.192157
0.200000 0.200000 0.200000
0.211765 0.211765 0.211765
0.219608 0.219608 0.219608
0.235294 0.235294 0.235294
0.247059 0.247059 0.247059
0.258824 0.258824 0.258824
0.274510 0.274510 0.274510
0.294118 0.294118 0.294118
0.317647 0.317647 0.317647
0.352941 0.352941 0.352941
0.388235 0.388235 0.388235
0.160784 0.160784 0.160784
0.160784 0.160784 0.160784
0.160784 0.160784 0.160784
0.164706 0.164706 0.164706
0.164706 0.164706 0.164706
0.176471 0.176471 0.176471
0.176471 0.176471 0.176471
0.172549 0.172549 0.172549
0.176471 0.176471 0.176471
0.176471 0.176471 0.176471
0.184314 0.184314 0.184314
0.188235 0.188235 0.188235
0.196078 0.196078 0.196078
0.203922 0.203922 0.203922
0.207843 0.207843 0.207843
0.219608 0.219608 0.219608
0.227451 0.227451 0.227451
0.239216 0.239216 0.239216
0.250980 0.250980 0.250980
0.266667 0.266667 0.266667
0.282353 0.282353 0.282353
0.298039 0.298039 0.298039
0.325490 0.325490 0.325490
0.352941 0.352941 0.352941
0.392157 0.392157 0.392157
0.168627 0.168627 0.168627
0.164706 0.164706 0.164706
0.168627 0.168627 0.168627
0.172549 0.172549 0.172549
0.168627 0.168627 0.168627
0.176471 0.176471 0.176471
0.184314 0.184314 0.184314
0.188235 0.188235 0.188235
0.184314 0.184314 0.184314
0.192157 0.192157 0.192157
0.196078 0.196078 0.196078
0.200000 0.200000 0.200000
0.207843 0.207843 0.207843
0.211765 0.211765 0.211765
0.215686 0.215686 0.215686
0.227451 0.227451 0.227451
0.239216 0.239216 0.239216
0.247059 0.247059 0.247059
0.258824 0.258824 0.258824
0.274510 0.274510 0.274510
0.294118 0.294118 0.294118
0.313725 0.313725 0.313725
0.341176 0.341176 0.341176
0.372549 0.372549 0.372549
0.415686 0.415686 0.415686
0.172549 0.172549 0.172549
0.176471 0.176471 0.176471
0.176471 0.176471 0.176471
0.176471 0.176471 0.176471
0.180392 0.180392 0.180392
0.188235 0.188235 0.188235
0.192157 0.192157 0.192157
0.200000 0.200000 0.200000
0.207843 0.207843 0.207843
0.203922 0.203922 0.203922
0.200000 0.200000 0.200000
0.207843 0.207843 0.207843
0.211765 0.211765 0.211765
0.223529 0.223529 0.223529
0.227451 0.227451 0.227451
0.239216 0.239216 0.239216
0.243137 0.243137 0.243137
0.258824 0.258824 0.258824
0.270588 0.270588 0.270588
0.290196 0.290196 0.290196
0.305882 0.305882 0.305882
0.325490 0.325490 0.325490
0.352941 0.352941 0.352941
0.388235 0.388235 0.388235
0.427451 0.427451 0.427451
0.188235 0.188235 0.188235
0.192157 0.192157 0.192157
0.188235 0.188235 0.188235
0.188235 0.188235 0.188235
0.196078 0.196078 0.196078
0.192157 0.192157 0.192157
0.200000 0.200000 0.200000
0.207843 0.207843 0.207843
0.219608 0.219608 0.219608
0.223529 0.223529 0.223529
0.223529 0.223529 0.223529
0.223529 0.223529 0.223529
0.227451 0.227451 0.227451
0.231373 0.231373 0.231373
0.239216 0.239216 0.239216
0.250980 0.250980 0.250980
0.258824 0.258824 0.258824
0.270588 0.270588 0.270588
0.286275 0.286275 0.286275
0.298039 0.298039 0.298039
0.321569 0.321569 0.321569
0.341176 0.341176 0.341176
0.368627 0.368627 0.368627
0.407843 0.407843 0.407843
0.443137 0.443137 0.443137
0.200000 0.200000 0.200000
0.196078 0.196078 0.196078
0.200000 0.200000 0.200000
0.200000 0.200000 0.200000
0.203922 0.203922 0.203922
0.203922 0.203922 0.203922
0.211765 0.211765 0.211765
0.223529 0.223529 0.223529
0.227451 0.227451 0.227451
0.239216 0.239216 0.239216
0.250980 0.250980 0.250980
0.250980 0.250980 0.250980
0.250980 0.250980 0.250980
0.254902 0.254902 0.254902
0.258824 0.258824 0.258824
0.262745 0.262745 0.262745
0.270588 0.270588 0.270588
0.282353 0.282353 0.282353
0.298039 0.298039 0.298039
0.313725 0.313725 0.313725
0.333333 0.333333 0.333333
0.356863 0.356863 0.356863
0.388235 0.388235 0.388235
0.423529 0.423529 0.423529
0.458824 0.458824 0.458824
0.215686 0.215686 0.215686
0.215686 0.215686 0.215686
0.211765 0.211765 0.211765
0.215686 0.215686 0.215686
0.219608 0.219608 0.219608
0.219608 0.219608 0.219608
0.223529 0.223529 0.223529
0.231373 0.231373 0.231373
0.243137 0.243137 0.243137
0.247059 0.247059 0.247059
0.262745 0.262745 0.262745
0.282353 0.282353 0.282353
0.286275 0.286275 0.286275
0.282353 0.282353 0.282353
0.286275 0.286275 0.286275
0.286275 0.286275 0.286275
0.290196 0.290196 0.290196
0.298039 0.298039 0.298039
0.317647 0.317647 0.317647
0.333333 0.333333 0.333333
0.352941 0.352941 0.352941
0.376471 0.376471 0.376471
0.407843 0.407843 0.407843
0.439216 0.439216 0.439216
0.482353 0.482353 0.482353
0.235294 0.235294 0.235294
0.231373 0.231373 0.231373
0.235294 0.235294 0.235294
0.239216 0.239216 0.239216
0.231373 0.231373 0.231373
0.235294 0.235294 0.235294
0.243137 0.243137 0.243137
0.247059 0.247059 0.247059
0.258824 0.258824 0.258824
0.266667 0.266667 0.266667
0.278431 0.278431 0.278431
0.294118 0.294118 0.294118
0.321569 0.321569 0.321569
0.329412 0.329412 0.329412
0.325490 0.325490 0.325490
0.329412 0.329412 0.329412
0.337255 0.337255 0.337255
0.333333 0.333333 0.333333
0.341176 0.341176 0.341176
0.360784 0.360784 0.360784
0.384314 0.384314 0.384314
0.407843 0.407843 0.407843
0.443137 0.443137 0.443137
0.482353 0.482353 0.482353
0.525490 0.525490 0.525490
0.258824 0.258824 0.258824
0.254902 0.254902 0.254902
0.254902 0.254902 0.254902
0.258824 0.258824 0.258824
0.254902 0.254902 0.254902
0.254902 0.254902 0.254902
0.262745 0.262745 0.262745
0.266667 0.266667 0.266667
0.270588 0.270588 0.270588
0.286275 0.286275 0.286275
0.298039 0.298039 0.298039
0.313725 0.313725 0.313725
0.329412 0.329412 0.329412
0.364706 0.364706 0.364706
0.368627 0.368627 0.368627
0.368627 0.368627 0.368627
0.376471 0.376471 0.376471
0.384314 0.384314 0.384314
0.388235 0.388235 0.388235
0.400000 0.400000 0.400000
0.411765 0.411765 0.411765
0.439216 0.439216 0.439216
0.470588 0.470588 0.470588
0.509804 0.509804 0.509804
0.560784 0.560784 0.560784
0.278431 0.278431 0.278431
0.278431 0.278431 0.278431
0.270588 0.270588 0.270588
0.282353 0.282353 0.282353
0.274510 0.274510 0.274510
0.278431 0.278431 0.278431
0.278431 0.278431 0.278431
0.286275 0.286275 0.286275
0.298039 0.298039 0.298039
0.305882 0.305882 0.305882
0.317647 0.317647 0.317647
0.333333 0.333333 0.333333
0.349020 0.349020 0.349020
0.368627 0.368627 0.368627
0.411765 0.411765 0.411765
0.423529 0.423529 0.423529
0.427451 0.427451 0.427451
0.435294 0.435294 0.435294
0.443137 0.443137 0.443137
0.450980 0.450980 0.450980
0.466667 0.466667 0.466667
0.478431 0.478431 0.478431
0.501961 0.501961 0.501961
0.545098 0.545098 0.545098
0.588235 0.588235 0.588235
0.301961 0.301961 0.301961
0.305882 0.305882 0.305882
0.305882 0.305882 0.305882
0.301961 0.301961 0.301961
0.305882 0.305882 0.305882
0.305882 0.305882 0.305882
0.305882 0.305882 0.305882
0.305882 0.305882 0.305882
0.317647 0.317647 0.317647
0.333333 0.333333 0.333333
0.345098 0.345098 0.345098
0.360784 0.360784 0.360784
0.376471 0.376471 0.376471
0.392157 0.392157 0.392157
0.419608 0.419608 0.419608
0.454902 0.454902 0.454902
0.486275 0.486275 0.486275
0.498039 0.498039 0.498039
0.498039 0.498039 0.498039
0.509804 0.509804 0.509804
0.521569 0.521569 0.521569
0.541176 0.541176 0.541176
0.560784 0.560784 0.560784
0.580392 0.580392 0.580392
0.631373 0.631373 0.631373
0.333333 0.333333 0.333333
0.341176 0.341176 0.341176
0.333333 0.333333 0.333333
0.337255 0.337255 0.337255
0.333333 0.333333 0.333333
0.337255 0.337255 0.337255
0.337255 0.337255 0.337255
0.341176 0.341176 0.341176
0.349020 0.349020 0.349020
0.360784 0.360784 0.360784
0.376471 0.376471 0.376471
0.392157 0.392157 0.392157
0.407843 0.407843 0.407843
0.431373 0.431373 0.431373
0.447059 0.447059 0.447059
0.478431 0.478431 0.478431
0.513725 0.513725 0.513725
0.549020 0.549020 0.549020
0.556863 0.556863 0.556863
0.572549 0.572549 0.572549
0.588235 0.588235 0.588235
0.603922 0.603922 0.603922
0.615686 0.615686 0.615686
0.647059 0.647059 0.647059
0.670588 0.670588 0.670588
0.384314 0.384314 0.384314
0.384314 0.384314 0.384314
0.384314 0.384314 0.384314
0.384314 0.384314 0.384314
0.388235 0.388235 0.388235
0.384314 0.384314 0.384314
0.380392 0.380392 0.380392
0.384314 0.384314 0.384314
0.392157 0.392157 0.392157
0.403922 0.403922 0.403922
0.419608 0.419608 0.419608
0.435294 0.435294 0.435294
0.450980 0.450980 0.450980
0.474510 0.474510 0.474510
0.494118 0.494118 0.494118
0.521569 0.521569 0.521569
0.545098 0.545098 0.545098
0.592157 0.592157 0.592157
0.631373 0.631373 0.631373
0.647059 0.647059 0.647059
0.658824 0.658824 0.658824
0.678431 0.678431 0.678431
0.698039 0.698039 0.698039
0.713725 0.713725 0.713725
0.741176 0.741176 0.741176
0.427451 0.427451 0.427451
0.427451 0.427451 0.427451
0.431373 0.431373 0.431373
0.427451 0.427451 0.427451
0.431373 0.431373 0.431373
0.431373 0.431373 0.431373
0.431373 0.431373 0.431373
0.431373 0.431373 0.431373
0.435294 0.435294 0.435294
0.447059 0.447059 0.447059
0.458824 0.458824 0.458824
0.478431 0.478431 0.478431
0.490196 0.490196 0.490196
0.521569 0.521569 0.521569
0.537255 0.537255 0.537255
0.560784 0.560784 0.560784
0.588235 0.588235 0.588235
0.611765 0.611765 0.611765
0.650980 0.650980 0.650980
0.705882 0.705882 0.705882
0.721569 0.721569 0.721569
0.729412 0.729412 0.729412
0.749020 0.749020 0.749020
0.764706 0.764706 0.764706
0.784314 0.784314 0.784314
0.478431 0.478431 0.478431
0.482353 0.482353 0.482353
0.486275 0.486275 0.486275
0.482353 0.482353 0.482353
0.490196 0.490196 0.490196
0.482353 0.482353 0.482353
0.486275 0.486275 0.486275
0.478431 0.478431 0.478431
0.478431 0.478431 0.478431
0.490196 0.490196 0.490196
0.505882 0.505882 0.505882
0.525490 0.525490 0.525490
0.541176 0.541176 0.541176
0.560784 0.560784 0.560784
0.588235 0.588235 0.588235
0.607843 0.607843 0.607843
0.631373 0.631373 0.631373
0.654902 0.654902 0.654902
0.682353 0.682353 0.682353
0.713725 0.713725 0.713725
0.760784 0.760784 0.760784
0.776471 0.776471 0.776471
0.788235 0.788235 0.788235
0.803922 0.803922 0.803922
0.819608 0.819608 0.819608
0.545098 0.545098 0.545098
0.549020 0.549020 0.549020
0.541176 0.541176 0.541176
0.549020 0.549020 0.549020
0.545098 0.545098 0.545098
0.545098 0.545098 0.545098
0.549020 0.549020 0.549020
0.545098 0.545098 0.545098
0.549020 0.549020 0.549020
0.552941 0.552941 0.552941
0.564706 0.564706 0.564706
0.580392 0.580392 0.580392
0.600000 0.600000 0.600000
0.615686 0.615686 0.615686
0.635294 0.635294 0.635294
0.658824 0.658824 0.658824
0.678431 0.678431 0.678431
0.698039 0.698039 0.698039
0.721569 0.721569 0.721569
0.745098 0.745098 0.745098
0.760784 0.760784 0.760784
0.803922 0.803922 0.803922
0.815686 0.815686 0.815686
0.835294 0.835294 0.835294
0.843137 0.843137 0.843137
0.615686 0.615686 0.615686
0.607843 0.607843 0.607843
0.615686 0.615686 0.615686
0.611765 0.611765 0.611765
0.615686 0.615686 0.615686
0.615686 0.615686 0.615686
0.615686 0.615686 0.615686
0.615686 0.615686 0.615686
0.615686 0.615686 0.615686
0.615686 0.615686 0.615686
0.627451 0.627451 0.627451
0.639216 0.639216 0.639216
0.654902 0.654902 0.654902
0.670588 0.670588 0.670588
0.690196 0.690196 0.690196
0.701961 0.701961 0.701961
0.725490 0.725490 0.725490
0.741176 0.741176 0.741176
0.764706 0.764706 0.764706
0.776471 0.776471 0.776471
0.792157 0.792157 0.792157
0.807843 0.807843 0.807843
0.843137 0.843137 0.843137
0.854902 0.854902 0.854902
0.866667 0.866667 0.866667
0.694118 0.694118 0.694118
0.694118 0.694118 0.694118
0.690196 0.690196 0.690196
0.690196 0.690196 0.690196
0.698039 0.698039 0.698039
0.698039 0.698039 0.698039
0.694118 0.694118 0.694118
0.694118 0.694118 0.694118
0.694118 0.694118 0.694118
0.690196 0.690196 0.690196
0.694118 0.694118 0.694118
0.705882 0.705882 0.705882
0.713725 0.713725 0.713725
0.737255 0.737255 0.737255
0.749020 0.749020 0.749020
0.760784 0.760784 0.760784
0.776471 0.776471 0.776471
0.784314 0.784314 0.784314
0.803922 0.803922 0.803922
0.819608 0.819608 0.819608
0.827451 0.827451 0.827451
0.839216 0.839216 0.839216
0.850980 0.850980 0.850980
0.874510 0.874510 0.874510
0.894118 0.894118 0.894118
0.745098 0.745098 0.745098
0.752941 0.752941 0.752941
0.745098 0.745098 0.745098
0.752941 0.752941 0.752941
0.749020 0.749020 0.749020
0.756863 0.756863 0.756863
0.752941 0.752941 0.752941
0.752941 0.752941 0.752941
0.752941 0.752941 0.752941
0.756863 0.756863 0.756863
0.756863 0.756863 0.756863
0.764706 0.764706 0.764706
0.772549 0.772549 0.772549
0.780392 0.780392 0.780392
0.792157 0.792157 0.792157
0.803922 0.803922 0.803922
0.807843 0.807843 0.807843
0.823529 0.823529 0.823529
0.839216 0.839216 0.839216
0.847059 0.847059 0.847059
0.854902 0.854902 0.854902
0.870588 0.870588 0.870588
0.874510 0.874510 0.874510
0.882353 0.882353 0.882353
0.901961 0.901961 0.901961
0.800000 0.800000 0.800000
0.803922 0.803922 0.803922
0.807843 0.807843 0.807843
0.803922 0.803922 0.803922
0.800000 0.800000 0.800000
0.803922 0.803922 0.803922
0.803922 0.803922 0.803922
0.803922 0.803922 0.803922
0.803922 0.803922 0.803922
0.807843 0.807843 0.807843
0.803922 0.803922 0.803922
0.807843 0.807843 0.807843
0.811765 0.811765 0.811765
0.823529 0.823529 0.823529
0.827451 0.827451 0.827451
0.839216 0.839216 0.839216
0.847059 0.847059 0.847059
0.850980 0.850980 0.850980
0.862745 0.862745 0.862745
0.870588 0.870588 0.870588
0.886275 0.886275 0.886275
0.886275 0.886275 0.886275
0.894118 0.894118 0.894118
0.905882 0.905882 0.905882
0.909804 0.909804 0.909804
0.843137 0.843137 0.843137
0.835294 0.835294 0.835294
0.850980 0.850980 0.850980
0.847059 0.847059 0.847059
0.847059 0.847059 0.847059
0.847059 0.847059 0.847059
0.847059 0.847059 0.847059
0.843137 0.843137 0.843137
0.847059 0.847059 0.847059
0.850980 0.850980 0.850980
0.850980 0.850980 0.850980
0.850980 0.850980 0.850980
0.850980 0.850980 0.850980
0.858824 0.858824 0.858824
0.866667 0.866667 0.866667
0.870588 0.870588 0.870588
0.878431 0.878431 0.878431
0.882353 0.882353 0.882353
0.890196 0.890196 0.890196
0.898039 0.898039 0.898039
0.901961 0.901961 0.901961
0.905882 0.905882 0.905882
0.917647 0.917647 0.917647
0.913725 0.913725 0.913725
0.925490 0.925490 0.925490
0.878431 0.878431 0.878431
0.882353 0.882353 0.882353
0.878431 0.878431 0.878431
0.882353 0.882353 0.882353
0.882353 0.882353 0.882353
0.882353 0.882353 0.882353
0.882353 0.882353 0.882353
0.882353 0.882353 0.882353
0.882353 0.882353 0.882353
0.882353 0.882353 0.882353
0.882353 0.882353 0.882353
0.886275 0.886275 0.886275
0.886275 0.886275 0.886275
0.890196 0.890196 0.890196
0.894118 0.894118 0.894118
0.905882 0.905882 0.905882
0.901961 0.901961 0.901961
0.913725 0.913725 0.913725
0.913725 0.913725 0.913725
0.921569 0.921569 0.921569
0.925490 0.925490 0.925490
0.929412 0.929412 0.929412
0.933333 0.933333 0.933333
0.945098 0.945098 0.945098
0.945098 0.945098 0.945098
0.156863 0.156863 0.156863
0.156863 0.156863 0.156863
0.152941 0.152941 0.152941
0.152941 0.152941 0.152941
0.156863 0.156863 0.156863
0.160784 0.160784 0.160784
0.164706 0.164706 0.164706
0.164706 0.164706 0.164706
0.164706 0.164706 0.164706
0.168627 0.168627 0.168627
0.176471 0.176471 0.176471
0.184314 0.184314 0.184314
0.184314 0.184314 0.184314
0.192157 0.192157 0.192157
0.200000 0.200000 0.200000
0.207843 0.207843 0.207843
0.219608 0.219608 0.219608
0.227451 0.227451 0.227451
0.239216 0.239216 0.239216
0.250980 0.250980 0.250980
0.270588 0.270588 0.270588
0.290196 0.290196 0.290196
0.317647 0.317647 0.317647
0.345098 0.345098 0.345098
0.380392 0.380392 0.380392
0.156863 0.156863 0.156863
0.152941 0.152941 0.152941
0.156863 0.156863 0.156863
0.156863 0.156863 0.156863
0.156863 0.156863 0.156863
0.160784 0.160784 0.160784
0.160784 0.160784 0.160784
0.164706 0.164706 0.164706
0.164706 0.164706 0.164706
0.172549 0.172549 0.172549
0.176471 0.176471 0.176471
0.176471 0.176471 0.176471
0.188235 0.188235 0.188235
0.196078 0.196078 0.196078
0.200000 0.200000 0.200000
0.211765 0.211765 0.211765
0.223529 0.223529 0.223529
0.231373 0.231373 0.231373
0.243137 0.243137 0.243137
0.258824 0.258824 0.258824
0.274510 0.274510 0.274510
0.298039 0.298039 0.298039
0.317647 0.317647 0.317647
0.349020 0.349020 0.349020
0.384314 0.384314 0.384314
0.156863 0.156863 0.156863
0.156863 0.156863 0.156863
0.156863 0.156863 0.156863
0.164706 0.164706 0.164706
0.160784 0.160784 0.160784
0.164706 0.164706 0.164706
0.168627 0.168627 0.168627
0.168627 0.168627 0.168627
0.168627 0.168627 0.168627
0.176471 0.176471 0.176471
0.176471 0.176471 0.176471
0.184314 0.184314 0.184314
0.192157 0.192157 0.192157
0.200000 0.200000 0.200000
0.200000 0.200000 0.200000
0.215686 0.215686 0.215686
0.223529 0.223529 0.223529
0.235294 0.235294 0.235294
0.250980 0.250980 0.250980
0.262745 0.262745 0.262745
0.278431 0.278431 0.278431
0.298039 0.298039 0.298039
0.321569 0.321569 0.321569
0.349020 0.349020 0.349020
0.384314 0.384314 0.384314
0.160784 0.160784 0.160784
0.160784 0.160784 0.160784
0.160784 0.160784 0.160784
0.160784 0.160784 0.160784
0.172549 0.172549 0.172549
0.168627 0.168627 0.168627
0.168627 0.168627 0.168627
0.168627 0.168627 0.168627
0.172549 0.172549 0.172549
0.176471 0.176471 0.176471
0.180392 0.180392 0.180392
0.184314 0.184314 0.184314
0.192157 0.192157 0.192157
0.207843 0.207843 0.207843
0.207843 0.207843 0.207843
0.211765 0.211765 0.211765
0.227451 0.227451 0.227451
0.235294 0.235294 0.235294
0.247059 0.247059 0.247059
0.262745 0.262745 0.262745
0.278431 0.278431 0.278431
0.298039 0.298039 0.298039
0.321569 0.321569 0.321569
0.352941 0.352941 0.352941
0.392157 0.392157 0.392157
0.164706 0.164706 0.164706
0.164706 0.164706 0.164706
0.164706 0.164706 0.164706
0.164706 0.164706 0.164706
0.168627 0.168627 0.168627
0.176471 0.176471 0.176471
0.180392 0.180392 0.180392
0.176471 0.176471 0.176471
0.180392 0.180392 0.180392
0.184314 0.184314 0.184314
0.188235 0.188235 0.188235
0.192157 0.192157 0.192157
0.203922 0.203922 0.203922
0.211765 0.211765 0.211765
0.215686 0.215686 0.215686
0.219608 0.219608 0.219608
0.235294 0.235294 0.235294
0.243137 0.243137 0.243137
0.254902 0.254902 0.254902
0.266667 0.266667 0.266667
0.286275 0.286275 0.286275
0.305882 0.305882 0.305882
0.333333 0.333333 0.333333
0.356863 0.356863 0.356863
0.392157 0.392157 0.392157
0.172549 0.172549 0.172549
0.168627 0.168627 0.168627
0.172549 0.172549 0.172549
0.176471 0.176471 0.176471
0.176471 0.176471 0.176471
0.180392 0.180392 0.180392
0.192157 0.192157 0.192157
0.192157 0.192157 0.192157
0.188235 0.188235 0.188235
0.192157 0.192157 0.192157
0.196078 0.196078 0.196078
0.196078 0.196078 0.196078
0.207843 0.207843 0.207843
0.215686 0.215686 0.215686
0.223529 0.223529 0.223529
0.231373 0.231373 0.231373
0.235294 0.235294 0.235294
0.250980 0.250980 0.250980
0.266667 0.266667 0.266667
0.278431 0.278431 0.278431
0.298039 0.298039 0.298039
0.317647 0.317647 0.317647
0.345098 0.345098 0.345098
0.376471 0.376471 0.376471
0.415686 0.415686 0.415686
0.180392 0.180392 0.180392
0.180392 0.180392 0.180392
0.180392 0.180392 0.180392
0.180392 0.180392 0.180392
0.184314 0.184314 0.184314
0.188235 0.188235 0.188235
0.196078 0.196078 0.196078
0.203922 0.203922 0.203922
0.207843 0.207843 0.207843
0.207843 0.207843 0.207843
0.207843 0.207843 0.207843
0.215686 0.215686 0.215686
0.215686 0.215686 0.215686
0.223529 0.223529 0.223529
0.231373 0.231373 0.231373
0.243137 0.243137 0.243137
0.250980 0.250980 0.250980
0.262745 0.262745 0.262745
0.278431 0.278431 0.278431
0.290196 0.290196 0.290196
0.305882 0.305882 0.305882
0.333333 0.333333 0.333333
0.356863 0.356863 0.356863
0.388235 0.388235 0.388235
0.431373 0.431373 0.431373
0.184314 0.184314 0.184314
0.192157 0.192157 0.192157
0.196078 0.196078 0.196078
0.188235 0.188235 0.188235
0.200000 0.200000 0.200000
0.200000 0.200000 0.200000
0.203922 0.203922 0.203922
0.211765 0.211765 0.211765
0.223529 0.223529 0.223529
0.231373 0.231373 0.231373
0.227451 0.227451 0.227451
0.231373 0.231373 0.231373
0.231373 0.231373 0.231373
0.235294 0.235294 0.235294
0.243137 0.243137 0.243137
0.254902 0.254902 0.254902
0.262745 0.262745 0.262745
0.270588 0.270588 0.270588
0.286275 0.286275 0.286275
0.305882 0.305882 0.305882
0.321569 0.321569 0.321569
0.345098 0.345098 0.345098
0.376471 0.376471 0.376471
0.403922 0.403922 0.403922
0.447059 0.447059 0.447059
0.203922 0.203922 0.203922
0.200000 0.200000 0.200000
0.203922 0.203922 0.203922
0.207843 0.207843 0.207843
0.207843 0.207843 0.207843
0.207843 0.207843 0.207843
0.211765 0.211765 0.211765
0.223529 0.223529 0.223529
0.231373 0.231373 0.231373
0.239216 0.239216 0.239216
0.250980 0.250980 0.250980
0.254902 0.254902 0.254902
0.254902 0.254902 0.254902
0.258824 0.258824 0.258824
0.254902 0.254902 0.254902
0.262745 0.262745 0.262745
0.278431 0.278431 0.278431
0.286275 0.286275 0.286275
0.298039 0.298039 0.298039
0.317647 0.317647 0.317647
0.337255 0.337255 0.337255
0.360784 0.360784 0.360784
0.388235 0.388235 0.388235
0.427451 0.427451 0.427451
0.462745 0.462745 0.462745
0.219608 0.219608 0.219608
0.219608 0.219608 0.219608
0.219608 0.219608 0.219608
0.219608 0.219608 0.219608
0.219608 0.219608 0.219608
0.223529 0.223529 0.223529
0.227451 0.227451 0.227451
0.235294 0.235294 0.235294
0.243137 0.243137 0.243137
0.250980 0.250980 0.250980
0.262745 0.262745 0.262745
0.282353 0.282353 0.282353
0.286275 0.286275 0.286275
0.282353 0.282353 0.282353
0.286275 0.286275 0.286275
0.294118 0.294118 0.294118
0.290196 0.290196 0.290196
0.305882 0.305882 0.305882
0.317647 0.317647 0.317647
0.333333 0.333333 0.333333
0.349020 0.349020 0.349020
0.380392 0.380392 0.380392
0.407843 0.407843 0.407843
0.443137 0.443137 0.443137
0.482353 0.482353 0.482353
0.239216 0.239216 0.239216
0.235294 0.235294 0.235294
0.239216 0.239216 0.239216
0.239216 0.239216 0.239216
0.239216 0.239216 0.239216
0.239216 0.239216 0.239216
0.247059 0.247059 0.247059
0.254902 0.254902 0.254902
0.258824 0.258824 0.258824
