tools/luts_backup/New York.cube
#Generated with IWLTBAP LUT Generator
#Website: http://luts.iwltbap.com
TITLE "Seattle"
#LUT size
LUT_3D_SIZE 5
#LUT data points
0.152941 0.152941 0.152941
0.156863 0.156863 0.156863
0.180392 0.180392 0.180392
0.235294 0.235294 0.235294
0.380392 0.380392 0.380392
0.172549 0.172549 0.172549
0.192157 0.192157 0.192157
0.211765 0.211765 0.211765
0.270588 0.270588 0.270588
0.427451 0.427451 0.427451
0.278431 0.278431 0.278431
0.278431 0.278431 0.278431
0.349020 0.349020 0.349020
0.443137 0.443137 0.443137
0.588235 0.588235 0.588235
0.545098 0.545098 0.545098
0.549020 0.549020 0.549020
0.600000 0.600000 0.600000
0.721569 0.721569 0.721569
0.843137 0.843137 0.843137
0.878431 0.878431 0.878431
0.882353 0.882353 0.882353
0.886275 0.886275 0.886275
0.913725 0.913725 0.913725
0.945098 0.945098 0.945098
0.172549 0.172549 0.172549
0.192157 0.192157 0.192157
0.227451 0.227451 0.227451
0.298039 0.298039 0.298039
0.447059 0.447059 0.447059
0.203922 0.203922 0.203922
0.227451 0.227451 0.227451
0.262745 0.262745 0.262745
0.329412 0.329412 0.329412
0.494118 0.494118 0.494118
0.341176 0.341176 0.341176
0.345098 0.345098 0.345098
0.400000 0.400000 0.400000
0.478431 0.478431 0.478431
0.639216 0.639216 0.639216
0.603922 0.603922 0.603922
0.607843 0.607843 0.607843
0.635294 0.635294 0.635294
0.741176 0.741176 0.741176
0.850980 0.850980 0.850980
0.890196 0.890196 0.890196
0.890196 0.890196 0.890196
0.894118 0.894118 0.894118
0.917647 0.917647 0.917647
0.949020 0.949020 0.949020
0.274510 0.274510 0.274510
0.290196 0.290196 0.290196
0.345098 0.345098 0.345098
0.450980 0.450980 0.450980
0.631373 0.631373 0.631373
0.325490 0.325490 0.325490
0.349020 0.349020 0.349020
0.396078 0.396078 0.396078
0.501961 0.501961 0.501961
0.662745 0.662745 0.662745
0.411765 0.411765 0.411765
0.447059 0.447059 0.447059
0.541176 0.541176 0.541176
0.615686 0.615686 0.615686
0.745098 0.745098 0.745098
0.721569 0.721569 0.721569
0.737255 0.737255 0.737255
0.745098 0.745098 0.745098
0.800000 0.800000 0.800000
0.870588 0.870588 0.870588
0.905882 0.905882 0.905882
0.905882 0.905882 0.905882
0.909804 0.909804 0.909804
0.925490 0.925490 0.925490
0.949020 0.949020 0.949020
0.552941 0.552941 0.552941
0.576471 0.576471 0.576471
0.635294 0.635294 0.635294
0.690196 0.690196 0.690196
0.792157 0.792157 0.792157
0.607843 0.607843 0.607843
0.623529 0.623529 0.623529
0.674510 0.674510 0.674510
0.721569 0.721569 0.721569
0.811765 0.811765 0.811765
0.654902 0.654902 0.654902
0.690196 0.690196 0.690196
0.752941 0.752941 0.752941
0.788235 0.788235 0.788235
0.858824 0.858824 0.858824
0.784314 0.784314 0.784314
0.792157 0.792157 0.792157
0.819608 0.819608 0.819608
0.862745 0.862745 0.862745
0.898039 0.898039 0.898039
0.925490 0.925490 0.925490
0.925490 0.925490 0.925490
0.933333 0.933333 0.933333
0.941176 0.941176 0.941176
0.960784 0.960784 0.960784
0.894118 0.894118 0.894118
0.894118 0.894118 0.894118
0.901961 0.901961 0.901961
0.913725 0.913725 0.913725
0.925490 0.925490 0.925490
0.898039 0.898039 0.898039
0.905882 0.905882 0.905882
0.909804 0.909804 0.909804
0.917647 0.917647 0.917647
0.929412 0.929412 0.929412
0.905882 0.905882 0.905882
0.909804 0.909804 0.909804
0.913725 0.913725 0.913725
0.925490 0.925490 0.925490
0.937255 0.937255 0.937255
0.921569 0.921569 0.921569
0.921569 0.921569 0.921569
0.925490 0.925490 0.925490
0.941176 0.941176 0.941176
0.949020 0.949020 0.949020
0.952941 0.952941 0.952941
0.952941 0.952941 0.952941
0.952941 0.952941 0.952941
0.964706 0.964706 0.964706
0.972549 0.972549 0.972549
