tools/luts_backup/New York.cube
#Generated with IWLTBAP LUT Generator
#Website: http://luts.iwltbap.com
TITLE "Seattle"
#LUT size
LUT_3D_SIZE 9
#LUT data points
0.152941 0.152941 0.152941
0.152941 0.152941 0.152941
0.156863 0.156863 0.156863
0.164706 0.164706 0.164706
0.180392 0.180392 0.180392
0.203922 0.203922 0.203922
0.235294 0.235294 0.235294
0.286275 0.286275 0.286275
0.380392 0.380392 0.380392
0.160784 0.160784 0.160784
0.160784 0.160784 0.160784
0.164706 0.164706 0.164706
0.172549 0.172549 0.172549
0.188235 0.188235 0.188235
0.211765 0.211765 0.211765
0.247059 0.247059 0.247059
0.294118 0.294118 0.294118
0.388235 0.388235 0.388235
0.172549 0.172549 0.172549
0.176471 0.176471 0.176471
0.192157 0.192157 0.192157
0.203922 0.203922 0.203922
0.211765 0.211765 0.211765
0.239216 0.239216 0.239216
0.270588 0.270588 0.270588
0.325490 0.325490 0.325490
0.427451 0.427451 0.427451
0.215686 0.215686 0.215686
0.215686 0.215686 0.215686
0.223529 0.223529 0.223529
0.247059 0.247059 0.247059
0.286275 0.286275 0.286275
0.286275 0.286275 0.286275
0.317647 0.317647 0.317647
0.376471 0.376471 0.376471
0.482353 0.482353 0.482353
0.278431 0.278431 0.278431
0.282353 0.282353 0.282353
0.278431 0.278431 0.278431
0.305882 0.305882 0.305882
0.349020 0.349020 0.349020
0.423529 0.423529 0.423529
0.443137 0.443137 0.443137
0.478431 0.478431 0.478431
0.588235 0.588235 0.588235
0.384314 0.384314 0.384314
0.384314 0.384314 0.384314
0.380392 0.380392 0.380392
0.403922 0.403922 0.403922
0.450980 0.450980 0.450980
0.521569 0.521569 0.521569
0.631373 0.631373 0.631373
0.678431 0.678431 0.678431
0.741176 0.741176 0.741176
0.545098 0.545098 0.545098
0.549020 0.549020 0.549020
0.549020 0.549020 0.549020
0.552941 0.552941 0.552941
0.600000 0.600000 0.600000
0.658824 0.658824 0.658824
0.721569 0.721569 0.721569
0.803922 0.803922 0.803922
0.843137 0.843137 0.843137
0.745098 0.745098 0.745098
0.752941 0.752941 0.752941
0.752941 0.752941 0.752941
0.756863 0.756863 0.756863
0.772549 0.772549 0.772549
0.803922 0.803922 0.803922
0.839216 0.839216 0.839216
0.870588 0.870588 0.870588
0.901961 0.901961 0.901961
0.878431 0.878431 0.878431
0.882353 0.882353 0.882353
0.882353 0.882353 0.882353
0.882353 0.882353 0.882353
0.886275 0.886275 0.886275
0.905882 0.905882 0.905882
0.913725 0.913725 0.913725
0.929412 0.929412 0.929412
0.945098 0.945098 0.945098
0.160784 0.160784 0.160784
0.160784 0.160784 0.160784
0.168627 0.168627 0.168627
0.180392 0.180392 0.180392
0.203922 0.203922 0.203922
0.223529 0.223529 0.223529
0.258824 0.258824 0.258824
0.305882 0.305882 0.305882
0.396078 0.396078 0.396078
0.164706 0.164706 0.164706
0.172549 0.172549 0.172549
0.176471 0.176471 0.176471
0.184314 0.184314 0.184314
0.207843 0.207843 0.207843
0.231373 0.231373 0.231373
0.262745 0.262745 0.262745
0.309804 0.309804 0.309804
0.403922 0.403922 0.403922
0.192157 0.192157 0.192157
0.196078 0.196078 0.196078
0.203922 0.203922 0.203922
0.215686 0.215686 0.215686
0.227451 0.227451 0.227451
0.250980 0.250980 0.250980
0.286275 0.286275 0.286275
0.345098 0.345098 0.345098
0.443137 0.443137 0.443137
0.231373 0.231373 0.231373
0.231373 0.231373 0.231373
0.235294 0.235294 0.235294
0.258824 0.258824 0.258824
0.290196 0.290196 0.290196
0.298039 0.298039 0.298039
0.329412 0.329412 0.329412
0.392157 0.392157 0.392157
0.490196 0.490196 0.490196
0.290196 0.290196 0.290196
0.294118 0.294118 0.294118
0.294118 0.294118 0.294118
0.321569 0.321569 0.321569
0.364706 0.364706 0.364706
0.431373 0.431373 0.431373
0.450980 0.450980 0.450980
0.490196 0.490196 0.490196
0.603922 0.603922 0.603922
0.400000 0.400000 0.400000
0.400000 0.400000 0.400000
0.400000 0.400000 0.400000
0.415686 0.415686 0.415686
0.462745 0.462745 0.462745
0.529412 0.529412 0.529412
0.639216 0.639216 0.639216
0.682353 0.682353 0.682353
0.741176 0.741176 0.741176
0.556863 0.556863 0.556863
0.560784 0.560784 0.560784
0.560784 0.560784 0.560784
0.560784 0.560784 0.560784
0.607843 0.607843 0.607843
0.666667 0.666667 0.666667
0.725490 0.725490 0.725490
0.800000 0.800000 0.800000
0.847059 0.847059 0.847059
0.756863 0.756863 0.756863
0.764706 0.764706 0.764706
0.764706 0.764706 0.764706
0.760784 0.760784 0.760784
0.772549 0.772549 0.772549
0.807843 0.807843 0.807843
0.839216 0.839216 0.839216
0.866667 0.866667 0.866667
0.901961 0.901961 0.901961
0.882353 0.882353 0.882353
0.882353 0.882353 0.882353
0.890196 0.890196 0.890196
0.886275 0.886275 0.886275
0.882353 0.882353 0.882353
0.901961 0.901961 0.901961
0.917647 0.917647 0.917647
0.925490 0.925490 0.925490
0.945098 0.945098 0.945098
0.172549 0.172549 0.172549
0.180392 0.180392 0.180392
0.192157 0.192157 0.192157
0.203922 0.203922 0.203922
0.227451 0.227451 0.227451
0.258824 0.258824 0.258824
0.298039 0.298039 0.298039
0.352941 0.352941 0.352941
0.447059 0.447059 0.447059
0.188235 0.188235 0.188235
0.192157 0.192157 0.192157
0.200000 0.200000 0.200000
0.223529 0.223529 0.223529
0.239216 0.239216 0.239216
0.266667 0.266667 0.266667
0.305882 0.305882 0.305882
0.360784 0.360784 0.360784
0.454902 0.454902 0.454902
0.203922 0.203922 0.203922
0.211765 0.211765 0.211765
0.227451 0.227451 0.227451
0.243137 0.243137 0.243137
0.262745 0.262745 0.262745
0.294118 0.294118 0.294118
0.329412 0.329412 0.329412
0.396078 0.396078 0.396078
0.494118 0.494118 0.494118
0.258824 0.258824 0.258824
0.266667 0.266667 0.266667
0.270588 0.270588 0.270588
0.290196 0.290196 0.290196
0.313725 0.313725 0.313725
0.333333 0.333333 0.333333
0.380392 0.380392 0.380392
0.439216 0.439216 0.439216
0.541176 0.541176 0.541176
0.341176 0.341176 0.341176
0.337255 0.337255 0.337255
0.345098 0.345098 0.345098
0.352941 0.352941 0.352941
0.400000 0.400000 0.400000
0.454902 0.454902 0.454902
0.478431 0.478431 0.478431
0.529412 0.529412 0.529412
0.639216 0.639216 0.639216
0.454902 0.454902 0.454902
0.454902 0.454902 0.454902
0.450980 0.450980 0.450980
0.454902 0.454902 0.454902
0.505882 0.505882 0.505882
0.560784 0.560784 0.560784
0.662745 0.662745 0.662745
0.698039 0.698039 0.698039
0.752941 0.752941 0.752941
0.603922 0.603922 0.603922
0.603922 0.603922 0.603922
0.607843 0.607843 0.607843
0.603922 0.603922 0.603922
0.635294 0.635294 0.635294
0.690196 0.690196 0.690196
0.741176 0.741176 0.741176
0.819608 0.819608 0.819608
0.850980 0.850980 0.850980
0.776471 0.776471 0.776471
0.776471 0.776471 0.776471
0.776471 0.776471 0.776471
0.780392 0.780392 0.780392
0.784314 0.784314 0.784314
0.811765 0.811765 0.811765
0.839216 0.839216 0.839216
0.866667 0.866667 0.866667
0.898039 0.898039 0.898039
0.890196 0.890196 0.890196
0.882353 0.882353 0.882353
0.890196 0.890196 0.890196
0.890196 0.890196 0.890196
0.894118 0.894118 0.894118
0.901961 0.901961 0.901961
0.917647 0.917647 0.917647
0.933333 0.933333 0.933333
0.949020 0.949020 0.949020
0.211765 0.211765 0.211765
0.215686 0.215686 0.215686
0.231373 0.231373 0.231373
0.250980 0.250980 0.250980
0.266667 0.266667 0.266667
0.313725 0.313725 0.313725
0.356863 0.356863 0.356863
0.427451 0.427451 0.427451
0.521569 0.521569 0.521569
0.227451 0.227451 0.227451
0.235294 0.235294 0.235294
0.247059 0.247059 0.247059
0.258824 0.258824 0.258824
0.282353 0.282353 0.282353
0.321569 0.321569 0.321569
0.364706 0.364706 0.364706
0.435294 0.435294 0.435294
0.541176 0.541176 0.541176
0.243137 0.243137 0.243137
0.247059 0.247059 0.247059
0.270588 0.270588 0.270588
0.286275 0.286275 0.286275
0.317647 0.317647 0.317647
0.352941 0.352941 0.352941
0.403922 0.403922 0.403922
0.470588 0.470588 0.470588
0.564706 0.564706 0.564706
0.286275 0.286275 0.286275
0.290196 0.290196 0.290196
0.313725 0.313725 0.313725
0.341176 0.341176 0.341176
0.368627 0.368627 0.368627
0.403922 0.403922 0.403922
0.447059 0.447059 0.447059
0.513725 0.513725 0.513725
0.611765 0.611765 0.611765
0.380392 0.380392 0.380392
0.388235 0.388235 0.388235
0.411765 0.411765 0.411765
0.423529 0.423529 0.423529
0.458824 0.458824 0.458824
0.501961 0.501961 0.501961
0.529412 0.529412 0.529412
0.600000 0.600000 0.600000
0.694118 0.694118 0.694118
0.525490 0.525490 0.525490
0.533333 0.533333 0.533333
0.537255 0.537255 0.537255
0.537255 0.537255 0.537255
0.560784 0.560784 0.560784
0.619608 0.619608 0.619608
0.686275 0.686275 0.686275
0.725490 0.725490 0.725490
0.764706 0.764706 0.764706
0.670588 0.670588 0.670588
0.674510 0.674510 0.674510
0.674510 0.674510 0.674510
0.674510 0.674510 0.674510
0.682353 0.682353 0.682353
0.725490 0.725490 0.725490
0.772549 0.772549 0.772549
0.827451 0.827451 0.827451
0.858824 0.858824 0.858824
0.800000 0.800000 0.800000
0.803922 0.803922 0.803922
0.807843 0.807843 0.807843
0.807843 0.807843 0.807843
0.807843 0.807843 0.807843
0.823529 0.823529 0.823529
0.850980 0.850980 0.850980
0.882353 0.882353 0.882353
0.905882 0.905882 0.905882
0.898039 0.898039 0.898039
0.898039 0.898039 0.898039
0.898039 0.898039 0.898039
0.901961 0.901961 0.901961
0.901961 0.901961 0.901961
0.901961 0.901961 0.901961
0.917647 0.917647 0.917647
0.933333 0.933333 0.933333
0.949020 0.949020 0.949020
0.274510 0.274510 0.274510
0.278431 0.278431 0.278431
0.290196 0.290196 0.290196
0.321569 0.321569 0.321569
0.345098 0.345098 0.345098
0.368627 0.368627 0.368627
0.450980 0.450980 0.450980
0.529412 0.529412 0.529412
0.631373 0.631373 0.631373
0.286275 0.286275 0.286275
0.298039 0.298039 0.298039
0.309804 0.309804 0.309804
0.337255 0.337255 0.337255
0.356863 0.356863 0.356863
0.384314 0.384314 0.384314
0.462745 0.462745 0.462745
0.537255 0.537255 0.537255
0.639216 0.639216 0.639216
0.325490 0.325490 0.325490
0.337255 0.337255 0.337255
0.349020 0.349020 0.349020
0.368627 0.368627 0.368627
0.396078 0.396078 0.396078
0.427451 0.427451 0.427451
0.501961 0.501961 0.501961
0.572549 0.572549 0.572549
0.662745 0.662745 0.662745
0.345098 0.345098 0.345098
0.352941 0.352941 0.352941
0.380392 0.380392 0.380392
0.423529 0.423529 0.423529
0.450980 0.450980 0.450980
0.494118 0.494118 0.494118
0.541176 0.541176 0.541176
0.607843 0.607843 0.607843
0.682353 0.682353 0.682353
0.411765 0.411765 0.411765
0.427451 0.427451 0.427451
0.447059 0.447059 0.447059
0.486275 0.486275 0.486275
0.541176 0.541176 0.541176
0.572549 0.572549 0.572549
0.615686 0.615686 0.615686
0.674510 0.674510 0.674510
0.745098 0.745098 0.745098
0.568627 0.568627 0.568627
0.576471 0.576471 0.576471
0.592157 0.592157 0.592157
0.623529 0.623529 0.623529
0.639216 0.639216 0.639216
0.678431 0.678431 0.678431
0.725490 0.725490 0.725490
0.752941 0.752941 0.752941
0.803922 0.803922 0.803922
0.721569 0.721569 0.721569
0.729412 0.729412 0.729412
0.737255 0.737255 0.737255
0.745098 0.745098 0.745098
0.745098 0.745098 0.745098
0.760784 0.760784 0.760784
0.800000 0.800000 0.800000
0.839216 0.839216 0.839216
0.870588 0.870588 0.870588
0.839216 0.839216 0.839216
0.831373 0.831373 0.831373
0.835294 0.835294 0.835294
0.839216 0.839216 0.839216
0.839216 0.839216 0.839216
0.843137 0.843137 0.843137
0.862745 0.862745 0.862745
0.882353 0.882353 0.882353
0.913725 0.913725 0.913725
0.905882 0.905882 0.905882
0.905882 0.905882 0.905882
0.905882 0.905882 0.905882
0.905882 0.905882 0.905882
0.909804 0.909804 0.909804
0.909804 0.909804 0.909804
0.925490 0.925490 0.925490
0.937255 0.937255 0.937255
0.949020 0.949020 0.949020
0.376471 0.376471 0.376471
0.384314 0.384314 0.384314
0.403922 0.403922 0.403922
0.427451 0.427451 0.427451
0.470588 0.470588 0.470588
0.494118 0.494118 0.494118
0.509804 0.509804 0.509804
0.627451 0.627451 0.627451
0.741176 0.741176 0.741176
0.396078 0.396078 0.396078
0.400000 0.400000 0.400000
0.419608 0.419608 0.419608
0.439216 0.439216 0.439216
0.478431 0.478431 0.478431
0.505882 0.505882 0.505882
0.521569 0.521569 0.521569
0.631373 0.631373 0.631373
0.745098 0.745098 0.745098
0.439216 0.439216 0.439216
0.443137 0.443137 0.443137
0.458824 0.458824 0.458824
0.478431 0.478431 0.478431
0.521569 0.521569 0.521569
0.545098 0.545098 0.545098
0.568627 0.568627 0.568627
0.674510 0.674510 0.674510
0.760784 0.760784 0.760784
0.454902 0.454902 0.454902
0.474510 0.474510 0.474510
0.505882 0.505882 0.505882
0.533333 0.533333 0.533333
0.568627 0.568627 0.568627
0.592157 0.592157 0.592157
0.623529 0.623529 0.623529
0.709804 0.709804 0.709804
0.768627 0.768627 0.768627
0.517647 0.517647 0.517647
0.525490 0.525490 0.525490
0.549020 0.549020 0.549020
0.584314 0.584314 0.584314
0.643137 0.643137 0.643137
0.666667 0.666667 0.666667
0.713725 0.713725 0.713725
0.760784 0.760784 0.760784
0.800000 0.800000 0.800000
0.611765 0.611765 0.611765
0.619608 0.619608 0.619608
0.635294 0.635294 0.635294
0.658824 0.658824 0.658824
0.698039 0.698039 0.698039
0.741176 0.741176 0.741176
0.768627 0.768627 0.768627
0.796078 0.796078 0.796078
0.831373 0.831373 0.831373
0.745098 0.745098 0.745098
0.752941 0.752941 0.752941
0.760784 0.760784 0.760784
0.776471 0.776471 0.776471
0.800000 0.800000 0.800000
0.807843 0.807843 0.807843
0.831373 0.831373 0.831373
0.854902 0.854902 0.854902
0.870588 0.870588 0.870588
0.850980 0.850980 0.850980
0.854902 0.854902 0.854902
0.854902 0.854902 0.854902
0.862745 0.862745 0.862745
0.870588 0.870588 0.870588
0.866667 0.866667 0.866667
0.874510 0.874510 0.874510
0.898039 0.898039 0.898039
0.921569 0.921569 0.921569
0.921569 0.921569 0.921569
0.917647 0.917647 0.917647
0.921569 0.921569 0.921569
0.921569 0.921569 0.921569
0.921569 0.921569 0.921569
0.925490 0.925490 0.925490
0.925490 0.925490 0.925490
0.937255 0.937255 0.937255
0.952941 0.952941 0.952941
0.552941 0.552941 0.552941
0.560784 0.560784 0.560784
0.576471 0.576471 0.576471
0.600000 0.600000 0.600000
0.635294 0.635294 0.635294
0.678431 0.678431 0.678431
0.690196 0.690196 0.690196
0.694118 0.694118 0.694118
0.792157 0.792157 0.792157
0.556863 0.556863 0.556863
0.572549 0.572549 0.572549
0.588235 0.588235 0.588235
0.611765 0.611765 0.611765
0.643137 0.643137 0.643137
0.682353 0.682353 0.682353
0.698039 0.698039 0.698039
0.698039 0.698039 0.698039
0.796078 0.796078 0.796078
0.607843 0.607843 0.607843
0.615686 0.615686 0.615686
0.623529 0.623529 0.623529
0.647059 0.647059 0.647059
0.674510 0.674510 0.674510
0.705882 0.705882 0.705882
0.721569 0.721569 0.721569
0.729412 0.729412 0.729412
0.811765 0.811765 0.811765
0.647059 0.647059 0.647059
0.654902 0.654902 0.654902
0.666667 0.666667 0.666667
0.682353 0.682353 0.682353
0.705882 0.705882 0.705882
0.737255 0.737255 0.737255
0.749020 0.749020 0.749020
0.760784 0.760784 0.760784
0.827451 0.827451 0.827451
0.654902 0.654902 0.654902
0.670588 0.670588 0.670588
0.690196 0.690196 0.690196
0.729412 0.729412 0.729412
0.752941 0.752941 0.752941
0.772549 0.772549 0.772549
0.788235 0.788235 0.788235
0.807843 0.807843 0.807843
0.858824 0.858824 0.858824
0.725490 0.725490 0.725490
0.733333 0.733333 0.733333
0.741176 0.741176 0.741176
0.760784 0.760784 0.760784
0.780392 0.780392 0.780392
0.811765 0.811765 0.811765
0.827451 0.827451 0.827451
0.847059 0.847059 0.847059
0.874510 0.874510 0.874510
0.784314 0.784314 0.784314
0.784314 0.784314 0.784314
0.792157 0.792157 0.792157
0.803922 0.803922 0.803922
0.819608 0.819608 0.819608
0.843137 0.843137 0.843137
0.862745 0.862745 0.862745
0.874510 0.874510 0.874510
0.898039 0.898039 0.898039
0.862745 0.862745 0.862745
0.866667 0.866667 0.866667
0.866667 0.866667 0.866667
0.874510 0.874510 0.874510
0.890196 0.890196 0.890196
0.890196 0.890196 0.890196
0.898039 0.898039 0.898039
0.913725 0.913725 0.913725
0.929412 0.929412 0.929412
0.925490 0.925490 0.925490
0.925490 0.925490 0.925490
0.925490 0.925490 0.925490
0.925490 0.925490 0.925490
0.933333 0.933333 0.933333
0.937255 0.937255 0.937255
0.941176 0.941176 0.941176
0.945098 0.945098 0.945098
0.960784 0.960784 0.960784
0.760784 0.760784 0.760784
0.768627 0.768627 0.768627
0.776471 0.776471 0.776471
0.784314 0.784314 0.784314
0.800000 0.800000 0.800000
0.819608 0.819608 0.819608
0.835294 0.835294 0.835294
0.839216 0.839216 0.839216
0.847059 0.847059 0.847059
0.764706 0.764706 0.764706
0.772549 0.772549 0.772549
0.776471 0.776471 0.776471
0.788235 0.788235 0.788235
0.803922 0.803922 0.803922
0.819608 0.819608 0.819608
0.839216 0.839216 0.839216
0.843137 0.843137 0.843137
0.843137 0.843137 0.843137
0.784314 0.784314 0.784314
0.788235 0.788235 0.788235
0.796078 0.796078 0.796078
0.800000 0.800000 0.800000
0.815686 0.815686 0.815686
0.831373 0.831373 0.831373
0.847059 0.847059 0.847059
0.850980 0.850980 0.850980
0.850980 0.850980 0.850980
0.800000 0.800000 0.800000
0.803922 0.803922 0.803922
0.807843 0.807843 0.807843
0.815686 0.815686 0.815686
0.827451 0.827451 0.827451
0.839216 0.839216 0.839216
0.850980 0.850980 0.850980
0.858824 0.858824 0.858824
0.858824 0.858824 0.858824
0.811765 0.811765 0.811765
0.819608 0.819608 0.819608
0.831373 0.831373 0.831373
0.835294 0.835294 0.835294
0.847059 0.847059 0.847059
0.854902 0.854902 0.854902
0.874510 0.874510 0.874510
0.874510 0.874510 0.874510
0.882353 0.882353 0.882353
0.823529 0.823529 0.823529
0.831373 0.831373 0.831373
0.835294 0.835294 0.835294
0.843137 0.843137 0.843137
0.866667 0.866667 0.866667
0.874510 0.874510 0.874510
0.886275 0.886275 0.886275
0.894118 0.894118 0.894118
0.901961 0.901961 0.901961
0.854902 0.854902 0.854902
0.858824 0.858824 0.858824
0.858824 0.858824 0.858824
0.866667 0.866667 0.866667
0.874510 0.874510 0.874510
0.886275 0.886275 0.886275
0.901961 0.901961 0.901961
0.909804 0.909804 0.909804
0.925490 0.925490 0.925490
0.886275 0.886275 0.886275
0.890196 0.890196 0.890196
0.886275 0.886275 0.886275
0.894118 0.894118 0.894118
0.898039 0.898039 0.898039
0.905882 0.905882 0.905882
0.917647 0.917647 0.917647
0.929412 0.929412 0.929412
0.945098 0.945098 0.945098
0.933333 0.933333 0.933333
0.937255 0.937255 0.937255
0.933333 0.933333 0.933333
0.937255 0.937255 0.937255
0.941176 0.941176 0.941176
0.945098 0.945098 0.945098
0.949020 0.949020 0.949020
0.952941 0.952941 0.952941
0.964706 0.964706 0.964706
0.894118 0.894118 0.894118
0.894118 0.894118 0.894118
0.894118 0.894118 0.894118
0.898039 0.898039 0.898039
0.901961 0.901961 0.901961
0.909804 0.909804 0.909804
0.913725 0.913725 0.913725
0.921569 0.921569 0.921569
0.925490 0.925490 0.925490
0.894118 0.894118 0.894118
0.890196 0.890196 0.890196
0.898039 0.898039 0.898039
0.898039 0.898039 0.898039
0.905882 0.905882 0.905882
0.909804 0.909804 0.909804
0.917647 0.917647 0.917647
0.925490 0.925490 0.925490
0.921569 0.921569 0.921569
0.898039 0.898039 0.898039
0.898039 0.898039 0.898039
0.905882 0.905882 0.905882
0.901961 0.901961 0.901961
0.909804 0.909804 0.909804
0.913725 0.913725 0.913725
0.917647 0.917647 0.917647
0.929412 0.929412 0.929412
0.929412 0.929412 0.929412
0.898039 0.898039 0.898039
0.901961 0.901961 0.901961
0.901961 0.901961 0.901961
0.909804 0.909804 0.909804
0.913725 0.913725 0.913725
0.913725 0.913725 0.913725
0.921569 0.921569 0.921569
0.929412 0.929412 0.929412
0.933333 0.933333 0.933333
0.905882 0.905882 0.905882
0.909804 0.909804 0.909804
0.909804 0.909804 0.909804
0.913725 0.913725 0.913725
0.913725 0.913725 0.913725
0.921569 0.921569 0.921569
0.925490 0.925490 0.925490
0.933333 0.933333 0.933333
0.937255 0.937255 0.937255
0.909804 0.909804 0.909804
0.913725 0.913725 0.913725
0.917647 0.917647 0.917647
0.917647 0.917647 0.917647
0.925490 0.925490 0.925490
0.929412 0.929412 0.929412
0.929412 0.929412 0.929412
0.941176 0.941176 0.941176
0.945098 0.945098 0.945098
0.921569 0.921569 0.921569
0.917647 0.917647 0.917647
0.921569 0.921569 0.921569
0.921569 0.921569 0.921569
0.925490 0.925490 0.925490
0.933333 0.933333 0.933333
0.941176 0.941176 0.941176
0.949020 0.949020 0.949020
0.949020 0.949020 0.949020
0.933333 0.933333 0.933333
0.937255 0.937255 0.937255
0.941176 0.941176 0.941176
0.937255 0.937255 0.937255
0.941176 0.941176 0.941176
0.945098 0.945098 0.945098
0.949020 0.949020 0.949020
0.956863 0.956863 0.956863
0.960784 0.960784 0.960784
0.952941 0.952941 0.952941
0.949020 0.949020 0.949020
0.952941 0.952941 0.952941
0.952941 0.952941 0.952941
0.952941 0.952941 0.952941
0.956863 0.956863 0.956863
0.964706 0.964706 0.964706
0.968627 0.968627 0.968627
0.972549 0.972549 0.972549
