tools/luts_backup/Newark.cube
#Generated with IWLTBAP LUT Generator
#Website: http://luts.iwltbap.com
TITLE "Newark"
#LUT size
LUT_3D_SIZE 5
#LUT data points
0.039216 0.039216 0.039216
0.062745 0.039216 0.039216
0.290196 0.023529 0.019608
0.725490 0.003922 0.000000
1.000000 0.003922 0.003922
0.031373 0.074510 0.043137
0.062745 0.078431 0.023529
0.333333 0.156863 0.003922
0.733333 0.227451 0.003922
1.000000 0.219608 0.003922
0.003922 0.384314 0.003922
0.000000 0.396078 0.007843
0.305882 0.419608 0.000000
0.721569 0.517647 0.000000
0.996078 0.498039 0.000000
0.000000 0.741176 0.000000
0.011765 0.741176 0.015686
0.117647 0.741176 0.003922
0.560784 0.733333 0.007843
0.976471 0.819608 0.000000
0.007843 1.000000 0.200000
0.000000 1.000000 0.274510
0.247059 0.996078 0.337255
0.560784 0.996078 0.278431
0.819608 1.000000 0.035294
0.023529 0.039216 0.074510
0.078431 0.031373 0.078431
0.309804 0.000000 0.133333
0.737255 0.000000 0.066667
0.996078 0.000000 0.007843
0.003922 0.082353 0.078431
0.078431 0.086275 0.082353
0.345098 0.070588 0.070588
0.733333 0.007843 0.000000
1.000000 0.003922 0.003922
0.003922 0.384314 0.003922
0.000000 0.392157 0.003922
0.321569 0.411765 0.003922
0.741176 0.470588 0.003922
0.996078 0.443137 0.000000
0.000000 0.729412 0.003922
0.000000 0.741176 0.003922
0.066667 0.725490 0.003922
0.560784 0.737255 0.003922
0.984314 0.807843 0.011765
0.000000 1.000000 0.298039
0.000000 1.000000 0.341176
0.254902 0.996078 0.384314
0.568627 1.000000 0.368627
0.819608 1.000000 0.258824
0.003922 0.039216 0.411765
0.062745 0.003922 0.407843
0.407843 0.000000 0.407843
0.749020 0.000000 0.462745
0.988235 0.003922 0.415686
0.000000 0.203922 0.407843
0.000000 0.078431 0.415686
0.415686 0.000000 0.423529
0.764706 0.003922 0.443137
0.996078 0.000000 0.376471
0.000000 0.443137 0.419608
0.000000 0.450980 0.439216
0.407843 0.415686 0.396078
0.768627 0.392157 0.400000
1.000000 0.364706 0.356863
0.003922 0.745098 0.415686
0.000000 0.749020 0.447059
0.274510 0.741176 0.419608
0.623529 0.737255 0.384314
0.996078 0.760784 0.329412
0.000000 1.000000 0.505882
0.007843 1.000000 0.501961
0.286275 1.000000 0.533333
0.615686 1.000000 0.549020
0.854902 1.000000 0.486275
0.000000 0.043137 0.749020
0.000000 0.000000 0.737255
0.380392 0.003922 0.741176
0.729412 0.000000 0.741176
1.000000 0.000000 0.745098
0.000000 0.227451 0.737255
0.003922 0.066667 0.745098
0.325490 0.003922 0.741176
0.729412 0.000000 0.741176
0.996078 0.000000 0.729412
0.003922 0.517647 0.729412
0.000000 0.498039 0.745098
0.000000 0.345098 0.745098
0.733333 0.309804 0.745098
1.000000 0.325490 0.717647
0.000000 0.764706 0.733333
0.000000 0.756863 0.725490
0.301961 0.745098 0.729412
0.709804 0.725490 0.721569
1.000000 0.717647 0.721569
0.000000 1.000000 0.733333
0.000000 1.000000 0.741176
0.341176 1.000000 0.756863
0.658824 0.996078 0.741176
0.901961 1.000000 0.733333
0.003922 0.050980 1.000000
0.000000 0.000000 0.996078
0.000000 0.003922 0.996078
0.666667 0.000000 1.000000
0.996078 0.000000 0.996078
0.003922 0.239216 1.000000
0.003922 0.082353 1.000000
0.000000 0.000000 0.988235
0.647059 0.000000 1.000000
0.988235 0.003922 0.988235
0.000000 0.545098 0.996078
0.007843 0.494118 1.000000
0.000000 0.301961 1.000000
0.580392 0.239216 0.992157
0.996078 0.200000 1.000000
0.007843 0.827451 0.996078
0.007843 0.823529 1.000000
0.000000 0.807843 1.000000
0.556863 0.698039 0.988235
1.000000 0.662745 1.000000
0.003922 1.000000 1.000000
0.000000 1.000000 0.996078
0.003922 1.000000 1.000000
0.682353 1.000000 1.000000
1.000000 0.996078 0.992157
