tools/luts_backup/Newark.cube
#Generated with IWLTBAP LUT Generator
#Website: http://luts.iwltbap.com
TITLE "Newark"
#LUT size
LUT_3D_SIZE 25
#LUT data points
0.039216 0.039216 0.039216
0.039216 0.039216 0.039216
0.039216 0.039216 0.039216
0.039216 0.039216 0.039216
0.043137 0.035294 0.039216
0.058824 0.043137 0.047059
0.062745 0.039216 0.039216
0.078431 0.039216 0.031373
0.109804 0.031373 0.035294
0.125490 0.043137 0.039216
0.180392 0.043137 0.035294
0.223529 0.027451 0.023529
0.290196 0.023529 0.019608
0.360784 0.023529 0.019608
0.439216 0.015686 0.003922
0.505882 0.003922 0.000000
0.588235 0.000000 0.000000
0.650980 0.003922 0.000000
0.725490 0.003922 0.000000
0.784314 0.000000 0.000000
0.831373 0.000000 0.000000
0.878431 0.000000 0.000000
0.925490 0.000000 0.007843
0.964706 0.003922 0.000000
1.000000 0.003922 0.003922
0.043137 0.035294 0.039216
0.039216 0.039216 0.039216
0.039216 0.039216 0.039216
0.043137 0.039216 0.031373
0.054902 0.039216 0.035294
0.050980 0.043137 0.047059
0.062745 0.039216 0.039216
0.082353 0.039216 0.031373
0.109804 0.039216 0.039216
0.133333 0.039216 0.031373
0.180392 0.043137 0.027451
0.227451 0.039216 0.023529
0.278431 0.039216 0.019608
0.352941 0.039216 0.011765
0.427451 0.031373 0.000000
0.513725 0.023529 0.000000
0.584314 0.015686 0.000000
0.662745 0.003922 0.000000
0.721569 0.000000 0.000000
0.776471 0.000000 0.003922
0.831373 0.000000 0.000000
0.878431 0.000000 0.000000
0.921569 0.003922 0.000000
0.964706 0.003922 0.000000
0.996078 0.000000 0.007843
0.043137 0.039216 0.031373
0.039216 0.039216 0.039216
0.035294 0.043137 0.039216
0.039216 0.039216 0.039216
0.047059 0.039216 0.043137
0.058824 0.035294 0.043137
0.062745 0.043137 0.027451
0.082353 0.043137 0.035294
0.109804 0.050980 0.039216
0.137255 0.043137 0.027451
0.180392 0.050980 0.031373
0.227451 0.058824 0.031373
0.270588 0.058824 0.011765
0.356863 0.054902 0.015686
0.419608 0.054902 0.000000
0.505882 0.062745 0.000000
0.580392 0.058824 0.000000
0.647059 0.050980 0.000000
0.717647 0.043137 0.000000
0.768627 0.031373 0.000000
0.823529 0.019608 0.000000
0.870588 0.011765 0.003922
0.913725 0.000000 0.000000
0.960784 0.003922 0.003922
0.992157 0.003922 0.000000
0.043137 0.043137 0.043137
0.039216 0.039216 0.039216
0.039216 0.039216 0.031373
0.039216 0.043137 0.050980
0.043137 0.043137 0.035294
0.050980 0.047059 0.031373
0.066667 0.050980 0.039216
0.090196 0.050980 0.043137
0.105882 0.043137 0.043137
0.133333 0.058824 0.035294
0.180392 0.062745 0.031373
0.223529 0.066667 0.027451
0.294118 0.066667 0.011765
0.356863 0.074510 0.015686
0.431373 0.086275 0.000000
0.513725 0.086275 0.000000
0.580392 0.094118 0.000000
0.650980 0.094118 0.000000
0.705882 0.094118 0.000000
0.760784 0.086275 0.000000
0.819608 0.078431 0.003922
0.847059 0.074510 0.000000
0.905882 0.070588 0.000000
0.949020 0.062745 0.000000
0.996078 0.047059 0.000000
0.043137 0.050980 0.039216
0.043137 0.043137 0.035294
0.047059 0.047059 0.047059
0.043137 0.043137 0.035294
0.043137 0.043137 0.035294
0.050980 0.058824 0.047059
0.054902 0.058824 0.035294
0.094118 0.050980 0.035294
0.105882 0.062745 0.047059
0.137255 0.070588 0.043137
0.184314 0.074510 0.031373
0.223529 0.086275 0.011765
0.282353 0.094118 0.015686
0.356863 0.105882 0.007843
0.431373 0.113725 0.000000
0.513725 0.125490 0.003922
0.584314 0.125490 0.000000
0.643137 0.133333 0.000000
0.698039 0.133333 0.000000
0.752941 0.129412 0.003922
0.800000 0.137255 0.000000
0.850980 0.129412 0.000000
0.898039 0.121569 0.007843
0.937255 0.117647 0.000000
0.996078 0.109804 0.015686
0.035294 0.054902 0.031373
0.031373 0.058824 0.031373
0.035294 0.054902 0.031373
0.039216 0.058824 0.035294
0.047059 0.054902 0.035294
0.050980 0.062745 0.035294
0.066667 0.066667 0.027451
0.090196 0.082353 0.035294
0.113725 0.082353 0.031373
0.149020 0.086275 0.023529
0.203922 0.105882 0.027451
0.258824 0.113725 0.011765
0.321569 0.129412 0.003922
0.392157 0.141176 0.000000
0.466667 0.164706 0.000000
0.545098 0.164706 0.000000
0.619608 0.176471 0.003922
0.678431 0.188235 0.007843
0.737255 0.184314 0.003922
0.780392 0.184314 0.000000
0.831373 0.184314 0.003922
0.878431 0.180392 0.000000
0.925490 0.172549 0.000000
0.980392 0.176471 0.000000
1.000000 0.172549 0.000000
0.031373 0.074510 0.043137
0.023529 0.066667 0.035294
0.023529 0.086275 0.035294
0.023529 0.066667 0.035294
0.043137 0.074510 0.031373
0.047059 0.078431 0.027451
0.062745 0.078431 0.023529
0.074510 0.082353 0.027451
0.121569 0.094118 0.019608
0.141176 0.113725 0.011765
0.196078 0.117647 0.011765
0.266667 0.137255 0.007843
0.333333 0.156863 0.003922
0.388235 0.176471 0.003922
0.470588 0.188235 0.000000
0.541176 0.207843 0.000000
0.607843 0.219608 0.003922
0.674510 0.223529 0.000000
0.733333 0.227451 0.003922
0.780392 0.227451 0.007843
0.831373 0.223529 0.000000
0.886275 0.223529 0.000000
0.929412 0.227451 0.007843
0.976471 0.219608 0.003922
1.000000 0.219608 0.003922
0.015686 0.086275 0.031373
0.011765 0.094118 0.035294
0.011765 0.094118 0.019608
0.027451 0.098039 0.035294
0.043137 0.101961 0.027451
0.047059 0.098039 0.027451
0.058824 0.105882 0.027451
0.074510 0.101961 0.031373
0.113725 0.109804 0.027451
0.152941 0.141176 0.011765
0.203922 0.156863 0.000000
0.262745 0.168627 0.000000
0.333333 0.203922 0.003922
0.403922 0.207843 0.007843
0.470588 0.223529 0.011765
0.552941 0.239216 0.000000
0.615686 0.247059 0.000000
0.670588 0.258824 0.000000
0.733333 0.266667 0.000000
0.776471 0.270588 0.003922
0.823529 0.266667 0.007843
0.874510 0.266667 0.003922
0.921569 0.266667 0.000000
0.968627 0.266667 0.007843
1.000000 0.270588 0.007843
0.003922 0.121569 0.027451
0.000000 0.129412 0.023529
0.000000 0.125490 0.011765
0.011765 0.129412 0.027451
0.027451 0.129412 0.023529
0.043137 0.121569 0.015686
0.066667 0.141176 0.015686
0.082353 0.137255 0.007843
0.117647 0.145098 0.015686
0.129412 0.152941 0.011765
0.196078 0.188235 0.000000
0.254902 0.207843 0.003922
0.337255 0.235294 0.003922
0.396078 0.266667 0.000000
0.466667 0.270588 0.000000
0.541176 0.278431 0.003922
0.607843 0.294118 0.007843
0.674510 0.298039 0.000000
0.717647 0.301961 0.000000
0.760784 0.309804 0.000000
0.819608 0.313725 0.000000
0.866667 0.313725 0.000000
0.905882 0.305882 0.007843
0.952941 0.301961 0.000000
1.000000 0.305882 0.011765
0.003922 0.164706 0.000000
0.000000 0.168627 0.000000
0.000000 0.172549 0.003922
0.000000 0.176471 0.011765
0.003922 0.172549 0.003922
0.027451 0.180392 0.007843
0.043137 0.184314 0.000000
0.086275 0.188235 0.003922
0.121569 0.184314 0.000000
0.152941 0.192157 0.000000
0.172549 0.207843 0.000000
0.243137 0.235294 0.003922
0.329412 0.270588 0.000000
0.392157 0.301961 0.003922
0.458824 0.313725 0.000000
0.537255 0.333333 0.007843
0.596078 0.337255 0.000000
0.654902 0.341176 0.000000
0.709804 0.341176 0.000000
0.768627 0.345098 0.000000
0.815686 0.345098 0.007843
0.862745 0.349020 0.003922
0.901961 0.349020 0.000000
0.949020 0.345098 0.000000
1.000000 0.337255 0.003922
0.000000 0.266667 0.000000
0.003922 0.266667 0.003922
0.000000 0.274510 0.007843
0.000000 0.274510 0.000000
0.007843 0.262745 0.000000
0.000000 0.266667 0.000000
0.011765 0.274510 0.000000
0.090196 0.274510 0.007843
0.133333 0.282353 0.000000
0.180392 0.290196 0.000000
0.207843 0.286275 0.003922
0.254902 0.298039 0.000000
0.317647 0.341176 0.003922
0.435294 0.376471 0.003922
0.494118 0.396078 0.000000
0.580392 0.411765 0.003922
0.635294 0.411765 0.000000
0.690196 0.411765 0.003922
0.741176 0.403922 0.000000
0.788235 0.407843 0.003922
0.831373 0.403922 0.000000
0.874510 0.407843 0.000000
0.925490 0.403922 0.007843
0.976471 0.403922 0.000000
1.000000 0.403922 0.003922
0.000000 0.317647 0.000000
0.000000 0.321569 0.000000
0.000000 0.321569 0.000000
0.003922 0.329412 0.007843
0.000000 0.329412 0.000000
0.003922 0.325490 0.003922
0.000000 0.337255 0.000000
0.027451 0.333333 0.003922
0.109804 0.337255 0.003922
0.168627 0.349020 0.003922
0.215686 0.352941 0.000000
0.270588 0.360784 0.003922
0.305882 0.356863 0.000000
0.376471 0.396078 0.003922
0.486275 0.439216 0.000000
0.560784 0.454902 0.000000
0.623529 0.470588 0.003922
0.682353 0.466667 0.000000
0.733333 0.462745 0.000000
0.784314 0.454902 0.000000
0.831373 0.450980 0.000000
0.882353 0.447059 0.000000
0.921569 0.447059 0.003922
0.964706 0.450980 0.003922
1.000000 0.447059 0.000000
0.003922 0.384314 0.003922
0.003922 0.388235 0.000000
0.000000 0.388235 0.003922
0.000000 0.396078 0.000000
0.000000 0.400000 0.000000
0.003922 0.400000 0.000000
0.000000 0.396078 0.007843
0.003922 0.400000 0.000000
0.066667 0.400000 0.000000
0.141176 0.403922 0.000000
0.219608 0.411765 0.000000
0.262745 0.415686 0.000000
0.305882 0.419608 0.000000
0.368627 0.419608 0.003922
0.427451 0.454902 0.000000
0.529412 0.490196 0.007843
0.611765 0.521569 0.003922
0.666667 0.521569 0.003922
0.721569 0.517647 0.000000
0.772549 0.505882 0.007843
0.823529 0.501961 0.000000
0.874510 0.490196 0.000000
0.917647 0.486275 0.000000
0.968627 0.490196 0.000000
0.996078 0.498039 0.000000
0.000000 0.458824 0.000000
0.000000 0.454902 0.000000
0.007843 0.454902 0.007843
0.000000 0.462745 0.000000
0.000000 0.466667 0.003922
0.000000 0.470588 0.000000
0.000000 0.454902 0.003922
0.007843 0.458824 0.000000
0.000000 0.466667 0.000000
0.117647 0.478431 0.000000
0.192157 0.466667 0.000000
0.262745 0.474510 0.003922
0.301961 0.482353 0.003922
0.360784 0.482353 0.011765
0.411765 0.486275 0.000000
0.478431 0.505882 0.000000
0.560784 0.549020 0.000000
0.650980 0.572549 0.000000
0.713725 0.572549 0.000000
0.756863 0.556863 0.000000
0.803922 0.549020 0.000000
0.847059 0.552941 0.000000
0.905882 0.537255 0.003922
0.952941 0.533333 0.000000
1.000000 0.529412 0.000000
0.000000 0.513725 0.011765
0.000000 0.525490 0.007843
0.000000 0.529412 0.003922
0.000000 0.525490 0.000000
0.000000 0.533333 0.000000
0.000000 0.533333 0.000000
0.007843 0.521569 0.011765
0.000000 0.529412 0.000000
0.000000 0.529412 0.000000
0.003922 0.521569 0.000000
0.168627 0.529412 0.000000
0.243137 0.529412 0.007843
0.290196 0.533333 0.000000
0.352941 0.537255 0.000000
0.403922 0.537255 0.000000
0.454902 0.541176 0.003922
0.513725 0.560784 0.000000
0.603922 0.588235 0.003922
0.686275 0.607843 0.015686
0.745098 0.615686 0.007843
0.784314 0.607843 0.000000
0.839216 0.600000 0.000000
0.886275 0.592157 0.000000
0.941176 0.588235 0.003922
0.996078 0.584314 0.000000
0.000000 0.635294 0.003922
0.003922 0.631373 0.003922
0.000000 0.631373 0.000000
0.000000 0.631373 0.000000
0.000000 0.623529 0.000000
0.000000 0.627451 0.003922
0.000000 0.619608 0.000000
0.011765 0.623529 0.000000
0.007843 0.615686 0.003922
0.000000 0.615686 0.000000
0.101961 0.615686 0.011765
0.207843 0.615686 0.000000
0.282353 0.619608 0.000000
0.345098 0.619608 0.000000
0.407843 0.619608 0.007843
0.462745 0.619608 0.000000
0.517647 0.619608 0.000000
0.584314 0.631373 0.000000
0.662745 0.650980 0.000000
0.741176 0.678431 0.007843
0.803922 0.678431 0.000000
0.854902 0.674510 0.000000
0.905882 0.662745 0.000000
0.960784 0.662745 0.000000
1.000000 0.654902 0.000000
0.000000 0.650980 0.000000
0.003922 0.650980 0.003922
0.000000 0.662745 0.000000
0.000000 0.662745 0.000000
0.011765 0.662745 0.003922
0.000000 0.670588 0.003922
0.000000 0.658824 0.000000
0.003922 0.658824 0.007843
0.007843 0.658824 0.000000
0.000000 0.654902 0.003922
0.007843 0.658824 0.000000
0.145098 0.658824 0.007843
0.243137 0.658824 0.000000
0.337255 0.654902 0.000000
0.380392 0.662745 0.000000
0.450980 0.658824 0.007843
0.505882 0.658824 0.003922
0.552941 0.662745 0.000000
0.615686 0.670588 0.000000
0.690196 0.690196 0.000000
0.772549 0.713725 0.003922
0.839216 0.729412 0.000000
0.886275 0.729412 0.000000
0.956863 0.717647 0.000000
1.000000 0.713725 0.000000
0.000000 0.705882 0.000000
0.000000 0.694118 0.003922
0.000000 0.705882 0.000000
0.003922 0.705882 0.003922
0.000000 0.709804 0.000000
0.000000 0.705882 0.000000
0.003922 0.698039 0.000000
0.000000 0.705882 0.000000
0.000000 0.694118 0.000000
0.000000 0.701961 0.000000
0.000000 0.690196 0.000000
0.023529 0.701961 0.000000
0.196078 0.701961 0.003922
0.278431 0.701961 0.000000
0.360784 0.701961 0.007843
0.423529 0.701961 0.000000
0.474510 0.701961 0.000000
0.529412 0.705882 0.003922
0.588235 0.701961 0.003922
0.639216 0.709804 0.000000
0.709804 0.733333 0.000000
0.788235 0.760784 0.000000
0.878431 0.768627 0.000000
0.929412 0.772549 0.011765
0.996078 0.760784 0.000000
0.000000 0.741176 0.000000
0.000000 0.737255 0.011765
0.000000 0.741176 0.003922
0.000000 0.749020 0.000000
0.000000 0.741176 0.000000
0.000000 0.741176 0.003922
0.011765 0.741176 0.015686
0.000000 0.741176 0.003922
0.000000 0.745098 0.000000
0.007843 0.733333 0.000000
0.000000 0.745098 0.007843
0.003922 0.733333 0.000000
0.117647 0.741176 0.003922
0.254902 0.733333 0.000000
0.321569 0.737255 0.000000
0.392157 0.741176 0.000000
0.454902 0.737255 0.000000
0.513725 0.733333 0.000000
0.560784 0.733333 0.007843
0.615686 0.741176 0.015686
0.662745 0.745098 0.000000
0.733333 0.760784 0.000000
0.823529 0.788235 0.000000
0.909804 0.811765 0.000000
0.976471 0.819608 0.000000
0.000000 0.784314 0.000000
0.000000 0.784314 0.000000
0.003922 0.780392 0.000000
0.007843 0.780392 0.000000
0.003922 0.780392 0.000000
0.000000 0.788235 0.003922
0.007843 0.784314 0.011765
0.003922 0.780392 0.000000
0.000000 0.784314 0.000000
0.000000 0.784314 0.011765
0.000000 0.780392 0.003922
0.000000 0.784314 0.000000
0.003922 0.780392 0.000000
0.188235 0.776471 0.011765
0.298039 0.776471 0.003922
0.345098 0.780392 0.000000
0.431373 0.776471 0.000000
0.494118 0.776471 0.000000
0.537255 0.784314 0.000000
0.596078 0.788235 0.000000
0.647059 0.780392 0.003922
0.701961 0.784314 0.000000
0.776471 0.807843 0.000000
0.854902 0.839216 0.019608
0.933333 0.862745 0.000000
0.000000 0.858824 0.003922
0.000000 0.854902 0.000000
0.000000 0.858824 0.000000
0.000000 0.854902 0.000000
0.000000 0.854902 0.000000
0.003922 0.858824 0.003922
0.000000 0.850980 0.007843
0.000000 0.850980 0.000000
0.000000 0.850980 0.011765
0.003922 0.839216 0.000000
0.000000 0.839216 0.000000
0.015686 0.839216 0.003922
0.000000 0.843137 0.000000
0.160784 0.839216 0.000000
0.274510 0.843137 0.000000
0.352941 0.835294 0.000000
0.415686 0.843137 0.000000
0.478431 0.843137 0.000000
0.541176 0.839216 0.000000
0.588235 0.843137 0.003922
0.647059 0.847059 0.003922
0.690196 0.847059 0.000000
0.752941 0.850980 0.003922
0.815686 0.870588 0.007843
0.905882 0.901961 0.007843
0.011765 0.874510 0.003922
0.000000 0.882353 0.000000
0.000000 0.882353 0.003922
0.015686 0.890196 0.000000
0.000000 0.886275 0.000000
0.000000 0.886275 0.007843
0.000000 0.890196 0.000000
0.000000 0.890196 0.000000
0.000000 0.886275 0.000000
0.011765 0.882353 0.007843
0.000000 0.886275 0.000000
0.000000 0.886275 0.000000
0.000000 0.882353 0.000000
0.129412 0.882353 0.000000
0.250980 0.886275 0.003922
0.329412 0.882353 0.000000
0.396078 0.886275 0.000000
0.462745 0.886275 0.000000
0.517647 0.890196 0.011765
0.572549 0.886275 0.011765
0.631373 0.894118 0.003922
0.690196 0.890196 0.000000
0.745098 0.890196 0.000000
0.807843 0.898039 0.003922
0.847059 0.925490 0.003922
0.007843 0.921569 0.011765
0.000000 0.929412 0.003922
0.000000 0.929412 0.000000
0.000000 0.933333 0.000000
0.000000 0.925490 0.011765
0.003922 0.933333 0.007843
0.003922 0.933333 0.000000
0.000000 0.925490 0.000000
0.000000 0.933333 0.000000
0.007843 0.925490 0.003922
0.000000 0.929412 0.015686
0.003922 0.917647 0.011765
0.000000 0.929412 0.000000
0.137255 0.921569 0.007843
0.250980 0.921569 0.000000
0.325490 0.921569 0.000000
0.396078 0.933333 0.000000
0.458824 0.929412 0.007843
0.521569 0.929412 0.000000
0.580392 0.933333 0.003922
0.627451 0.937255 0.000000
0.678431 0.929412 0.000000
0.725490 0.941176 0.000000
0.784314 0.933333 0.011765
0.831373 0.952941 0.007843
0.000000 0.964706 0.000000
0.007843 0.972549 0.003922
0.000000 0.972549 0.000000
0.000000 0.976471 0.027451
0.007843 0.976471 0.070588
0.000000 0.980392 0.082353
0.000000 0.968627 0.101961
0.000000 0.976471 0.121569
0.000000 0.972549 0.125490
0.011765 0.976471 0.156863
0.000000 0.968627 0.172549
0.000000 0.968627 0.192157
0.078431 0.972549 0.192157
0.203922 0.972549 0.164706
0.282353 0.972549 0.160784
0.349020 0.972549 0.133333
0.407843 0.976471 0.094118
0.466667 0.980392 0.035294
0.513725 0.980392 0.000000
0.568627 0.980392 0.000000
0.627451 0.976471 0.003922
0.666667 0.984314 0.000000
0.721569 0.984314 0.000000
0.772549 0.988235 0.000000
0.823529 0.984314 0.003922
0.007843 1.000000 0.200000
0.000000 1.000000 0.223529
0.000000 1.000000 0.239216
0.000000 1.000000 0.254902
0.003922 0.996078 0.254902
0.000000 0.996078 0.266667
0.000000 1.000000 0.274510
0.003922 1.000000 0.290196
0.000000 1.000000 0.294118
0.003922 1.000000 0.301961
0.003922 1.000000 0.309804
0.129412 1.000000 0.329412
0.247059 0.996078 0.337255
0.298039 1.000000 0.329412
0.360784 1.000000 0.321569
0.415686 0.996078 0.313725
0.462745 1.000000 0.301961
0.505882 0.996078 0.282353
0.560784 0.996078 0.278431
0.607843 1.000000 0.278431
0.647059 1.000000 0.254902
0.694118 1.000000 0.223529
0.733333 1.000000 0.180392
0.772549 1.000000 0.121569
0.819608 1.000000 0.035294
0.035294 0.043137 0.039216
0.039216 0.039216 0.039216
0.043137 0.043137 0.050980
0.047059 0.039216 0.043137
0.050980 0.035294 0.039216
0.054902 0.039216 0.043137
0.062745 0.039216 0.039216
0.094118 0.039216 0.035294
0.117647 0.031373 0.039216
0.137255 0.035294 0.039216
0.176471 0.035294 0.035294
0.223529 0.023529 0.019608
0.294118 0.019608 0.027451
0.360784 0.003922 0.023529
0.427451 0.003922 0.003922
0.509804 0.000000 0.000000
0.596078 0.000000 0.003922
0.650980 0.000000 0.000000
0.721569 0.000000 0.000000
0.784314 0.000000 0.007843
0.831373 0.000000 0.000000
0.874510 0.000000 0.000000
0.917647 0.000000 0.003922
0.964706 0.000000 0.003922
0.996078 0.000000 0.000000
0.035294 0.035294 0.027451
0.039216 0.043137 0.023529
0.043137 0.035294 0.047059
0.035294 0.035294 0.035294
0.047059 0.050980 0.031373
0.054902 0.035294 0.050980
0.078431 0.031373 0.031373
0.082353 0.035294 0.035294
0.109804 0.031373 0.035294
0.137255 0.035294 0.031373
0.184314 0.031373 0.035294
0.231373 0.035294 0.039216
0.286275 0.031373 0.023529
0.360784 0.027451 0.015686
0.427451 0.011765 0.011765
0.509804 0.000000 0.000000
0.588235 0.000000 0.003922
0.662745 0.000000 0.000000
0.721569 0.000000 0.000000
0.776471 0.000000 0.003922
0.823529 0.000000 0.000000
0.878431 0.000000 0.000000
0.921569 0.000000 0.000000
0.964706 0.000000 0.003922
1.000000 0.003922 0.003922
0.039216 0.039216 0.031373
0.039216 0.039216 0.039216
0.039216 0.039216 0.047059
0.043137 0.039216 0.031373
0.043137 0.043137 0.050980
0.058824 0.043137 0.031373
0.062745 0.043137 0.031373
0.090196 0.043137 0.043137
0.113725 0.043137 0.043137
0.137255 0.043137 0.027451
0.172549 0.043137 0.023529
0.223529 0.047059 0.027451
0.286275 0.047059 0.027451
0.352941 0.043137 0.015686
0.435294 0.039216 0.007843
0.509804 0.035294 0.000000
0.580392 0.027451 0.000000
0.647059 0.023529 0.007843
0.709804 0.011765 0.003922
0.760784 0.000000 0.000000
0.819608 0.000000 0.007843
0.878431 0.000000 0.003922
0.913725 0.003922 0.000000
0.960784 0.003922 0.000000
0.996078 0.000000 0.007843
0.031373 0.050980 0.035294
0.035294 0.035294 0.043137
0.047059 0.047059 0.039216
0.039216 0.047059 0.043137
0.039216 0.050980 0.023529
0.066667 0.047059 0.035294
0.066667 0.047059 0.035294
0.090196 0.047059 0.023529
0.105882 0.043137 0.043137
0.133333 0.050980 0.031373
0.172549 0.050980 0.031373
0.227451 0.058824 0.023529
0.286275 0.058824 0.003922
0.352941 0.070588 0.015686
0.427451 0.070588 0.000000
0.505882 0.070588 0.000000
0.584314 0.078431 0.003922
0.643137 0.074510 0.000000
0.698039 0.074510 0.000000
0.756863 0.070588 0.003922
0.811765 0.058824 0.007843
0.854902 0.047059 0.000000
0.905882 0.039216 0.003922
0.941176 0.031373 0.000000
1.000000 0.007843 0.000000
0.023529 0.047059 0.031373
0.039216 0.047059 0.043137
0.039216 0.047059 0.043137
0.039216 0.047059 0.043137
0.039216 0.047059 0.035294
0.054902 0.047059 0.050980
0.074510 0.054902 0.039216
0.086275 0.058824 0.019608
0.113725 0.062745 0.031373
0.145098 0.066667 0.039216
0.184314 0.074510 0.027451
0.223529 0.074510 0.023529
0.290196 0.090196 0.015686
0.356863 0.090196 0.000000
0.423529 0.105882 0.000000
0.501961 0.121569 0.000000
0.576471 0.113725 0.000000
0.631373 0.117647 0.000000
0.686275 0.125490 0.000000
0.749020 0.121569 0.000000
0.796078 0.117647 0.000000
0.850980 0.117647 0.000000
0.898039 0.109804 0.000000
0.941176 0.101961 0.007843
0.992157 0.090196 0.000000
0.031373 0.058824 0.027451
0.031373 0.058824 0.031373
0.031373 0.058824 0.031373
0.039216 0.058824 0.035294
0.043137 0.062745 0.035294
0.058824 0.062745 0.039216
0.066667 0.066667 0.027451
0.074510 0.078431 0.023529
0.117647 0.078431 0.031373
0.152941 0.082353 0.027451
0.200000 0.094118 0.027451
0.247059 0.113725 0.015686
0.309804 0.117647 0.000000
0.392157 0.133333 0.000000
0.458824 0.149020 0.000000
0.537255 0.160784 0.003922
0.607843 0.172549 0.003922
0.662745 0.172549 0.000000
0.725490 0.172549 0.000000
0.772549 0.172549 0.000000
0.823529 0.168627 0.000000
0.870588 0.168627 0.000000
0.921569 0.164706 0.000000
0.968627 0.164706 0.000000
0.996078 0.160784 0.000000
0.015686 0.078431 0.039216
0.027451 0.070588 0.039216
0.027451 0.074510 0.035294
0.027451 0.070588 0.039216
0.035294 0.074510 0.031373
0.043137 0.082353 0.039216
0.062745 0.078431 0.023529
0.074510 0.090196 0.023529
0.121569 0.101961 0.027451
0.152941 0.109804 0.023529
0.200000 0.117647 0.003922
0.254902 0.137255 0.003922
0.321569 0.149020 0.003922
0.384314 0.172549 0.000000
0.462745 0.188235 0.000000
0.537255 0.203922 0.000000
0.607843 0.211765 0.000000
0.670588 0.211765 0.000000
0.725490 0.219608 0.000000
0.772549 0.219608 0.000000
0.819608 0.219608 0.000000
0.870588 0.215686 0.000000
0.921569 0.215686 0.007843
0.964706 0.215686 0.000000
1.000000 0.211765 0.000000
0.003922 0.101961 0.027451
0.011765 0.101961 0.039216
0.011765 0.094118 0.027451
0.027451 0.094118 0.031373
0.039216 0.094118 0.027451
0.050980 0.094118 0.027451
0.058824 0.105882 0.027451
0.074510 0.109804 0.035294
0.109804 0.117647 0.031373
0.152941 0.133333 0.015686
0.207843 0.152941 0.007843
0.258824 0.176471 0.000000
0.317647 0.188235 0.000000
0.400000 0.203922 0.000000
0.466667 0.223529 0.000000
0.541176 0.235294 0.000000
0.611765 0.243137 0.000000
0.666667 0.254902 0.000000
0.725490 0.258824 0.000000
0.764706 0.258824 0.000000
0.815686 0.262745 0.000000
0.862745 0.262745 0.000000
0.905882 0.258824 0.000000
0.952941 0.254902 0.003922
1.000000 0.250980 0.000000
0.000000 0.125490 0.019608
0.000000 0.125490 0.019608
0.000000 0.125490 0.019608
0.011765 0.121569 0.031373
0.027451 0.129412 0.023529
0.035294 0.129412 0.027451
0.062745 0.137255 0.019608
0.086275 0.137255 0.019608
0.113725 0.141176 0.019608
0.125490 0.156863 0.011765
0.192157 0.184314 0.000000
0.258824 0.211765 0.007843
0.333333 0.231373 0.007843
0.392157 0.254902 0.000000
0.462745 0.266667 0.000000
0.537255 0.274510 0.000000
0.600000 0.286275 0.000000
0.658824 0.294118 0.000000
0.713725 0.298039 0.000000
0.764706 0.305882 0.003922
0.811765 0.294118 0.000000
0.850980 0.301961 0.000000
0.905882 0.305882 0.000000
0.952941 0.298039 0.000000
0.996078 0.309804 0.000000
0.011765 0.160784 0.007843
0.000000 0.176471 0.015686
0.000000 0.172549 0.019608
0.000000 0.172549 0.003922
0.000000 0.172549 0.003922
0.015686 0.176471 0.011765
0.047059 0.176471 0.000000
0.090196 0.180392 0.015686
0.098039 0.184314 0.000000
0.149020 0.188235 0.000000
0.168627 0.196078 0.000000
0.239216 0.239216 0.000000
0.317647 0.266667 0.000000
0.396078 0.294118 0.003922
0.458824 0.305882 0.003922
0.517647 0.309804 0.000000
0.596078 0.329412 0.003922
0.650980 0.337255 0.000000
0.705882 0.337255 0.000000
0.764706 0.341176 0.000000
0.807843 0.345098 0.003922
0.858824 0.341176 0.007843
0.898039 0.341176 0.003922
0.937255 0.345098 0.000000
0.988235 0.337255 0.000000
0.000000 0.258824 0.000000
0.003922 0.258824 0.007843
0.000000 0.262745 0.000000
0.000000 0.262745 0.000000
0.003922 0.258824 0.000000
0.000000 0.262745 0.000000
0.007843 0.262745 0.000000
0.070588 0.262745 0.007843
0.121569 0.266667 0.000000
