tools/luts_backup/Newark.cube
#Generated with IWLTBAP LUT Generator
#Website: http://luts.iwltbap.com
TITLE "Newark"
#LUT size
LUT_3D_SIZE 9
#LUT data points
0.039216 0.039216 0.039216
0.039216 0.039216 0.039216
0.062745 0.039216 0.039216
0.125490 0.043137 0.039216
0.290196 0.023529 0.019608
0.505882 0.003922 0.000000
0.725490 0.003922 0.000000
0.878431 0.000000 0.000000
1.000000 0.003922 0.003922
0.043137 0.043137 0.043137
0.039216 0.043137 0.050980
0.066667 0.050980 0.039216
0.133333 0.058824 0.035294
0.294118 0.066667 0.011765
0.513725 0.086275 0.000000
0.705882 0.094118 0.000000
0.847059 0.074510 0.000000
0.996078 0.047059 0.000000
0.031373 0.074510 0.043137
0.023529 0.066667 0.035294
0.062745 0.078431 0.023529
0.141176 0.113725 0.011765
0.333333 0.156863 0.003922
0.541176 0.207843 0.000000
0.733333 0.227451 0.003922
0.886275 0.223529 0.000000
1.000000 0.219608 0.003922
0.003922 0.164706 0.000000
0.000000 0.176471 0.011765
0.043137 0.184314 0.000000
0.152941 0.192157 0.000000
0.329412 0.270588 0.000000
0.537255 0.333333 0.007843
0.709804 0.341176 0.000000
0.862745 0.349020 0.003922
1.000000 0.337255 0.003922
0.003922 0.384314 0.003922
0.000000 0.396078 0.000000
0.000000 0.396078 0.007843
0.141176 0.403922 0.000000
0.305882 0.419608 0.000000
0.529412 0.490196 0.007843
0.721569 0.517647 0.000000
0.874510 0.490196 0.000000
0.996078 0.498039 0.000000
0.000000 0.635294 0.003922
0.000000 0.631373 0.000000
0.000000 0.619608 0.000000
0.000000 0.615686 0.000000
0.282353 0.619608 0.000000
0.462745 0.619608 0.000000
0.662745 0.650980 0.000000
0.854902 0.674510 0.000000
1.000000 0.654902 0.000000
0.000000 0.741176 0.000000
0.000000 0.749020 0.000000
0.011765 0.741176 0.015686
0.007843 0.733333 0.000000
0.117647 0.741176 0.003922
0.392157 0.741176 0.000000
0.560784 0.733333 0.007843
0.733333 0.760784 0.000000
0.976471 0.819608 0.000000
0.011765 0.874510 0.003922
0.015686 0.890196 0.000000
0.000000 0.890196 0.000000
0.011765 0.882353 0.007843
0.000000 0.882353 0.000000
0.329412 0.882353 0.000000
0.517647 0.890196 0.011765
0.690196 0.890196 0.000000
0.847059 0.925490 0.003922
0.007843 1.000000 0.200000
0.000000 1.000000 0.254902
0.000000 1.000000 0.274510
0.003922 1.000000 0.301961
0.247059 0.996078 0.337255
0.415686 0.996078 0.313725
0.560784 0.996078 0.278431
0.694118 1.000000 0.223529
0.819608 1.000000 0.035294
0.043137 0.043137 0.050980
0.043137 0.043137 0.043137
0.074510 0.031373 0.047059
0.137255 0.023529 0.043137
0.294118 0.000000 0.035294
0.517647 0.000000 0.015686
0.721569 0.000000 0.000000
0.870588 0.000000 0.000000
0.996078 0.000000 0.000000
0.039216 0.039216 0.039216
0.047059 0.039216 0.043137
0.066667 0.043137 0.050980
0.149020 0.039216 0.035294
0.286275 0.031373 0.023529
0.501961 0.011765 0.003922
0.698039 0.000000 0.000000
0.854902 0.000000 0.000000
0.996078 0.000000 0.000000
0.027451 0.070588 0.039216
0.035294 0.082353 0.043137
0.066667 0.078431 0.050980
0.160784 0.098039 0.035294
0.329412 0.141176 0.000000
0.533333 0.168627 0.000000
0.717647 0.188235 0.003922
0.874510 0.180392 0.007843
1.000000 0.172549 0.000000
0.007843 0.164706 0.027451
0.000000 0.168627 0.027451
0.035294 0.180392 0.019608
0.137255 0.180392 0.011765
0.313725 0.258824 0.003922
0.525490 0.301961 0.000000
0.705882 0.329412 0.000000
0.850980 0.321569 0.000000
0.992157 0.321569 0.000000
0.000000 0.372549 0.000000
0.003922 0.384314 0.011765
0.007843 0.376471 0.000000
0.133333 0.392157 0.007843
0.309804 0.407843 0.000000
0.521569 0.482353 0.000000
0.717647 0.501961 0.003922
0.874510 0.470588 0.003922
0.996078 0.466667 0.003922
0.003922 0.603922 0.003922
0.003922 0.603922 0.003922
0.000000 0.603922 0.000000
0.000000 0.600000 0.000000
0.282353 0.600000 0.000000
0.450980 0.615686 0.000000
0.662745 0.643137 0.000000
0.847059 0.658824 0.000000
1.000000 0.639216 0.007843
0.000000 0.729412 0.003922
0.000000 0.741176 0.000000
0.003922 0.733333 0.007843
0.000000 0.729412 0.003922
0.094118 0.733333 0.000000
0.380392 0.733333 0.003922
0.560784 0.737255 0.003922
0.733333 0.760784 0.000000
0.968627 0.807843 0.000000
0.007843 0.878431 0.003922
0.000000 0.882353 0.003922
0.003922 0.886275 0.007843
0.000000 0.878431 0.000000
0.003922 0.878431 0.000000
0.333333 0.878431 0.000000
0.517647 0.878431 0.003922
0.690196 0.878431 0.000000
0.858824 0.913725 0.000000
0.000000 0.996078 0.219608
0.000000 1.000000 0.243137
0.000000 0.992157 0.270588
0.003922 0.996078 0.298039
0.231373 0.996078 0.345098
0.419608 0.996078 0.337255
0.556863 1.000000 0.301961
0.698039 0.996078 0.258824
0.819608 1.000000 0.129412
0.023529 0.039216 0.074510
0.039216 0.039216 0.078431
0.078431 0.031373 0.078431
0.149020 0.019608 0.094118
0.309804 0.000000 0.133333
0.533333 0.003922 0.133333
0.737255 0.000000 0.066667
0.886275 0.000000 0.007843
0.996078 0.000000 0.007843
0.015686 0.050980 0.070588
0.035294 0.035294 0.066667
0.086275 0.039216 0.086275
0.152941 0.023529 0.090196
0.305882 0.000000 0.094118
0.521569 0.000000 0.082353
0.717647 0.000000 0.027451
0.862745 0.000000 0.000000
1.000000 0.003922 0.011765
0.003922 0.082353 0.078431
0.019608 0.082353 0.082353
0.078431 0.086275 0.082353
0.176471 0.082353 0.082353
0.345098 0.070588 0.070588
0.560784 0.043137 0.027451
0.733333 0.007843 0.000000
0.882353 0.003922 0.003922
1.000000 0.003922 0.003922
0.000000 0.184314 0.082353
0.003922 0.184314 0.082353
0.007843 0.184314 0.062745
0.160784 0.188235 0.054902
0.341176 0.247059 0.000000
0.545098 0.270588 0.000000
0.729412 0.282353 0.007843
0.866667 0.274510 0.000000
1.000000 0.270588 0.000000
0.003922 0.384314 0.003922
0.000000 0.392157 0.007843
0.000000 0.392157 0.003922
0.094118 0.392157 0.000000
0.321569 0.411765 0.003922
0.556863 0.482353 0.007843
0.741176 0.470588 0.003922
0.878431 0.447059 0.000000
0.996078 0.443137 0.000000
0.003922 0.611765 0.007843
0.000000 0.615686 0.000000
0.000000 0.607843 0.003922
0.000000 0.603922 0.003922
0.274510 0.607843 0.000000
0.466667 0.611765 0.000000
0.682353 0.647059 0.000000
0.858824 0.643137 0.003922
1.000000 0.615686 0.000000
0.000000 0.729412 0.003922
0.000000 0.741176 0.003922
0.000000 0.741176 0.003922
0.003922 0.725490 0.000000
0.066667 0.725490 0.003922
0.396078 0.725490 0.003922
0.560784 0.737255 0.003922
0.752941 0.768627 0.000000
0.984314 0.807843 0.011765
0.000000 0.878431 0.000000
0.000000 0.882353 0.000000
0.007843 0.882353 0.000000
0.003922 0.882353 0.066667
0.003922 0.870588 0.113725
0.345098 0.874510 0.000000
0.533333 0.870588 0.000000
0.694118 0.882353 0.003922
0.866667 0.913725 0.003922
0.000000 1.000000 0.298039
0.000000 0.996078 0.305882
0.000000 1.000000 0.341176
0.003922 1.000000 0.368627
0.254902 0.996078 0.384314
0.443137 0.996078 0.392157
0.568627 1.000000 0.368627
0.709804 0.996078 0.333333
0.819608 1.000000 0.258824
0.000000 0.043137 0.200000
0.000000 0.035294 0.196078
0.113725 0.011765 0.196078
0.188235 0.000000 0.188235
0.333333 0.000000 0.235294
0.556863 0.000000 0.298039
0.749020 0.003922 0.294118
0.890196 0.000000 0.270588
0.996078 0.000000 0.203922
0.000000 0.070588 0.188235
0.000000 0.050980 0.188235
0.086275 0.027451 0.196078
0.188235 0.000000 0.184314
0.317647 0.003922 0.235294
0.549020 0.003922 0.270588
0.729412 0.000000 0.274510
0.890196 0.000000 0.235294
1.000000 0.000000 0.156863
0.000000 0.141176 0.203922
0.000000 0.133333 0.196078
0.000000 0.074510 0.203922
0.196078 0.047059 0.207843
0.376471 0.000000 0.250980
0.584314 0.000000 0.250980
0.760784 0.003922 0.219608
0.905882 0.000000 0.164706
0.996078 0.000000 0.129412
0.007843 0.211765 0.203922
0.000000 0.215686 0.203922
0.000000 0.211765 0.207843
0.192157 0.200000 0.188235
0.388235 0.188235 0.184314
0.584314 0.172549 0.160784
0.745098 0.160784 0.145098
0.894118 0.137255 0.117647
1.000000 0.109804 0.074510
0.003922 0.403922 0.247059
0.000000 0.419608 0.239216
0.003922 0.419608 0.231373
0.027451 0.419608 0.176471
0.341176 0.423529 0.160784
0.596078 0.454902 0.109804
0.760784 0.419608 0.109804
0.890196 0.400000 0.078431
0.996078 0.392157 0.007843
0.000000 0.627451 0.250980
0.000000 0.627451 0.243137
0.000000 0.619608 0.184314
0.000000 0.615686 0.172549
0.286275 0.611765 0.164706
0.494118 0.615686 0.109804
0.725490 0.654902 0.000000
0.878431 0.619608 0.003922
1.000000 0.580392 0.000000
0.000000 0.745098 0.168627
0.000000 0.745098 0.149020
0.003922 0.741176 0.156863
0.003922 0.737255 0.176471
0.156863 0.729412 0.192157
0.403922 0.733333 0.152941
0.588235 0.737255 0.066667
0.784314 0.776471 0.003922
0.984314 0.792157 0.003922
0.000000 0.882353 0.247059
0.003922 0.882353 0.262745
0.000000 0.890196 0.274510
0.000000 0.882353 0.298039
0.164706 0.878431 0.313725
0.400000 0.878431 0.309804
0.552941 0.870588 0.254902
0.709804 0.882353 0.203922
0.882353 0.917647 0.113725
0.000000 1.000000 0.407843
0.000000 1.000000 0.396078
0.000000 1.000000 0.407843
0.000000 1.000000 0.423529
0.278431 1.000000 0.454902
0.470588 1.000000 0.478431
0.592157 1.000000 0.454902
0.721569 0.992157 0.431373
0.839216 1.000000 0.380392
0.003922 0.039216 0.411765
0.000000 0.023529 0.411765
0.062745 0.003922 0.407843
0.258824 0.003922 0.403922
0.407843 0.000000 0.407843
0.560784 0.000000 0.439216
0.749020 0.000000 0.462745
0.894118 0.000000 0.443137
0.988235 0.003922 0.415686
0.000000 0.098039 0.388235
0.003922 0.039216 0.396078
0.000000 0.000000 0.403922
0.254902 0.000000 0.411765
0.400000 0.000000 0.400000
0.552941 0.000000 0.419608
0.737255 0.000000 0.443137
0.890196 0.000000 0.423529
1.000000 0.000000 0.400000
0.000000 0.203922 0.407843
0.003922 0.184314 0.415686
0.000000 0.078431 0.415686
0.211765 0.003922 0.427451
0.415686 0.000000 0.423529
0.584314 0.007843 0.427451
0.764706 0.003922 0.443137
0.905882 0.000000 0.407843
0.996078 0.000000 0.376471
0.007843 0.313725 0.403922
0.000000 0.313725 0.419608
0.000000 0.294118 0.419608
0.000000 0.180392 0.415686
0.407843 0.125490 0.415686
0.592157 0.086275 0.411765
0.760784 0.000000 0.396078
0.901961 0.000000 0.356863
0.996078 0.000000 0.345098
0.000000 0.443137 0.419608
0.003922 0.454902 0.435294
0.000000 0.450980 0.439216
0.003922 0.447059 0.431373
0.407843 0.415686 0.396078
0.603922 0.403922 0.400000
0.768627 0.392157 0.400000
0.898039 0.372549 0.368627
1.000000 0.364706 0.356863
0.000000 0.639216 0.443137
0.003922 0.635294 0.439216
0.000000 0.623529 0.435294
0.003922 0.623529 0.423529
0.364706 0.611765 0.427451
0.537255 0.611765 0.392157
0.745098 0.623529 0.360784
0.894118 0.580392 0.372549
0.996078 0.584314 0.360784
0.003922 0.745098 0.415686
0.000000 0.749020 0.423529
0.000000 0.749020 0.447059
0.007843 0.745098 0.415686
0.274510 0.741176 0.419608
0.470588 0.737255 0.411765
0.623529 0.737255 0.384314
0.843137 0.784314 0.333333
0.996078 0.760784 0.329412
0.003922 0.874510 0.486275
0.003922 0.882353 0.501961
0.007843 0.882353 0.466667
0.000000 0.878431 0.462745
0.278431 0.878431 0.462745
0.474510 0.874510 0.482353
0.603922 0.874510 0.454902
0.745098 0.882353 0.419608
0.925490 0.929412 0.396078
0.000000 1.000000 0.505882
0.000000 1.000000 0.505882
0.007843 1.000000 0.501961
0.000000 1.000000 0.509804
0.286275 1.000000 0.533333
0.486275 1.000000 0.545098
0.615686 1.000000 0.549020
0.733333 1.000000 0.533333
0.854902 1.000000 0.486275
0.000000 0.043137 0.600000
0.003922 0.007843 0.607843
0.000000 0.000000 0.596078
0.231373 0.000000 0.596078
0.443137 0.000000 0.603922
0.603922 0.000000 0.607843
0.741176 0.000000 0.596078
0.878431 0.003922 0.603922
1.000000 0.003922 0.592157
0.000000 0.117647 0.572549
0.000000 0.043137 0.584314
0.007843 0.000000 0.596078
0.196078 0.003922 0.596078
0.415686 0.000000 0.588235
0.580392 0.003922 0.592157
0.733333 0.000000 0.600000
0.866667 0.007843 0.580392
1.000000 0.000000 0.572549
0.000000 0.231373 0.600000
0.003922 0.188235 0.596078
0.000000 0.070588 0.603922
0.050980 0.000000 0.596078
0.407843 0.003922 0.607843
0.592157 0.000000 0.600000
0.756863 0.000000 0.592157
0.894118 0.000000 0.584314
0.992157 0.000000 0.560784
0.000000 0.352941 0.588235
0.000000 0.352941 0.596078
0.000000 0.305882 0.588235
0.003922 0.160784 0.603922
0.345098 0.090196 0.600000
0.588235 0.000000 0.603922
0.756863 0.003922 0.584314
0.894118 0.003922 0.556863
1.000000 0.000000 0.541176
0.007843 0.490196 0.611765
0.000000 0.490196 0.600000
0.007843 0.482353 0.603922
0.000000 0.454902 0.603922
0.270588 0.372549 0.603922
0.592157 0.349020 0.603922
0.756863 0.360784 0.580392
0.894118 0.368627 0.568627
1.000000 0.356863 0.552941
0.003922 0.647059 0.619608
0.000000 0.639216 0.611765
0.000000 0.639216 0.611765
0.011765 0.623529 0.607843
0.352941 0.623529 0.611765
0.592157 0.584314 0.588235
0.745098 0.588235 0.588235
0.878431 0.584314 0.572549
0.988235 0.572549 0.580392
0.000000 0.760784 0.564706
0.000000 0.749020 0.572549
0.003922 0.752941 0.580392
0.000000 0.749020 0.564706
0.368627 0.737255 0.592157
0.541176 0.725490 0.584314
0.666667 0.725490 0.564706
0.870588 0.745098 0.552941
1.000000 0.733333 0.556863
0.000000 0.874510 0.588235
0.003922 0.882353 0.603922
0.000000 0.878431 0.603922
0.141176 0.874510 0.607843
0.372549 0.870588 0.592157
0.513725 0.870588 0.596078
0.647059 0.870588 0.600000
0.776471 0.882353 0.580392
0.972549 0.933333 0.552941
0.003922 1.000000 0.643137
0.000000 1.000000 0.643137
0.000000 1.000000 0.639216
0.086275 1.000000 0.623529
0.258824 1.000000 0.607843
0.490196 0.996078 0.631373
0.647059 1.000000 0.647059
0.760784 1.000000 0.627451
0.874510 1.000000 0.603922
0.000000 0.043137 0.749020
0.011765 0.007843 0.752941
0.000000 0.000000 0.737255
0.031373 0.000000 0.745098
0.380392 0.003922 0.741176
0.572549 0.003922 0.745098
0.729412 0.000000 0.741176
0.874510 0.000000 0.733333
1.000000 0.000000 0.745098
0.000000 0.129412 0.733333
0.000000 0.050980 0.737255
0.000000 0.000000 0.737255
0.000000 0.000000 0.741176
0.356863 0.003922 0.733333
0.568627 0.003922 0.733333
0.725490 0.000000 0.737255
0.874510 0.003922 0.725490
0.996078 0.000000 0.729412
0.000000 0.227451 0.737255
0.007843 0.200000 0.745098
0.003922 0.066667 0.745098
0.000000 0.000000 0.729412
0.325490 0.003922 0.741176
0.552941 0.003922 0.737255
0.729412 0.000000 0.741176
0.890196 0.003922 0.741176
0.996078 0.000000 0.729412
0.000000 0.372549 0.725490
0.003922 0.349020 0.729412
0.015686 0.294118 0.741176
0.000000 0.152941 0.741176
0.203922 0.074510 0.737255
0.525490 0.000000 0.745098
0.733333 0.003922 0.745098
0.894118 0.000000 0.729412
1.000000 0.000000 0.713725
0.003922 0.517647 0.729412
0.000000 0.521569 0.737255
0.000000 0.498039 0.745098
0.000000 0.458824 0.749020
0.000000 0.345098 0.745098
0.498039 0.329412 0.749020
0.733333 0.309804 0.745098
0.898039 0.321569 0.741176
1.000000 0.325490 0.717647
0.000000 0.639216 0.745098
0.000000 0.639216 0.749020
0.007843 0.639216 0.749020
0.000000 0.631373 0.729412
0.243137 0.627451 0.741176
0.501961 0.568627 0.749020
0.749020 0.556863 0.741176
0.878431 0.560784 0.729412
0.992157 0.556863 0.725490
0.000000 0.764706 0.733333
0.000000 0.760784 0.721569
0.000000 0.756863 0.725490
0.000000 0.760784 0.725490
0.301961 0.745098 0.729412
0.545098 0.741176 0.729412
0.709804 0.725490 0.721569
0.874510 0.717647 0.717647
1.000000 0.717647 0.721569
0.003922 0.874510 0.721569
0.000000 0.886275 0.717647
0.011765 0.878431 0.717647
0.000000 0.886275 0.717647
0.333333 0.882353 0.729412
0.560784 0.878431 0.749020
0.690196 0.870588 0.725490
0.819608 0.878431 0.725490
1.000000 0.905882 0.713725
0.000000 1.000000 0.733333
0.000000 1.000000 0.745098
0.000000 1.000000 0.741176
0.000000 1.000000 0.745098
0.341176 1.000000 0.756863
0.533333 1.000000 0.749020
0.658824 0.996078 0.741176
0.792157 0.996078 0.737255
0.901961 1.000000 0.733333
0.003922 0.047059 0.886275
0.003922 0.000000 0.878431
0.000000 0.003922 0.878431
0.000000 0.000000 0.858824
0.278431 0.003922 0.870588
0.529412 0.000000 0.874510
0.709804 0.003922 0.878431
0.878431 0.000000 0.878431
1.000000 0.000000 0.870588
0.000000 0.133333 0.862745
0.000000 0.054902 0.878431
0.000000 0.000000 0.874510
0.000000 0.000000 0.874510
0.254902 0.000000 0.878431
0.517647 0.000000 0.874510
0.705882 0.007843 0.870588
0.874510 0.000000 0.870588
0.996078 0.000000 0.882353
0.003922 0.239216 0.862745
0.000000 0.219608 0.882353
0.000000 0.082353 0.878431
0.003922 0.000000 0.878431
0.156863 0.000000 0.890196
0.486275 0.007843 0.882353
0.701961 0.000000 0.878431
0.870588 0.000000 0.874510
1.000000 0.003922 0.882353
0.003922 0.360784 0.870588
0.000000 0.341176 0.886275
0.003922 0.294118 0.870588
0.000000 0.156863 0.878431
0.000000 0.070588 0.886275
0.427451 0.003922 0.878431
0.682353 0.000000 0.866667
0.862745 0.000000 0.878431
1.000000 0.000000 0.878431
0.000000 0.525490 0.874510
0.000000 0.521569 0.870588
0.000000 0.498039 0.878431
0.007843 0.439216 0.874510
0.000000 0.329412 0.890196
0.384314 0.305882 0.890196
0.662745 0.286275 0.878431
0.870588 0.258824 0.890196
0.992157 0.266667 0.874510
0.000000 0.670588 0.874510
0.000000 0.666667 0.870588
0.000000 0.666667 0.878431
0.000000 0.650980 0.886275
0.082353 0.631373 0.874510
0.388235 0.552941 0.890196
0.686275 0.533333 0.882353
0.878431 0.529412 0.882353
0.996078 0.533333 0.878431
0.000000 0.788235 0.866667
0.003922 0.784314 0.874510
0.000000 0.784314 0.878431
0.000000 0.780392 0.878431
0.098039 0.768627 0.870588
0.466667 0.764706 0.866667
0.658824 0.709804 0.874510
0.878431 0.701961 0.870588
1.000000 0.705882 0.866667
0.007843 0.909804 0.870588
0.000000 0.909804 0.874510
0.000000 0.909804 0.858824
0.000000 0.905882 0.874510
0.196078 0.901961 0.866667
0.490196 0.894118 0.878431
0.690196 0.886275 0.874510
0.874510 0.874510 0.874510
0.992157 0.878431 0.862745
0.000000 0.996078 0.878431
0.000000 1.000000 0.866667
0.007843 1.000000 0.878431
0.000000 1.000000 0.882353
0.090196 0.996078 0.870588
0.482353 0.996078 0.874510
0.686275 1.000000 0.874510
0.847059 1.000000 0.886275
0.949020 1.000000 0.874510
0.003922 0.050980 1.000000
0.003922 0.000000 0.996078
0.000000 0.000000 0.996078
0.000000 0.000000 0.992157
0.000000 0.003922 0.996078
0.447059 0.003922 1.000000
0.666667 0.000000 1.000000
0.862745 0.000000 1.000000
0.996078 0.000000 0.996078
0.000000 0.133333 0.992157
0.000000 0.062745 0.996078
0.000000 0.000000 0.996078
0.000000 0.000000 0.996078
0.007843 0.003922 1.000000
0.431373 0.000000 1.000000
0.666667 0.000000 1.000000
0.854902 0.003922 1.000000
1.000000 0.000000 1.000000
0.003922 0.239216 1.000000
0.000000 0.211765 0.992157
0.003922 0.082353 1.000000
0.007843 0.003922 1.000000
0.000000 0.000000 0.988235
0.396078 0.000000 0.996078
0.647059 0.000000 1.000000
0.854902 0.003922 0.996078
0.988235 0.003922 0.988235
0.003922 0.368627 1.000000
0.000000 0.352941 1.000000
0.003922 0.298039 1.000000
0.000000 0.160784 0.996078
0.000000 0.050980 0.988235
0.301961 0.000000 0.996078
0.623529 0.000000 1.000000
0.843137 0.000000 0.996078
1.000000 0.000000 1.000000
0.000000 0.545098 0.996078
0.003922 0.525490 0.992157
0.007843 0.494118 1.000000
0.003922 0.439216 1.000000
0.000000 0.301961 1.000000
0.164706 0.274510 1.000000
0.580392 0.239216 0.992157
0.843137 0.203922 1.000000
0.996078 0.200000 1.000000
0.000000 0.694118 0.992157
0.000000 0.694118 1.000000
0.000000 0.682353 1.000000
0.000000 0.670588 1.000000
0.003922 0.627451 0.988235
0.101961 0.529412 0.996078
0.584314 0.509804 1.000000
0.843137 0.505882 1.000000
1.000000 0.498039 1.000000
0.007843 0.827451 0.996078
0.000000 0.823529 1.000000
0.007843 0.823529 1.000000
0.007843 0.815686 1.000000
0.000000 0.807843 1.000000
0.360784 0.780392 1.000000
0.556863 0.698039 0.988235
0.827451 0.678431 1.000000
1.000000 0.662745 1.000000
0.000000 0.941176 0.988235
0.007843 0.937255 1.000000
0.000000 0.937255 1.000000
0.003922 0.929412 1.000000
0.007843 0.929412 0.996078
0.384314 0.921569 0.996078
0.627451 0.905882 0.992157
0.811765 0.862745 0.996078
1.000000 0.850980 0.996078
0.003922 1.000000 1.000000
0.000000 0.996078 0.996078
0.000000 1.000000 0.996078
0.003922 1.000000 1.000000
0.003922 1.000000 1.000000
0.458824 1.000000 1.000000
0.682353 1.000000 1.000000
0.882353 1.000000 1.000000
1.000000 0.996078 0.992157
