tools/luts_backup/Phoenix.cube
#Generated with IWLTBAP LUT Generator
#Website: http://luts.iwltbap.com
TITLE "Phoenix"
#LUT size
LUT_3D_SIZE 25
#LUT data points
0.000000 0.070588 0.027451
0.003922 0.066667 0.023529
0.007843 0.070588 0.027451
0.000000 0.070588 0.023529
0.000000 0.078431 0.031373
0.000000 0.074510 0.031373
0.047059 0.078431 0.027451
0.113725 0.078431 0.019608
0.188235 0.074510 0.019608
0.282353 0.062745 0.011765
0.376471 0.035294 0.007843
0.466667 0.000000 0.003922
0.556863 0.000000 0.003922
0.639216 0.000000 0.000000
0.705882 0.000000 0.003922
0.760784 0.000000 0.003922
0.807843 0.094118 0.000000
0.870588 0.168627 0.000000
0.913725 0.250980 0.000000
0.972549 0.329412 0.000000
1.000000 0.396078 0.003922
0.996078 0.447059 0.000000
1.000000 0.490196 0.003922
0.992157 0.529412 0.003922
1.000000 0.556863 0.003922
0.000000 0.066667 0.027451
0.000000 0.066667 0.027451
0.003922 0.070588 0.031373
0.000000 0.074510 0.027451
0.003922 0.074510 0.027451
0.000000 0.078431 0.027451
0.047059 0.090196 0.035294
0.113725 0.078431 0.019608
0.188235 0.078431 0.023529
0.278431 0.070588 0.015686
0.372549 0.043137 0.003922
0.458824 0.007843 0.000000
0.556863 0.000000 0.003922
0.639216 0.000000 0.003922
0.698039 0.000000 0.000000
0.756863 0.035294 0.000000
0.811765 0.105882 0.000000
0.862745 0.188235 0.000000
0.917647 0.262745 0.000000
0.968627 0.341176 0.000000
1.000000 0.400000 0.000000
1.000000 0.454902 0.000000
1.000000 0.498039 0.000000
0.992157 0.529412 0.000000
1.000000 0.556863 0.003922
0.000000 0.070588 0.027451
0.000000 0.070588 0.023529
0.007843 0.070588 0.031373
0.007843 0.078431 0.031373
0.000000 0.074510 0.027451
0.000000 0.086275 0.031373
0.054902 0.078431 0.023529
0.117647 0.090196 0.019608
0.200000 0.086275 0.015686
0.282353 0.074510 0.011765
0.376471 0.054902 0.007843
0.466667 0.023529 0.000000
0.560784 0.000000 0.000000
0.635294 0.000000 0.015686
0.690196 0.011765 0.000000
0.756863 0.062745 0.000000
0.811765 0.129412 0.000000
0.862745 0.196078 0.003922
0.909804 0.270588 0.000000
0.952941 0.341176 0.000000
0.992157 0.407843 0.003922
1.000000 0.458824 0.000000
1.000000 0.501961 0.000000
1.000000 0.537255 0.003922
1.000000 0.560784 0.000000
0.003922 0.074510 0.027451
0.003922 0.070588 0.031373
0.003922 0.074510 0.027451
0.003922 0.070588 0.031373
0.000000 0.074510 0.027451
0.003922 0.086275 0.027451
0.066667 0.094118 0.023529
0.137255 0.094118 0.023529
0.203922 0.094118 0.007843
0.290196 0.086275 0.003922
0.384314 0.078431 0.000000
0.474510 0.050980 0.003922
0.556863 0.035294 0.007843
0.631373 0.031373 0.000000
0.698039 0.066667 0.000000
0.752941 0.109804 0.000000
0.807843 0.156863 0.000000
0.850980 0.223529 0.000000
0.901961 0.290196 0.000000
0.960784 0.352941 0.000000
1.000000 0.411765 0.007843
1.000000 0.466667 0.003922
0.996078 0.505882 0.000000
0.996078 0.533333 0.000000
1.000000 0.560784 0.011765
0.000000 0.074510 0.015686
0.007843 0.078431 0.031373
0.003922 0.070588 0.031373
0.000000 0.086275 0.023529
0.011765 0.082353 0.027451
0.019608 0.094118 0.015686
0.082353 0.101961 0.011765
0.152941 0.105882 0.011765
0.227451 0.109804 0.015686
0.305882 0.101961 0.007843
0.392157 0.094118 0.000000
0.474510 0.086275 0.000000
0.564706 0.086275 0.000000
0.631373 0.098039 0.011765
0.694118 0.113725 0.003922
0.752941 0.149020 0.000000
0.803922 0.192157 0.000000
0.847059 0.243137 0.000000
0.898039 0.301961 0.007843
0.956863 0.368627 0.000000
1.000000 0.427451 0.000000
1.000000 0.470588 0.000000
1.000000 0.509804 0.003922
0.992157 0.549020 0.000000
0.996078 0.568627 0.000000
0.003922 0.082353 0.035294
0.000000 0.086275 0.031373
0.003922 0.090196 0.039216
0.011765 0.094118 0.035294
0.000000 0.098039 0.023529
0.015686 0.109804 0.023529
0.101961 0.125490 0.015686
0.188235 0.137255 0.003922
0.266667 0.137255 0.015686
0.337255 0.129412 0.000000
0.431373 0.129412 0.011765
0.521569 0.137255 0.000000
0.584314 0.145098 0.000000
0.662745 0.164706 0.000000
0.713725 0.184314 0.000000
0.776471 0.215686 0.000000
0.827451 0.247059 0.000000
0.874510 0.301961 0.000000
0.917647 0.356863 0.000000
0.968627 0.415686 0.003922
1.000000 0.466667 0.000000
1.000000 0.505882 0.000000
1.000000 0.545098 0.000000
0.996078 0.572549 0.000000
1.000000 0.584314 0.007843
0.000000 0.101961 0.027451
0.003922 0.098039 0.035294
0.000000 0.101961 0.035294
0.007843 0.098039 0.035294
0.003922 0.117647 0.031373
0.011765 0.129412 0.019608
0.090196 0.133333 0.015686
0.200000 0.172549 0.000000
0.270588 0.176471 0.003922
0.364706 0.180392 0.007843
0.450980 0.192157 0.003922
0.525490 0.188235 0.000000
0.600000 0.188235 0.000000
0.658824 0.207843 0.000000
0.717647 0.227451 0.007843
0.776471 0.254902 0.000000
0.815686 0.294118 0.000000
0.870588 0.337255 0.000000
0.921569 0.388235 0.000000
0.968627 0.443137 0.000000
0.996078 0.494118 0.000000
1.000000 0.529412 0.000000
0.996078 0.556863 0.000000
1.000000 0.580392 0.003922
0.996078 0.600000 0.003922
0.007843 0.113725 0.039216
0.000000 0.117647 0.047059
0.003922 0.117647 0.031373
0.000000 0.133333 0.035294
0.011765 0.141176 0.019608
0.000000 0.145098 0.015686
0.074510 0.172549 0.007843
0.180392 0.196078 0.000000
0.309804 0.235294 0.003922
0.392157 0.243137 0.000000
0.466667 0.250980 0.000000
0.529412 0.250980 0.000000
0.596078 0.266667 0.000000
0.654902 0.270588 0.000000
0.721569 0.278431 0.003922
0.764706 0.305882 0.000000
0.811765 0.341176 0.003922
0.862745 0.372549 0.007843
0.917647 0.419608 0.000000
0.964706 0.470588 0.000000
1.000000 0.509804 0.003922
1.000000 0.545098 0.000000
1.000000 0.568627 0.003922
1.000000 0.596078 0.003922
1.000000 0.611765 0.003922
0.000000 0.149020 0.043137
0.000000 0.149020 0.043137
0.000000 0.156863 0.039216
0.003922 0.160784 0.023529
0.000000 0.176471 0.031373
0.000000 0.192157 0.007843
0.070588 0.203922 0.007843
0.172549 0.231373 0.007843
0.274510 0.254902 0.003922
0.400000 0.309804 0.000000
0.474510 0.313725 0.000000
0.549020 0.329412 0.003922
0.603922 0.329412 0.000000
0.666667 0.337255 0.000000
0.721569 0.345098 0.007843
0.772549 0.360784 0.003922
0.819608 0.380392 0.000000
0.862745 0.411765 0.000000
0.909804 0.450980 0.003922
0.968627 0.490196 0.000000
0.996078 0.533333 0.000000
1.000000 0.560784 0.000000
0.996078 0.592157 0.000000
0.996078 0.615686 0.000000
1.000000 0.623529 0.000000
0.000000 0.192157 0.047059
0.007843 0.188235 0.047059
0.003922 0.188235 0.047059
0.000000 0.207843 0.043137
0.000000 0.211765 0.035294
0.000000 0.231373 0.019608
0.054902 0.247059 0.000000
0.156863 0.278431 0.003922
0.247059 0.301961 0.000000
0.352941 0.337255 0.000000
0.482353 0.392157 0.015686
0.560784 0.396078 0.000000
0.615686 0.400000 0.000000
0.670588 0.407843 0.000000
0.717647 0.407843 0.000000
0.768627 0.423529 0.000000
0.811765 0.435294 0.003922
0.850980 0.454902 0.000000
0.901961 0.490196 0.000000
0.960784 0.525490 0.003922
1.000000 0.556863 0.003922
1.000000 0.584314 0.003922
1.000000 0.607843 0.003922
1.000000 0.631373 0.003922
1.000000 0.643137 0.003922
0.003922 0.250980 0.066667
0.003922 0.250980 0.074510
0.000000 0.258824 0.066667
0.000000 0.270588 0.058824
0.003922 0.282353 0.047059
0.000000 0.298039 0.015686
0.050980 0.321569 0.000000
0.145098 0.352941 0.000000
0.247059 0.368627 0.000000
0.349020 0.396078 0.003922
0.454902 0.431373 0.000000
0.580392 0.478431 0.000000
0.643137 0.486275 0.000000
0.694118 0.482353 0.003922
0.741176 0.486275 0.015686
0.788235 0.501961 0.000000
0.823529 0.513725 0.007843
0.878431 0.533333 0.000000
0.929412 0.556863 0.000000
0.976471 0.576471 0.007843
1.000000 0.596078 0.003922
1.000000 0.619608 0.003922
1.000000 0.643137 0.003922
1.000000 0.658824 0.000000
0.992157 0.678431 0.000000
0.003922 0.298039 0.078431
0.003922 0.305882 0.086275
0.000000 0.301961 0.082353
0.000000 0.321569 0.078431
0.000000 0.329412 0.062745
0.003922 0.345098 0.035294
0.043137 0.368627 0.007843
0.141176 0.384314 0.000000
0.235294 0.415686 0.000000
0.329412 0.439216 0.000000
0.419608 0.462745 0.000000
0.525490 0.494118 0.003922
0.635294 0.533333 0.000000
0.694118 0.541176 0.000000
0.733333 0.549020 0.000000
0.784314 0.552941 0.003922
0.831373 0.572549 0.000000
0.878431 0.584314 0.000000
0.925490 0.600000 0.000000
0.976471 0.623529 0.000000
1.000000 0.639216 0.000000
1.000000 0.647059 0.000000
0.992157 0.670588 0.003922
0.996078 0.674510 0.000000
1.000000 0.690196 0.003922
0.003922 0.356863 0.082353
0.000000 0.368627 0.090196
0.007843 0.364706 0.094118
0.000000 0.368627 0.109804
0.000000 0.384314 0.078431
0.011765 0.392157 0.074510
0.039216 0.407843 0.031373
0.137255 0.435294 0.007843
0.227451 0.450980 0.000000
0.313725 0.474510 0.011765
0.407843 0.494118 0.000000
0.498039 0.521569 0.003922
0.584314 0.537255 0.003922
0.686275 0.580392 0.000000
0.737255 0.592157 0.003922
0.792157 0.600000 0.000000
0.843137 0.611765 0.000000
0.890196 0.631373 0.007843
0.937255 0.650980 0.000000
0.972549 0.666667 0.000000
0.996078 0.674510 0.007843
0.996078 0.682353 0.003922
0.996078 0.694118 0.003922
0.996078 0.698039 0.000000
1.000000 0.709804 0.000000
0.000000 0.403922 0.109804
0.003922 0.419608 0.129412
0.000000 0.415686 0.133333
0.003922 0.431373 0.121569
0.000000 0.435294 0.133333
0.000000 0.439216 0.101961
0.070588 0.458824 0.094118
0.149020 0.474510 0.050980
0.223529 0.494118 0.000000
0.313725 0.513725 0.000000
0.396078 0.529412 0.000000
0.478431 0.545098 0.003922
0.560784 0.568627 0.000000
0.650980 0.592157 0.000000
0.737255 0.627451 0.000000
0.796078 0.650980 0.000000
0.847059 0.658824 0.000000
0.890196 0.666667 0.011765
0.933333 0.686275 0.000000
0.984314 0.698039 0.000000
1.000000 0.705882 0.003922
1.000000 0.717647 0.000000
1.000000 0.725490 0.003922
1.000000 0.721569 0.000000
0.996078 0.729412 0.003922
0.000000 0.462745 0.149020
0.000000 0.466667 0.156863
0.000000 0.466667 0.152941
0.003922 0.466667 0.160784
0.003922 0.482353 0.149020
0.039216 0.486275 0.145098
0.109804 0.498039 0.133333
0.184314 0.517647 0.109804
0.250980 0.529412 0.058824
0.321569 0.541176 0.011765
0.400000 0.564706 0.000000
0.486275 0.580392 0.000000
0.560784 0.592157 0.011765
0.631373 0.611765 0.007843
0.705882 0.635294 0.000000
0.788235 0.682353 0.000000
0.854902 0.701961 0.000000
0.901961 0.709804 0.000000
0.937255 0.717647 0.000000
0.980392 0.729412 0.000000
0.996078 0.741176 0.011765
1.000000 0.745098 0.007843
1.000000 0.745098 0.000000
1.000000 0.752941 0.000000
1.000000 0.752941 0.000000
0.000000 0.537255 0.203922
0.003922 0.545098 0.211765
0.039216 0.545098 0.219608
0.101961 0.545098 0.223529
0.145098 0.545098 0.215686
0.168627 0.556863 0.203922
0.211765 0.560784 0.192157
0.270588 0.568627 0.184314
0.309804 0.592157 0.160784
0.372549 0.600000 0.125490
0.439216 0.607843 0.086275
0.513725 0.631373 0.011765
0.576471 0.643137 0.000000
0.654902 0.662745 0.000000
0.721569 0.678431 0.011765
0.784314 0.709804 0.000000
0.878431 0.749020 0.000000
0.921569 0.764706 0.000000
0.964706 0.772549 0.000000
1.000000 0.780392 0.007843
1.000000 0.780392 0.000000
0.992157 0.784314 0.000000
1.000000 0.780392 0.000000
1.000000 0.780392 0.000000
0.992157 0.780392 0.007843
0.062745 0.572549 0.235294
0.094118 0.572549 0.239216
0.133333 0.580392 0.247059
0.172549 0.576471 0.250980
0.211765 0.584314 0.262745
0.239216 0.592157 0.250980
0.274510 0.592157 0.231373
0.313725 0.611765 0.227451
0.360784 0.615686 0.215686
0.407843 0.627451 0.192157
0.466667 0.647059 0.168627
0.525490 0.658824 0.117647
0.596078 0.674510 0.058824
0.658824 0.690196 0.007843
0.721569 0.721569 0.000000
0.780392 0.737255 0.000000
0.835294 0.756863 0.000000
0.921569 0.780392 0.000000
0.984314 0.800000 0.007843
1.000000 0.803922 0.000000
1.000000 0.811765 0.003922
0.996078 0.815686 0.003922
1.000000 0.811765 0.000000
1.000000 0.807843 0.003922
0.992157 0.803922 0.000000
0.184314 0.615686 0.278431
0.207843 0.615686 0.282353
0.223529 0.611765 0.290196
0.258824 0.615686 0.301961
0.278431 0.623529 0.294118
0.301961 0.631373 0.294118
0.329412 0.639216 0.278431
0.368627 0.639216 0.274510
0.403922 0.654902 0.274510
0.435294 0.666667 0.250980
0.494118 0.686275 0.227451
0.552941 0.694118 0.207843
0.607843 0.713725 0.168627
0.670588 0.729412 0.121569
0.733333 0.760784 0.007843
0.784314 0.768627 0.000000
0.835294 0.784314 0.000000
0.901961 0.803922 0.000000
0.964706 0.823529 0.000000
1.000000 0.839216 0.007843
1.000000 0.835294 0.000000
0.984314 0.843137 0.000000
1.000000 0.827451 0.000000
1.000000 0.831373 0.011765
1.000000 0.827451 0.000000
0.274510 0.662745 0.337255
0.278431 0.650980 0.329412
0.298039 0.666667 0.329412
0.333333 0.662745 0.329412
0.337255 0.670588 0.337255
0.364706 0.670588 0.333333
0.392157 0.678431 0.329412
0.419608 0.690196 0.333333
0.450980 0.701961 0.321569
0.494118 0.713725 0.294118
0.533333 0.721569 0.282353
0.584314 0.737255 0.270588
0.631373 0.752941 0.247059
0.682353 0.768627 0.200000
0.749020 0.792157 0.188235
0.796078 0.800000 0.098039
0.843137 0.815686 0.015686
0.890196 0.831373 0.000000
0.937255 0.839216 0.000000
0.992157 0.858824 0.000000
1.000000 0.866667 0.000000
0.996078 0.862745 0.000000
1.000000 0.854902 0.003922
1.000000 0.858824 0.003922
1.000000 0.850980 0.007843
0.341176 0.709804 0.364706
0.356863 0.709804 0.368627
0.368627 0.713725 0.372549
0.388235 0.709804 0.376471
0.407843 0.721569 0.388235
0.423529 0.721569 0.376471
0.458824 0.729412 0.380392
0.478431 0.741176 0.376471
0.498039 0.752941 0.360784
0.541176 0.756863 0.349020
0.580392 0.776471 0.341176
0.607843 0.780392 0.329412
0.654902 0.796078 0.301961
0.701961 0.807843 0.294118
0.749020 0.815686 0.262745
0.796078 0.831373 0.223529
0.847059 0.835294 0.196078
0.890196 0.847059 0.109804
0.937255 0.862745 0.011765
0.980392 0.870588 0.000000
0.996078 0.882353 0.000000
1.000000 0.886275 0.000000
1.000000 0.886275 0.000000
0.996078 0.882353 0.003922
1.000000 0.874510 0.003922
0.447059 0.796078 0.427451
0.462745 0.796078 0.439216
0.466667 0.792157 0.439216
0.482353 0.800000 0.439216
0.498039 0.796078 0.439216
0.513725 0.800000 0.450980
0.533333 0.803922 0.447059
0.552941 0.807843 0.439216
0.572549 0.815686 0.427451
0.600000 0.811765 0.427451
0.627451 0.835294 0.419608
0.654902 0.835294 0.407843
0.694118 0.847059 0.388235
0.745098 0.854902 0.388235
0.776471 0.858824 0.360784
0.815686 0.870588 0.341176
0.847059 0.878431 0.301961
0.901961 0.890196 0.290196
0.937255 0.894118 0.239216
0.976471 0.890196 0.168627
0.996078 0.901961 0.070588
1.000000 0.909804 0.015686
1.000000 0.905882 0.000000
0.996078 0.909804 0.000000
0.996078 0.890196 0.000000
0.498039 0.839216 0.470588
0.501961 0.843137 0.470588
0.517647 0.835294 0.470588
0.529412 0.847059 0.482353
0.549020 0.839216 0.490196
0.549020 0.839216 0.498039
0.576471 0.847059 0.498039
0.580392 0.850980 0.494118
0.615686 0.854902 0.490196
0.639216 0.862745 0.482353
0.658824 0.874510 0.474510
0.686275 0.878431 0.466667
0.717647 0.878431 0.462745
0.752941 0.886275 0.443137
0.792157 0.890196 0.427451
0.823529 0.901961 0.419608
0.858824 0.901961 0.392157
0.894118 0.909804 0.372549
0.925490 0.913725 0.352941
0.956863 0.921569 0.321569
0.992157 0.925490 0.274510
1.000000 0.925490 0.215686
1.000000 0.921569 0.156863
1.000000 0.917647 0.035294
0.992157 0.917647 0.129412
0.560784 0.878431 0.517647
0.560784 0.894118 0.529412
0.580392 0.894118 0.521569
0.588235 0.882353 0.549020
0.596078 0.886275 0.545098
0.615686 0.890196 0.545098
0.619608 0.894118 0.549020
0.639216 0.890196 0.560784
0.658824 0.894118 0.549020
0.678431 0.901961 0.533333
0.694118 0.905882 0.529412
0.721569 0.905882 0.537255
0.745098 0.909804 0.525490
0.764706 0.917647 0.501961
0.792157 0.917647 0.498039
0.835294 0.921569 0.494118
0.866667 0.921569 0.478431
0.890196 0.925490 0.466667
0.925490 0.933333 0.443137
0.960784 0.933333 0.415686
0.992157 0.929412 0.384314
1.000000 0.937255 0.360784
0.992157 0.929412 0.313725
0.992157 0.941176 0.254902
0.996078 0.941176 0.219608
0.639216 0.909804 0.584314
0.650980 0.921569 0.596078
0.658824 0.921569 0.607843
0.654902 0.925490 0.611765
0.678431 0.917647 0.611765
0.682353 0.917647 0.627451
0.694118 0.917647 0.615686
0.709804 0.921569 0.627451
0.721569 0.925490 0.635294
0.737255 0.929412 0.619608
0.745098 0.929412 0.615686
0.760784 0.929412 0.615686
0.784314 0.933333 0.600000
0.796078 0.937255 0.584314
0.823529 0.933333 0.592157
0.843137 0.937255 0.568627
0.870588 0.941176 0.549020
0.894118 0.941176 0.541176
0.921569 0.945098 0.529412
0.956863 0.945098 0.501961
0.972549 0.945098 0.486275
0.988235 0.945098 0.450980
0.996078 0.949020 0.415686
0.992157 0.945098 0.372549
1.000000 0.945098 0.337255
0.749020 0.941176 0.686275
0.760784 0.941176 0.686275
0.760784 0.941176 0.698039
0.764706 0.945098 0.694118
0.780392 0.941176 0.705882
0.784314 0.941176 0.705882
0.803922 0.933333 0.709804
0.807843 0.937255 0.713725
0.807843 0.937255 0.713725
0.819608 0.941176 0.709804
0.823529 0.945098 0.709804
0.843137 0.945098 0.705882
0.835294 0.949020 0.686275
0.862745 0.945098 0.690196
0.870588 0.949020 0.678431
0.882353 0.949020 0.670588
0.890196 0.952941 0.658824
0.913725 0.956863 0.647059
0.933333 0.952941 0.623529
0.964706 0.956863 0.615686
0.992157 0.956863 0.584314
0.996078 0.960784 0.556863
0.996078 0.956863 0.505882
0.992157 0.952941 0.470588
1.000000 0.952941 0.450980
0.000000 0.074510 0.027451
0.003922 0.070588 0.031373
0.000000 0.070588 0.027451
0.000000 0.070588 0.027451
0.003922 0.070588 0.039216
0.003922 0.070588 0.031373
0.035294 0.074510 0.031373
0.109804 0.078431 0.035294
0.188235 0.070588 0.027451
0.282353 0.054902 0.011765
0.372549 0.023529 0.007843
0.466667 0.003922 0.000000
0.545098 0.003922 0.000000
0.627451 0.003922 0.000000
0.694118 0.003922 0.003922
0.756863 0.003922 0.000000
0.811765 0.086275 0.003922
0.862745 0.160784 0.000000
0.913725 0.250980 0.000000
0.972549 0.325490 0.003922
0.992157 0.388235 0.000000
1.000000 0.443137 0.003922
1.000000 0.490196 0.003922
1.000000 0.525490 0.003922
1.000000 0.549020 0.003922
0.000000 0.070588 0.027451
0.003922 0.070588 0.031373
0.003922 0.070588 0.031373
0.003922 0.074510 0.027451
0.000000 0.070588 0.023529
0.000000 0.078431 0.031373
0.043137 0.074510 0.015686
0.129412 0.082353 0.027451
0.188235 0.074510 0.011765
0.282353 0.062745 0.003922
0.380392 0.039216 0.003922
0.458824 0.003922 0.003922
0.549020 0.000000 0.003922
0.635294 0.000000 0.000000
0.701961 0.003922 0.003922
0.756863 0.015686 0.000000
0.811765 0.098039 0.003922
0.858824 0.184314 0.000000
0.909804 0.254902 0.000000
0.964706 0.329412 0.000000
1.000000 0.396078 0.003922
0.996078 0.447059 0.003922
1.000000 0.498039 0.000000
0.996078 0.533333 0.007843
0.996078 0.552941 0.000000
0.000000 0.070588 0.023529
0.003922 0.070588 0.031373
0.000000 0.074510 0.027451
0.003922 0.070588 0.031373
0.000000 0.078431 0.019608
0.000000 0.082353 0.023529
0.066667 0.082353 0.027451
0.125490 0.090196 0.023529
0.203922 0.082353 0.011765
0.298039 0.070588 0.015686
0.376471 0.047059 0.003922
0.470588 0.019608 0.000000
0.556863 0.000000 0.000000
0.631373 0.003922 0.011765
0.694118 0.007843 0.000000
0.752941 0.054902 0.000000
0.803922 0.125490 0.000000
0.850980 0.192157 0.000000
0.905882 0.266667 0.000000
0.960784 0.341176 0.000000
1.000000 0.407843 0.003922
1.000000 0.454902 0.000000
1.000000 0.498039 0.000000
1.000000 0.533333 0.000000
0.996078 0.556863 0.000000
0.007843 0.078431 0.023529
0.003922 0.066667 0.023529
0.000000 0.070588 0.035294
0.003922 0.074510 0.019608
0.000000 0.086275 0.023529
0.015686 0.086275 0.039216
0.070588 0.086275 0.027451
0.133333 0.090196 0.019608
0.207843 0.086275 0.003922
0.301961 0.082353 0.023529
0.384314 0.066667 0.000000
0.478431 0.043137 0.000000
0.552941 0.031373 0.003922
0.635294 0.031373 0.000000
0.694118 0.050980 0.011765
0.752941 0.101961 0.007843
0.807843 0.152941 0.000000
0.850980 0.207843 0.000000
0.901961 0.278431 0.011765
0.964706 0.345098 0.003922
1.000000 0.407843 0.000000
1.000000 0.466667 0.003922
0.992157 0.501961 0.007843
1.000000 0.533333 0.000000
1.000000 0.564706 0.000000
0.003922 0.074510 0.027451
0.000000 0.082353 0.023529
0.011765 0.074510 0.031373
0.000000 0.082353 0.031373
0.003922 0.086275 0.019608
0.015686 0.098039 0.023529
0.082353 0.101961 0.023529
0.152941 0.105882 0.019608
0.227451 0.109804 0.007843
0.305882 0.105882 0.000000
0.392157 0.094118 0.000000
0.486275 0.086275 0.000000
0.572549 0.082353 0.003922
0.631373 0.086275 0.011765
0.694118 0.109804 0.000000
0.756863 0.145098 0.000000
0.800000 0.180392 0.003922
0.850980 0.243137 0.000000
0.898039 0.305882 0.000000
0.949020 0.356863 0.007843
0.996078 0.423529 0.000000
1.000000 0.462745 0.003922
1.000000 0.505882 0.007843
1.000000 0.545098 0.000000
1.000000 0.564706 0.000000
0.000000 0.090196 0.027451
0.000000 0.086275 0.035294
0.003922 0.090196 0.039216
0.003922 0.094118 0.031373
0.000000 0.098039 0.023529
0.019608 0.105882 0.015686
0.105882 0.125490 0.007843
0.176471 0.137255 0.000000
0.262745 0.133333 0.003922
0.337255 0.129412 0.000000
0.419608 0.125490 0.000000
0.513725 0.125490 0.003922
0.584314 0.137255 0.000000
0.662745 0.156863 0.003922
0.709804 0.172549 0.000000
0.776471 0.203922 0.003922
0.815686 0.250980 0.003922
0.858824 0.298039 0.000000
0.905882 0.352941 0.000000
0.964706 0.407843 0.007843
0.996078 0.462745 0.000000
1.000000 0.505882 0.000000
1.000000 0.541176 0.000000
0.988235 0.572549 0.000000
1.000000 0.592157 0.007843
0.000000 0.098039 0.023529
0.003922 0.101961 0.027451
0.000000 0.101961 0.027451
0.000000 0.109804 0.023529
0.000000 0.117647 0.023529
0.007843 0.129412 0.007843
0.101961 0.137255 0.015686
0.200000 0.172549 0.000000
0.270588 0.176471 0.003922
0.364706 0.180392 0.007843
0.443137 0.184314 0.000000
0.521569 0.176471 0.000000
0.596078 0.184314 0.000000
0.654902 0.200000 0.000000
0.709804 0.219608 0.000000
0.776471 0.250980 0.003922
0.815686 0.294118 0.000000
0.866667 0.333333 0.000000
0.909804 0.388235 0.000000
0.964706 0.439216 0.000000
0.996078 0.486275 0.000000
1.000000 0.525490 0.003922
1.000000 0.556863 0.003922
0.996078 0.580392 0.000000
1.000000 0.607843 0.000000
0.000000 0.117647 0.047059
0.000000 0.125490 0.050980
0.000000 0.121569 0.031373
0.003922 0.137255 0.039216
0.003922 0.141176 0.015686
0.011765 0.149020 0.023529
0.082353 0.172549 0.007843
0.176471 0.192157 0.000000
0.305882 0.231373 0.000000
0.392157 0.243137 0.000000
0.462745 0.243137 0.003922
0.529412 0.250980 0.000000
0.603922 0.262745 0.000000
0.662745 0.266667 0.000000
0.709804 0.274510 0.003922
0.768627 0.298039 0.000000
0.811765 0.333333 0.000000
0.858824 0.368627 0.003922
0.909804 0.419608 0.000000
0.956863 0.466667 0.000000
0.996078 0.505882 0.000000
1.000000 0.537255 0.000000
1.000000 0.568627 0.003922
0.996078 0.588235 0.003922
1.000000 0.619608 0.000000
0.007843 0.145098 0.058824
0.000000 0.149020 0.058824
0.000000 0.160784 0.054902
0.015686 0.160784 0.039216
0.000000 0.172549 0.043137
0.003922 0.188235 0.015686
0.070588 0.203922 0.007843
0.176471 0.235294 0.011765
0.274510 0.254902 0.003922
0.400000 0.309804 0.000000
0.474510 0.313725 0.000000
0.545098 0.321569 0.003922
0.600000 0.325490 0.000000
0.654902 0.333333 0.003922
0.709804 0.341176 0.000000
0.760784 0.356863 0.000000
0.815686 0.372549 0.000000
0.862745 0.411765 0.000000
0.905882 0.454902 0.003922
0.956863 0.490196 0.000000
0.996078 0.533333 0.007843
0.996078 0.560784 0.007843
1.000000 0.588235 0.000000
1.000000 0.611765 0.000000
0.992157 0.623529 0.000000
0.000000 0.200000 0.058824
0.000000 0.196078 0.054902
0.000000 0.192157 0.066667
0.000000 0.203922 0.050980
0.000000 0.211765 0.047059
0.003922 0.231373 0.031373
0.054902 0.243137 0.000000
0.152941 0.274510 0.000000
0.247059 0.301961 0.000000
0.352941 0.337255 0.000000
0.478431 0.388235 0.011765
0.556863 0.392157 0.000000
0.619608 0.392157 0.000000
0.662745 0.396078 0.000000
0.709804 0.400000 0.003922
0.760784 0.419608 0.003922
0.807843 0.439216 0.000000
0.847059 0.458824 0.000000
0.901961 0.486275 0.007843
0.956863 0.521569 0.000000
0.996078 0.556863 0.000000
1.000000 0.580392 0.000000
0.996078 0.607843 0.000000
0.996078 0.627451 0.000000
0.992157 0.643137 0.000000
0.003922 0.250980 0.074510
0.000000 0.258824 0.078431
0.000000 0.262745 0.078431
0.000000 0.266667 0.074510
0.007843 0.282353 0.070588
0.000000 0.294118 0.039216
0.058824 0.321569 0.011765
0.164706 0.341176 0.007843
0.239216 0.372549 0.003922
