tools/luts_backup/Phoenix.cube
#Generated with IWLTBAP LUT Generator
#Website: http://luts.iwltbap.com
TITLE "Phoenix"
#LUT size
LUT_3D_SIZE 5
#LUT data points
0.000000 0.070588 0.027451
0.047059 0.078431 0.027451
0.556863 0.000000 0.003922
0.913725 0.250980 0.000000
1.000000 0.556863 0.003922
0.000000 0.101961 0.027451
0.090196 0.133333 0.015686
0.600000 0.188235 0.000000
0.921569 0.388235 0.000000
0.996078 0.600000 0.003922
0.003922 0.356863 0.082353
0.039216 0.407843 0.031373
0.584314 0.537255 0.003922
0.937255 0.650980 0.000000
1.000000 0.709804 0.000000
0.274510 0.662745 0.337255
0.392157 0.678431 0.329412
0.631373 0.752941 0.247059
0.937255 0.839216 0.000000
1.000000 0.850980 0.007843
0.749020 0.941176 0.686275
0.803922 0.933333 0.709804
0.835294 0.949020 0.686275
0.933333 0.952941 0.623529
1.000000 0.952941 0.450980
0.003922 0.070588 0.098039
0.074510 0.078431 0.098039
0.572549 0.007843 0.145098
0.917647 0.262745 0.098039
0.996078 0.552941 0.003922
0.000000 0.121569 0.117647
0.141176 0.168627 0.141176
0.600000 0.196078 0.121569
0.913725 0.392157 0.019608
0.996078 0.600000 0.000000
0.003922 0.411765 0.219608
0.207843 0.427451 0.250980
0.596078 0.549020 0.086275
0.933333 0.635294 0.000000
1.000000 0.701961 0.003922
0.294118 0.670588 0.380392
0.415686 0.678431 0.407843
0.615686 0.749020 0.368627
0.937255 0.835294 0.211765
1.000000 0.843137 0.176471
0.741176 0.937255 0.698039
0.784314 0.945098 0.709804
0.847059 0.949020 0.709804
0.941176 0.945098 0.670588
1.000000 0.949020 0.521569
0.000000 0.058824 0.423529
0.231373 0.007843 0.466667
0.639216 0.239216 0.494118
0.984314 0.356863 0.545098
1.000000 0.576471 0.568627
0.000000 0.125490 0.419608
0.164706 0.160784 0.474510
0.619608 0.380392 0.509804
0.960784 0.435294 0.529412
0.996078 0.611765 0.560784
0.000000 0.411765 0.427451
0.250980 0.470588 0.466667
0.631373 0.584314 0.537255
0.929412 0.639216 0.494118
0.996078 0.705882 0.521569
0.400000 0.698039 0.556863
0.470588 0.721569 0.576471
0.647059 0.760784 0.572549
0.933333 0.850980 0.525490
1.000000 0.839216 0.525490
0.729412 0.945098 0.729412
0.772549 0.941176 0.729412
0.886275 0.929412 0.760784
0.956863 0.952941 0.741176
1.000000 0.945098 0.682353
0.000000 0.000000 0.701961
0.435294 0.007843 0.717647
0.850980 0.294118 0.772549
0.996078 0.611765 0.772549
1.000000 0.776471 0.784314
0.000000 0.109804 0.674510
0.329412 0.141176 0.705882
0.807843 0.396078 0.768627
0.992157 0.666667 0.776471
1.000000 0.807843 0.803922
0.000000 0.349020 0.635294
0.000000 0.376471 0.647059
0.647059 0.525490 0.749020
0.952941 0.772549 0.772549
1.000000 0.835294 0.800000
0.000000 0.647059 0.662745
0.200000 0.662745 0.662745
0.564706 0.749020 0.709804
0.949020 0.862745 0.780392
0.992157 0.866667 0.768627
0.603922 0.949020 0.792157
0.678431 0.945098 0.792157
0.866667 0.945098 0.807843
0.984314 0.945098 0.839216
1.000000 0.952941 0.819608
0.666667 0.184314 0.949020
0.756863 0.290196 0.945098
0.909804 0.529412 0.949020
0.996078 0.815686 0.925490
1.000000 0.901961 0.913725
0.564706 0.274510 0.945098
0.694118 0.356863 0.949020
0.878431 0.560784 0.933333
1.000000 0.831373 0.937255
0.996078 0.913725 0.901961
0.000000 0.415686 0.956863
0.000000 0.341176 0.937255
0.749020 0.580392 0.933333
0.988235 0.854902 0.921569
0.984314 0.921569 0.921569
0.007843 0.760784 0.937255
0.003922 0.756863 0.933333
0.000000 0.717647 0.937255
0.917647 0.839216 0.937255
0.992157 0.937255 0.937255
0.235294 0.925490 0.925490
0.384314 0.925490 0.937255
0.639216 0.937255 0.937255
0.933333 0.941176 0.929412
1.000000 0.956863 0.949020
