tools/luts_backup/Phoenix.cube
#Generated with IWLTBAP LUT Generator
#Website: http://luts.iwltbap.com
TITLE "Phoenix"
#LUT size
LUT_3D_SIZE 9
#LUT data points
0.000000 0.070588 0.027451
0.000000 0.070588 0.023529
0.047059 0.078431 0.027451
0.282353 0.062745 0.011765
0.556863 0.000000 0.003922
0.760784 0.000000 0.003922
0.913725 0.250980 0.000000
0.996078 0.447059 0.000000
1.000000 0.556863 0.003922
0.003922 0.074510 0.027451
0.003922 0.070588 0.031373
0.066667 0.094118 0.023529
0.290196 0.086275 0.003922
0.556863 0.035294 0.007843
0.752941 0.109804 0.000000
0.901961 0.290196 0.000000
1.000000 0.466667 0.003922
1.000000 0.560784 0.011765
0.000000 0.101961 0.027451
0.007843 0.098039 0.035294
0.090196 0.133333 0.015686
0.364706 0.180392 0.007843
0.600000 0.188235 0.000000
0.776471 0.254902 0.000000
0.921569 0.388235 0.000000
1.000000 0.529412 0.000000
0.996078 0.600000 0.003922
0.000000 0.192157 0.047059
0.000000 0.207843 0.043137
0.054902 0.247059 0.000000
0.352941 0.337255 0.000000
0.615686 0.400000 0.000000
0.768627 0.423529 0.000000
0.901961 0.490196 0.000000
1.000000 0.584314 0.003922
1.000000 0.643137 0.003922
0.003922 0.356863 0.082353
0.000000 0.368627 0.109804
0.039216 0.407843 0.031373
0.313725 0.474510 0.011765
0.584314 0.537255 0.003922
0.792157 0.600000 0.000000
0.937255 0.650980 0.000000
0.996078 0.682353 0.003922
1.000000 0.709804 0.000000
0.000000 0.537255 0.203922
0.101961 0.545098 0.223529
0.211765 0.560784 0.192157
0.372549 0.600000 0.125490
0.576471 0.643137 0.000000
0.784314 0.709804 0.000000
0.964706 0.772549 0.000000
0.992157 0.784314 0.000000
0.992157 0.780392 0.007843
0.274510 0.662745 0.337255
0.333333 0.662745 0.329412
0.392157 0.678431 0.329412
0.494118 0.713725 0.294118
0.631373 0.752941 0.247059
0.796078 0.800000 0.098039
0.937255 0.839216 0.000000
0.996078 0.862745 0.000000
1.000000 0.850980 0.007843
0.498039 0.839216 0.470588
0.529412 0.847059 0.482353
0.576471 0.847059 0.498039
0.639216 0.862745 0.482353
0.717647 0.878431 0.462745
0.823529 0.901961 0.419608
0.925490 0.913725 0.352941
1.000000 0.925490 0.215686
0.992157 0.917647 0.129412
0.749020 0.941176 0.686275
0.764706 0.945098 0.694118
0.803922 0.933333 0.709804
0.819608 0.941176 0.709804
0.835294 0.949020 0.686275
0.882353 0.949020 0.670588
0.933333 0.952941 0.623529
0.996078 0.960784 0.556863
1.000000 0.952941 0.450980
0.003922 0.070588 0.031373
0.007843 0.070588 0.031373
0.058824 0.070588 0.035294
0.278431 0.047059 0.031373
0.549020 0.000000 0.003922
0.760784 0.000000 0.000000
0.913725 0.235294 0.007843
1.000000 0.435294 0.007843
1.000000 0.545098 0.000000
0.000000 0.078431 0.031373
0.007843 0.074510 0.043137
0.070588 0.086275 0.031373
0.298039 0.078431 0.027451
0.552941 0.011765 0.003922
0.752941 0.090196 0.007843
0.890196 0.266667 0.007843
1.000000 0.458824 0.000000
1.000000 0.556863 0.003922
0.000000 0.109804 0.054902
0.003922 0.113725 0.054902
0.105882 0.141176 0.019608
0.368627 0.168627 0.000000
0.592157 0.172549 0.000000
0.764706 0.247059 0.003922
0.913725 0.376471 0.000000
0.996078 0.517647 0.000000
1.000000 0.596078 0.000000
0.000000 0.196078 0.094118
0.000000 0.207843 0.090196
0.074510 0.258824 0.047059
0.352941 0.329412 0.000000
0.600000 0.388235 0.003922
0.756863 0.407843 0.000000
0.905882 0.478431 0.003922
1.000000 0.580392 0.000000
1.000000 0.639216 0.000000
0.000000 0.368627 0.133333
0.000000 0.384314 0.141176
0.105882 0.411765 0.117647
0.321569 0.470588 0.003922
0.584314 0.537255 0.000000
0.780392 0.596078 0.007843
0.933333 0.647059 0.000000
1.000000 0.678431 0.003922
1.000000 0.705882 0.000000
0.000000 0.537255 0.231373
0.117647 0.533333 0.239216
0.247059 0.549020 0.227451
0.372549 0.588235 0.192157
0.568627 0.635294 0.082353
0.780392 0.698039 0.000000
0.956863 0.768627 0.000000
0.992157 0.784314 0.000000
0.992157 0.784314 0.000000
0.282353 0.654902 0.337255
0.317647 0.658824 0.341176
0.392157 0.670588 0.356863
0.486275 0.698039 0.329412
0.627451 0.749020 0.282353
0.780392 0.803922 0.176471
0.941176 0.835294 0.000000
1.000000 0.850980 0.000000
1.000000 0.850980 0.000000
0.486275 0.835294 0.474510
0.517647 0.847059 0.478431
0.572549 0.847059 0.509804
0.627451 0.858824 0.490196
0.717647 0.886275 0.466667
0.815686 0.898039 0.439216
0.921569 0.905882 0.372549
1.000000 0.917647 0.266667
1.000000 0.917647 0.207843
0.741176 0.937255 0.690196
0.760784 0.933333 0.694118
0.784314 0.941176 0.698039
0.827451 0.941176 0.713725
0.839216 0.952941 0.701961
0.886275 0.952941 0.678431
0.937255 0.956863 0.643137
0.988235 0.956863 0.568627
1.000000 0.956863 0.470588
0.003922 0.070588 0.098039
0.000000 0.070588 0.098039
0.074510 0.078431 0.098039
0.333333 0.007843 0.117647
0.572549 0.007843 0.145098
0.764706 0.015686 0.137255
0.917647 0.262745 0.098039
0.996078 0.447059 0.000000
0.996078 0.552941 0.003922
0.011765 0.078431 0.117647
0.000000 0.074510 0.109804
0.086275 0.090196 0.109804
0.337255 0.058824 0.113725
0.568627 0.019608 0.125490
0.756863 0.133333 0.117647
0.898039 0.290196 0.066667
1.000000 0.466667 0.000000
1.000000 0.556863 0.003922
0.000000 0.121569 0.117647
0.000000 0.137255 0.137255
0.141176 0.168627 0.141176
0.392157 0.168627 0.133333
0.600000 0.196078 0.121569
0.768627 0.270588 0.101961
0.913725 0.392157 0.019608
1.000000 0.517647 0.007843
0.996078 0.600000 0.000000
0.000000 0.247059 0.184314
0.007843 0.254902 0.180392
0.160784 0.278431 0.184314
0.388235 0.356863 0.113725
0.611765 0.380392 0.074510
0.760784 0.400000 0.000000
0.905882 0.494118 0.000000
1.000000 0.584314 0.000000
1.000000 0.647059 0.000000
0.003922 0.411765 0.219608
0.000000 0.411765 0.231373
0.207843 0.427451 0.250980
0.356863 0.482353 0.196078
0.596078 0.549020 0.086275
0.788235 0.592157 0.000000
0.933333 0.635294 0.000000
1.000000 0.670588 0.000000
1.000000 0.701961 0.003922
0.137255 0.549020 0.317647
0.196078 0.552941 0.313725
0.309804 0.560784 0.325490
0.411765 0.600000 0.309804
0.584314 0.643137 0.247059
0.784314 0.701961 0.133333
0.960784 0.764706 0.000000
1.000000 0.776471 0.011765
1.000000 0.772549 0.003922
0.294118 0.670588 0.380392
0.333333 0.678431 0.388235
0.415686 0.678431 0.407843
0.494118 0.701961 0.388235
0.615686 0.749020 0.368627
0.776471 0.792157 0.309804
0.937255 0.835294 0.211765
1.000000 0.866667 0.109804
1.000000 0.843137 0.176471
0.458824 0.843137 0.501961
0.494118 0.843137 0.513725
0.552941 0.843137 0.509804
0.627451 0.854902 0.525490
0.713725 0.874510 0.505882
0.807843 0.890196 0.478431
0.909804 0.909804 0.439216
1.000000 0.917647 0.349020
0.992157 0.913725 0.329412
0.741176 0.937255 0.698039
0.752941 0.941176 0.705882
0.784314 0.945098 0.709804
0.831373 0.937255 0.721569
0.847059 0.949020 0.709804
0.878431 0.949020 0.705882
0.941176 0.945098 0.670588
0.996078 0.956863 0.607843
1.000000 0.949020 0.521569
0.000000 0.062745 0.262745
0.011765 0.062745 0.266667
0.203922 0.039216 0.286275
0.360784 0.078431 0.274510
0.678431 0.000000 0.349020
0.811765 0.039216 0.317647
0.909804 0.305882 0.352941
1.000000 0.458824 0.345098
1.000000 0.556863 0.360784
0.000000 0.078431 0.254902
0.000000 0.082353 0.266667
0.192157 0.086275 0.286275
0.356863 0.129412 0.278431
0.643137 0.121569 0.345098
0.788235 0.164706 0.313725
0.913725 0.333333 0.333333
0.992157 0.470588 0.333333
0.996078 0.568627 0.349020
0.000000 0.133333 0.250980
0.000000 0.133333 0.278431
0.168627 0.160784 0.317647
0.403922 0.239216 0.333333
0.623529 0.258824 0.333333
0.764706 0.333333 0.345098
0.917647 0.427451 0.341176
0.996078 0.533333 0.337255
0.992157 0.600000 0.368627
0.000000 0.239216 0.282353
0.000000 0.262745 0.294118
0.192157 0.313725 0.321569
0.427451 0.380392 0.333333
0.611765 0.396078 0.317647
0.764706 0.447059 0.329412
0.913725 0.517647 0.313725
1.000000 0.592157 0.305882
1.000000 0.643137 0.333333
0.003922 0.427451 0.364706
0.180392 0.450980 0.376471
0.313725 0.482353 0.376471
0.427451 0.501961 0.392157
0.611765 0.560784 0.345098
0.780392 0.596078 0.321569
0.929412 0.631373 0.294118
1.000000 0.670588 0.294118
1.000000 0.705882 0.329412
0.286275 0.584314 0.435294
0.313725 0.580392 0.427451
0.372549 0.588235 0.423529
0.474510 0.600000 0.439216
0.603922 0.658824 0.419608
0.796078 0.717647 0.368627
0.952941 0.768627 0.321569
1.000000 0.772549 0.317647
0.996078 0.768627 0.337255
0.313725 0.686275 0.458824
0.345098 0.690196 0.454902
0.423529 0.698039 0.462745
0.537255 0.705882 0.486275
0.639216 0.756863 0.482353
0.776471 0.803922 0.431373
0.941176 0.843137 0.388235
1.000000 0.862745 0.368627
0.996078 0.847059 0.364706
0.435294 0.847059 0.517647
0.466667 0.847059 0.529412
0.549020 0.847059 0.552941
0.635294 0.858824 0.580392
0.709804 0.870588 0.564706
0.796078 0.898039 0.549020
0.913725 0.905882 0.513725
1.000000 0.921569 0.462745
1.000000 0.913725 0.447059
0.729412 0.941176 0.705882
0.752941 0.941176 0.713725
0.788235 0.941176 0.725490
0.831373 0.949020 0.745098
0.866667 0.945098 0.745098
0.898039 0.949020 0.737255
0.937255 0.952941 0.713725
0.992157 0.952941 0.670588
0.996078 0.952941 0.592157
0.000000 0.058824 0.423529
0.000000 0.054902 0.435294
0.231373 0.007843 0.466667
0.537255 0.031373 0.486275
0.639216 0.239216 0.494118
0.831373 0.309804 0.556863
0.984314 0.356863 0.545098
0.996078 0.435294 0.513725
1.000000 0.576471 0.568627
0.000000 0.074510 0.423529
0.000000 0.082353 0.435294
0.215686 0.066667 0.454902
0.525490 0.137255 0.501961
0.627451 0.286275 0.494118
0.827451 0.349020 0.541176
0.980392 0.372549 0.537255
1.000000 0.462745 0.521569
1.000000 0.576471 0.556863
0.000000 0.125490 0.419608
0.011765 0.125490 0.439216
0.164706 0.160784 0.474510
0.521569 0.270588 0.509804
0.619608 0.380392 0.509804
0.823529 0.435294 0.549020
0.960784 0.435294 0.529412
1.000000 0.537255 0.529412
0.996078 0.611765 0.560784
0.000000 0.239216 0.439216
0.003922 0.250980 0.423529
0.003922 0.290196 0.458824
0.435294 0.376471 0.498039
0.623529 0.482353 0.521569
0.772549 0.486275 0.513725
0.913725 0.541176 0.517647
1.000000 0.592157 0.509804
0.996078 0.639216 0.525490
0.000000 0.411765 0.427451
0.000000 0.427451 0.454902
0.250980 0.470588 0.466667
0.470588 0.529412 0.509804
0.631373 0.584314 0.537255
0.780392 0.592157 0.501961
0.929412 0.639216 0.494118
0.996078 0.674510 0.486275
0.996078 0.705882 0.521569
0.239216 0.580392 0.513725
0.301961 0.588235 0.513725
0.415686 0.603922 0.517647
0.533333 0.631373 0.545098
0.635294 0.658824 0.549020
0.796078 0.733333 0.533333
0.952941 0.760784 0.498039
0.992157 0.760784 0.486275
1.000000 0.760784 0.505882
0.400000 0.698039 0.556863
0.447059 0.709804 0.572549
0.470588 0.721569 0.576471
0.513725 0.741176 0.545098
0.647059 0.760784 0.572549
0.772549 0.807843 0.545098
0.933333 0.850980 0.525490
0.988235 0.854902 0.501961
1.000000 0.839216 0.525490
0.450980 0.847059 0.619608
0.458824 0.847059 0.623529
0.505882 0.858824 0.607843
0.592157 0.866667 0.619608
0.717647 0.870588 0.647059
0.807843 0.894118 0.639216
0.905882 0.909804 0.611765
1.000000 0.921569 0.580392
1.000000 0.913725 0.576471
0.729412 0.945098 0.729412
0.749020 0.949020 0.729412
0.772549 0.941176 0.729412
0.823529 0.941176 0.737255
0.886275 0.929412 0.760784
0.921569 0.945098 0.764706
0.956863 0.952941 0.741176
0.992157 0.952941 0.721569
1.000000 0.945098 0.682353
0.000000 0.039216 0.556863
0.000000 0.023529 0.564706
0.290196 0.003922 0.596078
0.564706 0.000000 0.615686
0.760784 0.321569 0.643137
0.823529 0.435294 0.647059
0.984314 0.478431 0.690196
1.000000 0.564706 0.694118
1.000000 0.635294 0.698039
0.000000 0.078431 0.549020
0.003922 0.074510 0.560784
0.250980 0.027451 0.572549
0.552941 0.094118 0.611765
0.749020 0.352941 0.666667
0.811765 0.462745 0.650980
0.976471 0.505882 0.686275
0.996078 0.576471 0.686275
1.000000 0.639216 0.698039
0.000000 0.105882 0.556863
0.000000 0.125490 0.560784
0.188235 0.149020 0.588235
0.537255 0.243137 0.607843
0.745098 0.435294 0.658824
0.819608 0.513725 0.666667
0.980392 0.564706 0.705882
1.000000 0.611765 0.705882
0.996078 0.670588 0.701961
0.000000 0.215686 0.517647
0.000000 0.223529 0.541176
0.000000 0.247059 0.568627
0.427451 0.356863 0.600000
0.701961 0.498039 0.647059
0.796078 0.568627 0.654902
0.968627 0.627451 0.694118
1.000000 0.639216 0.682353
1.000000 0.701961 0.701961
0.003922 0.388235 0.541176
0.000000 0.392157 0.541176
0.000000 0.423529 0.572549
0.305882 0.478431 0.592157
0.643137 0.568627 0.643137
0.815686 0.658824 0.690196
0.949020 0.666667 0.678431
1.000000 0.705882 0.682353
1.000000 0.741176 0.694118
0.000000 0.552941 0.552941
0.152941 0.552941 0.560784
0.305882 0.580392 0.572549
0.462745 0.615686 0.603922
0.647059 0.674510 0.643137
0.811765 0.745098 0.674510
0.937255 0.752941 0.650980
1.000000 0.760784 0.650980
1.000000 0.780392 0.666667
0.227451 0.670588 0.592157
0.274510 0.678431 0.603922
0.376471 0.698039 0.611765
0.505882 0.733333 0.635294
0.670588 0.784314 0.666667
0.788235 0.811765 0.678431
0.937255 0.854902 0.678431
0.996078 0.854902 0.650980
0.988235 0.839216 0.654902
0.380392 0.839216 0.674510
0.415686 0.843137 0.678431
0.501961 0.847059 0.690196
0.643137 0.858824 0.701961
0.694118 0.870588 0.701961
0.819608 0.886275 0.721569
0.909804 0.905882 0.717647
1.000000 0.917647 0.701961
1.000000 0.913725 0.690196
0.749020 0.941176 0.764706
0.760784 0.945098 0.764706
0.800000 0.941176 0.768627
0.815686 0.945098 0.760784
0.870588 0.937255 0.772549
0.925490 0.941176 0.796078
0.968627 0.949020 0.800000
1.000000 0.949020 0.776471
1.000000 0.949020 0.745098
0.000000 0.000000 0.701961
0.203922 0.003922 0.713725
0.435294 0.007843 0.717647
0.682353 0.000000 0.756863
0.850980 0.294118 0.772549
0.972549 0.529412 0.788235
0.996078 0.611765 0.772549
1.000000 0.662745 0.776471
1.000000 0.776471 0.784314
0.000000 0.035294 0.674510
0.121569 0.015686 0.701961
0.411765 0.000000 0.717647
0.650980 0.031373 0.741176
0.839216 0.325490 0.780392
0.964706 0.549020 0.792157
0.992157 0.619608 0.776471
1.000000 0.678431 0.768627
1.000000 0.784314 0.803922
0.000000 0.109804 0.674510
0.000000 0.117647 0.698039
0.329412 0.141176 0.705882
0.631373 0.215686 0.749020
0.807843 0.396078 0.768627
0.952941 0.592157 0.784314
0.992157 0.666667 0.776471
1.000000 0.725490 0.780392
1.000000 0.807843 0.803922
0.011765 0.196078 0.650980
0.003922 0.203922 0.666667
0.000000 0.211765 0.678431
0.501961 0.325490 0.721569
0.752941 0.470588 0.756863
0.929412 0.639216 0.776471
0.968627 0.717647 0.780392
1.000000 0.768627 0.796078
1.000000 0.815686 0.800000
0.000000 0.349020 0.635294
0.000000 0.364706 0.631373
0.000000 0.376471 0.647059
0.000000 0.403922 0.666667
0.647059 0.525490 0.749020
0.898039 0.694118 0.780392
0.952941 0.772549 0.772549
0.996078 0.819608 0.796078
1.000000 0.835294 0.800000
0.003922 0.529412 0.643137
0.000000 0.545098 0.650980
0.003922 0.552941 0.658824
0.066667 0.576471 0.662745
0.423529 0.623529 0.705882
0.792157 0.729412 0.772549
0.960784 0.835294 0.792157
0.996078 0.831373 0.784314
1.000000 0.843137 0.796078
0.000000 0.647059 0.662745
0.007843 0.654902 0.662745
0.200000 0.662745 0.662745
0.388235 0.698039 0.678431
0.564706 0.749020 0.709804
0.792157 0.819608 0.756863
0.949020 0.862745 0.780392
0.996078 0.862745 0.764706
0.992157 0.866667 0.768627
0.000000 0.807843 0.725490
0.000000 0.811765 0.733333
0.200000 0.819608 0.721569
0.415686 0.843137 0.729412
0.654902 0.870588 0.749020
0.862745 0.886275 0.776471
0.929412 0.905882 0.780392
1.000000 0.921569 0.788235
1.000000 0.913725 0.796078
0.603922 0.949020 0.792157
0.623529 0.949020 0.784314
0.678431 0.945098 0.792157
0.780392 0.945098 0.803922
0.866667 0.945098 0.807843
0.925490 0.937255 0.823529
0.984314 0.945098 0.839216
1.000000 0.945098 0.839216
1.000000 0.952941 0.819608
0.470588 0.000000 0.831373
0.545098 0.000000 0.843137
0.666667 0.000000 0.850980
0.788235 0.054902 0.843137
0.913725 0.345098 0.850980
1.000000 0.549020 0.858824
1.000000 0.760784 0.866667
0.996078 0.800000 0.835294
1.000000 0.827451 0.839216
0.415686 0.000000 0.823529
0.494118 0.000000 0.827451
0.631373 0.000000 0.843137
0.776471 0.141176 0.850980
0.901961 0.376471 0.858824
0.992157 0.556863 0.858824
0.996078 0.768627 0.854902
1.000000 0.807843 0.850980
0.992157 0.827451 0.843137
0.223529 0.082353 0.819608
0.372549 0.105882 0.831373
0.572549 0.129412 0.835294
0.741176 0.250980 0.847059
0.878431 0.423529 0.858824
0.988235 0.592157 0.858824
1.000000 0.784314 0.858824
0.996078 0.831373 0.847059
1.000000 0.847059 0.850980
0.000000 0.168627 0.811765
0.000000 0.168627 0.823529
0.247059 0.219608 0.831373
0.635294 0.333333 0.835294
0.815686 0.466667 0.835294
0.956863 0.631373 0.850980
0.996078 0.807843 0.870588
1.000000 0.839216 0.854902
1.000000 0.866667 0.858824
0.000000 0.407843 0.788235
0.000000 0.407843 0.788235
0.000000 0.380392 0.800000
0.003922 0.341176 0.815686
0.701961 0.505882 0.839216
0.913725 0.666667 0.850980
1.000000 0.831373 0.866667
1.000000 0.866667 0.862745
0.996078 0.886275 0.874510
0.007843 0.584314 0.784314
0.007843 0.584314 0.788235
0.007843 0.576471 0.784314
0.000000 0.568627 0.784314
0.007843 0.556863 0.796078
0.784314 0.674510 0.835294
0.992157 0.850980 0.866667
0.992157 0.894118 0.874510
0.996078 0.913725 0.894118
0.000000 0.701961 0.756863
0.000000 0.709804 0.784314
0.000000 0.701961 0.776471
0.011765 0.717647 0.784314
0.003922 0.721569 0.792157
0.505882 0.729412 0.807843
0.937255 0.839216 0.854902
0.996078 0.917647 0.882353
1.000000 0.913725 0.898039
0.000000 0.807843 0.776471
0.003922 0.807843 0.788235
0.000000 0.811765 0.772549
0.000000 0.823529 0.780392
0.435294 0.835294 0.784314
0.713725 0.858824 0.792157
0.905882 0.901961 0.831373
1.000000 0.921569 0.878431
1.000000 0.937255 0.886275
0.141176 0.964706 0.858824
0.231373 0.960784 0.866667
0.372549 0.960784 0.854902
0.529412 0.952941 0.858824
0.709804 0.952941 0.854902
0.870588 0.945098 0.866667
0.984314 0.937255 0.890196
1.000000 0.945098 0.901961
1.000000 0.952941 0.905882
0.666667 0.184314 0.949020
0.698039 0.219608 0.949020
0.756863 0.290196 0.945098
0.827451 0.403922 0.945098
0.909804 0.529412 0.949020
0.980392 0.682353 0.933333
0.996078 0.815686 0.925490
0.996078 0.890196 0.917647
1.000000 0.901961 0.913725
0.647059 0.211765 0.956863
0.678431 0.231373 0.949020
0.741176 0.305882 0.949020
0.819608 0.415686 0.945098
0.905882 0.529412 0.952941
0.984314 0.674510 0.933333
0.996078 0.815686 0.925490
0.996078 0.890196 0.917647
0.996078 0.898039 0.909804
0.564706 0.274510 0.945098
0.619608 0.298039 0.964706
0.694118 0.356863 0.949020
0.796078 0.439216 0.945098
0.878431 0.560784 0.933333
0.976471 0.701961 0.937255
1.000000 0.831373 0.937255
1.000000 0.894118 0.921569
0.996078 0.913725 0.901961
0.039216 0.243137 0.964706
0.321569 0.266667 0.945098
0.545098 0.368627 0.937255
0.709804 0.458824 0.941176
0.843137 0.564706 0.941176
0.949020 0.709804 0.933333
0.992157 0.839216 0.921569
1.000000 0.901961 0.925490
1.000000 0.905882 0.917647
0.000000 0.415686 0.956863
0.000000 0.396078 0.933333
0.000000 0.341176 0.937255
0.423529 0.415686 0.949020
0.749020 0.580392 0.933333
0.925490 0.725490 0.945098
0.988235 0.854902 0.921569
1.000000 0.913725 0.925490
0.984314 0.921569 0.921569
0.000000 0.650980 0.945098
0.000000 0.650980 0.929412
0.007843 0.631373 0.949020
0.000000 0.584314 0.937255
0.098039 0.513725 0.945098
0.827451 0.721569 0.937255
0.984314 0.854902 0.937255
1.000000 0.917647 0.937255
1.000000 0.933333 0.917647
0.007843 0.760784 0.937255
0.000000 0.760784 0.933333
0.003922 0.756863 0.933333
0.003922 0.749020 0.952941
0.000000 0.717647 0.937255
0.000000 0.678431 0.925490
0.917647 0.839216 0.937255
0.996078 0.921569 0.937255
0.992157 0.937255 0.937255
0.007843 0.854902 0.945098
0.007843 0.850980 0.929412
0.000000 0.854902 0.941176
0.007843 0.839216 0.933333
0.000000 0.847059 0.945098
0.392157 0.827451 0.937255
0.698039 0.839216 0.941176
0.996078 0.921569 0.937255
1.000000 0.945098 0.945098
0.235294 0.925490 0.925490
0.294118 0.929412 0.941176
0.384314 0.925490 0.937255
0.501961 0.933333 0.937255
0.639216 0.937255 0.937255
0.800000 0.933333 0.937255
0.933333 0.941176 0.929412
1.000000 0.949020 0.945098
1.000000 0.956863 0.949020
