tools/luts_backup/Salem.cube
#Generated with IWLTBAP LUT Generator
#Website: http://luts.iwltbap.com
TITLE "Salem"
#LUT size
LUT_3D_SIZE 9
#LUT data points
0.066667 0.086275 0.070588
0.101961 0.090196 0.062745
0.180392 0.090196 0.066667
0.294118 0.086275 0.054902
0.466667 0.058824 0.047059
0.631373 0.011765 0.015686
0.784314 0.000000 0.000000
0.894118 0.000000 0.003922
0.972549 0.027451 0.000000
0.082353 0.109804 0.078431
0.101961 0.113725 0.070588
0.192157 0.117647 0.062745
0.321569 0.117647 0.062745
0.501961 0.113725 0.039216
0.666667 0.101961 0.000000
0.796078 0.090196 0.000000
0.894118 0.094118 0.000000
0.980392 0.121569 0.011765
0.082353 0.164706 0.098039
0.098039 0.168627 0.082353
0.168627 0.180392 0.066667
0.349020 0.219608 0.043137
0.521569 0.219608 0.000000
0.682353 0.227451 0.003922
0.811765 0.219608 0.003922
0.901961 0.215686 0.000000
0.984314 0.219608 0.000000
0.007843 0.298039 0.098039
0.039216 0.290196 0.094118
0.149020 0.309804 0.090196
0.305882 0.349020 0.039216
0.537255 0.407843 0.003922
0.713725 0.384314 0.000000
0.835294 0.360784 0.011765
0.909804 0.337255 0.000000
0.988235 0.337255 0.007843
0.000000 0.466667 0.125490
0.000000 0.462745 0.125490
0.054902 0.454902 0.129412
0.250980 0.486275 0.094118
0.462745 0.525490 0.007843
0.686275 0.556863 0.003922
0.815686 0.525490 0.000000
0.909804 0.478431 0.000000
0.984314 0.454902 0.000000
0.000000 0.596078 0.203922
0.003922 0.596078 0.215686
0.019608 0.592157 0.207843
0.239216 0.600000 0.211765
0.415686 0.619608 0.184314
0.584314 0.643137 0.145098
0.784314 0.670588 0.035294
0.886275 0.627451 0.011765
0.980392 0.596078 0.003922
0.196078 0.694118 0.384314
0.211765 0.698039 0.360784
0.274510 0.686275 0.356863
0.349020 0.690196 0.372549
0.454902 0.698039 0.360784
0.572549 0.709804 0.349020
0.698039 0.717647 0.317647
0.858824 0.745098 0.282353
0.956863 0.733333 0.227451
0.450980 0.768627 0.509804
0.450980 0.768627 0.509804
0.474510 0.752941 0.525490
0.521569 0.756863 0.521569
0.568627 0.760784 0.541176
0.627451 0.768627 0.517647
0.701961 0.784314 0.513725
0.803922 0.796078 0.494118
0.913725 0.819608 0.466667
0.639216 0.862745 0.662745
0.639216 0.862745 0.662745
0.650980 0.862745 0.666667
0.670588 0.858824 0.670588
0.698039 0.862745 0.674510
0.733333 0.878431 0.674510
0.776471 0.882353 0.674510
0.843137 0.905882 0.658824
0.913725 0.917647 0.650980
0.078431 0.094118 0.105882
0.113725 0.090196 0.090196
0.184314 0.086275 0.098039
0.309804 0.070588 0.098039
0.474510 0.035294 0.090196
0.654902 0.000000 0.070588
0.788235 0.000000 0.043137
0.898039 0.003922 0.007843
0.972549 0.000000 0.000000
0.094118 0.109804 0.105882
0.121569 0.117647 0.101961
0.192157 0.117647 0.101961
0.329412 0.113725 0.101961
0.498039 0.098039 0.082353
0.674510 0.070588 0.062745
0.800000 0.050980 0.011765
0.898039 0.062745 0.000000
0.968627 0.101961 0.000000
0.094118 0.184314 0.113725
0.125490 0.180392 0.113725
0.184314 0.196078 0.113725
0.364706 0.215686 0.070588
0.537255 0.219608 0.050980
0.690196 0.215686 0.007843
0.823529 0.207843 0.000000
0.905882 0.211765 0.000000
0.980392 0.223529 0.000000
0.000000 0.317647 0.149020
0.062745 0.325490 0.152941
0.172549 0.325490 0.149020
0.321569 0.364706 0.105882
0.552941 0.407843 0.000000
0.725490 0.380392 0.000000
0.823529 0.356863 0.003922
0.905882 0.333333 0.000000
0.976471 0.329412 0.007843
0.000000 0.486275 0.188235
0.000000 0.474510 0.180392
0.109804 0.462745 0.180392
0.282353 0.494118 0.164706
0.474510 0.537255 0.109804
0.690196 0.560784 0.007843
0.823529 0.525490 0.000000
0.909804 0.478431 0.000000
0.996078 0.458824 0.003922
0.000000 0.607843 0.250980
0.000000 0.607843 0.258824
0.133333 0.600000 0.270588
0.274510 0.603922 0.258824
0.427451 0.623529 0.243137
0.607843 0.639216 0.203922
0.792157 0.662745 0.156863
0.886275 0.631373 0.058824
0.984314 0.588235 0.000000
0.258824 0.701961 0.396078
0.274510 0.698039 0.403922
0.317647 0.698039 0.396078
0.388235 0.694118 0.396078
0.462745 0.701961 0.396078
0.592157 0.705882 0.384314
0.701961 0.721569 0.352941
0.854902 0.729412 0.325490
0.952941 0.737255 0.282353
0.474510 0.768627 0.537255
0.494118 0.764706 0.541176
0.498039 0.764706 0.533333
0.529412 0.760784 0.541176
0.576471 0.760784 0.545098
0.639216 0.768627 0.545098
0.709804 0.784314 0.525490
0.796078 0.796078 0.505882
0.917647 0.823529 0.486275
0.635294 0.862745 0.666667
0.650980 0.854902 0.662745
0.654902 0.866667 0.662745
0.678431 0.866667 0.670588
0.698039 0.866667 0.686275
0.729412 0.874510 0.674510
0.780392 0.886275 0.670588
0.839216 0.898039 0.666667
0.913725 0.909804 0.654902
0.074510 0.098039 0.160784
0.113725 0.098039 0.164706
0.200000 0.094118 0.168627
0.317647 0.066667 0.168627
0.509804 0.000000 0.160784
0.670588 0.000000 0.133333
0.788235 0.000000 0.145098
0.886275 0.003922 0.129412
0.976471 0.000000 0.125490
0.082353 0.129412 0.184314
0.125490 0.121569 0.176471
0.215686 0.117647 0.192157
0.345098 0.113725 0.184314
0.513725 0.007843 0.160784
0.674510 0.000000 0.164706
0.788235 0.000000 0.152941
0.890196 0.015686 0.129412
0.972549 0.086275 0.133333
0.074510 0.200000 0.180392
0.125490 0.203922 0.200000
0.227451 0.203922 0.211765
0.376471 0.203922 0.200000
0.537255 0.203922 0.176471
0.694118 0.196078 0.160784
0.803922 0.192157 0.145098
0.894118 0.200000 0.129412
0.988235 0.207843 0.117647
0.066667 0.352941 0.239216
0.145098 0.360784 0.247059
0.219608 0.356863 0.239216
0.356863 0.384314 0.223529
0.580392 0.396078 0.184314
0.717647 0.360784 0.145098
0.831373 0.345098 0.141176
0.901961 0.333333 0.117647
0.980392 0.329412 0.094118
0.050980 0.509804 0.294118
0.082353 0.505882 0.278431
0.207843 0.501961 0.282353
0.317647 0.501961 0.286275
0.505882 0.537255 0.250980
0.705882 0.560784 0.215686
0.827451 0.517647 0.156863
0.909804 0.474510 0.125490
0.984314 0.462745 0.105882
0.109804 0.623529 0.349020
0.168627 0.619608 0.349020
0.247059 0.619608 0.360784
0.341176 0.611765 0.364706
0.466667 0.623529 0.345098
0.615686 0.643137 0.329412
0.784314 0.662745 0.309804
0.886275 0.635294 0.250980
0.984314 0.584314 0.149020
0.345098 0.701961 0.462745
0.364706 0.701961 0.462745
0.396078 0.701961 0.466667
0.439216 0.694118 0.466667
0.505882 0.701961 0.470588
0.611765 0.709804 0.454902
0.709804 0.725490 0.435294
0.854902 0.745098 0.419608
0.949020 0.737255 0.360784
0.513725 0.764706 0.568627
0.529412 0.760784 0.580392
0.533333 0.760784 0.564706
0.564706 0.760784 0.568627
0.600000 0.764706 0.576471
0.650980 0.764706 0.576471
0.713725 0.780392 0.564706
0.811765 0.796078 0.556863
0.917647 0.831373 0.545098
0.639216 0.866667 0.666667
0.643137 0.866667 0.666667
0.658824 0.870588 0.678431
0.678431 0.862745 0.682353
0.705882 0.866667 0.694118
0.733333 0.878431 0.678431
0.784314 0.890196 0.682353
0.843137 0.901961 0.670588
0.909804 0.917647 0.662745
0.047059 0.098039 0.313725
0.113725 0.094118 0.305882
0.239216 0.082353 0.325490
0.364706 0.062745 0.337255
0.521569 0.003922 0.333333
0.698039 0.000000 0.305882
0.823529 0.003922 0.270588
0.913725 0.003922 0.239216
0.976471 0.000000 0.250980
0.003922 0.129412 0.329412
0.105882 0.129412 0.333333
0.231373 0.125490 0.341176
0.380392 0.113725 0.345098
0.533333 0.090196 0.341176
0.701961 0.007843 0.313725
0.819608 0.000000 0.274510
0.909804 0.000000 0.262745
0.960784 0.133333 0.270588
0.000000 0.235294 0.345098
0.058824 0.227451 0.352941
0.215686 0.227451 0.364706
0.388235 0.235294 0.356863
0.560784 0.231373 0.360784
0.713725 0.188235 0.317647
0.807843 0.176471 0.298039
0.882353 0.227451 0.294118
0.960784 0.235294 0.266667
0.003922 0.380392 0.376471
0.027451 0.388235 0.384314
0.243137 0.396078 0.392157
0.407843 0.403922 0.396078
0.576471 0.388235 0.380392
0.705882 0.380392 0.356863
0.811765 0.368627 0.337255
0.894118 0.360784 0.305882
0.964706 0.356863 0.286275
0.113725 0.541176 0.427451
0.192157 0.541176 0.415686
0.333333 0.541176 0.439216
0.411765 0.529412 0.435294
0.545098 0.549020 0.423529
0.705882 0.552941 0.400000
0.819608 0.513725 0.360784
0.898039 0.482353 0.329412
0.976471 0.470588 0.305882
0.345098 0.643137 0.494118
0.380392 0.639216 0.498039
0.396078 0.631373 0.482353
0.439216 0.627451 0.470588
0.525490 0.627451 0.474510
0.654902 0.650980 0.470588
0.784314 0.662745 0.450980
0.882353 0.627451 0.400000
0.976471 0.592157 0.345098
0.466667 0.701961 0.552941
0.478431 0.705882 0.556863
0.482353 0.701961 0.549020
0.517647 0.698039 0.545098
0.560784 0.694118 0.549020
0.635294 0.705882 0.541176
0.733333 0.717647 0.533333
0.847059 0.745098 0.521569
0.945098 0.733333 0.482353
0.564706 0.768627 0.615686
0.549020 0.764706 0.607843
0.580392 0.768627 0.619608
0.603922 0.768627 0.627451
0.635294 0.760784 0.615686
0.666667 0.772549 0.611765
0.737255 0.780392 0.615686
0.811765 0.803922 0.603922
0.921569 0.827451 0.592157
0.643137 0.866667 0.690196
0.650980 0.870588 0.694118
0.666667 0.870588 0.690196
0.690196 0.866667 0.698039
0.709804 0.870588 0.698039
0.737255 0.878431 0.705882
0.780392 0.890196 0.701961
0.847059 0.901961 0.694118
0.917647 0.921569 0.694118
0.000000 0.101961 0.494118
0.058824 0.094118 0.498039
0.219608 0.090196 0.498039
0.407843 0.062745 0.505882
0.580392 0.003922 0.525490
0.698039 0.000000 0.498039
0.835294 0.098039 0.478431
0.913725 0.125490 0.439216
0.980392 0.129412 0.400000
0.000000 0.145098 0.509804
0.015686 0.145098 0.509804
0.239216 0.141176 0.509804
0.415686 0.141176 0.525490
0.584314 0.125490 0.533333
0.694118 0.129412 0.501961
0.831373 0.196078 0.482353
0.909804 0.188235 0.439216
0.972549 0.176471 0.423529
0.007843 0.243137 0.517647
0.000000 0.247059 0.525490
0.211765 0.239216 0.521569
0.423529 0.254902 0.533333
0.584314 0.262745 0.545098
0.705882 0.282353 0.509804
0.819608 0.321569 0.498039
0.898039 0.290196 0.454902
0.968627 0.270588 0.411765
0.003922 0.396078 0.521569
0.000000 0.403922 0.533333
0.200000 0.396078 0.525490
0.411765 0.411765 0.552941
0.592157 0.431373 0.556863
0.701961 0.447059 0.533333
0.796078 0.423529 0.501961
0.878431 0.388235 0.458824
0.941176 0.384314 0.431373
0.003922 0.552941 0.549020
0.125490 0.549020 0.556863
0.298039 0.556863 0.552941
0.443137 0.560784 0.552941
0.584314 0.568627 0.572549
0.694118 0.552941 0.560784
0.788235 0.537255 0.529412
0.870588 0.521569 0.498039
0.945098 0.509804 0.466667
0.360784 0.654902 0.572549
0.400000 0.654902 0.576471
0.450980 0.650980 0.576471
0.537255 0.647059 0.588235
0.592157 0.647059 0.596078
0.674510 0.654902 0.580392
0.792157 0.654902 0.576471
0.870588 0.627451 0.529412
0.949020 0.615686 0.501961
0.545098 0.713725 0.635294
0.556863 0.713725 0.619608
0.576471 0.713725 0.627451
0.603922 0.713725 0.627451
0.619608 0.705882 0.615686
0.674510 0.705882 0.615686
0.745098 0.717647 0.607843
0.839216 0.737255 0.600000
0.945098 0.737255 0.572549
0.615686 0.784314 0.674510
0.631373 0.772549 0.662745
0.631373 0.772549 0.662745
0.639216 0.768627 0.654902
0.658824 0.772549 0.654902
0.694118 0.768627 0.658824
0.745098 0.780392 0.658824
0.819608 0.800000 0.650980
0.925490 0.839216 0.643137
0.662745 0.878431 0.721569
0.658824 0.874510 0.721569
0.666667 0.874510 0.701961
0.690196 0.878431 0.721569
0.713725 0.874510 0.717647
0.741176 0.878431 0.721569
0.784314 0.890196 0.721569
0.850980 0.905882 0.713725
0.909804 0.921569 0.713725
0.000000 0.117647 0.643137
0.007843 0.113725 0.627451
0.235294 0.109804 0.639216
0.407843 0.105882 0.654902
0.584314 0.121569 0.654902
0.725490 0.137255 0.658824
0.811765 0.180392 0.627451
0.886275 0.298039 0.588235
0.952941 0.388235 0.596078
0.003922 0.164706 0.650980
0.000000 0.172549 0.635294
0.239216 0.168627 0.647059
0.419608 0.168627 0.647059
0.584314 0.196078 0.662745
0.733333 0.211765 0.670588
0.807843 0.243137 0.615686
0.886275 0.337255 0.584314
0.956863 0.400000 0.596078
0.003922 0.262745 0.639216
0.000000 0.270588 0.643137
0.247059 0.270588 0.647059
0.427451 0.290196 0.658824
0.588235 0.317647 0.666667
0.725490 0.341176 0.666667
0.800000 0.364706 0.631373
0.874510 0.431373 0.611765
0.945098 0.450980 0.600000
0.000000 0.403922 0.635294
0.019608 0.411765 0.643137
0.266667 0.419608 0.643137
0.415686 0.415686 0.650980
0.592157 0.447059 0.650980
0.705882 0.474510 0.654902
0.780392 0.482353 0.631373
0.854902 0.517647 0.623529
0.933333 0.490196 0.600000
0.054902 0.549020 0.639216
0.164706 0.549020 0.654902
0.309804 0.552941 0.643137
0.435294 0.552941 0.647059
0.592157 0.572549 0.658824
0.694118 0.588235 0.662745
0.780392 0.596078 0.658824
0.847059 0.580392 0.631373
0.929412 0.533333 0.588235
0.349020 0.654902 0.654902
0.372549 0.654902 0.650980
0.447059 0.658824 0.658824
0.537255 0.658824 0.666667
0.627451 0.658824 0.670588
0.717647 0.658824 0.678431
0.776471 0.650980 0.654902
0.839216 0.639216 0.635294
0.929412 0.623529 0.623529
0.560784 0.733333 0.682353
0.568627 0.725490 0.690196
0.596078 0.725490 0.682353
0.635294 0.725490 0.686275
0.682353 0.725490 0.694118
0.705882 0.709804 0.678431
0.760784 0.721569 0.682353
0.858824 0.729412 0.670588
0.960784 0.713725 0.643137
0.623529 0.800000 0.709804
0.639216 0.792157 0.717647
0.643137 0.792157 0.709804
0.674510 0.788235 0.717647
0.705882 0.780392 0.705882
0.721569 0.772549 0.705882
0.764706 0.784314 0.705882
0.827451 0.807843 0.694118
0.933333 0.839216 0.698039
0.686275 0.886275 0.764706
0.690196 0.890196 0.768627
0.701961 0.886275 0.760784
0.709804 0.886275 0.764706
0.709804 0.882353 0.745098
0.749020 0.886275 0.756863
0.788235 0.890196 0.752941
0.847059 0.905882 0.745098
0.925490 0.921569 0.741176
0.003922 0.160784 0.737255
0.105882 0.168627 0.737255
0.270588 0.172549 0.733333
0.419608 0.188235 0.737255
0.572549 0.223529 0.733333
0.721569 0.274510 0.749020
0.811765 0.317647 0.737255
0.878431 0.349020 0.717647
0.933333 0.450980 0.698039
0.000000 0.211765 0.741176
0.141176 0.215686 0.721569
0.270588 0.227451 0.737255
0.427451 0.235294 0.729412
0.576471 0.270588 0.741176
0.705882 0.325490 0.737255
0.807843 0.356863 0.729412
0.866667 0.372549 0.701961
0.937255 0.466667 0.705882
0.066667 0.305882 0.725490
0.176471 0.305882 0.749020
0.305882 0.317647 0.737255
0.439216 0.333333 0.737255
0.584314 0.368627 0.733333
0.705882 0.411765 0.737255
0.807843 0.439216 0.729412
0.850980 0.462745 0.713725
0.925490 0.517647 0.709804
0.200000 0.443137 0.729412
0.262745 0.447059 0.729412
0.329412 0.431373 0.725490
0.458824 0.454902 0.721569
0.584314 0.482353 0.729412
0.701961 0.509804 0.725490
0.792157 0.529412 0.729412
0.843137 0.541176 0.713725
0.917647 0.576471 0.713725
0.168627 0.549020 0.717647
0.239216 0.549020 0.709804
0.360784 0.552941 0.713725
0.494118 0.568627 0.733333
0.600000 0.572549 0.733333
0.705882 0.600000 0.729412
0.788235 0.611765 0.733333
0.843137 0.611765 0.729412
0.917647 0.631373 0.737255
0.380392 0.643137 0.717647
0.403922 0.650980 0.721569
0.447059 0.647059 0.721569
0.525490 0.647059 0.725490
0.603922 0.654902 0.729412
0.705882 0.654902 0.725490
0.788235 0.674510 0.745098
0.843137 0.678431 0.725490
0.925490 0.654902 0.725490
0.513725 0.725490 0.725490
0.537255 0.729412 0.745098
0.568627 0.725490 0.733333
0.607843 0.725490 0.733333
0.658824 0.729412 0.745098
0.729412 0.733333 0.741176
0.788235 0.729412 0.749020
0.850980 0.717647 0.721569
0.937255 0.705882 0.713725
0.639216 0.800000 0.768627
0.639216 0.807843 0.768627
0.650980 0.796078 0.764706
0.678431 0.803922 0.760784
0.717647 0.800000 0.772549
0.764706 0.803922 0.772549
0.780392 0.792157 0.749020
0.843137 0.815686 0.752941
0.956863 0.831373 0.749020
0.666667 0.894118 0.807843
0.678431 0.898039 0.800000
0.698039 0.890196 0.803922
0.717647 0.894118 0.803922
0.737255 0.901961 0.815686
0.764706 0.890196 0.796078
0.803922 0.898039 0.796078
0.854902 0.905882 0.796078
0.929412 0.925490 0.803922
0.231373 0.266667 0.811765
0.282353 0.274510 0.807843
0.368627 0.290196 0.811765
0.474510 0.309804 0.803922
0.596078 0.349020 0.807843
0.709804 0.388235 0.811765
0.811765 0.458824 0.811765
0.882353 0.482353 0.807843
0.941176 0.490196 0.796078
0.258824 0.301961 0.803922
0.298039 0.313725 0.807843
0.368627 0.325490 0.803922
0.482353 0.345098 0.807843
0.596078 0.376471 0.811765
0.717647 0.427451 0.815686
0.807843 0.474510 0.807843
0.882353 0.498039 0.800000
0.929412 0.509804 0.776471
0.294118 0.384314 0.800000
0.341176 0.392157 0.803922
0.411765 0.400000 0.803922
0.498039 0.419608 0.807843
0.607843 0.450980 0.800000
0.713725 0.482353 0.803922
0.811765 0.533333 0.807843
0.878431 0.545098 0.807843
0.921569 0.552941 0.788235
0.349020 0.474510 0.800000
0.376471 0.482353 0.800000
0.435294 0.498039 0.800000
0.521569 0.505882 0.796078
0.623529 0.521569 0.800000
0.713725 0.549020 0.800000
0.803922 0.576471 0.803922
0.874510 0.588235 0.803922
0.913725 0.588235 0.792157
0.384314 0.584314 0.800000
0.427451 0.588235 0.800000
0.474510 0.592157 0.803922
0.541176 0.584314 0.796078
0.631373 0.596078 0.803922
0.721569 0.611765 0.800000
0.811765 0.635294 0.803922
0.866667 0.643137 0.811765
0.913725 0.647059 0.800000
0.407843 0.658824 0.800000
0.427451 0.658824 0.792157
0.466667 0.658824 0.788235
0.537255 0.654902 0.788235
0.627451 0.658824 0.800000
0.709804 0.666667 0.800000
0.800000 0.686275 0.807843
0.866667 0.690196 0.811765
0.925490 0.698039 0.796078
0.513725 0.733333 0.784314
0.529412 0.737255 0.800000
0.549020 0.733333 0.796078
0.592157 0.729412 0.803922
0.631373 0.729412 0.807843
0.690196 0.721569 0.796078
0.780392 0.729412 0.807843
0.870588 0.745098 0.827451
0.949020 0.749020 0.815686
0.596078 0.807843 0.815686
0.611765 0.803922 0.823529
0.627451 0.807843 0.807843
0.650980 0.807843 0.815686
0.682353 0.815686 0.823529
0.733333 0.815686 0.819608
0.796078 0.811765 0.823529
0.866667 0.815686 0.843137
0.956863 0.803922 0.807843
0.666667 0.909804 0.850980
0.666667 0.909804 0.850980
0.686275 0.905882 0.854902
0.705882 0.909804 0.858824
0.741176 0.913725 0.862745
0.772549 0.913725 0.858824
0.827451 0.913725 0.862745
0.870588 0.913725 0.858824
0.945098 0.933333 0.866667
0.490196 0.462745 0.901961
0.505882 0.466667 0.905882
0.552941 0.478431 0.901961
0.615686 0.494118 0.901961
0.694118 0.513725 0.901961
0.776471 0.545098 0.898039
0.850980 0.568627 0.898039
0.917647 0.600000 0.898039
0.984314 0.596078 0.909804
0.494118 0.482353 0.894118
0.501961 0.490196 0.901961
0.556863 0.498039 0.901961
0.619608 0.509804 0.901961
0.701961 0.529412 0.901961
0.772549 0.552941 0.894118
0.850980 0.580392 0.894118
0.917647 0.603922 0.890196
0.968627 0.607843 0.901961
0.513725 0.537255 0.913725
0.533333 0.537255 0.901961
0.568627 0.549020 0.909804
0.631373 0.552941 0.901961
0.705882 0.564706 0.905882
0.776471 0.584314 0.901961
0.850980 0.607843 0.901961
0.909804 0.623529 0.894118
0.980392 0.627451 0.901961
0.517647 0.584314 0.898039
0.541176 0.584314 0.898039
0.584314 0.588235 0.901961
0.639216 0.596078 0.901961
0.701961 0.607843 0.898039
0.772549 0.615686 0.894118
0.850980 0.627451 0.894118
0.917647 0.647059 0.901961
0.968627 0.654902 0.901961
0.541176 0.650980 0.905882
0.556863 0.650980 0.901961
0.572549 0.643137 0.901961
0.623529 0.643137 0.901961
0.686275 0.647059 0.894118
0.772549 0.654902 0.905882
0.843137 0.662745 0.905882
0.909804 0.678431 0.898039
0.960784 0.682353 0.901961
0.529412 0.709804 0.905882
0.541176 0.709804 0.909804
0.568627 0.709804 0.905882
0.615686 0.705882 0.909804
0.666667 0.694118 0.905882
0.737255 0.694118 0.913725
0.831373 0.701961 0.909804
0.909804 0.721569 0.917647
0.968627 0.725490 0.925490
0.556863 0.780392 0.898039
0.556863 0.776471 0.905882
0.564706 0.776471 0.909804
0.592157 0.772549 0.913725
0.635294 0.768627 0.913725
0.705882 0.752941 0.909804
0.796078 0.745098 0.913725
0.894118 0.768627 0.921569
0.972549 0.776471 0.921569
0.584314 0.854902 0.917647
0.588235 0.858824 0.921569
0.603922 0.850980 0.921569
0.631373 0.850980 0.917647
0.666667 0.850980 0.929412
0.705882 0.843137 0.929412
0.760784 0.831373 0.925490
0.862745 0.831373 0.925490
0.972549 0.847059 0.937255
0.623529 0.937255 0.933333
0.639216 0.929412 0.933333
0.650980 0.933333 0.929412
0.674510 0.929412 0.937255
0.705882 0.933333 0.937255
0.745098 0.933333 0.933333
0.811765 0.933333 0.941176
0.882353 0.937255 0.949020
0.960784 0.945098 0.949020
