tools/luts_backup/Salem.cube
#Generated with IWLTBAP LUT Generator
#Website: http://luts.iwltbap.com
TITLE "Salem"
#LUT size
LUT_3D_SIZE 5
#LUT data points
0.066667 0.086275 0.070588
0.180392 0.090196 0.066667
0.466667 0.058824 0.047059
0.784314 0.000000 0.000000
0.972549 0.027451 0.000000
0.082353 0.164706 0.098039
0.168627 0.180392 0.066667
0.521569 0.219608 0.000000
0.811765 0.219608 0.003922
0.984314 0.219608 0.000000
0.000000 0.466667 0.125490
0.054902 0.454902 0.129412
0.462745 0.525490 0.007843
0.815686 0.525490 0.000000
0.984314 0.454902 0.000000
0.196078 0.694118 0.384314
0.274510 0.686275 0.356863
0.454902 0.698039 0.360784
0.698039 0.717647 0.317647
0.956863 0.733333 0.227451
0.639216 0.862745 0.662745
0.650980 0.862745 0.666667
0.698039 0.862745 0.674510
0.776471 0.882353 0.674510
0.913725 0.917647 0.650980
0.074510 0.098039 0.160784
0.200000 0.094118 0.168627
0.509804 0.000000 0.160784
0.788235 0.000000 0.145098
0.976471 0.000000 0.125490
0.074510 0.200000 0.180392
0.227451 0.203922 0.211765
0.537255 0.203922 0.176471
0.803922 0.192157 0.145098
0.988235 0.207843 0.117647
0.050980 0.509804 0.294118
0.207843 0.501961 0.282353
0.505882 0.537255 0.250980
0.827451 0.517647 0.156863
0.984314 0.462745 0.105882
0.345098 0.701961 0.462745
0.396078 0.701961 0.466667
0.505882 0.701961 0.470588
0.709804 0.725490 0.435294
0.949020 0.737255 0.360784
0.639216 0.866667 0.666667
0.658824 0.870588 0.678431
0.705882 0.866667 0.694118
0.784314 0.890196 0.682353
0.909804 0.917647 0.662745
0.000000 0.101961 0.494118
0.219608 0.090196 0.498039
0.580392 0.003922 0.525490
0.835294 0.098039 0.478431
0.980392 0.129412 0.400000
0.007843 0.243137 0.517647
0.211765 0.239216 0.521569
0.584314 0.262745 0.545098
0.819608 0.321569 0.498039
0.968627 0.270588 0.411765
0.003922 0.552941 0.549020
0.298039 0.556863 0.552941
0.584314 0.568627 0.572549
0.788235 0.537255 0.529412
0.945098 0.509804 0.466667
0.545098 0.713725 0.635294
0.576471 0.713725 0.627451
0.619608 0.705882 0.615686
0.745098 0.717647 0.607843
0.945098 0.737255 0.572549
0.662745 0.878431 0.721569
0.666667 0.874510 0.701961
0.713725 0.874510 0.717647
0.784314 0.890196 0.721569
0.909804 0.921569 0.713725
0.003922 0.160784 0.737255
0.270588 0.172549 0.733333
0.572549 0.223529 0.733333
0.811765 0.317647 0.737255
0.933333 0.450980 0.698039
0.066667 0.305882 0.725490
0.305882 0.317647 0.737255
0.584314 0.368627 0.733333
0.807843 0.439216 0.729412
0.925490 0.517647 0.709804
0.168627 0.549020 0.717647
0.360784 0.552941 0.713725
0.600000 0.572549 0.733333
0.788235 0.611765 0.733333
0.917647 0.631373 0.737255
0.513725 0.725490 0.725490
0.568627 0.725490 0.733333
0.658824 0.729412 0.745098
0.788235 0.729412 0.749020
0.937255 0.705882 0.713725
0.666667 0.894118 0.807843
0.698039 0.890196 0.803922
0.737255 0.901961 0.815686
0.803922 0.898039 0.796078
0.929412 0.925490 0.803922
0.490196 0.462745 0.901961
0.552941 0.478431 0.901961
0.694118 0.513725 0.901961
0.850980 0.568627 0.898039
0.984314 0.596078 0.909804
0.513725 0.537255 0.913725
0.568627 0.549020 0.909804
0.705882 0.564706 0.905882
0.850980 0.607843 0.901961
0.980392 0.627451 0.901961
0.541176 0.650980 0.905882
0.572549 0.643137 0.901961
0.686275 0.647059 0.894118
0.843137 0.662745 0.905882
0.960784 0.682353 0.901961
0.556863 0.780392 0.898039
0.564706 0.776471 0.909804
0.635294 0.768627 0.913725
0.796078 0.745098 0.913725
0.972549 0.776471 0.921569
0.623529 0.937255 0.933333
0.650980 0.933333 0.929412
0.705882 0.933333 0.937255
0.811765 0.933333 0.941176
0.960784 0.945098 0.949020
