tools/luts_backup/Salem.cube
#Generated with IWLTBAP LUT Generator
#Website: http://luts.iwltbap.com
TITLE "Salem"
#LUT size
LUT_3D_SIZE 25
#LUT data points
0.066667 0.086275 0.070588
0.086275 0.090196 0.070588
0.101961 0.090196 0.070588
0.101961 0.090196 0.062745
0.129412 0.094118 0.066667
0.156863 0.086275 0.070588
0.180392 0.090196 0.066667
0.203922 0.090196 0.066667
0.247059 0.086275 0.062745
0.294118 0.086275 0.054902
0.345098 0.074510 0.047059
0.403922 0.070588 0.058824
0.466667 0.058824 0.047059
0.533333 0.047059 0.047059
0.588235 0.027451 0.035294
0.631373 0.011765 0.015686
0.698039 0.000000 0.007843
0.741176 0.003922 0.007843
0.784314 0.000000 0.000000
0.823529 0.000000 0.000000
0.862745 0.000000 0.000000
0.894118 0.000000 0.003922
0.921569 0.003922 0.000000
0.945098 0.011765 0.003922
0.972549 0.027451 0.000000
0.078431 0.090196 0.062745
0.074510 0.094118 0.066667
0.105882 0.094118 0.074510
0.125490 0.090196 0.070588
0.129412 0.094118 0.074510
0.152941 0.094118 0.066667
0.188235 0.090196 0.070588
0.207843 0.094118 0.062745
0.250980 0.094118 0.062745
0.301961 0.094118 0.062745
0.356863 0.086275 0.058824
0.415686 0.082353 0.062745
0.478431 0.074510 0.054902
0.537255 0.062745 0.031373
0.588235 0.050980 0.027451
0.650980 0.035294 0.015686
0.698039 0.027451 0.000000
0.745098 0.007843 0.000000
0.788235 0.003922 0.011765
0.827451 0.003922 0.000000
0.862745 0.003922 0.000000
0.894118 0.011765 0.000000
0.925490 0.015686 0.000000
0.945098 0.039216 0.007843
0.972549 0.058824 0.000000
0.078431 0.101961 0.062745
0.090196 0.101961 0.074510
0.094118 0.105882 0.070588
0.109804 0.098039 0.062745
0.141176 0.098039 0.074510
0.152941 0.105882 0.058824
0.184314 0.105882 0.062745
0.219608 0.101961 0.062745
0.266667 0.098039 0.062745
0.313725 0.109804 0.066667
0.364706 0.105882 0.058824
0.419608 0.098039 0.050980
0.482353 0.086275 0.039216
0.541176 0.082353 0.043137
0.603922 0.070588 0.023529
0.654902 0.066667 0.011765
0.705882 0.054902 0.000000
0.745098 0.047059 0.000000
0.792157 0.047059 0.000000
0.827451 0.039216 0.000000
0.858824 0.043137 0.000000
0.890196 0.050980 0.007843
0.925490 0.062745 0.000000
0.945098 0.070588 0.000000
0.980392 0.082353 0.000000
0.082353 0.109804 0.078431
0.086275 0.105882 0.078431
0.098039 0.109804 0.074510
0.101961 0.113725 0.070588
0.137255 0.109804 0.070588
0.160784 0.113725 0.066667
0.192157 0.117647 0.062745
0.235294 0.129412 0.062745
0.270588 0.117647 0.058824
0.321569 0.117647 0.062745
0.380392 0.125490 0.054902
0.435294 0.117647 0.043137
0.501961 0.113725 0.039216
0.549020 0.109804 0.031373
0.611765 0.109804 0.011765
0.666667 0.101961 0.000000
0.717647 0.094118 0.007843
0.760784 0.090196 0.011765
0.796078 0.090196 0.000000
0.835294 0.090196 0.000000
0.870588 0.090196 0.007843
0.894118 0.094118 0.000000
0.921569 0.105882 0.003922
0.952941 0.109804 0.000000
0.980392 0.121569 0.011765
0.078431 0.121569 0.066667
0.090196 0.121569 0.078431
0.094118 0.117647 0.070588
0.098039 0.121569 0.074510
0.121569 0.121569 0.074510
0.160784 0.137255 0.074510
0.200000 0.141176 0.066667
0.231373 0.145098 0.062745
0.290196 0.149020 0.062745
0.333333 0.145098 0.054902
0.396078 0.145098 0.047059
0.447059 0.145098 0.027451
0.513725 0.141176 0.031373
0.564706 0.145098 0.019608
0.619608 0.137255 0.003922
0.670588 0.145098 0.000000
0.717647 0.137255 0.000000
0.760784 0.133333 0.000000
0.811765 0.133333 0.000000
0.839216 0.133333 0.000000
0.874510 0.133333 0.007843
0.898039 0.137255 0.000000
0.921569 0.137255 0.000000
0.952941 0.145098 0.000000
0.980392 0.149020 0.000000
0.082353 0.137255 0.078431
0.086275 0.133333 0.078431
0.098039 0.141176 0.086275
0.094118 0.141176 0.086275
0.113725 0.137255 0.082353
0.141176 0.145098 0.074510
0.180392 0.160784 0.074510
0.235294 0.168627 0.066667
0.278431 0.172549 0.054902
0.337255 0.176471 0.050980
0.396078 0.176471 0.039216
0.454902 0.180392 0.039216
0.509804 0.176471 0.015686
0.568627 0.180392 0.015686
0.627451 0.176471 0.003922
0.678431 0.180392 0.003922
0.721569 0.180392 0.000000
0.760784 0.180392 0.000000
0.807843 0.176471 0.011765
0.831373 0.176471 0.003922
0.870588 0.176471 0.003922
0.894118 0.180392 0.000000
0.925490 0.172549 0.000000
0.949020 0.172549 0.000000
0.960784 0.184314 0.000000
0.082353 0.164706 0.098039
0.074510 0.164706 0.086275
0.101961 0.160784 0.078431
0.098039 0.168627 0.082353
0.101961 0.172549 0.078431
0.141176 0.180392 0.074510
0.168627 0.180392 0.066667
0.223529 0.200000 0.058824
0.286275 0.215686 0.058824
0.349020 0.219608 0.043137
0.407843 0.223529 0.019608
0.470588 0.223529 0.011765
0.521569 0.219608 0.000000
0.580392 0.223529 0.000000
0.639216 0.227451 0.003922
0.682353 0.227451 0.003922
0.729412 0.223529 0.000000
0.772549 0.219608 0.000000
0.811765 0.219608 0.003922
0.847059 0.223529 0.003922
0.870588 0.219608 0.000000
0.901961 0.215686 0.000000
0.925490 0.215686 0.000000
0.949020 0.215686 0.000000
0.984314 0.219608 0.000000
0.062745 0.203922 0.094118
0.070588 0.207843 0.090196
0.078431 0.196078 0.101961
0.101961 0.203922 0.098039
0.109804 0.200000 0.086275
0.141176 0.207843 0.082353
0.164706 0.219608 0.082353
0.211765 0.231373 0.074510
0.270588 0.247059 0.050980
0.333333 0.270588 0.027451
0.407843 0.278431 0.007843
0.474510 0.286275 0.000000
0.541176 0.278431 0.000000
0.592157 0.278431 0.007843
0.647059 0.278431 0.000000
0.701961 0.274510 0.003922
0.745098 0.270588 0.000000
0.788235 0.266667 0.003922
0.827451 0.266667 0.007843
0.854902 0.258824 0.003922
0.882353 0.258824 0.000000
0.905882 0.258824 0.000000
0.937255 0.258824 0.000000
0.956863 0.262745 0.000000
0.972549 0.258824 0.003922
0.023529 0.243137 0.090196
0.035294 0.250980 0.094118
0.047059 0.243137 0.098039
0.078431 0.243137 0.086275
0.101961 0.250980 0.098039
0.125490 0.254902 0.086275
0.160784 0.262745 0.086275
0.219608 0.274510 0.082353
0.250980 0.282353 0.050980
0.317647 0.298039 0.031373
0.411765 0.329412 0.003922
0.478431 0.345098 0.003922
0.533333 0.349020 0.000000
0.615686 0.341176 0.003922
0.666667 0.337255 0.000000
0.717647 0.321569 0.000000
0.752941 0.317647 0.000000
0.788235 0.313725 0.000000
0.823529 0.317647 0.000000
0.858824 0.309804 0.000000
0.894118 0.301961 0.015686
0.913725 0.301961 0.007843
0.949020 0.298039 0.000000
0.968627 0.294118 0.003922
0.984314 0.294118 0.000000
0.007843 0.298039 0.098039
0.000000 0.298039 0.094118
0.000000 0.294118 0.101961
0.039216 0.290196 0.094118
0.070588 0.290196 0.105882
0.113725 0.301961 0.098039
0.149020 0.309804 0.090196
0.184314 0.317647 0.078431
0.247059 0.337255 0.062745
0.305882 0.349020 0.039216
0.372549 0.360784 0.000000
0.458824 0.403922 0.000000
0.537255 0.407843 0.003922
0.600000 0.407843 0.003922
0.666667 0.403922 0.000000
0.713725 0.384314 0.000000
0.764706 0.380392 0.000000
0.796078 0.368627 0.011765
0.835294 0.360784 0.011765
0.862745 0.356863 0.000000
0.886275 0.345098 0.000000
0.909804 0.337255 0.000000
0.937255 0.341176 0.003922
0.960784 0.333333 0.003922
0.988235 0.337255 0.007843
0.003922 0.341176 0.094118
0.000000 0.341176 0.101961
0.003922 0.337255 0.105882
0.000000 0.341176 0.105882
0.027451 0.341176 0.109804
0.082353 0.337255 0.109804
0.125490 0.345098 0.090196
0.164706 0.364706 0.094118
0.219608 0.380392 0.074510
0.274510 0.384314 0.043137
0.349020 0.403922 0.019608
0.423529 0.419608 0.000000
0.521569 0.462745 0.000000
0.584314 0.458824 0.000000
0.650980 0.458824 0.000000
0.701961 0.447059 0.000000
0.752941 0.439216 0.000000
0.796078 0.423529 0.000000
0.831373 0.403922 0.000000
0.862745 0.396078 0.000000
0.886275 0.392157 0.000000
0.905882 0.388235 0.000000
0.929412 0.380392 0.000000
0.960784 0.380392 0.003922
0.980392 0.376471 0.000000
0.003922 0.403922 0.117647
0.003922 0.403922 0.105882
0.003922 0.403922 0.117647
0.000000 0.396078 0.121569
0.003922 0.392157 0.129412
0.019608 0.396078 0.117647
0.094118 0.407843 0.121569
0.149020 0.411765 0.098039
0.196078 0.423529 0.090196
0.266667 0.443137 0.070588
0.325490 0.454902 0.035294
0.400000 0.466667 0.015686
0.478431 0.478431 0.000000
0.584314 0.509804 0.003922
0.647059 0.513725 0.000000
0.694118 0.509804 0.000000
0.741176 0.505882 0.000000
0.788235 0.482353 0.000000
0.819608 0.466667 0.000000
0.858824 0.450980 0.000000
0.886275 0.435294 0.007843
0.917647 0.427451 0.011765
0.933333 0.419608 0.000000
0.960784 0.419608 0.000000
0.972549 0.419608 0.003922
0.000000 0.466667 0.125490
0.000000 0.458824 0.129412
0.000000 0.462745 0.125490
0.000000 0.462745 0.125490
0.000000 0.454902 0.129412
0.000000 0.454902 0.137255
0.054902 0.454902 0.129412
0.129412 0.462745 0.129412
0.196078 0.474510 0.113725
0.250980 0.486275 0.094118
0.317647 0.498039 0.074510
0.380392 0.513725 0.043137
0.462745 0.525490 0.007843
0.529412 0.533333 0.000000
0.627451 0.556863 0.000000
0.686275 0.556863 0.003922
0.737255 0.552941 0.003922
0.772549 0.541176 0.000000
0.815686 0.525490 0.000000
0.850980 0.509804 0.000000
0.882353 0.494118 0.000000
0.909804 0.478431 0.000000
0.937255 0.462745 0.003922
0.960784 0.466667 0.000000
0.984314 0.454902 0.000000
0.000000 0.517647 0.152941
0.007843 0.521569 0.156863
0.003922 0.509804 0.156863
0.003922 0.509804 0.149020
0.000000 0.513725 0.149020
0.000000 0.513725 0.152941
0.019608 0.505882 0.168627
0.113725 0.505882 0.152941
0.184314 0.517647 0.149020
0.250980 0.529412 0.129412
0.313725 0.537255 0.125490
0.360784 0.552941 0.094118
0.443137 0.552941 0.070588
0.505882 0.572549 0.019608
0.572549 0.580392 0.007843
0.662745 0.596078 0.000000
0.725490 0.607843 0.000000
0.772549 0.596078 0.000000
0.815686 0.580392 0.000000
0.847059 0.564706 0.000000
0.878431 0.552941 0.003922
0.898039 0.537255 0.007843
0.937255 0.517647 0.007843
0.968627 0.501961 0.000000
0.984314 0.501961 0.000000
0.000000 0.564706 0.184314
0.000000 0.560784 0.188235
0.000000 0.564706 0.180392
0.000000 0.560784 0.180392
0.007843 0.556863 0.180392
0.003922 0.556863 0.180392
0.003922 0.552941 0.176471
0.105882 0.556863 0.200000
0.184314 0.560784 0.180392
0.250980 0.568627 0.168627
0.301961 0.580392 0.164706
0.360784 0.588235 0.156863
0.427451 0.596078 0.133333
0.490196 0.603922 0.109804
0.556863 0.603922 0.078431
0.627451 0.623529 0.035294
0.701961 0.631373 0.000000
0.768627 0.639216 0.000000
0.800000 0.619608 0.000000
0.831373 0.611765 0.003922
0.870588 0.600000 0.000000
0.898039 0.584314 0.000000
0.921569 0.568627 0.000000
0.952941 0.556863 0.000000
0.980392 0.541176 0.000000
0.000000 0.596078 0.203922
0.000000 0.600000 0.215686
0.000000 0.596078 0.211765
0.003922 0.596078 0.215686
0.003922 0.588235 0.219608
0.000000 0.588235 0.215686
0.019608 0.592157 0.207843
0.113725 0.588235 0.223529
0.180392 0.596078 0.211765
0.239216 0.600000 0.211765
0.301961 0.607843 0.211765
0.352941 0.607843 0.200000
0.415686 0.619608 0.184314
0.474510 0.627451 0.168627
0.533333 0.635294 0.152941
0.584314 0.643137 0.145098
0.654902 0.647059 0.109804
0.721569 0.658824 0.078431
0.784314 0.670588 0.035294
0.823529 0.654902 0.000000
0.854902 0.639216 0.000000
0.886275 0.627451 0.011765
0.917647 0.615686 0.003922
0.941176 0.611765 0.000000
0.980392 0.596078 0.003922
0.000000 0.639216 0.258824
0.000000 0.643137 0.258824
0.007843 0.639216 0.270588
0.003922 0.635294 0.266667
0.003922 0.639216 0.250980
0.027451 0.631373 0.254902
0.117647 0.631373 0.262745
0.168627 0.627451 0.270588
0.219608 0.631373 0.270588
0.266667 0.635294 0.258824
0.317647 0.639216 0.254902
0.368627 0.647059 0.247059
0.407843 0.650980 0.231373
0.466667 0.658824 0.231373
0.517647 0.658824 0.227451
0.572549 0.662745 0.207843
0.631373 0.670588 0.192157
0.690196 0.670588 0.168627
0.752941 0.682353 0.156863
0.811765 0.690196 0.141176
0.854902 0.678431 0.117647
0.882353 0.666667 0.058824
0.905882 0.666667 0.003922
0.949020 0.647059 0.000000
0.968627 0.639216 0.011765
0.007843 0.674510 0.298039
0.007843 0.670588 0.305882
0.047059 0.670588 0.317647
0.086275 0.670588 0.309804
0.117647 0.670588 0.301961
0.152941 0.662745 0.309804
0.192157 0.662745 0.309804
0.231373 0.662745 0.313725
0.266667 0.658824 0.305882
0.305882 0.658824 0.313725
0.352941 0.666667 0.317647
0.396078 0.674510 0.313725
0.423529 0.674510 0.294118
0.462745 0.674510 0.290196
0.517647 0.686275 0.274510
0.568627 0.690196 0.282353
0.619608 0.690196 0.266667
0.666667 0.694118 0.254902
0.717647 0.698039 0.239216
0.776471 0.701961 0.231373
0.827451 0.713725 0.219608
0.870588 0.709804 0.207843
0.898039 0.701961 0.172549
0.917647 0.690196 0.129412
0.964706 0.690196 0.101961
0.196078 0.694118 0.384314
0.196078 0.701961 0.341176
0.211765 0.698039 0.368627
0.211765 0.698039 0.360784
0.227451 0.690196 0.360784
0.262745 0.694118 0.352941
0.274510 0.686275 0.356863
0.305882 0.686275 0.368627
0.321569 0.694118 0.364706
0.349020 0.690196 0.372549
0.388235 0.694118 0.356863
0.411765 0.701961 0.368627
0.454902 0.698039 0.360784
0.490196 0.705882 0.349020
0.529412 0.705882 0.349020
0.572549 0.709804 0.349020
0.615686 0.717647 0.337255
0.650980 0.713725 0.325490
0.698039 0.717647 0.317647
0.749020 0.721569 0.305882
0.792157 0.729412 0.294118
0.858824 0.745098 0.282353
0.882353 0.741176 0.262745
0.913725 0.737255 0.247059
0.956863 0.733333 0.227451
0.294118 0.717647 0.419608
0.309804 0.717647 0.415686
0.301961 0.717647 0.423529
0.309804 0.717647 0.407843
0.321569 0.717647 0.419608
0.333333 0.717647 0.415686
0.345098 0.713725 0.423529
0.380392 0.717647 0.431373
0.392157 0.717647 0.411765
0.411765 0.717647 0.423529
0.427451 0.713725 0.427451
0.466667 0.713725 0.435294
0.494118 0.721569 0.423529
0.513725 0.721569 0.415686
0.545098 0.729412 0.415686
0.564706 0.729412 0.407843
0.619608 0.737255 0.400000
0.658824 0.733333 0.384314
0.698039 0.737255 0.388235
0.729412 0.749020 0.380392
0.780392 0.741176 0.360784
0.819608 0.749020 0.356863
0.870588 0.764706 0.352941
0.901961 0.772549 0.329412
0.941176 0.780392 0.325490
0.368627 0.733333 0.454902
0.364706 0.741176 0.458824
0.368627 0.737255 0.447059
0.364706 0.741176 0.450980
0.380392 0.737255 0.462745
0.400000 0.733333 0.466667
0.407843 0.725490 0.462745
0.419608 0.733333 0.462745
0.431373 0.729412 0.474510
0.454902 0.725490 0.462745
0.486275 0.729412 0.466667
0.498039 0.737255 0.474510
0.513725 0.737255 0.466667
0.541176 0.741176 0.470588
0.572549 0.741176 0.470588
0.600000 0.741176 0.458824
0.627451 0.752941 0.458824
0.658824 0.752941 0.454902
0.694118 0.760784 0.447059
0.725490 0.772549 0.443137
0.760784 0.772549 0.431373
0.796078 0.768627 0.415686
0.847059 0.772549 0.403922
0.894118 0.792157 0.419608
0.937255 0.796078 0.415686
0.450980 0.768627 0.509804
0.454902 0.760784 0.525490
0.450980 0.756863 0.521569
0.450980 0.768627 0.509804
0.474510 0.756863 0.509804
0.478431 0.752941 0.505882
0.474510 0.752941 0.525490
0.490196 0.756863 0.517647
0.505882 0.756863 0.521569
0.521569 0.756863 0.521569
0.533333 0.749020 0.521569
0.556863 0.756863 0.533333
0.568627 0.760784 0.541176
0.584314 0.760784 0.529412
0.611765 0.768627 0.525490
0.627451 0.768627 0.517647
0.658824 0.772549 0.521569
0.678431 0.776471 0.521569
0.701961 0.784314 0.513725
0.733333 0.796078 0.501961
0.764706 0.796078 0.494118
0.803922 0.796078 0.494118
0.835294 0.803922 0.486275
0.870588 0.807843 0.462745
0.913725 0.819608 0.466667
0.517647 0.792157 0.556863
0.533333 0.788235 0.568627
0.533333 0.788235 0.568627
0.533333 0.788235 0.560784
0.533333 0.788235 0.576471
0.541176 0.788235 0.572549
0.549020 0.784314 0.572549
0.560784 0.784314 0.576471
0.568627 0.780392 0.576471
0.572549 0.784314 0.580392
0.588235 0.784314 0.576471
0.600000 0.784314 0.580392
0.611765 0.784314 0.576471
0.635294 0.788235 0.580392
0.635294 0.792157 0.584314
0.666667 0.796078 0.580392
0.690196 0.800000 0.572549
0.705882 0.807843 0.568627
0.725490 0.811765 0.568627
0.745098 0.819608 0.568627
0.780392 0.823529 0.556863
0.803922 0.827451 0.552941
0.839216 0.823529 0.537255
0.874510 0.835294 0.552941
0.890196 0.847059 0.525490
0.584314 0.819608 0.607843
0.592157 0.823529 0.611765
0.588235 0.815686 0.615686
0.576471 0.823529 0.615686
0.592157 0.823529 0.611765
0.592157 0.819608 0.619608
0.603922 0.815686 0.619608
0.611765 0.819608 0.607843
0.611765 0.815686 0.627451
0.631373 0.819608 0.631373
0.639216 0.819608 0.627451
0.639216 0.823529 0.619608
0.654902 0.819608 0.623529
0.666667 0.823529 0.627451
0.690196 0.823529 0.627451
0.701961 0.827451 0.631373
0.717647 0.839216 0.615686
0.733333 0.843137 0.615686
0.752941 0.847059 0.611765
0.772549 0.850980 0.611765
0.800000 0.854902 0.615686
0.819608 0.854902 0.600000
0.843137 0.870588 0.607843
0.866667 0.870588 0.596078
0.894118 0.878431 0.588235
0.639216 0.862745 0.662745
0.639216 0.862745 0.662745
0.631373 0.854902 0.654902
0.639216 0.862745 0.662745
0.635294 0.858824 0.658824
0.647059 0.858824 0.662745
0.650980 0.862745 0.666667
0.650980 0.862745 0.666667
0.662745 0.858824 0.658824
0.670588 0.858824 0.670588
0.678431 0.858824 0.674510
0.690196 0.862745 0.662745
0.698039 0.862745 0.674510
0.713725 0.862745 0.662745
0.721569 0.866667 0.666667
0.733333 0.878431 0.674510
0.749020 0.874510 0.678431
0.772549 0.882353 0.682353
0.776471 0.882353 0.674510
0.800000 0.894118 0.666667
0.819608 0.905882 0.654902
0.843137 0.905882 0.658824
0.862745 0.901961 0.654902
0.894118 0.913725 0.654902
0.913725 0.917647 0.650980
0.078431 0.086275 0.074510
0.086275 0.090196 0.070588
0.101961 0.090196 0.070588
0.109804 0.090196 0.074510
0.133333 0.078431 0.066667
0.160784 0.090196 0.082353
0.172549 0.098039 0.074510
0.207843 0.086275 0.066667
0.250980 0.090196 0.066667
0.294118 0.078431 0.058824
0.349020 0.074510 0.066667
0.403922 0.066667 0.070588
0.466667 0.058824 0.062745
0.525490 0.035294 0.050980
0.592157 0.015686 0.047059
0.639216 0.000000 0.023529
0.705882 0.000000 0.023529
0.745098 0.000000 0.015686
0.784314 0.000000 0.000000
0.819608 0.000000 0.000000
0.862745 0.003922 0.000000
0.894118 0.000000 0.003922
0.917647 0.000000 0.000000
0.941176 0.000000 0.000000
0.972549 0.019608 0.003922
0.074510 0.094118 0.070588
0.082353 0.090196 0.078431
0.109804 0.098039 0.078431
0.105882 0.094118 0.066667
0.133333 0.090196 0.074510
0.152941 0.098039 0.086275
0.176471 0.094118 0.074510
0.211765 0.098039 0.074510
0.250980 0.090196 0.066667
0.313725 0.086275 0.070588
0.360784 0.090196 0.070588
0.407843 0.074510 0.062745
0.474510 0.074510 0.058824
0.537255 0.058824 0.047059
0.600000 0.043137 0.035294
0.650980 0.011765 0.031373
0.698039 0.007843 0.015686
0.749020 0.003922 0.003922
0.796078 0.003922 0.003922
0.835294 0.000000 0.003922
0.858824 0.000000 0.003922
0.890196 0.003922 0.007843
0.921569 0.011765 0.000000
0.941176 0.027451 0.007843
0.976471 0.050980 0.000000
0.078431 0.098039 0.082353
0.086275 0.105882 0.082353
0.098039 0.109804 0.074510
0.117647 0.105882 0.078431
0.137255 0.098039 0.062745
0.156863 0.105882 0.070588
0.188235 0.109804 0.074510
0.223529 0.105882 0.074510
0.262745 0.105882 0.074510
0.313725 0.105882 0.074510
0.368627 0.098039 0.070588
0.423529 0.090196 0.062745
0.486275 0.082353 0.054902
0.537255 0.078431 0.043137
0.596078 0.070588 0.035294
0.650980 0.058824 0.031373
0.705882 0.047059 0.011765
0.752941 0.039216 0.000000
0.800000 0.027451 0.000000
0.831373 0.031373 0.000000
0.866667 0.035294 0.000000
0.898039 0.043137 0.003922
0.925490 0.058824 0.000000
0.941176 0.066667 0.000000
0.976471 0.078431 0.000000
0.090196 0.109804 0.082353
0.090196 0.113725 0.074510
0.098039 0.105882 0.086275
0.101961 0.113725 0.078431
0.141176 0.113725 0.082353
0.172549 0.113725 0.086275
0.196078 0.117647 0.082353
0.223529 0.121569 0.070588
0.270588 0.117647 0.058824
0.329412 0.117647 0.078431
0.384314 0.121569 0.058824
0.439216 0.109804 0.066667
0.501961 0.109804 0.050980
0.556863 0.105882 0.031373
0.607843 0.101961 0.019608
0.654902 0.098039 0.011765
0.705882 0.094118 0.007843
0.756863 0.082353 0.000000
0.796078 0.082353 0.000000
0.831373 0.086275 0.000000
0.866667 0.086275 0.000000
0.909804 0.090196 0.003922
0.925490 0.082353 0.000000
0.956863 0.101961 0.000000
0.980392 0.121569 0.011765
0.082353 0.129412 0.082353
0.098039 0.125490 0.094118
0.105882 0.129412 0.082353
0.098039 0.129412 0.070588
0.125490 0.125490 0.078431
0.152941 0.141176 0.082353
0.200000 0.137255 0.074510
0.239216 0.149020 0.078431
0.294118 0.145098 0.070588
0.329412 0.141176 0.054902
0.400000 0.145098 0.058824
0.443137 0.145098 0.043137
0.513725 0.145098 0.035294
0.568627 0.141176 0.027451
0.631373 0.141176 0.023529
0.674510 0.137255 0.011765
0.725490 0.137255 0.000000
0.768627 0.129412 0.000000
0.807843 0.129412 0.000000
0.839216 0.133333 0.000000
0.862745 0.121569 0.003922
0.890196 0.125490 0.000000
0.921569 0.137255 0.007843
0.949020 0.137255 0.003922
0.972549 0.149020 0.003922
0.090196 0.145098 0.086275
0.086275 0.141176 0.082353
0.098039 0.141176 0.086275
0.113725 0.145098 0.094118
0.121569 0.145098 0.090196
0.137255 0.149020 0.074510
0.184314 0.164706 0.078431
0.239216 0.168627 0.074510
0.290196 0.172549 0.062745
0.341176 0.180392 0.062745
0.396078 0.176471 0.047059
0.454902 0.180392 0.047059
0.513725 0.180392 0.027451
0.568627 0.180392 0.015686
0.627451 0.176471 0.000000
0.674510 0.180392 0.000000
0.721569 0.168627 0.000000
0.768627 0.168627 0.003922
0.807843 0.168627 0.000000
0.835294 0.176471 0.000000
0.870588 0.168627 0.000000
0.898039 0.172549 0.000000
0.925490 0.176471 0.003922
0.952941 0.172549 0.007843
0.984314 0.180392 0.000000
0.090196 0.164706 0.086275
0.086275 0.172549 0.082353
0.101961 0.168627 0.094118
0.101961 0.168627 0.098039
0.125490 0.172549 0.094118
0.141176 0.180392 0.082353
0.172549 0.188235 0.090196
0.227451 0.203922 0.062745
0.278431 0.219608 0.066667
0.337255 0.227451 0.043137
0.411765 0.223529 0.031373
0.478431 0.219608 0.015686
0.537255 0.219608 0.003922
0.592157 0.219608 0.000000
0.635294 0.223529 0.000000
0.682353 0.227451 0.003922
0.729412 0.223529 0.000000
0.772549 0.223529 0.000000
0.811765 0.219608 0.000000
0.847059 0.215686 0.000000
0.878431 0.215686 0.000000
0.901961 0.215686 0.007843
0.925490 0.215686 0.000000
0.945098 0.219608 0.000000
0.980392 0.215686 0.000000
0.066667 0.207843 0.098039
0.082353 0.200000 0.098039
0.078431 0.203922 0.109804
0.094118 0.207843 0.090196
0.121569 0.211765 0.109804
0.137255 0.211765 0.094118
0.172549 0.215686 0.082353
0.215686 0.235294 0.078431
0.278431 0.254902 0.058824
0.337255 0.274510 0.039216
0.411765 0.282353 0.011765
0.478431 0.282353 0.000000
0.549020 0.274510 0.000000
0.603922 0.274510 0.000000
0.658824 0.274510 0.000000
0.709804 0.274510 0.000000
0.745098 0.270588 0.000000
0.780392 0.266667 0.000000
0.819608 0.262745 0.003922
0.847059 0.262745 0.003922
0.882353 0.258824 0.000000
0.913725 0.254902 0.000000
0.929412 0.254902 0.000000
0.956863 0.254902 0.000000
0.980392 0.254902 0.003922
0.023529 0.250980 0.094118
0.031373 0.250980 0.105882
0.054902 0.250980 0.105882
0.078431 0.250980 0.109804
0.109804 0.250980 0.109804
0.129412 0.254902 0.094118
0.160784 0.266667 0.098039
0.207843 0.278431 0.074510
0.250980 0.294118 0.066667
0.321569 0.309804 0.039216
0.411765 0.329412 0.011765
0.486275 0.345098 0.000000
0.541176 0.345098 0.003922
0.615686 0.341176 0.003922
0.662745 0.333333 0.000000
0.717647 0.321569 0.000000
0.756863 0.321569 0.003922
0.796078 0.313725 0.007843
0.827451 0.313725 0.000000
0.862745 0.309804 0.000000
0.890196 0.301961 0.003922
0.898039 0.298039 0.000000
0.937255 0.298039 0.000000
0.952941 0.294118 0.000000
0.980392 0.298039 0.011765
0.000000 0.305882 0.109804
0.000000 0.309804 0.109804
0.003922 0.301961 0.117647
0.039216 0.298039 0.109804
0.082353 0.301961 0.117647
0.117647 0.305882 0.101961
0.156863 0.317647 0.098039
0.188235 0.321569 0.086275
0.254902 0.337255 0.082353
0.317647 0.349020 0.054902
0.380392 0.364706 0.007843
0.466667 0.411765 0.000000
0.541176 0.403922 0.003922
0.607843 0.403922 0.003922
0.666667 0.396078 0.000000
0.725490 0.384314 0.003922
0.764706 0.372549 0.000000
0.800000 0.364706 0.003922
0.827451 0.352941 0.003922
0.862745 0.349020 0.000000
0.886275 0.345098 0.000000
0.909804 0.345098 0.003922
0.929412 0.333333 0.000000
0.960784 0.333333 0.000000
0.984314 0.333333 0.003922
0.000000 0.349020 0.105882
0.003922 0.349020 0.113725
0.011765 0.345098 0.113725
0.000000 0.345098 0.105882
0.039216 0.352941 0.121569
0.090196 0.345098 0.117647
0.125490 0.356863 0.105882
0.172549 0.364706 0.105882
0.219608 0.376471 0.090196
