tools/luts_backup/SanFran.cube
#Generated with IWLTBAP LUT Generator
#Website: http://luts.iwltbap.com
TITLE "SanFran"
#LUT size
LUT_3D_SIZE 9
#LUT data points
0.003922 0.007843 0.015686
0.050980 0.015686 0.019608
0.164706 0.003922 0.019608
0.372549 0.000000 0.023529
0.627451 0.003922 0.000000
0.886275 0.003922 0.000000
0.996078 0.000000 0.000000
1.000000 0.003922 0.003922
0.996078 0.000000 0.000000
0.003922 0.054902 0.019608
0.039216 0.050980 0.007843
0.164706 0.050980 0.019608
0.356863 0.000000 0.007843
0.611765 0.003922 0.000000
0.874510 0.000000 0.003922
1.000000 0.003922 0.000000
0.996078 0.000000 0.011765
1.000000 0.000000 0.015686
0.003922 0.137255 0.039216
0.003922 0.137255 0.039216
0.176471 0.156863 0.000000
0.372549 0.156863 0.003922
0.623529 0.137255 0.003922
0.874510 0.058824 0.011765
0.996078 0.000000 0.007843
1.000000 0.003922 0.003922
1.000000 0.105882 0.000000
0.000000 0.313725 0.015686
0.000000 0.313725 0.015686
0.129412 0.313725 0.000000
0.396078 0.352941 0.000000
0.627451 0.368627 0.000000
0.827451 0.360784 0.000000
0.996078 0.349020 0.000000
1.000000 0.337255 0.003922
0.996078 0.349020 0.000000
0.003922 0.556863 0.003922
0.003922 0.556863 0.003922
0.000000 0.560784 0.003922
0.356863 0.572549 0.000000
0.682353 0.600000 0.000000
0.874510 0.584314 0.000000
1.000000 0.568627 0.000000
0.996078 0.552941 0.003922
1.000000 0.545098 0.011765
0.000000 0.776471 0.176471
0.000000 0.776471 0.160784
0.000000 0.764706 0.117647
0.325490 0.768627 0.007843
0.627451 0.768627 0.007843
0.882353 0.764706 0.003922
1.000000 0.733333 0.000000
0.996078 0.709804 0.000000
1.000000 0.690196 0.003922
0.003922 0.870588 0.352941
0.003922 0.862745 0.360784
0.133333 0.870588 0.337255
0.392157 0.858824 0.294118
0.627451 0.858824 0.207843
0.831373 0.850980 0.003922
0.988235 0.847059 0.000000
0.996078 0.815686 0.003922
0.996078 0.792157 0.000000
0.454902 0.921569 0.592157
0.505882 0.925490 0.603922
0.552941 0.925490 0.596078
0.623529 0.921569 0.564706
0.725490 0.921569 0.533333
0.839216 0.921569 0.454902
0.956863 0.917647 0.294118
1.000000 0.909804 0.007843
0.996078 0.878431 0.007843
0.733333 0.964706 0.792157
0.756863 0.964706 0.800000
0.760784 0.964706 0.776471
0.780392 0.968627 0.780392
0.827451 0.960784 0.764706
0.866667 0.956863 0.737255
0.929412 0.964706 0.654902
0.988235 0.964706 0.486275
1.000000 0.949020 0.254902
0.000000 0.035294 0.054902
0.027451 0.031373 0.047059
0.160784 0.015686 0.043137
0.356863 0.000000 0.027451
0.611765 0.000000 0.003922
0.866667 0.007843 0.000000
1.000000 0.003922 0.011765
0.996078 0.000000 0.007843
0.996078 0.000000 0.000000
0.000000 0.066667 0.050980
0.039216 0.058824 0.074510
0.152941 0.058824 0.050980
0.356863 0.007843 0.031373
0.600000 0.000000 0.000000
0.854902 0.000000 0.003922
1.000000 0.003922 0.003922
0.992157 0.003922 0.000000
0.996078 0.000000 0.007843
0.000000 0.145098 0.086275
0.023529 0.152941 0.070588
0.184314 0.160784 0.058824
0.368627 0.149020 0.019608
0.619608 0.137255 0.003922
0.854902 0.113725 0.000000
0.996078 0.047059 0.000000
1.000000 0.003922 0.003922
0.996078 0.121569 0.000000
0.003922 0.309804 0.105882
0.007843 0.309804 0.098039
0.121569 0.321569 0.062745
0.388235 0.345098 0.000000
0.611765 0.356863 0.000000
0.823529 0.345098 0.007843
0.992157 0.349020 0.000000
1.000000 0.341176 0.000000
0.996078 0.349020 0.000000
0.003922 0.556863 0.113725
0.000000 0.556863 0.101961
0.000000 0.552941 0.074510
0.356863 0.572549 0.000000
0.662745 0.596078 0.000000
0.854902 0.572549 0.000000
0.992157 0.549020 0.000000
1.000000 0.549020 0.003922
0.996078 0.541176 0.011765
0.003922 0.764706 0.235294
0.000000 0.760784 0.239216
0.000000 0.756863 0.207843
0.317647 0.752941 0.137255
0.627451 0.756863 0.007843
0.878431 0.760784 0.000000
0.996078 0.729412 0.003922
1.000000 0.705882 0.000000
1.000000 0.690196 0.003922
0.000000 0.866667 0.384314
0.000000 0.870588 0.392157
0.133333 0.862745 0.372549
0.392157 0.850980 0.341176
0.619608 0.850980 0.262745
0.811765 0.847059 0.098039
0.984314 0.843137 0.000000
0.996078 0.807843 0.000000
0.996078 0.788235 0.003922
0.478431 0.929412 0.623529
0.505882 0.929412 0.635294
0.564706 0.925490 0.623529
0.615686 0.925490 0.600000
0.717647 0.913725 0.564706
0.843137 0.909804 0.501961
0.952941 0.909804 0.352941
0.992157 0.905882 0.000000
1.000000 0.874510 0.000000
0.737255 0.960784 0.800000
0.749020 0.956863 0.784314
0.760784 0.964706 0.784314
0.776471 0.964706 0.776471
0.823529 0.956863 0.760784
0.866667 0.960784 0.733333
0.929412 0.960784 0.674510
0.988235 0.956863 0.529412
1.000000 0.952941 0.231373
0.003922 0.047059 0.133333
0.027451 0.031373 0.141176
0.145098 0.031373 0.117647
0.321569 0.003922 0.129412
0.619608 0.000000 0.113725
0.890196 0.000000 0.086275
1.000000 0.003922 0.003922
0.996078 0.000000 0.007843
0.996078 0.000000 0.000000
0.000000 0.086275 0.149020
0.007843 0.082353 0.141176
0.149020 0.078431 0.141176
0.337255 0.039216 0.141176
0.635294 0.003922 0.133333
0.866667 0.000000 0.070588
0.996078 0.000000 0.007843
0.992157 0.003922 0.000000
1.000000 0.003922 0.003922
0.003922 0.156863 0.184314
0.003922 0.176471 0.180392
0.184314 0.176471 0.188235
0.403922 0.168627 0.164706
0.650980 0.141176 0.141176
0.878431 0.090196 0.062745
1.000000 0.078431 0.003922
1.000000 0.137255 0.000000
1.000000 0.172549 0.000000
0.000000 0.329412 0.239216
0.000000 0.337255 0.223529
0.152941 0.349020 0.211765
0.403922 0.364706 0.172549
0.623529 0.349020 0.113725
0.835294 0.349020 0.011765
0.992157 0.349020 0.000000
1.000000 0.356863 0.007843
0.996078 0.368627 0.000000
0.000000 0.568627 0.313725
0.000000 0.572549 0.305882
0.000000 0.576471 0.270588
0.360784 0.576471 0.219608
0.670588 0.600000 0.113725
0.850980 0.576471 0.000000
0.992157 0.549020 0.000000
1.000000 0.549020 0.003922
0.996078 0.552941 0.000000
0.003922 0.760784 0.435294
0.003922 0.768627 0.407843
0.000000 0.764706 0.368627
0.352941 0.756863 0.337255
0.623529 0.760784 0.266667
0.886275 0.760784 0.129412
0.984314 0.733333 0.003922
0.992157 0.705882 0.000000
0.992157 0.698039 0.003922
0.007843 0.858824 0.501961
0.007843 0.870588 0.494118
0.270588 0.862745 0.482353
0.439216 0.854902 0.462745
0.631373 0.843137 0.407843
0.811765 0.850980 0.337255
0.980392 0.843137 0.192157
1.000000 0.819608 0.003922
0.996078 0.788235 0.000000
0.509804 0.925490 0.666667
0.549020 0.929412 0.658824
0.584314 0.921569 0.674510
0.654902 0.913725 0.662745
0.729412 0.913725 0.631373
0.835294 0.909804 0.560784
0.937255 0.913725 0.474510
1.000000 0.905882 0.301961
1.000000 0.874510 0.000000
0.745098 0.960784 0.807843
0.760784 0.956863 0.807843
0.772549 0.960784 0.811765
0.803922 0.964706 0.807843
0.819608 0.956863 0.792157
0.866667 0.960784 0.772549
0.921569 0.960784 0.721569
0.984314 0.964706 0.603922
0.996078 0.956863 0.266667
0.000000 0.078431 0.286275
0.000000 0.070588 0.301961
0.141176 0.058824 0.278431
0.325490 0.015686 0.270588
0.545098 0.000000 0.266667
0.847059 0.003922 0.278431
1.000000 0.000000 0.247059
0.996078 0.003922 0.219608
0.996078 0.000000 0.109804
0.000000 0.129412 0.305882
0.003922 0.105882 0.298039
0.164706 0.098039 0.301961
0.337255 0.078431 0.266667
0.545098 0.050980 0.290196
0.847059 0.000000 0.286275
1.000000 0.007843 0.262745
0.996078 0.000000 0.211765
1.000000 0.000000 0.086275
0.000000 0.211765 0.329412
0.000000 0.219608 0.325490
0.149020 0.203922 0.356863
0.368627 0.207843 0.325490
0.623529 0.207843 0.349020
0.886275 0.094118 0.321569
1.000000 0.145098 0.294118
1.000000 0.200000 0.219608
1.000000 0.223529 0.078431
0.000000 0.349020 0.380392
0.000000 0.356863 0.368627
0.125490 0.376471 0.384314
0.396078 0.388235 0.392157
0.650980 0.388235 0.356863
0.862745 0.384314 0.341176
0.996078 0.384314 0.286275
0.996078 0.384314 0.196078
0.996078 0.392157 0.000000
0.007843 0.580392 0.490196
0.000000 0.588235 0.490196
0.101961 0.600000 0.482353
0.396078 0.600000 0.458824
0.658824 0.611765 0.407843
0.847059 0.588235 0.352941
0.984314 0.576471 0.298039
1.000000 0.568627 0.219608
1.000000 0.560784 0.027451
0.007843 0.764706 0.580392
0.000000 0.768627 0.572549
0.290196 0.776471 0.580392
0.431373 0.764706 0.533333
0.639216 0.764706 0.509804
0.870588 0.768627 0.466667
0.972549 0.741176 0.372549
0.996078 0.725490 0.266667
0.996078 0.701961 0.098039
0.313725 0.854902 0.654902
0.384314 0.862745 0.662745
0.458824 0.862745 0.654902
0.521569 0.850980 0.619608
0.654902 0.850980 0.580392
0.807843 0.850980 0.541176
0.964706 0.843137 0.478431
1.000000 0.823529 0.384314
1.000000 0.803922 0.211765
0.643137 0.917647 0.776471
0.650980 0.913725 0.776471
0.643137 0.921569 0.756863
0.690196 0.913725 0.737255
0.745098 0.917647 0.725490
0.835294 0.909804 0.694118
0.929412 0.913725 0.635294
1.000000 0.913725 0.549020
1.000000 0.878431 0.419608
0.788235 0.956863 0.839216
0.788235 0.956863 0.839216
0.800000 0.960784 0.843137
0.807843 0.960784 0.847059
0.839216 0.952941 0.831373
0.878431 0.960784 0.807843
0.925490 0.952941 0.780392
0.988235 0.956863 0.713725
1.000000 0.952941 0.521569
0.000000 0.129412 0.482353
0.000000 0.101961 0.466667
0.003922 0.098039 0.474510
0.325490 0.074510 0.454902
0.533333 0.000000 0.450980
0.756863 0.000000 0.466667
0.992157 0.000000 0.482353
0.996078 0.003922 0.462745
0.992157 0.227451 0.462745
0.000000 0.180392 0.478431
0.000000 0.160784 0.482353
0.000000 0.141176 0.486275
0.341176 0.121569 0.470588
0.533333 0.078431 0.466667
0.749020 0.121569 0.466667
0.980392 0.035294 0.478431
1.000000 0.086275 0.466667
0.996078 0.278431 0.466667
0.000000 0.274510 0.478431
0.003922 0.266667 0.533333
0.000000 0.250980 0.529412
0.356863 0.239216 0.513725
0.564706 0.239216 0.505882
0.784314 0.301961 0.517647
0.992157 0.294118 0.521569
0.992157 0.337255 0.509804
1.000000 0.415686 0.513725
0.003922 0.396078 0.529412
0.000000 0.407843 0.545098
0.000000 0.419608 0.549020
0.325490 0.396078 0.552941
0.584314 0.411765 0.541176
0.803922 0.454902 0.564706
0.984314 0.447059 0.549020
0.996078 0.478431 0.533333
1.000000 0.462745 0.439216
0.000000 0.576471 0.592157
0.000000 0.584314 0.596078
0.003922 0.600000 0.611765
0.376471 0.611765 0.615686
0.635294 0.627451 0.631373
0.819608 0.627451 0.611765
0.972549 0.623529 0.592157
1.000000 0.623529 0.537255
0.992157 0.607843 0.454902
0.000000 0.780392 0.705882
0.000000 0.776471 0.709804
0.282353 0.772549 0.717647
0.501961 0.772549 0.701961
0.654902 0.764706 0.678431
0.835294 0.772549 0.670588
0.949020 0.752941 0.607843
1.000000 0.737255 0.560784
1.000000 0.729412 0.486275
0.298039 0.866667 0.752941
0.376471 0.862745 0.768627
0.474510 0.866667 0.756863
0.603922 0.854902 0.752941
0.690196 0.850980 0.725490
0.811765 0.850980 0.713725
0.949020 0.850980 0.690196
0.996078 0.835294 0.623529
1.000000 0.807843 0.521569
0.580392 0.917647 0.819608
0.627451 0.917647 0.811765
0.686275 0.921569 0.823529
0.749020 0.913725 0.819608
0.780392 0.913725 0.807843
0.843137 0.909804 0.776471
0.921569 0.905882 0.760784
1.000000 0.913725 0.721569
0.996078 0.898039 0.635294
0.792157 0.964706 0.874510
0.807843 0.964706 0.870588
0.827451 0.956863 0.874510
0.843137 0.952941 0.866667
0.847059 0.956863 0.858824
0.882353 0.960784 0.854902
0.929412 0.952941 0.843137
0.968627 0.960784 0.800000
0.996078 0.956863 0.713725
0.003922 0.196078 0.658824
0.003922 0.164706 0.666667
0.000000 0.152941 0.658824
0.262745 0.141176 0.650980
0.545098 0.098039 0.647059
0.737255 0.007843 0.647059
0.901961 0.192157 0.635294
1.000000 0.345098 0.647059
0.992157 0.447059 0.670588
0.011765 0.239216 0.658824
0.000000 0.215686 0.666667
0.000000 0.184314 0.650980
0.250980 0.180392 0.650980
0.541176 0.156863 0.639216
0.725490 0.137255 0.631373
0.905882 0.243137 0.631373
1.000000 0.356863 0.647059
1.000000 0.439216 0.658824
0.007843 0.325490 0.682353
0.000000 0.329412 0.662745
0.003922 0.290196 0.690196
0.258824 0.278431 0.678431
0.556863 0.282353 0.670588
0.760784 0.282353 0.670588
0.901961 0.392157 0.666667
1.000000 0.478431 0.686275
1.000000 0.541176 0.705882
0.000000 0.435294 0.654902
0.000000 0.443137 0.678431
0.003922 0.447059 0.682353
0.219608 0.415686 0.701961
0.552941 0.427451 0.690196
0.745098 0.450980 0.682353
0.898039 0.525490 0.682353
1.000000 0.560784 0.701961
0.996078 0.592157 0.698039
0.007843 0.584314 0.713725
0.003922 0.592157 0.721569
0.003922 0.596078 0.709804
0.196078 0.607843 0.725490
0.549020 0.607843 0.729412
0.760784 0.623529 0.741176
0.905882 0.674510 0.745098
1.000000 0.694118 0.745098
1.000000 0.705882 0.752941
0.000000 0.745098 0.772549
0.000000 0.749020 0.752941
0.003922 0.756863 0.760784
0.403922 0.752941 0.776471
0.623529 0.756863 0.792157
0.800000 0.776471 0.776471
0.925490 0.772549 0.776471
1.000000 0.772549 0.768627
1.000000 0.768627 0.737255
0.188235 0.854902 0.819608
0.282353 0.858824 0.819608
0.427451 0.858824 0.823529
0.588235 0.850980 0.823529
0.709804 0.854902 0.823529
0.807843 0.847059 0.811765
0.921569 0.850980 0.803922
1.000000 0.839216 0.768627
0.992157 0.831373 0.721569
0.580392 0.921569 0.847059
0.607843 0.921569 0.878431
0.654902 0.921569 0.870588
0.713725 0.909804 0.862745
0.807843 0.909804 0.874510
0.850980 0.905882 0.847059
0.917647 0.905882 0.831373
0.984314 0.913725 0.827451
1.000000 0.890196 0.796078
0.741176 0.964706 0.890196
0.752941 0.968627 0.878431
0.772549 0.964706 0.882353
0.819608 0.964706 0.898039
0.878431 0.956863 0.909804
0.898039 0.952941 0.894118
0.917647 0.964706 0.886275
0.960784 0.952941 0.862745
1.000000 0.960784 0.823529
0.000000 0.298039 0.827451
0.000000 0.278431 0.827451
0.003922 0.243137 0.831373
0.196078 0.235294 0.811765
0.537255 0.223529 0.807843
0.760784 0.223529 0.803922
0.913725 0.243137 0.796078
1.000000 0.392157 0.772549
0.996078 0.592157 0.800000
0.000000 0.329412 0.807843
0.000000 0.321569 0.815686
0.007843 0.270588 0.819608
0.184314 0.266667 0.819608
0.521569 0.262745 0.796078
0.760784 0.266667 0.800000
0.905882 0.278431 0.803922
1.000000 0.423529 0.780392
1.000000 0.600000 0.784314
0.000000 0.407843 0.819608
0.000000 0.427451 0.811765
0.007843 0.380392 0.811765
0.156863 0.356863 0.819608
0.529412 0.360784 0.815686
0.760784 0.368627 0.815686
0.917647 0.396078 0.807843
0.992157 0.525490 0.792157
0.992157 0.654902 0.807843
0.000000 0.509804 0.803922
0.000000 0.513725 0.807843
0.000000 0.509804 0.823529
0.145098 0.478431 0.831373
0.501961 0.466667 0.823529
0.741176 0.486275 0.807843
0.898039 0.513725 0.807843
0.980392 0.611765 0.807843
1.000000 0.686275 0.815686
0.000000 0.635294 0.819608
0.003922 0.639216 0.831373
0.003922 0.631373 0.819608
0.000000 0.627451 0.811765
0.486275 0.611765 0.835294
0.741176 0.631373 0.831373
0.890196 0.658824 0.831373
0.972549 0.725490 0.831373
0.992157 0.760784 0.847059
0.003922 0.756863 0.847059
0.003922 0.756863 0.847059
0.000000 0.752941 0.843137
0.219608 0.752941 0.847059
0.490196 0.749020 0.843137
0.733333 0.749020 0.854902
0.898039 0.772549 0.854902
0.972549 0.807843 0.854902
1.000000 0.815686 0.870588
0.000000 0.843137 0.850980
0.000000 0.843137 0.854902
0.286275 0.843137 0.850980
0.474510 0.847059 0.862745
0.643137 0.839216 0.866667
0.792157 0.847059 0.858824
0.894118 0.850980 0.882353
0.976471 0.858824 0.866667
1.000000 0.843137 0.874510
0.521569 0.917647 0.886275
0.549020 0.921569 0.905882
0.619608 0.913725 0.898039
0.690196 0.913725 0.890196
0.796078 0.909804 0.901961
0.854902 0.909804 0.909804
0.913725 0.909804 0.894118
0.984314 0.913725 0.898039
1.000000 0.913725 0.870588
0.737255 0.960784 0.925490
0.760784 0.960784 0.925490
0.784314 0.964706 0.925490
0.807843 0.952941 0.921569
0.854902 0.960784 0.925490
0.894118 0.956863 0.917647
0.945098 0.956863 0.921569
0.960784 0.964706 0.901961
0.996078 0.960784 0.894118
0.000000 0.470588 0.913725
0.003922 0.454902 0.921569
0.003922 0.411765 0.933333
0.309804 0.415686 0.929412
0.576471 0.423529 0.913725
0.780392 0.435294 0.917647
0.937255 0.454902 0.901961
1.000000 0.494118 0.898039
1.000000 0.615686 0.878431
0.000000 0.490196 0.921569
0.000000 0.478431 0.913725
0.000000 0.447059 0.921569
0.278431 0.435294 0.921569
0.572549 0.431373 0.917647
0.768627 0.450980 0.913725
0.929412 0.466667 0.898039
1.000000 0.501961 0.905882
0.992157 0.611765 0.874510
0.000000 0.549020 0.917647
0.003922 0.564706 0.933333
0.000000 0.533333 0.921569
0.290196 0.494118 0.921569
0.564706 0.501961 0.921569
0.768627 0.509804 0.901961
0.921569 0.541176 0.905882
1.000000 0.572549 0.898039
0.988235 0.674510 0.874510
0.000000 0.611765 0.905882
0.007843 0.619608 0.913725
0.000000 0.623529 0.913725
0.309804 0.607843 0.913725
0.545098 0.568627 0.905882
0.745098 0.580392 0.901961
0.909804 0.603922 0.901961
0.984314 0.627451 0.890196
0.996078 0.709804 0.886275
0.003922 0.709804 0.901961
0.000000 0.713725 0.898039
0.011765 0.701961 0.898039
0.235294 0.690196 0.913725
0.545098 0.686275 0.913725
0.737255 0.674510 0.917647
0.894118 0.698039 0.905882
0.980392 0.721569 0.909804
0.996078 0.788235 0.898039
0.007843 0.796078 0.905882
0.000000 0.796078 0.913725
0.003922 0.800000 0.925490
0.164706 0.788235 0.905882
0.454902 0.780392 0.905882
0.709804 0.772549 0.913725
0.874510 0.772549 0.909804
0.968627 0.800000 0.909804
1.000000 0.835294 0.901961
0.000000 0.862745 0.925490
0.149020 0.870588 0.917647
0.301961 0.854902 0.921569
0.439216 0.858824 0.921569
0.580392 0.850980 0.913725
0.701961 0.843137 0.905882
0.858824 0.843137 0.909804
0.960784 0.854902 0.913725
0.996078 0.890196 0.909804
0.513725 0.913725 0.929412
0.533333 0.913725 0.937255
0.592157 0.909804 0.925490
0.650980 0.905882 0.921569
0.737255 0.905882 0.929412
0.823529 0.901961 0.937255
0.905882 0.901961 0.925490
0.964706 0.917647 0.933333
1.000000 0.929412 0.929412
0.713725 0.968627 0.952941
0.729412 0.968627 0.949020
0.752941 0.968627 0.949020
0.800000 0.956863 0.952941
0.835294 0.960784 0.949020
0.898039 0.960784 0.956863
0.929412 0.964706 0.952941
0.960784 0.964706 0.945098
1.000000 0.960784 0.952941
0.537255 0.725490 0.976471
0.545098 0.717647 0.972549
0.576471 0.705882 0.976471
0.647059 0.701961 0.980392
0.752941 0.701961 0.976471
0.858824 0.705882 0.968627
0.941176 0.709804 0.960784
1.000000 0.733333 0.956863
1.000000 0.741176 0.952941
0.517647 0.729412 0.964706
0.537255 0.725490 0.976471
0.564706 0.709804 0.976471
0.635294 0.701961 0.972549
0.741176 0.701961 0.972549
0.850980 0.705882 0.968627
0.933333 0.713725 0.960784
1.000000 0.729412 0.952941
0.996078 0.749020 0.964706
0.541176 0.756863 0.980392
0.584314 0.764706 0.960784
0.615686 0.760784 0.968627
0.654902 0.725490 0.968627
0.752941 0.737255 0.976471
0.850980 0.733333 0.968627
0.937255 0.745098 0.960784
0.992157 0.756863 0.956863
1.000000 0.776471 0.956863
0.490196 0.780392 0.972549
0.525490 0.788235 0.964706
0.600000 0.784314 0.964706
0.674510 0.776471 0.968627
0.737255 0.756863 0.972549
0.827451 0.756863 0.960784
0.921569 0.764706 0.960784
0.988235 0.780392 0.960784
0.996078 0.788235 0.952941
0.400000 0.823529 0.972549
0.450980 0.815686 0.976471
0.549020 0.815686 0.968627
0.666667 0.815686 0.960784
0.756863 0.811765 0.964706
0.831373 0.803922 0.968627
0.921569 0.800000 0.960784
0.992157 0.811765 0.956863
0.996078 0.815686 0.956863
0.490196 0.862745 0.972549
0.505882 0.862745 0.968627
0.541176 0.858824 0.972549
0.596078 0.858824 0.972549
0.721569 0.850980 0.972549
0.839216 0.843137 0.964706
0.905882 0.839216 0.964706
0.984314 0.847059 0.964706
0.996078 0.858824 0.952941
0.596078 0.894118 0.984314
0.619608 0.898039 0.968627
0.650980 0.894118 0.976471
0.678431 0.894118 0.972549
0.733333 0.894118 0.972549
0.800000 0.878431 0.972549
0.898039 0.878431 0.968627
0.976471 0.886275 0.964706
0.996078 0.890196 0.949020
0.717647 0.925490 0.980392
0.721569 0.925490 0.968627
0.749020 0.929412 0.988235
0.768627 0.925490 0.972549
0.807843 0.933333 0.976471
0.850980 0.929412 0.972549
0.898039 0.921569 0.968627
0.964706 0.925490 0.968627
0.984314 0.941176 0.956863
0.768627 0.968627 0.980392
0.792157 0.964706 0.968627
0.803922 0.964706 0.972549
0.823529 0.960784 0.976471
0.850980 0.960784 0.972549
0.890196 0.960784 0.968627
0.929412 0.960784 0.968627
0.968627 0.968627 0.976471
0.988235 0.972549 0.976471
