tools/luts_backup/SanFran.cube
#Generated with IWLTBAP LUT Generator
#Website: http://luts.iwltbap.com
TITLE "SanFran"
#LUT size
LUT_3D_SIZE 25
#LUT data points
0.003922 0.007843 0.015686
0.000000 0.015686 0.011765
0.015686 0.023529 0.019608
0.050980 0.015686 0.019608
0.078431 0.015686 0.015686
0.117647 0.015686 0.019608
0.164706 0.003922 0.019608
0.219608 0.000000 0.019608
0.294118 0.000000 0.015686
0.372549 0.000000 0.023529
0.454902 0.000000 0.019608
0.537255 0.003922 0.011765
0.627451 0.003922 0.000000
0.725490 0.000000 0.000000
0.815686 0.000000 0.000000
0.886275 0.003922 0.000000
0.956863 0.000000 0.000000
0.996078 0.000000 0.007843
0.996078 0.000000 0.000000
0.996078 0.000000 0.000000
0.996078 0.000000 0.000000
1.000000 0.003922 0.003922
0.996078 0.000000 0.000000
0.996078 0.000000 0.000000
0.996078 0.000000 0.000000
0.003922 0.027451 0.011765
0.000000 0.035294 0.003922
0.019608 0.027451 0.015686
0.043137 0.027451 0.023529
0.070588 0.027451 0.011765
0.113725 0.019608 0.011765
0.168627 0.007843 0.031373
0.215686 0.000000 0.011765
0.286275 0.003922 0.019608
0.360784 0.003922 0.023529
0.450980 0.000000 0.019608
0.533333 0.000000 0.007843
0.627451 0.000000 0.000000
0.717647 0.003922 0.000000
0.796078 0.000000 0.000000
0.886275 0.000000 0.003922
0.949020 0.000000 0.000000
0.996078 0.000000 0.007843
1.000000 0.003922 0.003922
0.996078 0.000000 0.007843
0.996078 0.000000 0.000000
0.996078 0.000000 0.000000
1.000000 0.003922 0.011765
0.996078 0.000000 0.007843
0.992157 0.000000 0.000000
0.000000 0.039216 0.015686
0.000000 0.035294 0.003922
0.019608 0.039216 0.015686
0.035294 0.039216 0.015686
0.066667 0.035294 0.023529
0.113725 0.031373 0.011765
0.156863 0.023529 0.015686
0.215686 0.011765 0.019608
0.282353 0.000000 0.011765
0.360784 0.000000 0.011765
0.447059 0.000000 0.007843
0.529412 0.003922 0.007843
0.623529 0.000000 0.000000
0.709804 0.003922 0.007843
0.796078 0.003922 0.003922
0.878431 0.000000 0.000000
0.941176 0.000000 0.000000
0.996078 0.000000 0.007843
0.996078 0.000000 0.000000
0.996078 0.000000 0.000000
0.996078 0.000000 0.000000
1.000000 0.003922 0.003922
0.996078 0.000000 0.007843
0.996078 0.000000 0.000000
0.996078 0.000000 0.000000
0.003922 0.054902 0.019608
0.000000 0.050980 0.023529
0.007843 0.050980 0.019608
0.039216 0.050980 0.007843
0.082353 0.054902 0.015686
0.105882 0.054902 0.019608
0.164706 0.050980 0.019608
0.215686 0.039216 0.027451
0.282353 0.015686 0.011765
0.356863 0.000000 0.007843
0.443137 0.003922 0.000000
0.525490 0.000000 0.003922
0.611765 0.003922 0.000000
0.713725 0.000000 0.000000
0.784314 0.007843 0.003922
0.874510 0.000000 0.003922
0.941176 0.000000 0.003922
0.996078 0.000000 0.000000
1.000000 0.003922 0.000000
0.996078 0.000000 0.000000
0.996078 0.000000 0.007843
0.996078 0.000000 0.011765
0.996078 0.007843 0.003922
0.988235 0.000000 0.000000
1.000000 0.000000 0.015686
0.000000 0.066667 0.027451
0.000000 0.074510 0.027451
0.007843 0.070588 0.027451
0.027451 0.074510 0.019608
0.062745 0.074510 0.007843
0.121569 0.074510 0.019608
0.156863 0.074510 0.000000
0.215686 0.070588 0.007843
0.286275 0.058824 0.011765
0.349020 0.035294 0.000000
0.431373 0.000000 0.000000
0.525490 0.000000 0.003922
0.611765 0.003922 0.000000
0.698039 0.000000 0.000000
0.780392 0.000000 0.000000
0.858824 0.000000 0.000000
0.937255 0.000000 0.000000
0.980392 0.000000 0.003922
0.996078 0.000000 0.000000
1.000000 0.003922 0.003922
0.996078 0.000000 0.000000
0.996078 0.000000 0.000000
0.996078 0.000000 0.000000
0.996078 0.000000 0.000000
1.000000 0.003922 0.003922
0.003922 0.113725 0.027451
0.000000 0.109804 0.023529
0.000000 0.109804 0.023529
0.023529 0.109804 0.027451
0.058824 0.113725 0.015686
0.113725 0.113725 0.011765
0.176471 0.109804 0.007843
0.239216 0.117647 0.003922
0.301961 0.105882 0.007843
0.368627 0.105882 0.000000
0.450980 0.098039 0.000000
0.537255 0.058824 0.000000
0.627451 0.007843 0.000000
0.717647 0.000000 0.000000
0.807843 0.000000 0.000000
0.886275 0.003922 0.000000
0.952941 0.003922 0.000000
0.992157 0.003922 0.000000
0.996078 0.000000 0.000000
0.996078 0.000000 0.007843
0.996078 0.000000 0.007843
0.996078 0.000000 0.000000
0.996078 0.000000 0.000000
0.996078 0.000000 0.000000
0.996078 0.000000 0.000000
0.003922 0.137255 0.039216
0.000000 0.137255 0.035294
0.007843 0.145098 0.027451
0.003922 0.137255 0.039216
0.058824 0.141176 0.019608
0.117647 0.145098 0.015686
0.176471 0.156863 0.000000
0.254902 0.156863 0.000000
0.309804 0.156863 0.000000
0.372549 0.156863 0.003922
0.443137 0.149020 0.000000
0.537255 0.152941 0.000000
0.623529 0.137255 0.003922
0.713725 0.125490 0.000000
0.796078 0.109804 0.000000
0.874510 0.058824 0.011765
0.941176 0.007843 0.000000
0.996078 0.000000 0.000000
0.996078 0.000000 0.007843
0.996078 0.000000 0.000000
0.996078 0.000000 0.007843
1.000000 0.003922 0.003922
0.996078 0.000000 0.000000
1.000000 0.031373 0.000000
1.000000 0.105882 0.000000
0.000000 0.180392 0.039216
0.000000 0.188235 0.031373
0.003922 0.184314 0.039216
0.007843 0.188235 0.043137
0.019608 0.188235 0.019608
0.109804 0.184314 0.003922
0.164706 0.196078 0.003922
0.243137 0.203922 0.003922
0.321569 0.215686 0.000000
0.388235 0.223529 0.000000
0.458824 0.211765 0.000000
0.541176 0.219608 0.000000
0.615686 0.223529 0.000000
0.705882 0.215686 0.000000
0.796078 0.207843 0.000000
0.866667 0.200000 0.000000
0.925490 0.188235 0.000000
0.984314 0.172549 0.000000
0.996078 0.168627 0.000000
0.996078 0.160784 0.003922
0.996078 0.156863 0.011765
1.000000 0.156863 0.000000
1.000000 0.172549 0.000000
1.000000 0.200000 0.003922
1.000000 0.215686 0.000000
0.000000 0.243137 0.039216
0.011765 0.239216 0.039216
0.003922 0.239216 0.027451
0.000000 0.239216 0.023529
0.000000 0.250980 0.023529
0.074510 0.247059 0.000000
0.156863 0.254902 0.000000
0.243137 0.262745 0.003922
0.321569 0.270588 0.000000
0.403922 0.286275 0.003922
0.470588 0.290196 0.000000
0.552941 0.294118 0.003922
0.627451 0.290196 0.003922
0.701961 0.294118 0.007843
0.780392 0.298039 0.000000
0.858824 0.286275 0.000000
0.917647 0.282353 0.000000
0.968627 0.274510 0.000000
0.992157 0.266667 0.003922
0.996078 0.262745 0.000000
0.996078 0.262745 0.000000
1.000000 0.258824 0.000000
1.000000 0.266667 0.000000
1.000000 0.278431 0.000000
1.000000 0.286275 0.000000
0.000000 0.313725 0.015686
0.003922 0.309804 0.015686
0.003922 0.309804 0.011765
0.000000 0.313725 0.015686
0.000000 0.313725 0.011765
0.000000 0.313725 0.003922
0.129412 0.313725 0.000000
0.215686 0.329412 0.000000
0.290196 0.337255 0.000000
0.396078 0.352941 0.000000
0.482353 0.368627 0.007843
0.560784 0.368627 0.007843
0.627451 0.368627 0.000000
0.713725 0.364706 0.003922
0.776471 0.364706 0.003922
0.827451 0.360784 0.000000
0.894118 0.352941 0.000000
0.956863 0.349020 0.000000
0.996078 0.349020 0.000000
0.996078 0.349020 0.000000
1.000000 0.341176 0.000000
1.000000 0.337255 0.003922
1.000000 0.341176 0.000000
0.996078 0.345098 0.007843
0.996078 0.349020 0.000000
0.000000 0.427451 0.003922
0.000000 0.423529 0.000000
0.000000 0.423529 0.003922
0.003922 0.423529 0.007843
0.003922 0.415686 0.003922
0.000000 0.419608 0.003922
0.074510 0.423529 0.000000
0.203922 0.431373 0.000000
0.301961 0.447059 0.003922
0.411765 0.450980 0.000000
0.521569 0.462745 0.000000
0.615686 0.474510 0.003922
0.690196 0.470588 0.000000
0.752941 0.470588 0.000000
0.811765 0.462745 0.000000
0.866667 0.454902 0.000000
0.921569 0.447059 0.003922
0.976471 0.435294 0.000000
0.992157 0.439216 0.000000
1.000000 0.431373 0.000000
1.000000 0.431373 0.003922
1.000000 0.431373 0.003922
1.000000 0.431373 0.003922
1.000000 0.431373 0.003922
0.992157 0.443137 0.000000
0.000000 0.482353 0.000000
0.000000 0.486275 0.000000
0.000000 0.494118 0.003922
0.000000 0.490196 0.000000
0.003922 0.490196 0.003922
0.000000 0.490196 0.000000
0.000000 0.501961 0.007843
0.160784 0.498039 0.000000
0.278431 0.509804 0.007843
0.384314 0.513725 0.000000
0.494118 0.525490 0.000000
0.600000 0.537255 0.000000
0.694118 0.545098 0.007843
0.756863 0.537255 0.007843
0.823529 0.525490 0.000000
0.862745 0.525490 0.000000
0.913725 0.509804 0.000000
0.964706 0.505882 0.000000
1.000000 0.505882 0.000000
1.000000 0.494118 0.007843
1.000000 0.498039 0.000000
0.992157 0.490196 0.000000
1.000000 0.490196 0.000000
1.000000 0.494118 0.000000
0.996078 0.494118 0.003922
0.003922 0.556863 0.003922
0.007843 0.560784 0.011765
0.003922 0.560784 0.000000
0.003922 0.556863 0.003922
0.000000 0.568627 0.000000
0.000000 0.568627 0.003922
0.000000 0.560784 0.003922
0.062745 0.564706 0.000000
0.239216 0.572549 0.003922
0.356863 0.572549 0.000000
0.454902 0.588235 0.003922
0.564706 0.580392 0.000000
0.682353 0.600000 0.000000
0.756863 0.603922 0.003922
0.819608 0.600000 0.000000
0.874510 0.584314 0.000000
0.917647 0.580392 0.003922
0.968627 0.568627 0.000000
1.000000 0.568627 0.000000
1.000000 0.549020 0.003922
0.996078 0.552941 0.011765
0.996078 0.552941 0.003922
1.000000 0.545098 0.000000
1.000000 0.549020 0.000000
1.000000 0.545098 0.011765
0.000000 0.623529 0.003922
0.000000 0.627451 0.000000
0.003922 0.623529 0.000000
0.003922 0.639216 0.000000
0.000000 0.627451 0.007843
0.003922 0.623529 0.000000
0.007843 0.615686 0.003922
0.000000 0.623529 0.000000
0.192157 0.631373 0.003922
0.333333 0.639216 0.003922
0.443137 0.647059 0.007843
0.537255 0.639216 0.003922
0.643137 0.647059 0.000000
0.745098 0.654902 0.000000
0.815686 0.654902 0.000000
0.870588 0.647059 0.000000
0.917647 0.635294 0.000000
0.952941 0.631373 0.000000
1.000000 0.619608 0.003922
1.000000 0.611765 0.000000
1.000000 0.600000 0.000000
0.996078 0.607843 0.007843
1.000000 0.592157 0.000000
1.000000 0.592157 0.000000
1.000000 0.600000 0.007843
0.000000 0.678431 0.023529
0.000000 0.686275 0.031373
0.000000 0.686275 0.031373
0.000000 0.694118 0.031373
0.003922 0.686275 0.000000
0.000000 0.686275 0.007843
0.000000 0.686275 0.000000
0.000000 0.682353 0.000000
0.164706 0.686275 0.000000
0.301961 0.690196 0.000000
0.423529 0.694118 0.000000
0.525490 0.705882 0.000000
0.619608 0.698039 0.003922
0.709804 0.698039 0.003922
0.803922 0.705882 0.000000
0.878431 0.701961 0.000000
0.917647 0.682353 0.000000
0.949020 0.674510 0.000000
0.988235 0.674510 0.003922
1.000000 0.658824 0.000000
1.000000 0.650980 0.007843
1.000000 0.647059 0.000000
1.000000 0.639216 0.000000
1.000000 0.635294 0.000000
1.000000 0.635294 0.000000
0.000000 0.776471 0.176471
0.011765 0.776471 0.172549
0.000000 0.776471 0.168627
0.000000 0.776471 0.160784
0.003922 0.772549 0.145098
0.000000 0.768627 0.141176
0.000000 0.764706 0.117647
0.000000 0.776471 0.098039
0.200000 0.768627 0.027451
0.325490 0.768627 0.007843
0.447059 0.760784 0.000000
0.541176 0.764706 0.007843
0.627451 0.768627 0.007843
0.717647 0.772549 0.000000
0.803922 0.764706 0.000000
0.882353 0.764706 0.003922
0.933333 0.756863 0.007843
0.980392 0.749020 0.003922
1.000000 0.733333 0.000000
0.996078 0.729412 0.000000
1.000000 0.713725 0.003922
0.996078 0.709804 0.000000
1.000000 0.701961 0.000000
1.000000 0.701961 0.000000
1.000000 0.690196 0.003922
0.000000 0.800000 0.207843
0.011765 0.807843 0.215686
0.000000 0.807843 0.203922
0.007843 0.807843 0.215686
0.000000 0.811765 0.200000
0.000000 0.811765 0.192157
0.003922 0.800000 0.203922
0.000000 0.811765 0.172549
0.200000 0.800000 0.149020
0.345098 0.803922 0.117647
0.427451 0.803922 0.039216
0.525490 0.807843 0.007843
0.627451 0.796078 0.000000
0.709804 0.807843 0.000000
0.784314 0.803922 0.003922
0.866667 0.800000 0.011765
0.929412 0.803922 0.000000
0.968627 0.780392 0.003922
1.000000 0.784314 0.000000
1.000000 0.764706 0.000000
0.992157 0.760784 0.007843
0.992157 0.756863 0.000000
0.996078 0.741176 0.003922
1.000000 0.737255 0.000000
1.000000 0.737255 0.003922
0.000000 0.843137 0.274510
0.007843 0.835294 0.282353
0.000000 0.839216 0.290196
0.000000 0.847059 0.278431
0.000000 0.843137 0.274510
0.000000 0.843137 0.274510
0.000000 0.839216 0.262745
0.105882 0.839216 0.247059
0.247059 0.827451 0.215686
0.356863 0.827451 0.200000
0.450980 0.831373 0.184314
0.533333 0.839216 0.133333
0.607843 0.835294 0.054902
0.694118 0.827451 0.000000
0.772549 0.835294 0.003922
0.843137 0.827451 0.000000
0.905882 0.827451 0.000000
0.968627 0.819608 0.000000
0.996078 0.819608 0.007843
0.992157 0.803922 0.000000
1.000000 0.796078 0.000000
1.000000 0.784314 0.000000
0.992157 0.780392 0.007843
1.000000 0.776471 0.000000
0.996078 0.768627 0.000000
0.003922 0.870588 0.352941
0.003922 0.870588 0.364706
0.003922 0.866667 0.349020
0.003922 0.862745 0.360784
0.000000 0.870588 0.341176
0.000000 0.870588 0.341176
0.133333 0.870588 0.337255
0.235294 0.862745 0.329412
0.329412 0.862745 0.305882
0.392157 0.858824 0.294118
0.470588 0.862745 0.274510
0.556863 0.858824 0.247059
0.627451 0.858824 0.207843
0.701961 0.854902 0.160784
0.768627 0.854902 0.074510
0.831373 0.850980 0.003922
0.890196 0.847059 0.000000
0.945098 0.847059 0.003922
0.988235 0.847059 0.000000
1.000000 0.839216 0.000000
1.000000 0.827451 0.000000
0.996078 0.815686 0.003922
1.000000 0.807843 0.003922
0.992157 0.803922 0.003922
0.996078 0.792157 0.000000
0.011765 0.894118 0.431373
0.000000 0.890196 0.423529
0.011765 0.886275 0.419608
0.090196 0.886275 0.427451
0.172549 0.894118 0.415686
0.231373 0.890196 0.423529
0.301961 0.890196 0.407843
0.333333 0.894118 0.407843
0.403922 0.882353 0.407843
0.450980 0.886275 0.376471
0.521569 0.882353 0.360784
0.572549 0.878431 0.345098
0.635294 0.878431 0.309804
0.698039 0.874510 0.266667
0.752941 0.874510 0.231373
0.815686 0.870588 0.152941
0.870588 0.870588 0.039216
0.921569 0.866667 0.000000
0.980392 0.862745 0.007843
1.000000 0.858824 0.000000
1.000000 0.850980 0.000000
1.000000 0.850980 0.000000
1.000000 0.839216 0.000000
1.000000 0.827451 0.007843
0.996078 0.823529 0.000000
0.392157 0.917647 0.568627
0.400000 0.921569 0.564706
0.407843 0.921569 0.556863
0.415686 0.917647 0.552941
0.427451 0.921569 0.541176
0.450980 0.921569 0.541176
0.482353 0.913725 0.541176
0.501961 0.909804 0.529412
0.537255 0.909804 0.509804
0.572549 0.905882 0.509804
0.603922 0.905882 0.498039
0.639216 0.905882 0.470588
0.686275 0.901961 0.443137
0.741176 0.901961 0.423529
0.784314 0.901961 0.392157
0.839216 0.890196 0.341176
0.882353 0.901961 0.305882
0.941176 0.894118 0.219608
0.964706 0.898039 0.098039
0.992157 0.894118 0.015686
1.000000 0.886275 0.000000
1.000000 0.874510 0.003922
1.000000 0.866667 0.000000
0.996078 0.862745 0.003922
1.000000 0.850980 0.000000
0.454902 0.921569 0.592157
0.470588 0.925490 0.600000
0.490196 0.929412 0.607843
0.505882 0.925490 0.603922
0.525490 0.929412 0.603922
0.525490 0.925490 0.600000
0.552941 0.925490 0.596078
0.588235 0.921569 0.596078
0.600000 0.929412 0.592157
0.623529 0.921569 0.564706
0.658824 0.917647 0.572549
0.670588 0.921569 0.552941
0.725490 0.921569 0.533333
0.764706 0.913725 0.517647
0.796078 0.921569 0.486275
0.839216 0.921569 0.454902
0.874510 0.909804 0.403922
0.917647 0.909804 0.372549
0.956863 0.917647 0.294118
1.000000 0.913725 0.203922
0.996078 0.909804 0.003922
1.000000 0.909804 0.007843
0.996078 0.898039 0.007843
0.996078 0.878431 0.007843
0.996078 0.878431 0.007843
0.568627 0.945098 0.654902
0.576471 0.941176 0.666667
0.584314 0.941176 0.670588
0.600000 0.941176 0.670588
0.607843 0.941176 0.678431
0.631373 0.933333 0.666667
0.627451 0.941176 0.670588
0.650980 0.937255 0.658824
0.674510 0.937255 0.658824
0.674510 0.933333 0.643137
0.698039 0.937255 0.635294
0.721569 0.933333 0.627451
0.749020 0.933333 0.615686
0.784314 0.933333 0.600000
0.800000 0.929412 0.572549
0.850980 0.929412 0.556863
0.870588 0.929412 0.525490
0.913725 0.933333 0.478431
0.941176 0.929412 0.423529
0.976471 0.925490 0.372549
1.000000 0.929412 0.262745
1.000000 0.925490 0.121569
1.000000 0.921569 0.000000
0.996078 0.909804 0.003922
1.000000 0.894118 0.000000
0.658824 0.952941 0.721569
0.662745 0.956863 0.733333
0.658824 0.964706 0.737255
0.678431 0.949020 0.733333
0.698039 0.952941 0.741176
0.694118 0.949020 0.737255
0.701961 0.952941 0.717647
0.713725 0.952941 0.721569
0.717647 0.949020 0.721569
0.749020 0.949020 0.725490
0.756863 0.945098 0.709804
0.756863 0.949020 0.694118
0.788235 0.949020 0.690196
0.800000 0.945098 0.670588
0.831373 0.949020 0.658824
0.854902 0.952941 0.635294
0.874510 0.952941 0.603922
0.905882 0.949020 0.580392
0.933333 0.941176 0.545098
0.968627 0.941176 0.486275
0.992157 0.945098 0.419608
1.000000 0.949020 0.329412
1.000000 0.937255 0.156863
1.000000 0.937255 0.000000
1.000000 0.925490 0.003922
0.733333 0.964706 0.792157
0.741176 0.964706 0.803922
0.745098 0.968627 0.768627
0.756863 0.964706 0.800000
0.756863 0.960784 0.780392
0.768627 0.956863 0.792157
0.760784 0.964706 0.776471
0.780392 0.964706 0.784314
0.780392 0.960784 0.780392
0.780392 0.968627 0.780392
0.800000 0.964706 0.776471
0.807843 0.964706 0.768627
0.827451 0.960784 0.764706
0.843137 0.964706 0.741176
0.847059 0.960784 0.741176
0.866667 0.956863 0.737255
0.890196 0.952941 0.698039
0.898039 0.960784 0.666667
0.929412 0.964706 0.654902
0.949020 0.960784 0.611765
0.976471 0.960784 0.580392
0.988235 0.964706 0.486275
1.000000 0.960784 0.372549
1.000000 0.956863 0.274510
1.000000 0.949020 0.254902
0.003922 0.023529 0.035294
0.003922 0.019608 0.015686
0.015686 0.015686 0.015686
0.035294 0.019608 0.023529
0.074510 0.015686 0.027451
0.117647 0.015686 0.027451
0.172549 0.007843 0.023529
0.219608 0.003922 0.023529
0.286275 0.003922 0.019608
0.360784 0.000000 0.019608
0.443137 0.000000 0.015686
0.533333 0.007843 0.011765
0.623529 0.003922 0.000000
0.713725 0.000000 0.000000
0.800000 0.000000 0.003922
0.878431 0.000000 0.003922
0.952941 0.003922 0.000000
0.996078 0.000000 0.000000
1.000000 0.003922 0.003922
1.000000 0.003922 0.003922
1.000000 0.003922 0.003922
0.992157 0.003922 0.000000
0.996078 0.000000 0.000000
0.996078 0.000000 0.000000
0.992157 0.003922 0.000000
0.000000 0.031373 0.011765
0.007843 0.027451 0.039216
0.011765 0.035294 0.019608
0.027451 0.027451 0.027451
0.070588 0.027451 0.019608
0.109804 0.027451 0.023529
0.168627 0.019608 0.015686
0.207843 0.007843 0.027451
0.278431 0.000000 0.007843
0.360784 0.000000 0.019608
0.443137 0.000000 0.011765
0.525490 0.003922 0.007843
0.611765 0.000000 0.003922
0.717647 0.003922 0.000000
0.800000 0.000000 0.000000
0.878431 0.000000 0.003922
0.952941 0.003922 0.000000
1.000000 0.003922 0.003922
0.992157 0.000000 0.000000
0.996078 0.000000 0.000000
0.996078 0.000000 0.000000
1.000000 0.003922 0.000000
0.996078 0.000000 0.000000
0.996078 0.000000 0.000000
0.996078 0.000000 0.007843
0.000000 0.035294 0.031373
0.007843 0.043137 0.031373
0.007843 0.043137 0.031373
0.047059 0.043137 0.023529
0.074510 0.039216 0.019608
0.113725 0.043137 0.035294
0.149020 0.035294 0.019608
0.211765 0.015686 0.019608
0.278431 0.003922 0.011765
0.360784 0.007843 0.015686
0.439216 0.000000 0.007843
0.529412 0.003922 0.007843
0.619608 0.000000 0.000000
0.705882 0.000000 0.003922
0.796078 0.000000 0.000000
0.874510 0.000000 0.000000
0.941176 0.000000 0.003922
1.000000 0.003922 0.003922
0.996078 0.003922 0.000000
0.996078 0.000000 0.000000
0.992157 0.000000 0.007843
0.996078 0.000000 0.000000
0.992157 0.003922 0.000000
0.992157 0.000000 0.003922
1.000000 0.003922 0.003922
0.000000 0.058824 0.039216
0.003922 0.054902 0.027451
0.015686 0.058824 0.027451
0.035294 0.054902 0.027451
0.070588 0.058824 0.023529
0.105882 0.054902 0.019608
0.168627 0.050980 0.011765
0.211765 0.043137 0.015686
0.278431 0.023529 0.007843
0.349020 0.000000 0.007843
0.431373 0.000000 0.003922
0.517647 0.000000 0.007843
0.603922 0.007843 0.000000
0.705882 0.000000 0.003922
0.772549 0.007843 0.000000
0.866667 0.000000 0.000000
0.933333 0.000000 0.000000
0.992157 0.000000 0.000000
1.000000 0.003922 0.000000
0.996078 0.000000 0.000000
0.996078 0.000000 0.007843
0.996078 0.000000 0.000000
0.996078 0.000000 0.000000
1.000000 0.003922 0.011765
0.996078 0.000000 0.007843
0.000000 0.078431 0.031373
0.007843 0.074510 0.043137
0.003922 0.070588 0.039216
0.035294 0.074510 0.031373
0.070588 0.070588 0.023529
0.125490 0.078431 0.031373
0.156863 0.082353 0.023529
0.219608 0.070588 0.019608
0.282353 0.062745 0.003922
0.352941 0.054902 0.000000
0.431373 0.019608 0.007843
0.513725 0.003922 0.003922
0.603922 0.000000 0.000000
0.698039 0.000000 0.000000
0.780392 0.000000 0.000000
0.847059 0.000000 0.003922
0.921569 0.003922 0.007843
0.972549 0.000000 0.000000
0.996078 0.000000 0.000000
0.996078 0.000000 0.000000
0.996078 0.000000 0.007843
0.996078 0.000000 0.007843
0.996078 0.000000 0.000000
0.996078 0.000000 0.007843
0.996078 0.000000 0.000000
0.000000 0.105882 0.039216
0.000000 0.109804 0.039216
0.000000 0.105882 0.039216
0.031373 0.105882 0.031373
0.062745 0.109804 0.023529
0.121569 0.113725 0.015686
0.180392 0.109804 0.015686
0.231373 0.113725 0.003922
0.286275 0.113725 0.000000
0.364706 0.105882 0.003922
0.447059 0.094118 0.000000
0.525490 0.074510 0.000000
0.627451 0.035294 0.000000
0.717647 0.000000 0.007843
0.800000 0.000000 0.007843
0.878431 0.007843 0.000000
0.941176 0.003922 0.000000
0.988235 0.000000 0.003922
1.000000 0.003922 0.003922
0.996078 0.000000 0.000000
0.996078 0.000000 0.000000
0.996078 0.000000 0.000000
0.996078 0.000000 0.000000
0.996078 0.000000 0.007843
0.996078 0.000000 0.007843
0.003922 0.141176 0.047059
0.000000 0.145098 0.039216
0.003922 0.145098 0.043137
0.007843 0.149020 0.047059
0.047059 0.145098 0.031373
0.125490 0.145098 0.019608
0.176471 0.160784 0.011765
0.247059 0.156863 0.000000
0.317647 0.152941 0.003922
0.372549 0.156863 0.003922
0.439216 0.149020 0.000000
0.517647 0.149020 0.000000
0.615686 0.145098 0.000000
0.698039 0.129412 0.007843
0.796078 0.117647 0.000000
0.866667 0.086275 0.000000
0.945098 0.039216 0.000000
0.992157 0.000000 0.003922
0.996078 0.000000 0.000000
0.996078 0.007843 0.003922
1.000000 0.003922 0.003922
0.992157 0.000000 0.000000
0.996078 0.000000 0.000000
0.992157 0.043137 0.000000
1.000000 0.109804 0.011765
0.000000 0.192157 0.039216
0.003922 0.180392 0.050980
0.003922 0.192157 0.043137
0.000000 0.184314 0.050980
0.027451 0.196078 0.027451
0.101961 0.192157 0.019608
0.168627 0.200000 0.000000
0.239216 0.211765 0.000000
0.317647 0.215686 0.000000
0.376471 0.211765 0.000000
0.458824 0.219608 0.003922
0.533333 0.223529 0.003922
0.611765 0.223529 0.000000
0.705882 0.223529 0.000000
0.788235 0.219608 0.011765
0.854902 0.203922 0.007843
0.909804 0.196078 0.000000
0.976471 0.184314 0.000000
1.000000 0.168627 0.003922
1.000000 0.156863 0.000000
0.996078 0.160784 0.003922
1.000000 0.164706 0.019608
1.000000 0.172549 0.003922
1.000000 0.192157 0.000000
0.992157 0.211765 0.000000
0.007843 0.235294 0.035294
0.003922 0.250980 0.043137
0.003922 0.239216 0.039216
0.000000 0.247059 0.039216
0.000000 0.243137 0.035294
0.074510 0.243137 0.023529
0.152941 0.254902 0.007843
0.239216 0.266667 0.003922
0.305882 0.278431 0.000000
0.396078 0.286275 0.000000
0.474510 0.282353 0.000000
0.556863 0.290196 0.000000
0.627451 0.290196 0.000000
0.694118 0.286275 0.000000
0.772549 0.294118 0.000000
0.847059 0.282353 0.000000
0.913725 0.282353 0.007843
0.968627 0.274510 0.007843
0.992157 0.270588 0.000000
1.000000 0.266667 0.003922
1.000000 0.262745 0.003922
0.996078 0.262745 0.000000
1.000000 0.266667 0.000000
1.000000 0.278431 0.000000
0.996078 0.286275 0.000000
0.011765 0.305882 0.043137
0.003922 0.317647 0.047059
0.000000 0.317647 0.027451
0.000000 0.317647 0.035294
0.000000 0.313725 0.027451
0.000000 0.321569 0.007843
0.129412 0.321569 0.000000
0.231373 0.329412 0.000000
0.301961 0.333333 0.007843
0.400000 0.345098 0.000000
0.486275 0.364706 0.000000
0.556863 0.364706 0.000000
0.631373 0.360784 0.000000
0.701961 0.356863 0.003922
0.764706 0.360784 0.000000
0.823529 0.356863 0.000000
0.898039 0.349020 0.003922
0.956863 0.349020 0.000000
0.996078 0.349020 0.000000
1.000000 0.337255 0.003922
1.000000 0.337255 0.000000
1.000000 0.337255 0.000000
1.000000 0.337255 0.003922
1.000000 0.345098 0.000000
0.996078 0.349020 0.000000
0.000000 0.419608 0.023529
0.000000 0.415686 0.023529
0.003922 0.419608 0.023529
0.000000 0.419608 0.011765
0.000000 0.415686 0.000000
0.000000 0.419608 0.003922
0.070588 0.419608 0.003922
0.200000 0.423529 0.003922
0.305882 0.431373 0.003922
