tools/luts_backup/SanFran.cube
#Generated with IWLTBAP LUT Generator
#Website: http://luts.iwltbap.com
TITLE "SanFran"
#LUT size
LUT_3D_SIZE 5
#LUT data points
0.003922 0.007843 0.015686
0.164706 0.003922 0.019608
0.627451 0.003922 0.000000
0.996078 0.000000 0.000000
0.996078 0.000000 0.000000
0.003922 0.137255 0.039216
0.176471 0.156863 0.000000
0.623529 0.137255 0.003922
0.996078 0.000000 0.007843
1.000000 0.105882 0.000000
0.003922 0.556863 0.003922
0.000000 0.560784 0.003922
0.682353 0.600000 0.000000
1.000000 0.568627 0.000000
1.000000 0.545098 0.011765
0.003922 0.870588 0.352941
0.133333 0.870588 0.337255
0.627451 0.858824 0.207843
0.988235 0.847059 0.000000
0.996078 0.792157 0.000000
0.733333 0.964706 0.792157
0.760784 0.964706 0.776471
0.827451 0.960784 0.764706
0.929412 0.964706 0.654902
1.000000 0.949020 0.254902
0.003922 0.047059 0.133333
0.145098 0.031373 0.117647
0.619608 0.000000 0.113725
1.000000 0.003922 0.003922
0.996078 0.000000 0.000000
0.003922 0.156863 0.184314
0.184314 0.176471 0.188235
0.650980 0.141176 0.141176
1.000000 0.078431 0.003922
1.000000 0.172549 0.000000
0.000000 0.568627 0.313725
0.000000 0.576471 0.270588
0.670588 0.600000 0.113725
0.992157 0.549020 0.000000
0.996078 0.552941 0.000000
0.007843 0.858824 0.501961
0.270588 0.862745 0.482353
0.631373 0.843137 0.407843
0.980392 0.843137 0.192157
0.996078 0.788235 0.000000
0.745098 0.960784 0.807843
0.772549 0.960784 0.811765
0.819608 0.956863 0.792157
0.921569 0.960784 0.721569
0.996078 0.956863 0.266667
0.000000 0.129412 0.482353
0.003922 0.098039 0.474510
0.533333 0.000000 0.450980
0.992157 0.000000 0.482353
0.992157 0.227451 0.462745
0.000000 0.274510 0.478431
0.000000 0.250980 0.529412
0.564706 0.239216 0.505882
0.992157 0.294118 0.521569
1.000000 0.415686 0.513725
0.000000 0.576471 0.592157
0.003922 0.600000 0.611765
0.635294 0.627451 0.631373
0.972549 0.623529 0.592157
0.992157 0.607843 0.454902
0.298039 0.866667 0.752941
0.474510 0.866667 0.756863
0.690196 0.850980 0.725490
0.949020 0.850980 0.690196
1.000000 0.807843 0.521569
0.792157 0.964706 0.874510
0.827451 0.956863 0.874510
0.847059 0.956863 0.858824
0.929412 0.952941 0.843137
0.996078 0.956863 0.713725
0.000000 0.298039 0.827451
0.003922 0.243137 0.831373
0.537255 0.223529 0.807843
0.913725 0.243137 0.796078
0.996078 0.592157 0.800000
0.000000 0.407843 0.819608
0.007843 0.380392 0.811765
0.529412 0.360784 0.815686
0.917647 0.396078 0.807843
0.992157 0.654902 0.807843
0.000000 0.635294 0.819608
0.003922 0.631373 0.819608
0.486275 0.611765 0.835294
0.890196 0.658824 0.831373
0.992157 0.760784 0.847059
0.000000 0.843137 0.850980
0.286275 0.843137 0.850980
0.643137 0.839216 0.866667
0.894118 0.850980 0.882353
1.000000 0.843137 0.874510
0.737255 0.960784 0.925490
0.784314 0.964706 0.925490
0.854902 0.960784 0.925490
0.945098 0.956863 0.921569
0.996078 0.960784 0.894118
0.537255 0.725490 0.976471
0.576471 0.705882 0.976471
0.752941 0.701961 0.976471
0.941176 0.709804 0.960784
1.000000 0.741176 0.952941
0.541176 0.756863 0.980392
0.615686 0.760784 0.968627
0.752941 0.737255 0.976471
0.937255 0.745098 0.960784
1.000000 0.776471 0.956863
0.400000 0.823529 0.972549
0.549020 0.815686 0.968627
0.756863 0.811765 0.964706
0.921569 0.800000 0.960784
0.996078 0.815686 0.956863
0.596078 0.894118 0.984314
0.650980 0.894118 0.976471
0.733333 0.894118 0.972549
0.898039 0.878431 0.968627
0.996078 0.890196 0.949020
0.768627 0.968627 0.980392
0.803922 0.964706 0.972549
0.850980 0.960784 0.972549
0.929412 0.960784 0.968627
0.988235 0.972549 0.976471
