tools/luts_backup/Tahoe.cube
#Generated with IWLTBAP LUT Generator
#Website: http://luts.iwltbap.com
TITLE "Tahoe 2"
#LUT size
LUT_3D_SIZE 25
#LUT data points
0.058824 0.074510 0.078431
0.074510 0.066667 0.070588
0.070588 0.070588 0.070588
0.094118 0.074510 0.062745
0.145098 0.066667 0.070588
0.188235 0.070588 0.078431
0.223529 0.058824 0.066667
0.282353 0.047059 0.054902
0.329412 0.047059 0.058824
0.376471 0.035294 0.058824
0.443137 0.031373 0.050980
0.486275 0.019608 0.035294
0.552941 0.003922 0.015686
0.607843 0.000000 0.007843
0.666667 0.000000 0.000000
0.729412 0.000000 0.003922
0.784314 0.000000 0.007843
0.839216 0.000000 0.000000
0.894118 0.000000 0.000000
0.941176 0.000000 0.000000
0.980392 0.000000 0.003922
0.996078 0.000000 0.000000
0.996078 0.000000 0.000000
0.996078 0.000000 0.000000
0.996078 0.000000 0.000000
0.058824 0.074510 0.078431
0.070588 0.070588 0.062745
0.070588 0.070588 0.062745
0.086275 0.070588 0.074510
0.125490 0.082353 0.074510
0.180392 0.082353 0.066667
0.231373 0.082353 0.070588
0.270588 0.078431 0.062745
0.325490 0.070588 0.054902
0.376471 0.074510 0.050980
0.427451 0.074510 0.043137
0.478431 0.070588 0.027451
0.541176 0.062745 0.019608
0.596078 0.054902 0.003922
0.666667 0.047059 0.000000
0.729412 0.035294 0.003922
0.776471 0.019608 0.000000
0.835294 0.003922 0.000000
0.894118 0.000000 0.000000
0.941176 0.000000 0.000000
0.980392 0.000000 0.003922
0.996078 0.000000 0.000000
0.996078 0.000000 0.007843
0.996078 0.000000 0.000000
0.992157 0.003922 0.000000
0.066667 0.074510 0.062745
0.074510 0.066667 0.070588
0.074510 0.074510 0.066667
0.094118 0.078431 0.066667
0.121569 0.086275 0.066667
0.164706 0.098039 0.058824
0.215686 0.105882 0.058824
0.258824 0.101961 0.054902
0.325490 0.105882 0.054902
0.372549 0.109804 0.047059
0.423529 0.105882 0.031373
0.470588 0.109804 0.011765
0.533333 0.109804 0.000000
0.596078 0.105882 0.000000
0.658824 0.105882 0.000000
0.721569 0.101961 0.003922
0.784314 0.082353 0.000000
0.831373 0.078431 0.000000
0.886275 0.062745 0.000000
0.937255 0.050980 0.003922
0.976471 0.023529 0.007843
0.996078 0.000000 0.007843
0.996078 0.000000 0.000000
0.996078 0.000000 0.000000
0.992157 0.003922 0.000000
0.062745 0.109804 0.070588
0.074510 0.105882 0.062745
0.078431 0.109804 0.066667
0.109804 0.101961 0.054902
0.141176 0.109804 0.058824
0.156863 0.121569 0.062745
0.207843 0.125490 0.050980
0.258824 0.129412 0.054902
0.313725 0.133333 0.043137
0.352941 0.141176 0.031373
0.415686 0.145098 0.023529
0.474510 0.145098 0.011765
0.533333 0.149020 0.003922
0.592157 0.152941 0.003922
0.654902 0.152941 0.000000
0.713725 0.149020 0.003922
0.768627 0.149020 0.000000
0.827451 0.145098 0.007843
0.878431 0.137255 0.011765
0.929412 0.125490 0.003922
0.980392 0.113725 0.000000
1.000000 0.098039 0.000000
0.996078 0.074510 0.000000
1.000000 0.031373 0.000000
1.000000 0.003922 0.000000
0.047059 0.137255 0.066667
0.070588 0.145098 0.058824
0.090196 0.137255 0.058824
0.109804 0.141176 0.047059
0.141176 0.137255 0.054902
0.172549 0.149020 0.054902
0.203922 0.149020 0.043137
0.247059 0.156863 0.035294
0.290196 0.172549 0.039216
0.345098 0.172549 0.019608
0.400000 0.176471 0.007843
0.462745 0.184314 0.003922
0.521569 0.196078 0.000000
0.576471 0.196078 0.000000
0.647059 0.200000 0.003922
0.709804 0.200000 0.003922
0.768627 0.196078 0.000000
0.823529 0.196078 0.000000
0.874510 0.192157 0.000000
0.921569 0.192157 0.000000
0.972549 0.180392 0.000000
1.000000 0.172549 0.003922
1.000000 0.152941 0.000000
1.000000 0.133333 0.000000
1.000000 0.109804 0.011765
0.043137 0.176471 0.031373
0.062745 0.180392 0.031373
0.086275 0.184314 0.031373
0.117647 0.180392 0.035294
0.141176 0.180392 0.035294
0.180392 0.180392 0.039216
0.215686 0.184314 0.031373
0.262745 0.196078 0.027451
0.294118 0.200000 0.011765
0.349020 0.207843 0.003922
0.400000 0.215686 0.000000
0.458824 0.227451 0.000000
0.517647 0.239216 0.000000
0.592157 0.247059 0.000000
0.650980 0.250980 0.000000
0.713725 0.247059 0.000000
0.764706 0.258824 0.000000
0.819608 0.250980 0.000000
0.882353 0.247059 0.000000
0.929412 0.247059 0.000000
0.980392 0.243137 0.003922
0.996078 0.231373 0.003922
1.000000 0.219608 0.000000
0.996078 0.207843 0.000000
1.000000 0.196078 0.000000
0.027451 0.223529 0.023529
0.047059 0.219608 0.019608
0.078431 0.223529 0.019608
0.121569 0.215686 0.011765
0.152941 0.219608 0.015686
0.184314 0.219608 0.011765
0.219608 0.223529 0.000000
0.262745 0.223529 0.000000
0.309804 0.239216 0.000000
0.341176 0.243137 0.000000
0.388235 0.250980 0.000000
0.443137 0.266667 0.000000
0.505882 0.270588 0.000000
0.580392 0.278431 0.003922
0.647059 0.290196 0.003922
0.701961 0.298039 0.003922
0.749020 0.305882 0.007843
0.815686 0.305882 0.007843
0.874510 0.301961 0.000000
0.929412 0.294118 0.000000
0.980392 0.290196 0.000000
1.000000 0.286275 0.000000
1.000000 0.278431 0.000000
1.000000 0.266667 0.000000
0.992157 0.258824 0.000000
0.003922 0.266667 0.000000
0.027451 0.266667 0.003922
0.066667 0.266667 0.000000
0.109804 0.266667 0.000000
0.145098 0.266667 0.000000
0.184314 0.266667 0.000000
0.219608 0.270588 0.000000
0.278431 0.266667 0.003922
0.305882 0.274510 0.000000
0.364706 0.286275 0.007843
0.403922 0.294118 0.003922
0.466667 0.294118 0.000000
0.501961 0.309804 0.000000
0.576471 0.321569 0.007843
0.627451 0.337255 0.000000
0.690196 0.345098 0.003922
0.745098 0.349020 0.003922
0.800000 0.352941 0.003922
0.854902 0.352941 0.003922
0.905882 0.352941 0.000000
0.956863 0.349020 0.000000
1.000000 0.337255 0.003922
1.000000 0.333333 0.000000
1.000000 0.329412 0.000000
1.000000 0.317647 0.007843
0.003922 0.313725 0.003922
0.003922 0.305882 0.000000
0.035294 0.317647 0.000000
0.086275 0.309804 0.000000
0.141176 0.313725 0.003922
0.188235 0.309804 0.011765
0.247059 0.313725 0.000000
0.282353 0.317647 0.000000
0.309804 0.317647 0.000000
0.356863 0.325490 0.000000
0.415686 0.329412 0.003922
0.462745 0.337255 0.003922
0.505882 0.352941 0.000000
0.572549 0.364706 0.003922
0.623529 0.376471 0.011765
0.678431 0.388235 0.007843
0.737255 0.392157 0.000000
0.792157 0.392157 0.000000
0.847059 0.392157 0.000000
0.898039 0.400000 0.000000
0.941176 0.396078 0.000000
1.000000 0.384314 0.003922
1.000000 0.380392 0.003922
0.996078 0.376471 0.000000
0.996078 0.364706 0.007843
0.007843 0.356863 0.000000
0.000000 0.364706 0.000000
0.003922 0.356863 0.003922
0.070588 0.356863 0.007843
0.141176 0.356863 0.000000
0.168627 0.368627 0.000000
0.223529 0.360784 0.000000
0.274510 0.368627 0.000000
0.325490 0.360784 0.000000
0.368627 0.372549 0.003922
0.407843 0.368627 0.000000
0.474510 0.380392 0.000000
0.525490 0.388235 0.000000
0.576471 0.400000 0.003922
0.623529 0.407843 0.003922
0.670588 0.415686 0.007843
0.717647 0.427451 0.000000
0.768627 0.435294 0.007843
0.831373 0.439216 0.003922
0.890196 0.443137 0.003922
0.945098 0.447059 0.003922
0.988235 0.435294 0.011765
1.000000 0.431373 0.003922
1.000000 0.427451 0.011765
1.000000 0.423529 0.000000
0.000000 0.427451 0.007843
0.000000 0.423529 0.011765
0.000000 0.423529 0.003922
0.035294 0.423529 0.000000
0.125490 0.419608 0.007843
0.176471 0.419608 0.000000
0.235294 0.427451 0.000000
0.282353 0.431373 0.003922
0.337255 0.423529 0.000000
0.364706 0.427451 0.000000
0.435294 0.431373 0.007843
0.478431 0.431373 0.000000
0.549020 0.447059 0.011765
0.592157 0.454902 0.000000
0.639216 0.454902 0.000000
0.698039 0.478431 0.011765
0.745098 0.474510 0.000000
0.788235 0.478431 0.003922
0.835294 0.490196 0.000000
0.886275 0.498039 0.000000
0.952941 0.490196 0.003922
0.988235 0.486275 0.000000
1.000000 0.486275 0.000000
1.000000 0.486275 0.000000
1.000000 0.482353 0.000000
0.000000 0.474510 0.000000
0.000000 0.466667 0.003922
0.000000 0.478431 0.007843
0.000000 0.478431 0.000000
0.086275 0.478431 0.000000
0.168627 0.474510 0.003922
0.223529 0.474510 0.000000
0.274510 0.474510 0.000000
0.329412 0.478431 0.003922
0.380392 0.474510 0.003922
0.431373 0.474510 0.000000
0.490196 0.482353 0.000000
0.533333 0.490196 0.000000
0.600000 0.501961 0.007843
0.647059 0.498039 0.000000
0.698039 0.505882 0.000000
0.741176 0.517647 0.003922
0.792157 0.521569 0.011765
0.831373 0.533333 0.003922
0.878431 0.541176 0.011765
0.933333 0.541176 0.003922
0.976471 0.537255 0.003922
1.000000 0.529412 0.007843
1.000000 0.537255 0.011765
1.000000 0.525490 0.003922
0.007843 0.525490 0.000000
0.000000 0.521569 0.000000
0.000000 0.525490 0.000000
0.003922 0.529412 0.000000
0.039216 0.529412 0.000000
0.145098 0.525490 0.003922
0.211765 0.525490 0.003922
0.266667 0.525490 0.000000
0.325490 0.521569 0.000000
0.372549 0.533333 0.000000
0.435294 0.525490 0.000000
0.486275 0.541176 0.011765
0.537255 0.541176 0.007843
0.584314 0.537255 0.003922
0.639216 0.549020 0.007843
0.694118 0.556863 0.000000
0.745098 0.556863 0.000000
0.788235 0.560784 0.000000
0.843137 0.564706 0.007843
0.890196 0.564706 0.007843
0.929412 0.576471 0.000000
0.968627 0.584314 0.000000
1.000000 0.580392 0.000000
0.996078 0.584314 0.000000
0.996078 0.568627 0.000000
0.000000 0.572549 0.000000
0.000000 0.580392 0.000000
0.000000 0.572549 0.000000
0.003922 0.576471 0.007843
0.000000 0.580392 0.000000
0.105882 0.576471 0.000000
0.192157 0.576471 0.000000
0.262745 0.572549 0.003922
0.317647 0.572549 0.007843
0.372549 0.576471 0.007843
0.427451 0.576471 0.000000
0.470588 0.584314 0.000000
0.525490 0.584314 0.000000
0.588235 0.580392 0.003922
0.635294 0.592157 0.003922
0.690196 0.592157 0.000000
0.745098 0.600000 0.000000
0.803922 0.603922 0.003922
0.847059 0.607843 0.007843
0.886275 0.611765 0.000000
0.925490 0.607843 0.003922
0.960784 0.619608 0.000000
1.000000 0.619608 0.000000
1.000000 0.619608 0.007843
0.988235 0.623529 0.074510
0.000000 0.623529 0.000000
0.000000 0.619608 0.003922
0.000000 0.623529 0.003922
0.000000 0.619608 0.000000
0.003922 0.623529 0.000000
0.054902 0.627451 0.000000
0.172549 0.619608 0.003922
0.231373 0.623529 0.003922
0.298039 0.615686 0.000000
0.368627 0.619608 0.003922
0.411765 0.623529 0.000000
0.466667 0.631373 0.003922
0.513725 0.635294 0.000000
0.584314 0.631373 0.000000
0.631373 0.635294 0.000000
0.686275 0.639216 0.003922
0.749020 0.639216 0.003922
0.796078 0.643137 0.003922
0.839216 0.647059 0.000000
0.890196 0.650980 0.000000
0.937255 0.658824 0.007843
0.980392 0.654902 0.000000
0.996078 0.662745 0.000000
0.992157 0.670588 0.000000
1.000000 0.670588 0.113725
0.003922 0.686275 0.000000
0.000000 0.698039 0.000000
0.007843 0.690196 0.000000
0.000000 0.690196 0.000000
0.000000 0.690196 0.007843
0.000000 0.694118 0.003922
0.121569 0.686275 0.000000
0.219608 0.686275 0.000000
0.282353 0.686275 0.000000
0.360784 0.682353 0.003922
0.403922 0.690196 0.000000
0.470588 0.694118 0.007843
0.517647 0.690196 0.003922
0.580392 0.694118 0.003922
0.639216 0.690196 0.000000
0.690196 0.694118 0.000000
0.749020 0.698039 0.003922
0.803922 0.698039 0.003922
0.858824 0.705882 0.003922
0.901961 0.701961 0.000000
0.952941 0.698039 0.000000
0.988235 0.701961 0.000000
1.000000 0.705882 0.003922
0.996078 0.701961 0.000000
1.000000 0.713725 0.035294
0.003922 0.725490 0.000000
0.007843 0.733333 0.000000
0.003922 0.733333 0.007843
0.003922 0.733333 0.000000
0.003922 0.733333 0.000000
0.000000 0.741176 0.003922
0.007843 0.737255 0.003922
0.172549 0.729412 0.011765
0.247059 0.733333 0.003922
0.321569 0.737255 0.000000
0.384314 0.733333 0.000000
0.454902 0.737255 0.003922
0.501961 0.733333 0.003922
0.572549 0.737255 0.007843
0.623529 0.737255 0.000000
0.682353 0.741176 0.000000
0.733333 0.741176 0.000000
0.796078 0.737255 0.000000
0.850980 0.741176 0.003922
0.898039 0.745098 0.000000
0.941176 0.745098 0.000000
0.988235 0.741176 0.000000
1.000000 0.737255 0.000000
0.992157 0.737255 0.000000
1.000000 0.745098 0.003922
0.003922 0.772549 0.003922
0.000000 0.788235 0.003922
0.007843 0.784314 0.000000
0.000000 0.788235 0.003922
0.000000 0.784314 0.007843
0.007843 0.776471 0.000000
0.007843 0.780392 0.019608
0.058824 0.772549 0.000000
0.211765 0.788235 0.003922
0.282353 0.780392 0.000000
0.356863 0.780392 0.000000
0.423529 0.780392 0.000000
0.490196 0.780392 0.000000
0.541176 0.788235 0.000000
0.611765 0.780392 0.000000
0.662745 0.784314 0.000000
0.717647 0.784314 0.000000
0.776471 0.784314 0.007843
0.835294 0.788235 0.003922
0.894118 0.788235 0.000000
0.949020 0.788235 0.000000
0.988235 0.776471 0.003922
1.000000 0.780392 0.007843
1.000000 0.772549 0.003922
1.000000 0.776471 0.007843
0.003922 0.819608 0.003922
0.000000 0.835294 0.003922
0.007843 0.831373 0.011765
0.007843 0.823529 0.000000
0.000000 0.831373 0.000000
0.007843 0.831373 0.000000
0.000000 0.831373 0.000000
0.003922 0.831373 0.000000
0.117647 0.823529 0.003922
0.243137 0.831373 0.011765
0.329412 0.823529 0.000000
0.392157 0.823529 0.000000
0.470588 0.823529 0.000000
0.521569 0.827451 0.003922
0.584314 0.831373 0.003922
0.654902 0.827451 0.000000
0.713725 0.827451 0.000000
0.764706 0.827451 0.000000
0.815686 0.827451 0.000000
0.882353 0.827451 0.000000
0.941176 0.823529 0.000000
0.988235 0.823529 0.003922
1.000000 0.819608 0.003922
1.000000 0.811765 0.000000
0.996078 0.811765 0.011765
0.000000 0.870588 0.000000
0.003922 0.878431 0.000000
0.000000 0.882353 0.003922
0.000000 0.878431 0.000000
0.000000 0.882353 0.000000
0.000000 0.878431 0.000000
0.000000 0.870588 0.000000
0.007843 0.878431 0.011765
0.003922 0.874510 0.000000
0.152941 0.874510 0.011765
0.266667 0.870588 0.000000
0.368627 0.866667 0.000000
0.423529 0.870588 0.007843
0.509804 0.870588 0.003922
0.564706 0.870588 0.000000
0.619608 0.870588 0.003922
0.686275 0.870588 0.007843
0.737255 0.870588 0.003922
0.796078 0.874510 0.003922
0.866667 0.874510 0.000000
0.925490 0.870588 0.000000
0.972549 0.870588 0.003922
0.996078 0.870588 0.000000
0.996078 0.854902 0.000000
0.996078 0.854902 0.007843
0.000000 0.945098 0.000000
0.000000 0.937255 0.000000
0.000000 0.933333 0.000000
0.000000 0.937255 0.000000
0.000000 0.937255 0.000000
0.003922 0.933333 0.000000
0.003922 0.933333 0.000000
0.000000 0.937255 0.000000
0.007843 0.921569 0.011765
0.000000 0.933333 0.000000
0.180392 0.929412 0.003922
0.301961 0.921569 0.000000
0.400000 0.925490 0.003922
0.478431 0.917647 0.000000
0.537255 0.921569 0.000000
0.607843 0.917647 0.003922
0.662745 0.925490 0.000000
0.725490 0.921569 0.000000
0.788235 0.921569 0.000000
0.850980 0.921569 0.000000
0.909804 0.917647 0.000000
0.960784 0.913725 0.000000
0.992157 0.913725 0.000000
1.000000 0.905882 0.000000
0.992157 0.894118 0.003922
0.003922 0.964706 0.003922
0.000000 0.972549 0.000000
0.000000 0.972549 0.003922
0.000000 0.976471 0.003922
0.000000 0.980392 0.000000
0.003922 0.964706 0.003922
0.003922 0.964706 0.003922
0.000000 0.972549 0.000000
0.000000 0.972549 0.003922
0.000000 0.976471 0.003922
0.003922 0.980392 0.000000
0.215686 0.960784 0.000000
0.321569 0.972549 0.000000
0.407843 0.968627 0.000000
0.498039 0.968627 0.007843
0.568627 0.968627 0.000000
0.631373 0.968627 0.007843
0.705882 0.960784 0.003922
0.760784 0.964706 0.000000
0.815686 0.968627 0.000000
0.882353 0.960784 0.000000
0.949020 0.952941 0.003922
0.992157 0.949020 0.007843
1.000000 0.952941 0.003922
1.000000 0.941176 0.000000
0.003922 0.996078 0.011765
0.000000 1.000000 0.003922
0.000000 1.000000 0.000000
0.000000 1.000000 0.000000
0.000000 1.000000 0.003922
0.000000 1.000000 0.000000
0.000000 1.000000 0.003922
0.000000 1.000000 0.000000
0.000000 0.996078 0.000000
0.003922 0.996078 0.011765
0.003922 0.996078 0.011765
0.000000 1.000000 0.000000
0.231373 1.000000 0.003922
0.356863 1.000000 0.007843
0.443137 0.996078 0.000000
0.517647 1.000000 0.000000
0.596078 1.000000 0.000000
0.662745 1.000000 0.000000
0.725490 1.000000 0.000000
0.792157 1.000000 0.000000
0.854902 1.000000 0.003922
0.901961 0.992157 0.003922
0.964706 0.992157 0.000000
1.000000 0.988235 0.000000
1.000000 0.976471 0.000000
0.000000 1.000000 0.000000
0.000000 0.996078 0.000000
0.000000 0.996078 0.000000
0.003922 1.000000 0.003922
0.000000 1.000000 0.003922
0.000000 0.996078 0.007843
0.007843 1.000000 0.007843
0.000000 1.000000 0.003922
0.000000 0.996078 0.000000
0.000000 1.000000 0.000000
0.003922 1.000000 0.000000
0.000000 1.000000 0.003922
0.003922 1.000000 0.003922
0.270588 1.000000 0.000000
0.356863 1.000000 0.000000
0.466667 0.996078 0.003922
0.556863 1.000000 0.007843
0.619608 1.000000 0.000000
0.678431 1.000000 0.000000
0.745098 1.000000 0.000000
0.807843 1.000000 0.003922
0.874510 0.996078 0.000000
0.933333 1.000000 0.003922
0.980392 1.000000 0.000000
0.996078 1.000000 0.000000
0.003922 1.000000 0.000000
0.003922 1.000000 0.003922
0.000000 0.996078 0.007843
0.003922 1.000000 0.000000
0.000000 0.996078 0.000000
0.000000 1.000000 0.000000
0.011765 1.000000 0.000000
0.000000 1.000000 0.000000
0.000000 0.996078 0.000000
0.000000 1.000000 0.000000
0.003922 1.000000 0.003922
0.000000 1.000000 0.000000
0.000000 1.000000 0.000000
0.196078 1.000000 0.007843
0.352941 0.996078 0.003922
0.447059 1.000000 0.000000
0.529412 1.000000 0.000000
0.603922 0.996078 0.000000
0.678431 0.996078 0.003922
0.733333 0.996078 0.000000
0.780392 1.000000 0.000000
0.839216 1.000000 0.000000
0.898039 1.000000 0.000000
0.956863 1.000000 0.003922
0.996078 0.996078 0.000000
0.070588 0.070588 0.070588
0.074510 0.066667 0.078431
0.066667 0.074510 0.070588
0.105882 0.066667 0.070588
0.141176 0.054902 0.066667
0.200000 0.043137 0.074510
0.231373 0.047059 0.070588
0.282353 0.043137 0.070588
0.329412 0.047059 0.062745
0.380392 0.047059 0.058824
0.431373 0.047059 0.043137
0.490196 0.054902 0.027451
0.541176 0.043137 0.007843
0.607843 0.043137 0.000000
0.654902 0.043137 0.000000
0.729412 0.015686 0.000000
0.784314 0.000000 0.000000
0.839216 0.000000 0.000000
0.894118 0.000000 0.003922
0.937255 0.003922 0.003922
0.980392 0.000000 0.003922
0.996078 0.000000 0.000000
1.000000 0.003922 0.003922
0.996078 0.000000 0.000000
0.996078 0.000000 0.000000
0.066667 0.066667 0.066667
0.074510 0.066667 0.070588
0.078431 0.070588 0.074510
0.101961 0.070588 0.062745
0.129412 0.070588 0.058824
0.184314 0.074510 0.062745
0.231373 0.078431 0.058824
0.270588 0.074510 0.047059
0.329412 0.074510 0.050980
0.372549 0.078431 0.054902
0.419608 0.070588 0.039216
0.486275 0.086275 0.031373
0.552941 0.082353 0.015686
0.600000 0.078431 0.003922
0.666667 0.082353 0.000000
0.721569 0.066667 0.000000
0.776471 0.062745 0.007843
0.839216 0.039216 0.003922
0.890196 0.015686 0.000000
0.941176 0.000000 0.003922
0.976471 0.000000 0.000000
0.996078 0.000000 0.000000
0.996078 0.007843 0.000000
0.992157 0.003922 0.000000
0.996078 0.000000 0.000000
0.058824 0.078431 0.054902
0.074510 0.074510 0.066667
0.094118 0.078431 0.074510
0.105882 0.086275 0.074510
0.137255 0.082353 0.070588
0.164706 0.098039 0.058824
0.223529 0.094118 0.066667
0.274510 0.101961 0.066667
0.298039 0.105882 0.047059
0.368627 0.105882 0.039216
0.415686 0.109804 0.031373
0.482353 0.109804 0.023529
0.533333 0.121569 0.007843
0.592157 0.117647 0.000000
0.658824 0.117647 0.003922
0.717647 0.113725 0.011765
0.776471 0.101961 0.007843
0.827451 0.098039 0.007843
0.882353 0.090196 0.003922
0.933333 0.074510 0.000000
0.976471 0.043137 0.000000
1.000000 0.007843 0.000000
0.996078 0.000000 0.007843
1.000000 0.003922 0.003922
0.996078 0.000000 0.000000
0.054902 0.105882 0.066667
0.062745 0.101961 0.058824
0.074510 0.121569 0.066667
0.098039 0.105882 0.054902
0.141176 0.117647 0.070588
0.172549 0.121569 0.058824
0.211765 0.121569 0.050980
0.262745 0.125490 0.047059
0.317647 0.129412 0.043137
0.352941 0.141176 0.031373
0.403922 0.145098 0.019608
0.470588 0.145098 0.011765
0.521569 0.152941 0.003922
0.588235 0.160784 0.000000
0.647059 0.164706 0.003922
0.713725 0.156863 0.000000
0.768627 0.156863 0.000000
0.815686 0.152941 0.000000
0.874510 0.145098 0.000000
0.929412 0.133333 0.003922
0.980392 0.121569 0.000000
0.996078 0.113725 0.003922
0.996078 0.086275 0.000000
1.000000 0.050980 0.003922
1.000000 0.003922 0.003922
0.027451 0.133333 0.058824
0.054902 0.141176 0.058824
0.074510 0.145098 0.058824
0.105882 0.145098 0.050980
0.133333 0.141176 0.054902
0.184314 0.141176 0.054902
0.203922 0.149020 0.043137
0.254902 0.164706 0.043137
0.298039 0.164706 0.027451
0.352941 0.176471 0.015686
0.400000 0.180392 0.000000
0.466667 0.184314 0.000000
0.517647 0.192157 0.000000
0.580392 0.200000 0.000000
0.639216 0.203922 0.000000
0.698039 0.207843 0.000000
0.760784 0.207843 0.000000
0.815686 0.203922 0.011765
0.866667 0.200000 0.007843
0.921569 0.192157 0.000000
0.984314 0.180392 0.011765
1.000000 0.172549 0.003922
1.000000 0.156863 0.000000
1.000000 0.137255 0.000000
1.000000 0.109804 0.000000
0.003922 0.184314 0.039216
0.043137 0.184314 0.035294
0.078431 0.188235 0.039216
0.113725 0.180392 0.039216
0.137255 0.184314 0.043137
0.180392 0.180392 0.047059
0.219608 0.184314 0.031373
0.262745 0.196078 0.023529
0.305882 0.200000 0.015686
0.349020 0.200000 0.007843
0.400000 0.215686 0.003922
0.443137 0.223529 0.000000
0.533333 0.231373 0.011765
0.584314 0.247059 0.007843
0.643137 0.254902 0.000000
0.713725 0.262745 0.000000
0.768627 0.250980 0.000000
0.823529 0.254902 0.000000
0.878431 0.254902 0.000000
0.925490 0.250980 0.000000
0.968627 0.247059 0.003922
0.996078 0.235294 0.000000
1.000000 0.223529 0.000000
1.000000 0.207843 0.000000
1.000000 0.192157 0.003922
0.003922 0.223529 0.031373
0.015686 0.223529 0.019608
0.054902 0.223529 0.015686
0.094118 0.231373 0.019608
0.145098 0.223529 0.015686
0.188235 0.219608 0.019608
0.223529 0.215686 0.015686
0.266667 0.223529 0.003922
0.309804 0.231373 0.000000
0.352941 0.243137 0.000000
0.403922 0.247059 0.003922
0.439216 0.262745 0.000000
0.509804 0.274510 0.000000
0.576471 0.286275 0.000000
0.639216 0.298039 0.000000
0.698039 0.301961 0.000000
0.749020 0.305882 0.000000
0.815686 0.305882 0.000000
0.870588 0.298039 0.000000
0.917647 0.301961 0.000000
0.968627 0.294118 0.003922
0.996078 0.286275 0.000000
0.996078 0.282353 0.000000
1.000000 0.266667 0.003922
1.000000 0.258824 0.007843
0.000000 0.266667 0.003922
0.000000 0.262745 0.000000
0.039216 0.262745 0.000000
0.090196 0.266667 0.003922
0.133333 0.270588 0.011765
0.180392 0.262745 0.000000
0.215686 0.266667 0.000000
0.278431 0.266667 0.000000
0.317647 0.266667 0.000000
0.356863 0.278431 0.007843
0.403922 0.286275 0.003922
0.462745 0.298039 0.007843
0.498039 0.313725 0.000000
0.564706 0.325490 0.000000
0.619608 0.337255 0.003922
0.682353 0.345098 0.003922
0.745098 0.349020 0.000000
0.800000 0.349020 0.000000
0.854902 0.349020 0.000000
0.909804 0.345098 0.000000
0.956863 0.349020 0.000000
1.000000 0.341176 0.000000
1.000000 0.337255 0.000000
0.992157 0.317647 0.000000
1.000000 0.313725 0.015686
0.000000 0.317647 0.000000
0.000000 0.309804 0.000000
0.015686 0.305882 0.000000
0.078431 0.305882 0.003922
0.129412 0.313725 0.000000
0.180392 0.309804 0.000000
0.223529 0.313725 0.000000
0.266667 0.317647 0.000000
0.317647 0.313725 0.000000
0.360784 0.317647 0.000000
0.427451 0.321569 0.003922
0.470588 0.333333 0.003922
0.509804 0.349020 0.000000
0.560784 0.360784 0.000000
0.619608 0.372549 0.000000
0.674510 0.384314 0.000000
0.733333 0.388235 0.000000
0.792157 0.392157 0.000000
0.847059 0.392157 0.000000
0.894118 0.392157 0.000000
0.941176 0.396078 0.000000
1.000000 0.384314 0.000000
1.000000 0.384314 0.000000
1.000000 0.384314 0.000000
0.996078 0.368627 0.000000
0.007843 0.360784 0.007843
0.000000 0.360784 0.003922
0.007843 0.352941 0.011765
0.050980 0.360784 0.003922
0.113725 0.360784 0.003922
0.164706 0.356863 0.000000
0.227451 0.364706 0.000000
0.266667 0.364706 0.000000
0.313725 0.368627 0.000000
0.364706 0.360784 0.000000
0.407843 0.368627 0.000000
0.474510 0.376471 0.011765
0.525490 0.384314 0.007843
0.564706 0.396078 0.000000
0.615686 0.407843 0.007843
0.670588 0.415686 0.007843
0.729412 0.427451 0.003922
0.772549 0.435294 0.000000
0.823529 0.443137 0.000000
0.890196 0.443137 0.000000
0.941176 0.443137 0.000000
0.984314 0.447059 0.000000
0.996078 0.439216 0.000000
1.000000 0.431373 0.003922
0.996078 0.419608 0.003922
0.000000 0.427451 0.000000
0.000000 0.419608 0.003922
0.000000 0.419608 0.003922
0.003922 0.427451 0.000000
0.101961 0.423529 0.000000
0.172549 0.419608 0.007843
0.231373 0.415686 0.000000
0.274510 0.427451 0.007843
0.317647 0.427451 0.000000
