tools/luts_backup/Tahoe.cube
#Generated with IWLTBAP LUT Generator
#Website: http://luts.iwltbap.com
TITLE "Tahoe 2"
#LUT size
LUT_3D_SIZE 5
#LUT data points
0.058824 0.074510 0.078431
0.223529 0.058824 0.066667
0.552941 0.003922 0.015686
0.894118 0.000000 0.000000
0.996078 0.000000 0.000000
0.027451 0.223529 0.023529
0.219608 0.223529 0.000000
0.505882 0.270588 0.000000
0.874510 0.301961 0.000000
0.992157 0.258824 0.000000
0.007843 0.525490 0.000000
0.211765 0.525490 0.003922
0.537255 0.541176 0.007843
0.843137 0.564706 0.007843
0.996078 0.568627 0.000000
0.003922 0.819608 0.003922
0.000000 0.831373 0.000000
0.470588 0.823529 0.000000
0.815686 0.827451 0.000000
0.996078 0.811765 0.011765
0.003922 1.000000 0.000000
0.011765 1.000000 0.000000
0.000000 1.000000 0.000000
0.678431 0.996078 0.003922
0.996078 0.996078 0.000000
0.000000 0.090196 0.262745
0.247059 0.003922 0.250980
0.549020 0.000000 0.247059
0.913725 0.000000 0.184314
0.996078 0.000000 0.058824
0.000000 0.235294 0.215686
0.215686 0.215686 0.207843
0.537255 0.227451 0.207843
0.882353 0.231373 0.168627
1.000000 0.215686 0.023529
0.000000 0.529412 0.027451
0.000000 0.525490 0.000000
0.529412 0.533333 0.000000
0.835294 0.560784 0.082353
0.996078 0.568627 0.000000
0.000000 0.823529 0.000000
0.003922 0.827451 0.000000
0.450980 0.815686 0.011765
0.831373 0.831373 0.000000
1.000000 0.811765 0.003922
0.000000 0.996078 0.000000
0.000000 1.000000 0.000000
0.000000 1.000000 0.000000
0.654902 0.996078 0.000000
1.000000 1.000000 0.007843
0.003922 0.172549 0.572549
0.003922 0.000000 0.564706
0.568627 0.000000 0.564706
0.862745 0.000000 0.541176
1.000000 0.000000 0.490196
0.000000 0.360784 0.560784
0.007843 0.250980 0.576471
0.552941 0.105882 0.552941
0.870588 0.003922 0.521569
1.000000 0.003922 0.482353
0.000000 0.556863 0.521569
0.003922 0.556863 0.525490
0.513725 0.498039 0.494118
0.862745 0.525490 0.521569
1.000000 0.509804 0.482353
0.007843 0.835294 0.384314
0.000000 0.835294 0.360784
0.313725 0.827451 0.325490
0.835294 0.823529 0.301961
1.000000 0.803922 0.345098
0.000000 1.000000 0.000000
0.000000 1.000000 0.003922
0.003922 1.000000 0.000000
0.611765 1.000000 0.007843
0.996078 1.000000 0.003922
0.000000 0.266667 0.866667
0.007843 0.082353 0.870588
0.411765 0.003922 0.870588
0.850980 0.000000 0.850980
0.996078 0.003922 0.835294
0.007843 0.403922 0.858824
0.000000 0.313725 0.858824
0.356863 0.137255 0.870588
0.847059 0.003922 0.854902
0.984314 0.003922 0.835294
0.000000 0.682353 0.850980
0.000000 0.654902 0.847059
0.223529 0.513725 0.847059
0.843137 0.419608 0.847059
1.000000 0.325490 0.803922
0.003922 0.866667 0.819608
0.007843 0.858824 0.815686
0.180392 0.843137 0.815686
0.803922 0.803922 0.803922
0.996078 0.835294 0.827451
0.011765 1.000000 0.603922
0.000000 1.000000 0.584314
0.000000 1.000000 0.592157
0.627451 1.000000 0.623529
1.000000 0.996078 0.662745
0.000000 0.227451 1.000000
0.000000 0.031373 1.000000
0.239216 0.007843 0.996078
0.827451 0.000000 1.000000
1.000000 0.003922 0.992157
0.007843 0.376471 1.000000
0.000000 0.266667 1.000000
0.125490 0.043137 0.988235
0.827451 0.000000 0.992157
0.996078 0.000000 1.000000
0.000000 0.705882 0.992157
0.003922 0.650980 1.000000
0.000000 0.474510 0.996078
0.760784 0.368627 0.988235
1.000000 0.117647 1.000000
0.000000 0.909804 1.000000
0.003922 0.905882 1.000000
0.003922 0.898039 1.000000
0.705882 0.788235 0.996078
1.000000 0.749020 1.000000
0.000000 1.000000 0.988235
0.000000 0.996078 0.988235
0.000000 1.000000 1.000000
0.835294 1.000000 0.996078
1.000000 1.000000 1.000000
