tools/luts_backup/Tahoe.cube
#Generated with IWLTBAP LUT Generator
#Website: http://luts.iwltbap.com
TITLE "Tahoe 2"
#LUT size
LUT_3D_SIZE 9
#LUT data points
0.058824 0.074510 0.078431
0.094118 0.074510 0.062745
0.223529 0.058824 0.066667
0.376471 0.035294 0.058824
0.552941 0.003922 0.015686
0.729412 0.000000 0.003922
0.894118 0.000000 0.000000
0.996078 0.000000 0.000000
0.996078 0.000000 0.000000
0.062745 0.109804 0.070588
0.109804 0.101961 0.054902
0.207843 0.125490 0.050980
0.352941 0.141176 0.031373
0.533333 0.149020 0.003922
0.713725 0.149020 0.003922
0.878431 0.137255 0.011765
1.000000 0.098039 0.000000
1.000000 0.003922 0.000000
0.027451 0.223529 0.023529
0.121569 0.215686 0.011765
0.219608 0.223529 0.000000
0.341176 0.243137 0.000000
0.505882 0.270588 0.000000
0.701961 0.298039 0.003922
0.874510 0.301961 0.000000
1.000000 0.286275 0.000000
0.992157 0.258824 0.000000
0.007843 0.356863 0.000000
0.070588 0.356863 0.007843
0.223529 0.360784 0.000000
0.368627 0.372549 0.003922
0.525490 0.388235 0.000000
0.670588 0.415686 0.007843
0.831373 0.439216 0.003922
0.988235 0.435294 0.011765
1.000000 0.423529 0.000000
0.007843 0.525490 0.000000
0.003922 0.529412 0.000000
0.211765 0.525490 0.003922
0.372549 0.533333 0.000000
0.537255 0.541176 0.007843
0.694118 0.556863 0.000000
0.843137 0.564706 0.007843
0.968627 0.584314 0.000000
0.996078 0.568627 0.000000
0.003922 0.686275 0.000000
0.000000 0.690196 0.000000
0.121569 0.686275 0.000000
0.360784 0.682353 0.003922
0.517647 0.690196 0.003922
0.690196 0.694118 0.000000
0.858824 0.705882 0.003922
0.988235 0.701961 0.000000
1.000000 0.713725 0.035294
0.003922 0.819608 0.003922
0.007843 0.823529 0.000000
0.000000 0.831373 0.000000
0.243137 0.831373 0.011765
0.470588 0.823529 0.000000
0.654902 0.827451 0.000000
0.815686 0.827451 0.000000
0.988235 0.823529 0.003922
0.996078 0.811765 0.011765
0.003922 0.964706 0.003922
0.000000 0.976471 0.003922
0.003922 0.964706 0.003922
0.000000 0.976471 0.003922
0.321569 0.972549 0.000000
0.568627 0.968627 0.000000
0.760784 0.964706 0.000000
0.949020 0.952941 0.003922
1.000000 0.941176 0.000000
0.003922 1.000000 0.000000
0.003922 1.000000 0.000000
0.011765 1.000000 0.000000
0.000000 1.000000 0.000000
0.000000 1.000000 0.000000
0.447059 1.000000 0.000000
0.678431 0.996078 0.003922
0.839216 1.000000 0.000000
0.996078 0.996078 0.000000
0.043137 0.082353 0.129412
0.125490 0.062745 0.113725
0.243137 0.011765 0.121569
0.388235 0.000000 0.090196
0.545098 0.003922 0.066667
0.733333 0.000000 0.027451
0.894118 0.000000 0.000000
0.996078 0.000000 0.000000
1.000000 0.003922 0.003922
0.015686 0.117647 0.105882
0.105882 0.105882 0.105882
0.223529 0.105882 0.105882
0.380392 0.109804 0.082353
0.537255 0.113725 0.066667
0.721569 0.117647 0.007843
0.874510 0.133333 0.007843
0.992157 0.129412 0.000000
0.996078 0.000000 0.000000
0.000000 0.219608 0.066667
0.062745 0.231373 0.062745
0.223529 0.215686 0.054902
0.345098 0.231373 0.066667
0.509804 0.270588 0.058824
0.701961 0.286275 0.000000
0.866667 0.294118 0.000000
1.000000 0.294118 0.000000
1.000000 0.254902 0.000000
0.000000 0.364706 0.000000
0.003922 0.360784 0.000000
0.203922 0.364706 0.003922
0.349020 0.364706 0.000000
0.517647 0.384314 0.003922
0.670588 0.419608 0.000000
0.839216 0.447059 0.007843
0.996078 0.439216 0.000000
1.000000 0.423529 0.007843
0.003922 0.517647 0.000000
0.000000 0.521569 0.007843
0.160784 0.513725 0.000000
0.364706 0.529412 0.000000
0.537255 0.529412 0.000000
0.698039 0.545098 0.007843
0.839216 0.560784 0.003922
0.968627 0.580392 0.007843
1.000000 0.564706 0.007843
0.000000 0.690196 0.000000
0.000000 0.682353 0.000000
0.011765 0.690196 0.000000
0.333333 0.670588 0.000000
0.525490 0.682353 0.000000
0.690196 0.690196 0.007843
0.862745 0.694118 0.007843
0.988235 0.698039 0.003922
1.000000 0.705882 0.035294
0.000000 0.823529 0.000000
0.007843 0.831373 0.011765
0.000000 0.823529 0.003922
0.247059 0.823529 0.000000
0.474510 0.819608 0.000000
0.654902 0.823529 0.000000
0.823529 0.835294 0.000000
0.992157 0.819608 0.000000
1.000000 0.811765 0.003922
0.000000 0.964706 0.000000
0.000000 0.972549 0.003922
0.000000 0.976471 0.000000
0.000000 0.968627 0.000000
0.321569 0.964706 0.003922
0.572549 0.972549 0.003922
0.760784 0.956863 0.000000
0.949020 0.949020 0.000000
1.000000 0.933333 0.000000
0.000000 1.000000 0.000000
0.003922 1.000000 0.000000
0.000000 1.000000 0.000000
0.000000 1.000000 0.003922
0.003922 1.000000 0.003922
0.435294 1.000000 0.007843
0.674510 1.000000 0.000000
0.839216 1.000000 0.011765
0.996078 0.996078 0.000000
0.000000 0.090196 0.262745
0.070588 0.062745 0.258824
0.247059 0.003922 0.250980
0.372549 0.000000 0.247059
0.549020 0.000000 0.247059
0.749020 0.000000 0.219608
0.913725 0.000000 0.184314
1.000000 0.000000 0.141176
0.996078 0.000000 0.058824
0.003922 0.164706 0.243137
0.000000 0.117647 0.239216
0.239216 0.078431 0.243137
0.376471 0.031373 0.231373
0.552941 0.000000 0.231373
0.737255 0.000000 0.196078
0.901961 0.000000 0.180392
1.000000 0.000000 0.145098
0.996078 0.000000 0.043137
0.000000 0.235294 0.215686
0.000000 0.239216 0.211765
0.215686 0.215686 0.207843
0.380392 0.215686 0.223529
0.537255 0.227451 0.207843
0.721569 0.235294 0.196078
0.882353 0.231373 0.168627
0.996078 0.231373 0.121569
1.000000 0.215686 0.023529
0.000000 0.360784 0.176471
0.000000 0.368627 0.172549
0.156863 0.360784 0.168627
0.360784 0.360784 0.156863
0.521569 0.380392 0.176471
0.686275 0.407843 0.196078
0.854902 0.427451 0.164706
0.996078 0.419608 0.113725
1.000000 0.411765 0.007843
0.000000 0.529412 0.027451
0.000000 0.521569 0.019608
0.000000 0.525490 0.000000
0.337255 0.521569 0.003922
0.529412 0.533333 0.000000
0.694118 0.541176 0.000000
0.835294 0.560784 0.082353
0.984314 0.572549 0.113725
0.996078 0.568627 0.000000
0.000000 0.690196 0.000000
0.000000 0.690196 0.000000
0.007843 0.690196 0.003922
0.290196 0.670588 0.011765
0.509804 0.682353 0.003922
0.690196 0.690196 0.000000
0.858824 0.694118 0.000000
0.984314 0.694118 0.000000
0.992157 0.698039 0.094118
0.000000 0.823529 0.000000
0.000000 0.831373 0.007843
0.003922 0.827451 0.000000
0.172549 0.811765 0.007843
0.450980 0.815686 0.011765
0.647059 0.827451 0.003922
0.831373 0.831373 0.000000
1.000000 0.827451 0.007843
1.000000 0.811765 0.003922
0.000000 0.980392 0.000000
0.000000 0.972549 0.007843
0.000000 0.968627 0.000000
0.000000 0.960784 0.000000
0.325490 0.964706 0.000000
0.564706 0.964706 0.000000
0.760784 0.952941 0.003922
0.949020 0.952941 0.007843
1.000000 0.933333 0.007843
0.000000 0.996078 0.000000
0.000000 1.000000 0.003922
0.000000 1.000000 0.000000
0.011765 0.996078 0.003922
0.000000 1.000000 0.000000
0.423529 1.000000 0.003922
0.654902 0.996078 0.000000
0.843137 1.000000 0.000000
1.000000 1.000000 0.007843
0.000000 0.125490 0.411765
0.003922 0.054902 0.415686
0.196078 0.000000 0.392157
0.392157 0.000000 0.388235
0.552941 0.000000 0.400000
0.713725 0.000000 0.396078
0.898039 0.000000 0.372549
1.000000 0.000000 0.345098
1.000000 0.000000 0.282353
0.000000 0.196078 0.403922
0.000000 0.149020 0.403922
0.172549 0.082353 0.403922
0.380392 0.000000 0.384314
0.533333 0.000000 0.384314
0.721569 0.000000 0.384314
0.894118 0.000000 0.372549
1.000000 0.000000 0.337255
0.996078 0.000000 0.274510
0.000000 0.309804 0.392157
0.000000 0.301961 0.388235
0.094118 0.231373 0.388235
0.372549 0.184314 0.380392
0.545098 0.149020 0.368627
0.725490 0.094118 0.368627
0.898039 0.000000 0.349020
1.000000 0.000000 0.321569
1.000000 0.000000 0.278431
0.000000 0.392157 0.368627
0.000000 0.388235 0.356863
0.082353 0.376471 0.349020
0.352941 0.352941 0.352941
0.533333 0.352941 0.352941
0.701961 0.368627 0.349020
0.878431 0.380392 0.352941
0.996078 0.376471 0.329412
0.996078 0.356863 0.290196
0.000000 0.533333 0.329412
0.000000 0.525490 0.325490
0.003922 0.533333 0.313725
0.294118 0.521569 0.290196
0.525490 0.525490 0.290196
0.698039 0.537255 0.325490
0.839216 0.560784 0.356863
0.988235 0.556863 0.325490
1.000000 0.541176 0.270588
0.000000 0.690196 0.235294
0.000000 0.694118 0.223529
0.000000 0.690196 0.211765
0.192157 0.686275 0.196078
0.474510 0.694118 0.172549
0.690196 0.690196 0.164706
0.866667 0.694118 0.180392
0.992157 0.690196 0.243137
1.000000 0.698039 0.282353
0.007843 0.835294 0.000000
0.000000 0.839216 0.000000
0.000000 0.835294 0.003922
0.000000 0.839216 0.000000
0.396078 0.819608 0.003922
0.635294 0.823529 0.000000
0.835294 0.835294 0.003922
1.000000 0.819608 0.003922
1.000000 0.796078 0.000000
0.000000 0.984314 0.000000
0.000000 0.976471 0.000000
0.000000 0.980392 0.000000
0.000000 0.976471 0.003922
0.231373 0.968627 0.007843
0.552941 0.968627 0.000000
0.764706 0.952941 0.003922
0.952941 0.952941 0.000000
0.996078 0.933333 0.011765
0.000000 1.000000 0.003922
0.000000 1.000000 0.000000
0.000000 0.996078 0.000000
0.000000 1.000000 0.000000
0.000000 1.000000 0.003922
0.384314 0.992157 0.000000
0.635294 1.000000 0.000000
0.839216 1.000000 0.000000
0.992157 0.996078 0.000000
0.003922 0.172549 0.572549
0.000000 0.098039 0.580392
0.003922 0.000000 0.564706
0.368627 0.003922 0.564706
0.568627 0.000000 0.564706
0.701961 0.003922 0.552941
0.862745 0.000000 0.541176
1.000000 0.003922 0.529412
1.000000 0.000000 0.490196
0.003922 0.243137 0.568627
0.000000 0.192157 0.564706
0.003922 0.090196 0.560784
0.352941 0.003922 0.568627
0.556863 0.000000 0.560784
0.694118 0.000000 0.549020
0.870588 0.000000 0.537255
1.000000 0.003922 0.529412
0.996078 0.000000 0.474510
0.000000 0.360784 0.560784
0.000000 0.349020 0.556863
0.007843 0.250980 0.576471
0.309804 0.172549 0.564706
0.552941 0.105882 0.552941
0.713725 0.000000 0.537255
0.870588 0.003922 0.521569
1.000000 0.000000 0.509804
1.000000 0.003922 0.482353
0.000000 0.462745 0.525490
0.000000 0.470588 0.545098
0.007843 0.447059 0.541176
0.231373 0.356863 0.541176
0.533333 0.305882 0.537255
0.713725 0.286275 0.513725
0.882353 0.282353 0.505882
1.000000 0.266667 0.498039
0.996078 0.231373 0.458824
0.000000 0.556863 0.521569
0.000000 0.556863 0.517647
0.003922 0.556863 0.525490
0.239216 0.537255 0.521569
0.513725 0.498039 0.494118
0.682353 0.521569 0.513725
0.862745 0.525490 0.521569
1.000000 0.533333 0.509804
1.000000 0.509804 0.482353
0.000000 0.694118 0.490196
0.000000 0.698039 0.482353
0.000000 0.690196 0.478431
0.003922 0.686275 0.454902
0.447059 0.674510 0.443137
0.682353 0.682353 0.447059
0.850980 0.690196 0.486275
0.976471 0.709804 0.525490
1.000000 0.690196 0.482353
0.007843 0.835294 0.384314
0.003922 0.835294 0.392157
0.000000 0.835294 0.360784
0.000000 0.839216 0.341176
0.313725 0.827451 0.325490
0.603922 0.823529 0.294118
0.835294 0.823529 0.301961
0.996078 0.819608 0.313725
1.000000 0.803922 0.345098
0.011765 0.976471 0.007843
0.000000 0.980392 0.000000
0.003922 0.980392 0.000000
0.003922 0.980392 0.000000
0.000000 0.976471 0.000000
0.478431 0.972549 0.000000
0.733333 0.960784 0.000000
0.949020 0.952941 0.000000
0.996078 0.925490 0.007843
0.000000 1.000000 0.000000
0.007843 0.992157 0.000000
0.000000 1.000000 0.003922
0.000000 1.000000 0.000000
0.003922 1.000000 0.000000
0.266667 0.992157 0.003922
0.611765 1.000000 0.007843
0.835294 0.996078 0.000000
0.996078 1.000000 0.003922
0.007843 0.215686 0.725490
0.000000 0.160784 0.725490
0.003922 0.031373 0.733333
0.231373 0.003922 0.721569
0.533333 0.000000 0.721569
0.713725 0.000000 0.709804
0.866667 0.000000 0.705882
1.000000 0.000000 0.694118
0.992157 0.000000 0.662745
0.007843 0.270588 0.713725
0.003922 0.235294 0.729412
0.007843 0.109804 0.733333
0.192157 0.003922 0.725490
0.505882 0.000000 0.717647
0.717647 0.000000 0.717647
0.866667 0.000000 0.701961
1.000000 0.000000 0.701961
0.992157 0.000000 0.658824
0.000000 0.384314 0.717647
0.000000 0.356863 0.713725
0.000000 0.290196 0.717647
0.000000 0.180392 0.709804
0.490196 0.109804 0.717647
0.698039 0.000000 0.713725
0.862745 0.003922 0.701961
0.996078 0.003922 0.674510
0.992157 0.003922 0.650980
0.003922 0.525490 0.694118
0.000000 0.509804 0.701961
0.000000 0.482353 0.694118
0.000000 0.368627 0.709804
0.447059 0.309804 0.709804
0.698039 0.266667 0.705882
0.866667 0.219608 0.690196
0.996078 0.133333 0.658824
0.992157 0.011765 0.639216
0.000000 0.611765 0.686275
0.000000 0.615686 0.698039
0.000000 0.607843 0.694118
0.007843 0.596078 0.701961
0.403922 0.509804 0.686275
0.678431 0.462745 0.686275
0.862745 0.450980 0.674510
1.000000 0.450980 0.654902
0.996078 0.439216 0.635294
0.000000 0.717647 0.678431
0.000000 0.717647 0.678431
0.000000 0.709804 0.674510
0.000000 0.701961 0.666667
0.407843 0.686275 0.670588
0.650980 0.647059 0.639216
0.835294 0.678431 0.678431
0.996078 0.690196 0.682353
0.996078 0.678431 0.662745
0.003922 0.831373 0.631373
0.000000 0.831373 0.619608
0.000000 0.839216 0.627451
0.000000 0.839216 0.615686
0.286275 0.823529 0.611765
0.584314 0.823529 0.592157
0.827451 0.815686 0.607843
0.988235 0.831373 0.639216
0.992157 0.831373 0.658824
0.000000 0.984314 0.517647
0.003922 0.980392 0.509804
0.003922 0.976471 0.498039
0.000000 0.976471 0.490196
0.000000 0.972549 0.470588
0.431373 0.964706 0.431373
0.721569 0.960784 0.411765
0.956863 0.949020 0.411765
0.988235 0.917647 0.352941
0.003922 1.000000 0.003922
0.000000 1.000000 0.003922
0.000000 0.996078 0.000000
0.003922 1.000000 0.003922
0.000000 1.000000 0.003922
0.003922 1.000000 0.000000
0.556863 0.992157 0.000000
0.831373 1.000000 0.000000
0.996078 1.000000 0.003922
0.000000 0.266667 0.866667
0.000000 0.223529 0.870588
0.007843 0.082353 0.870588
0.000000 0.000000 0.870588
0.411765 0.003922 0.870588
0.670588 0.000000 0.866667
0.850980 0.000000 0.850980
1.000000 0.000000 0.854902
0.996078 0.003922 0.835294
0.000000 0.309804 0.862745
0.000000 0.274510 0.870588
0.000000 0.164706 0.878431
0.000000 0.047059 0.870588
0.403922 0.000000 0.854902
0.678431 0.000000 0.862745
0.854902 0.000000 0.866667
0.996078 0.000000 0.862745
0.996078 0.000000 0.835294
0.007843 0.403922 0.858824
0.000000 0.392157 0.878431
0.000000 0.313725 0.858824
0.000000 0.200000 0.870588
0.356863 0.137255 0.870588
0.647059 0.003922 0.862745
0.847059 0.003922 0.854902
1.000000 0.000000 0.847059
0.984314 0.003922 0.835294
0.000000 0.549020 0.858824
0.000000 0.545098 0.854902
0.003922 0.494118 0.854902
0.000000 0.403922 0.862745
0.270588 0.317647 0.858824
0.619608 0.266667 0.854902
0.847059 0.192157 0.850980
0.992157 0.019608 0.835294
0.992157 0.000000 0.819608
0.000000 0.682353 0.850980
0.000000 0.678431 0.835294
0.000000 0.654902 0.847059
0.007843 0.619608 0.843137
0.223529 0.513725 0.847059
0.596078 0.458824 0.858824
0.843137 0.419608 0.847059
1.000000 0.380392 0.823529
1.000000 0.325490 0.803922
0.000000 0.764706 0.835294
0.000000 0.772549 0.835294
0.007843 0.764706 0.835294
0.000000 0.752941 0.835294
0.254902 0.745098 0.831373
0.564706 0.650980 0.835294
0.831373 0.623529 0.835294
0.988235 0.600000 0.811765
0.996078 0.607843 0.788235
0.003922 0.866667 0.819608
0.000000 0.870588 0.827451
0.007843 0.858824 0.815686
0.000000 0.862745 0.815686
0.180392 0.843137 0.815686
0.568627 0.827451 0.819608
0.803922 0.803922 0.803922
0.968627 0.831373 0.823529
0.996078 0.835294 0.827451
0.000000 0.980392 0.768627
0.000000 0.972549 0.768627
0.000000 0.980392 0.756863
0.000000 0.976471 0.749020
0.000000 0.972549 0.752941
0.482353 0.964706 0.749020
0.737255 0.952941 0.729412
0.956863 0.956863 0.752941
1.000000 0.933333 0.760784
0.011765 1.000000 0.603922
0.000000 1.000000 0.600000
0.000000 1.000000 0.584314
0.003922 0.996078 0.576471
0.000000 1.000000 0.592157
0.313725 1.000000 0.619608
0.627451 1.000000 0.623529
0.847059 1.000000 0.623529
1.000000 0.996078 0.662745
0.000000 0.305882 0.984314
0.003922 0.270588 0.996078
0.011765 0.152941 1.000000
0.000000 0.003922 0.988235
0.164706 0.003922 1.000000
0.568627 0.000000 0.992157
0.807843 0.000000 0.992157
0.980392 0.000000 0.980392
0.996078 0.000000 0.996078
0.000000 0.341176 0.996078
0.000000 0.321569 0.980392
0.000000 0.223529 0.988235
0.000000 0.086275 1.000000
0.121569 0.000000 0.996078
0.552941 0.007843 0.992157
0.796078 0.000000 0.988235
0.984314 0.000000 0.984314
1.000000 0.000000 0.996078
0.011765 0.427451 0.992157
0.000000 0.407843 0.992157
0.003922 0.352941 0.988235
0.007843 0.207843 0.996078
0.000000 0.149020 0.992157
0.541176 0.003922 0.996078
0.788235 0.000000 0.988235
0.980392 0.000000 0.988235
1.000000 0.003922 0.984314
0.000000 0.564706 0.992157
0.000000 0.549020 0.992157
0.000000 0.509804 0.988235
0.000000 0.427451 0.988235
0.003922 0.317647 1.000000
0.498039 0.262745 0.992157
0.780392 0.168627 0.984314
0.976471 0.000000 0.988235
0.996078 0.003922 0.988235
0.003922 0.698039 0.964706
0.000000 0.694118 0.968627
0.000000 0.674510 0.972549
0.003922 0.623529 0.980392
0.000000 0.525490 0.988235
0.435294 0.458824 1.000000
0.749020 0.415686 0.976471
0.968627 0.356863 0.988235
0.996078 0.286275 0.972549
0.000000 0.807843 0.964706
0.000000 0.811765 0.964706
0.000000 0.807843 0.964706
0.003922 0.792157 0.972549
0.172549 0.756863 0.984314
0.447059 0.670588 0.980392
0.737255 0.615686 0.984314
0.964706 0.588235 0.972549
1.000000 0.545098 0.964706
0.003922 0.905882 0.968627
0.000000 0.901961 0.964706
0.000000 0.894118 0.968627
0.003922 0.894118 0.968627
0.000000 0.882353 0.952941
0.494118 0.882353 0.972549
0.729412 0.815686 0.976471
0.964706 0.784314 0.976471
0.996078 0.768627 0.929412
0.007843 0.996078 0.945098
0.000000 0.996078 0.956863
0.000000 1.000000 0.945098
0.007843 0.996078 0.952941
0.003922 0.992157 0.949020
0.439216 0.976471 0.945098
0.737255 0.956863 0.952941
0.937255 0.945098 0.933333
0.988235 0.952941 0.925490
0.003922 1.000000 0.878431
0.011765 0.996078 0.866667
0.000000 1.000000 0.858824
0.003922 1.000000 0.866667
0.003922 1.000000 0.866667
0.419608 1.000000 0.878431
0.768627 0.996078 0.901961
0.925490 1.000000 0.925490
1.000000 0.996078 0.937255
0.000000 0.227451 1.000000
0.000000 0.172549 1.000000
0.000000 0.031373 1.000000
0.003922 0.000000 0.996078
0.239216 0.007843 0.996078
0.600000 0.000000 1.000000
0.827451 0.000000 1.000000
1.000000 0.000000 0.996078
1.000000 0.003922 0.992157
0.003922 0.270588 0.996078
0.000000 0.227451 1.000000
0.000000 0.113725 0.996078
0.007843 0.003922 1.000000
0.223529 0.000000 1.000000
0.576471 0.003922 1.000000
0.827451 0.003922 1.000000
1.000000 0.003922 1.000000
1.000000 0.000000 1.000000
0.007843 0.376471 1.000000
0.007843 0.349020 1.000000
0.000000 0.266667 1.000000
0.007843 0.168627 1.000000
0.125490 0.043137 0.988235
0.572549 0.000000 0.992157
0.827451 0.000000 0.992157
0.996078 0.011765 1.000000
0.996078 0.000000 1.000000
0.000000 0.525490 1.000000
0.000000 0.498039 1.000000
0.003922 0.454902 1.000000
0.000000 0.352941 0.992157
0.003922 0.278431 1.000000
0.545098 0.196078 1.000000
0.819608 0.000000 1.000000
0.996078 0.000000 1.000000
1.000000 0.000000 1.000000
0.000000 0.705882 0.992157
0.000000 0.690196 0.988235
0.003922 0.650980 1.000000
0.000000 0.588235 1.000000
0.000000 0.474510 0.996078
0.462745 0.427451 0.996078
0.760784 0.368627 0.988235
0.996078 0.274510 1.000000
1.000000 0.117647 1.000000
0.000000 0.827451 1.000000
0.000000 0.823529 1.000000
0.000000 0.807843 1.000000
0.003922 0.784314 1.000000
0.239216 0.737255 1.000000
0.415686 0.627451 1.000000
0.721569 0.600000 1.000000
0.968627 0.560784 1.000000
1.000000 0.517647 1.000000
0.000000 0.909804 1.000000
0.000000 0.913725 0.996078
0.003922 0.905882 1.000000
0.011765 0.898039 0.996078
0.003922 0.898039 1.000000
0.564706 0.874510 0.996078
0.705882 0.788235 0.996078
0.925490 0.768627 1.000000
1.000000 0.749020 1.000000
0.000000 1.000000 1.000000
0.003922 0.980392 0.988235
0.003922 0.992157 1.000000
0.003922 0.980392 0.988235
0.000000 0.988235 1.000000
0.521569 0.972549 1.000000
0.776471 0.960784 0.992157
0.917647 0.941176 0.996078
1.000000 0.925490 1.000000
0.000000 1.000000 0.988235
0.000000 0.996078 0.988235
0.000000 0.996078 0.988235
0.000000 0.996078 0.988235
0.000000 1.000000 1.000000
0.592157 0.996078 0.992157
0.835294 1.000000 0.996078
0.984314 1.000000 1.000000
1.000000 1.000000 1.000000
