tools/luts_backup/Vegas.cube
#Generated with IWLTBAP LUT Generator
#Website: http://luts.iwltbap.com
TITLE "Vegas"
#LUT size
LUT_3D_SIZE 9
#LUT data points
0.062745 0.082353 0.105882
0.070588 0.082353 0.101961
0.137255 0.070588 0.094118
0.231373 0.070588 0.101961
0.400000 0.047059 0.094118
0.592157 0.039216 0.074510
0.827451 0.000000 0.043137
0.988235 0.000000 0.000000
0.996078 0.000000 0.000000
0.058824 0.098039 0.101961
0.070588 0.101961 0.109804
0.133333 0.094118 0.098039
0.223529 0.101961 0.094118
0.392157 0.101961 0.090196
0.584314 0.129412 0.078431
0.807843 0.105882 0.027451
0.980392 0.000000 0.003922
0.996078 0.000000 0.007843
0.043137 0.164706 0.101961
0.086275 0.152941 0.090196
0.137255 0.149020 0.105882
0.227451 0.156863 0.101961
0.403922 0.192157 0.082353
0.584314 0.239216 0.050980
0.815686 0.243137 0.007843
0.980392 0.207843 0.000000
0.992157 0.184314 0.000000
0.000000 0.290196 0.058824
0.094118 0.298039 0.047059
0.196078 0.294118 0.066667
0.266667 0.270588 0.098039
0.396078 0.294118 0.094118
0.576471 0.345098 0.047059
0.800000 0.368627 0.000000
0.960784 0.352941 0.000000
1.000000 0.329412 0.007843
0.003922 0.541176 0.000000
0.007843 0.552941 0.000000
0.180392 0.560784 0.003922
0.345098 0.533333 0.003922
0.443137 0.509804 0.000000
0.584314 0.501961 0.035294
0.807843 0.521569 0.015686
0.956863 0.501961 0.019608
1.000000 0.478431 0.145098
0.003922 0.780392 0.000000
0.003922 0.780392 0.000000
0.000000 0.780392 0.000000
0.266667 0.764706 0.015686
0.490196 0.745098 0.000000
0.658824 0.721569 0.000000
0.792157 0.686275 0.133333
0.933333 0.662745 0.196078
1.000000 0.631373 0.309804
0.007843 0.862745 0.000000
0.003922 0.866667 0.000000
0.007843 0.870588 0.000000
0.066667 0.866667 0.000000
0.423529 0.850980 0.003922
0.631373 0.839216 0.000000
0.788235 0.819608 0.098039
0.870588 0.788235 0.376471
0.949020 0.764706 0.490196
0.003922 0.921569 0.000000
0.000000 0.921569 0.007843
0.000000 0.921569 0.003922
0.000000 0.929412 0.000000
0.349020 0.913725 0.000000
0.576471 0.901961 0.000000
0.745098 0.890196 0.274510
0.847059 0.882353 0.462745
0.890196 0.862745 0.647059
0.011765 0.960784 0.011765
0.000000 0.952941 0.003922
0.003922 0.960784 0.000000
0.000000 0.952941 0.003922
0.258824 0.949020 0.000000
0.521569 0.945098 0.164706
0.698039 0.917647 0.427451
0.819608 0.913725 0.607843
0.874510 0.905882 0.721569
0.066667 0.082353 0.125490
0.074510 0.086275 0.121569
0.145098 0.074510 0.121569
0.247059 0.058824 0.113725
0.415686 0.000000 0.117647
0.607843 0.003922 0.105882
0.823529 0.003922 0.090196
0.988235 0.000000 0.058824
1.000000 0.000000 0.070588
0.058824 0.101961 0.125490
0.074510 0.101961 0.125490
0.141176 0.098039 0.129412
0.235294 0.098039 0.125490
0.400000 0.090196 0.113725
0.584314 0.070588 0.101961
0.784314 0.003922 0.078431
0.964706 0.000000 0.050980
1.000000 0.000000 0.062745
0.019608 0.160784 0.105882
0.074510 0.164706 0.125490
0.145098 0.149020 0.125490
0.239216 0.160784 0.125490
0.407843 0.184314 0.109804
0.603922 0.215686 0.101961
0.815686 0.211765 0.062745
0.980392 0.180392 0.043137
1.000000 0.137255 0.062745
0.000000 0.286275 0.086275
0.031373 0.294118 0.082353
0.184314 0.294118 0.094118
0.270588 0.270588 0.121569
0.388235 0.290196 0.129412
0.564706 0.333333 0.098039
0.788235 0.349020 0.058824
0.949020 0.333333 0.031373
1.000000 0.313725 0.058824
0.000000 0.537255 0.007843
0.007843 0.545098 0.000000
0.156863 0.541176 0.003922
0.329412 0.525490 0.003922
0.443137 0.501961 0.043137
0.576471 0.501961 0.101961
0.807843 0.525490 0.062745
0.956863 0.494118 0.117647
1.000000 0.466667 0.184314
0.000000 0.768627 0.000000
0.000000 0.772549 0.000000
0.000000 0.768627 0.007843
0.227451 0.760784 0.000000
0.482353 0.733333 0.007843
0.654902 0.717647 0.000000
0.784314 0.682353 0.207843
0.925490 0.654902 0.247059
0.996078 0.635294 0.333333
0.000000 0.862745 0.003922
0.003922 0.874510 0.000000
0.000000 0.862745 0.000000
0.000000 0.862745 0.000000
0.407843 0.854902 0.000000
0.619608 0.835294 0.000000
0.784314 0.811765 0.160784
0.870588 0.776471 0.384314
0.933333 0.768627 0.486275
0.000000 0.929412 0.000000
0.000000 0.925490 0.000000
0.003922 0.921569 0.000000
0.007843 0.917647 0.007843
0.337255 0.917647 0.000000
0.552941 0.905882 0.043137
0.741176 0.890196 0.313725
0.843137 0.874510 0.486275
0.886275 0.866667 0.647059
0.000000 0.956863 0.000000
0.000000 0.952941 0.003922
0.000000 0.952941 0.003922
0.007843 0.945098 0.007843
0.250980 0.949020 0.000000
0.513725 0.937255 0.215686
0.694118 0.921569 0.447059
0.811765 0.917647 0.607843
0.870588 0.905882 0.721569
0.019608 0.082353 0.172549
0.070588 0.078431 0.176471
0.145098 0.070588 0.180392
0.243137 0.058824 0.200000
0.415686 0.003922 0.227451
0.627451 0.003922 0.231373
0.862745 0.003922 0.160784
1.000000 0.000000 0.164706
1.000000 0.000000 0.164706
0.035294 0.101961 0.180392
0.074510 0.094118 0.180392
0.149020 0.090196 0.172549
0.250980 0.082353 0.188235
0.431373 0.003922 0.219608
0.631373 0.000000 0.180392
0.831373 0.000000 0.156863
0.988235 0.000000 0.152941
1.000000 0.000000 0.164706
0.007843 0.160784 0.180392
0.050980 0.156863 0.192157
0.149020 0.160784 0.196078
0.278431 0.149020 0.184314
0.439216 0.152941 0.188235
0.639216 0.149020 0.172549
0.850980 0.094118 0.168627
0.996078 0.007843 0.168627
1.000000 0.000000 0.180392
0.003922 0.294118 0.196078
0.000000 0.305882 0.168627
0.129412 0.309804 0.164706
0.274510 0.282353 0.188235
0.415686 0.298039 0.188235
0.607843 0.325490 0.176471
0.807843 0.329412 0.168627
0.964706 0.305882 0.164706
0.996078 0.286275 0.180392
0.000000 0.537255 0.082353
0.000000 0.541176 0.074510
0.007843 0.552941 0.062745
0.301961 0.537255 0.090196
0.450980 0.513725 0.168627
0.603922 0.513725 0.207843
0.823529 0.509804 0.223529
0.952941 0.490196 0.239216
0.996078 0.478431 0.290196
0.003922 0.772549 0.003922
0.000000 0.768627 0.000000
0.000000 0.772549 0.000000
0.121569 0.772549 0.011765
0.466667 0.752941 0.003922
0.650980 0.721569 0.180392
0.788235 0.686275 0.313725
0.917647 0.658824 0.352941
0.988235 0.635294 0.427451
0.000000 0.870588 0.003922
0.000000 0.862745 0.000000
0.003922 0.874510 0.000000
0.000000 0.858824 0.011765
0.368627 0.850980 0.007843
0.607843 0.839216 0.141176
0.780392 0.819608 0.290196
0.858824 0.788235 0.466667
0.933333 0.772549 0.552941
0.000000 0.921569 0.000000
0.000000 0.921569 0.007843
0.003922 0.921569 0.000000
0.000000 0.913725 0.003922
0.309804 0.913725 0.000000
0.560784 0.901961 0.247059
0.725490 0.886275 0.407843
0.850980 0.870588 0.549020
0.886275 0.862745 0.674510
0.000000 0.956863 0.101961
0.000000 0.949020 0.133333
0.003922 0.952941 0.145098
0.000000 0.956863 0.137255
0.266667 0.945098 0.137255
0.517647 0.941176 0.309804
0.701961 0.921569 0.494118
0.819608 0.909804 0.643137
0.874510 0.898039 0.749020
0.000000 0.074510 0.305882
0.058824 0.066667 0.290196
0.176471 0.047059 0.317647
0.294118 0.007843 0.329412
0.435294 0.000000 0.368627
0.639216 0.000000 0.419608
0.866667 0.000000 0.415686
0.996078 0.000000 0.376471
1.000000 0.000000 0.313725
0.007843 0.090196 0.298039
0.019608 0.094118 0.313725
0.156863 0.086275 0.313725
0.290196 0.050980 0.325490
0.443137 0.000000 0.360784
0.635294 0.000000 0.403922
0.862745 0.000000 0.400000
0.996078 0.000000 0.345098
1.000000 0.000000 0.313725
0.000000 0.172549 0.301961
0.007843 0.176471 0.313725
0.113725 0.145098 0.325490
0.298039 0.141176 0.349020
0.478431 0.098039 0.376471
0.682353 0.000000 0.384314
0.890196 0.000000 0.352941
1.000000 0.000000 0.329412
0.996078 0.000000 0.345098
0.000000 0.301961 0.325490
0.000000 0.305882 0.333333
0.000000 0.313725 0.345098
0.282353 0.298039 0.341176
0.462745 0.305882 0.337255
0.658824 0.301961 0.337255
0.858824 0.278431 0.325490
0.976471 0.258824 0.329412
1.000000 0.266667 0.337255
0.000000 0.549020 0.372549
0.000000 0.552941 0.356863
0.000000 0.560784 0.341176
0.184314 0.560784 0.313725
0.443137 0.533333 0.352941
0.647059 0.529412 0.388235
0.847059 0.521569 0.403922
0.956863 0.501961 0.411765
1.000000 0.505882 0.439216
0.000000 0.780392 0.321569
0.000000 0.776471 0.294118
0.000000 0.776471 0.294118
0.000000 0.776471 0.286275
0.443137 0.756863 0.321569
0.670588 0.729412 0.396078
0.803922 0.701961 0.470588
0.913725 0.674510 0.498039
0.968627 0.670588 0.545098
0.003922 0.866667 0.282353
0.000000 0.870588 0.294118
0.000000 0.866667 0.290196
0.003922 0.862745 0.290196
0.341176 0.858824 0.290196
0.611765 0.843137 0.388235
0.772549 0.823529 0.478431
0.858824 0.800000 0.584314
0.925490 0.788235 0.631373
0.000000 0.925490 0.337255
0.000000 0.917647 0.341176
0.000000 0.925490 0.352941
0.003922 0.921569 0.345098
0.337255 0.913725 0.364706
0.580392 0.898039 0.427451
0.733333 0.886275 0.537255
0.839216 0.870588 0.635294
0.878431 0.862745 0.717647
0.000000 0.952941 0.388235
0.003922 0.956863 0.400000
0.000000 0.960784 0.400000
0.054902 0.952941 0.396078
0.345098 0.945098 0.396078
0.525490 0.937255 0.435294
0.717647 0.921569 0.588235
0.827451 0.909804 0.678431
0.870588 0.909804 0.764706
0.000000 0.043137 0.505882
0.015686 0.023529 0.498039
0.203922 0.000000 0.513725
0.352941 0.000000 0.552941
0.482353 0.003922 0.564706
0.650980 0.007843 0.592157
0.862745 0.000000 0.596078
0.988235 0.003922 0.560784
1.000000 0.000000 0.517647
0.000000 0.078431 0.498039
0.000000 0.070588 0.494118
0.164706 0.027451 0.521569
0.333333 0.003922 0.541176
0.470588 0.003922 0.560784
0.643137 0.000000 0.580392
0.854902 0.000000 0.584314
1.000000 0.000000 0.541176
0.996078 0.000000 0.513725
0.000000 0.180392 0.501961
0.000000 0.152941 0.513725
0.000000 0.121569 0.537255
0.317647 0.090196 0.564706
0.482353 0.003922 0.572549
0.678431 0.003922 0.584314
0.878431 0.000000 0.580392
1.000000 0.000000 0.541176
1.000000 0.000000 0.509804
0.000000 0.321569 0.505882
0.003922 0.317647 0.517647
0.003922 0.298039 0.521569
0.203922 0.270588 0.545098
0.466667 0.278431 0.576471
0.682353 0.262745 0.576471
0.874510 0.235294 0.545098
0.988235 0.239216 0.509804
0.996078 0.298039 0.501961
0.000000 0.537255 0.568627
0.000000 0.552941 0.576471
0.003922 0.545098 0.584314
0.000000 0.552941 0.568627
0.450980 0.556863 0.584314
0.678431 0.549020 0.576471
0.847059 0.545098 0.576471
0.945098 0.545098 0.588235
0.996078 0.568627 0.588235
0.003922 0.776471 0.568627
0.000000 0.776471 0.576471
0.000000 0.772549 0.564706
0.003922 0.764706 0.560784
0.411765 0.764706 0.564706
0.674510 0.737255 0.596078
0.803922 0.717647 0.627451
0.894118 0.709804 0.647059
0.949020 0.713725 0.670588
0.000000 0.866667 0.525490
0.003922 0.862745 0.541176
0.000000 0.866667 0.541176
0.000000 0.862745 0.560784
0.400000 0.854902 0.560784
0.635294 0.843137 0.576471
0.772549 0.819608 0.623529
0.843137 0.803922 0.666667
0.909804 0.803922 0.721569
0.007843 0.905882 0.580392
0.000000 0.913725 0.580392
0.105882 0.913725 0.580392
0.313725 0.909804 0.584314
0.458824 0.905882 0.572549
0.615686 0.901961 0.584314
0.760784 0.882353 0.650980
0.843137 0.874510 0.713725
0.882353 0.866667 0.752941
0.200000 0.945098 0.592157
0.274510 0.941176 0.596078
0.317647 0.937255 0.596078
0.411765 0.937255 0.596078
0.494118 0.933333 0.596078
0.596078 0.929412 0.596078
0.741176 0.917647 0.662745
0.819608 0.909804 0.729412
0.870588 0.913725 0.788235
0.000000 0.003922 0.701961
0.003922 0.000000 0.705882
0.192157 0.000000 0.701961
0.345098 0.000000 0.713725
0.494118 0.003922 0.741176
0.662745 0.000000 0.752941
0.862745 0.003922 0.749020
0.988235 0.000000 0.709804
1.000000 0.000000 0.674510
0.000000 0.039216 0.694118
0.000000 0.007843 0.694118
0.129412 0.000000 0.694118
0.317647 0.000000 0.709804
0.474510 0.003922 0.729412
0.654902 0.003922 0.741176
0.847059 0.000000 0.733333
0.980392 0.007843 0.698039
1.000000 0.000000 0.658824
0.003922 0.129412 0.698039
0.000000 0.121569 0.698039
0.000000 0.086275 0.717647
0.262745 0.023529 0.725490
0.478431 0.007843 0.737255
0.670588 0.000000 0.745098
0.874510 0.000000 0.741176
0.988235 0.003922 0.698039
0.992157 0.003922 0.650980
0.000000 0.309804 0.666667
0.003922 0.298039 0.694118
0.000000 0.266667 0.701961
0.078431 0.231373 0.705882
0.419608 0.227451 0.729412
0.654902 0.219608 0.733333
0.858824 0.172549 0.709804
0.960784 0.192157 0.678431
1.000000 0.250980 0.647059
0.000000 0.501961 0.705882
0.000000 0.498039 0.698039
0.000000 0.498039 0.705882
0.003922 0.474510 0.713725
0.356863 0.490196 0.729412
0.674510 0.513725 0.741176
0.843137 0.533333 0.721569
0.929412 0.560784 0.705882
0.972549 0.596078 0.701961
0.000000 0.733333 0.737255
0.007843 0.733333 0.713725
0.003922 0.741176 0.745098
0.000000 0.741176 0.741176
0.415686 0.737255 0.729412
0.682353 0.737255 0.737255
0.796078 0.741176 0.729412
0.870588 0.737255 0.733333
0.929412 0.749020 0.749020
0.011765 0.862745 0.694118
0.000000 0.862745 0.694118
0.000000 0.854902 0.690196
0.141176 0.847059 0.694118
0.494118 0.843137 0.717647
0.658824 0.835294 0.721569
0.776471 0.823529 0.737255
0.835294 0.815686 0.737255
0.901961 0.815686 0.764706
0.000000 0.905882 0.686275
0.090196 0.909804 0.694118
0.309804 0.901961 0.694118
0.482353 0.894118 0.725490
0.600000 0.894118 0.733333
0.674510 0.890196 0.725490
0.764706 0.882353 0.741176
0.839216 0.874510 0.768627
0.874510 0.870588 0.800000
0.435294 0.937255 0.713725
0.486275 0.929412 0.717647
0.537255 0.929412 0.725490
0.592157 0.933333 0.733333
0.631373 0.921569 0.729412
0.686275 0.921569 0.721569
0.752941 0.917647 0.737255
0.827451 0.913725 0.772549
0.870588 0.905882 0.800000
0.000000 0.000000 0.815686
0.007843 0.000000 0.823529
0.094118 0.000000 0.823529
0.298039 0.000000 0.823529
0.458824 0.003922 0.839216
0.623529 0.000000 0.839216
0.803922 0.000000 0.843137
0.992157 0.000000 0.843137
1.000000 0.000000 0.792157
0.007843 0.000000 0.823529
0.000000 0.003922 0.811765
0.000000 0.007843 0.819608
0.270588 0.003922 0.823529
0.435294 0.003922 0.831373
0.619608 0.000000 0.843137
0.784314 0.000000 0.831373
0.976471 0.000000 0.839216
1.000000 0.000000 0.784314
0.000000 0.090196 0.811765
0.000000 0.090196 0.827451
0.000000 0.047059 0.823529
0.211765 0.000000 0.823529
0.411765 0.000000 0.827451
0.603922 0.000000 0.843137
0.800000 0.003922 0.839216
0.980392 0.000000 0.831373
1.000000 0.000000 0.792157
0.000000 0.266667 0.803922
0.000000 0.250980 0.815686
0.000000 0.211765 0.807843
0.000000 0.192157 0.815686
0.352941 0.196078 0.827451
0.580392 0.196078 0.827451
0.792157 0.176471 0.831373
0.956863 0.160784 0.823529
1.000000 0.239216 0.780392
0.000000 0.447059 0.792157
0.000000 0.443137 0.803922
0.003922 0.435294 0.807843
0.000000 0.427451 0.823529
0.274510 0.423529 0.811765
0.568627 0.462745 0.827451
0.800000 0.505882 0.831373
0.925490 0.529412 0.803922
0.980392 0.580392 0.776471
0.000000 0.647059 0.803922
0.000000 0.650980 0.807843
0.003922 0.643137 0.811765
0.007843 0.647059 0.807843
0.243137 0.658824 0.811765
0.603922 0.694118 0.819608
0.796078 0.725490 0.811765
0.870588 0.737255 0.803922
0.913725 0.749020 0.803922
0.000000 0.831373 0.807843
0.003922 0.831373 0.807843
0.000000 0.827451 0.811765
0.000000 0.827451 0.800000
0.450980 0.831373 0.796078
0.662745 0.823529 0.800000
0.776471 0.823529 0.807843
0.843137 0.823529 0.807843
0.886275 0.827451 0.807843
0.090196 0.905882 0.780392
0.239216 0.901961 0.780392
0.368627 0.894118 0.788235
0.521569 0.890196 0.788235
0.639216 0.890196 0.796078
0.709804 0.886275 0.803922
0.780392 0.878431 0.803922
0.839216 0.870588 0.811765
0.874510 0.874510 0.827451
0.486275 0.925490 0.768627
0.509804 0.925490 0.776471
0.556863 0.925490 0.780392
0.623529 0.929412 0.776471
0.674510 0.921569 0.800000
0.737255 0.913725 0.800000
0.776471 0.913725 0.788235
0.823529 0.913725 0.811765
0.874510 0.901961 0.831373
0.003922 0.000000 0.886275
0.003922 0.000000 0.886275
0.000000 0.000000 0.882353
0.247059 0.003922 0.886275
0.403922 0.000000 0.882353
0.549020 0.000000 0.886275
0.713725 0.000000 0.890196
0.882353 0.000000 0.894118
1.000000 0.000000 0.890196
0.003922 0.000000 0.882353
0.000000 0.003922 0.886275
0.000000 0.000000 0.874510
0.219608 0.003922 0.890196
0.380392 0.003922 0.874510
0.545098 0.000000 0.886275
0.705882 0.003922 0.890196
0.870588 0.000000 0.882353
1.000000 0.000000 0.886275
0.007843 0.062745 0.890196
0.000000 0.054902 0.878431
0.000000 0.019608 0.890196
0.145098 0.000000 0.898039
0.345098 0.000000 0.890196
0.517647 0.000000 0.886275
0.705882 0.003922 0.890196
0.882353 0.000000 0.886275
1.000000 0.000000 0.886275
0.011765 0.176471 0.894118
0.003922 0.188235 0.870588
0.000000 0.176471 0.886275
0.000000 0.168627 0.886275
0.286275 0.176471 0.894118
0.490196 0.180392 0.886275
0.690196 0.192157 0.890196
0.874510 0.196078 0.890196
1.000000 0.215686 0.886275
0.000000 0.392157 0.870588
0.000000 0.396078 0.882353
0.000000 0.384314 0.874510
0.011765 0.356863 0.878431
0.203922 0.380392 0.886275
0.486275 0.415686 0.886275
0.709804 0.470588 0.878431
0.866667 0.517647 0.886275
0.968627 0.556863 0.878431
0.000000 0.576471 0.878431
0.000000 0.572549 0.878431
0.000000 0.564706 0.874510
0.007843 0.568627 0.866667
0.235294 0.603922 0.878431
0.545098 0.639216 0.874510
0.737255 0.690196 0.870588
0.858824 0.725490 0.862745
0.921569 0.737255 0.862745
0.000000 0.745098 0.847059
0.003922 0.745098 0.862745
0.007843 0.741176 0.870588
0.000000 0.760784 0.866667
0.325490 0.756863 0.854902
0.572549 0.772549 0.854902
0.749020 0.796078 0.850980
0.854902 0.815686 0.858824
0.894118 0.827451 0.858824
0.000000 0.890196 0.850980
0.000000 0.890196 0.854902
0.274510 0.886275 0.843137
0.458824 0.878431 0.854902
0.592157 0.870588 0.839216
0.698039 0.874510 0.847059
0.768627 0.874510 0.847059
0.839216 0.878431 0.847059
0.882353 0.878431 0.858824
0.525490 0.925490 0.831373
0.552941 0.925490 0.847059
0.596078 0.925490 0.835294
0.635294 0.917647 0.839216
0.701961 0.917647 0.843137
0.749020 0.917647 0.843137
0.796078 0.905882 0.847059
0.839216 0.909804 0.854902
0.874510 0.905882 0.854902
0.000000 0.000000 0.933333
0.000000 0.000000 0.933333
0.000000 0.000000 0.925490
0.172549 0.000000 0.921569
0.329412 0.000000 0.925490
0.482353 0.000000 0.929412
0.619608 0.000000 0.921569
0.776471 0.000000 0.929412
0.925490 0.000000 0.929412
0.000000 0.000000 0.921569
0.000000 0.000000 0.925490
0.000000 0.000000 0.925490
0.145098 0.000000 0.933333
0.325490 0.000000 0.933333
0.466667 0.000000 0.917647
0.611765 0.000000 0.917647
0.788235 0.000000 0.933333
0.917647 0.000000 0.921569
0.003922 0.031373 0.933333
0.007843 0.023529 0.921569
0.000000 0.011765 0.941176
0.000000 0.003922 0.917647
0.298039 0.000000 0.929412
0.447059 0.000000 0.933333
0.603922 0.000000 0.925490
0.784314 0.000000 0.921569
0.921569 0.003922 0.933333
0.000000 0.168627 0.925490
0.000000 0.168627 0.921569
0.011765 0.160784 0.925490
0.000000 0.156863 0.933333
0.223529 0.152941 0.929412
0.415686 0.156863 0.917647
0.603922 0.176471 0.921569
0.776471 0.219608 0.925490
0.925490 0.278431 0.921569
0.000000 0.352941 0.925490
0.003922 0.368627 0.917647
0.003922 0.337255 0.929412
0.000000 0.341176 0.921569
0.145098 0.349020 0.917647
0.407843 0.380392 0.921569
0.615686 0.419608 0.909804
0.796078 0.490196 0.917647
0.909804 0.564706 0.905882
0.000000 0.521569 0.917647
0.003922 0.525490 0.921569
0.000000 0.537255 0.921569
0.000000 0.545098 0.909804
0.254902 0.576471 0.905882
0.501961 0.603922 0.905882
0.674510 0.647059 0.909804
0.811765 0.705882 0.905882
0.894118 0.733333 0.890196
0.000000 0.690196 0.913725
0.000000 0.686275 0.909804
0.000000 0.694118 0.898039
0.003922 0.694118 0.917647
0.305882 0.717647 0.901961
0.603922 0.752941 0.898039
0.725490 0.780392 0.886275
0.815686 0.807843 0.890196
0.866667 0.823529 0.878431
0.000000 0.831373 0.886275
0.003922 0.839216 0.894118
0.239216 0.839216 0.894118
0.407843 0.839216 0.890196
0.556863 0.847059 0.890196
0.662745 0.854902 0.882353
0.745098 0.858824 0.882353
0.823529 0.866667 0.882353
0.874510 0.866667 0.870588
0.490196 0.909804 0.878431
0.517647 0.917647 0.874510
0.549020 0.913725 0.874510
0.611765 0.905882 0.886275
0.670588 0.905882 0.874510
0.733333 0.909804 0.882353
0.788235 0.909804 0.886275
0.843137 0.909804 0.878431
0.874510 0.901961 0.874510
