tools/luts_backup/Vegas.cube
#Generated with IWLTBAP LUT Generator
#Website: http://luts.iwltbap.com
TITLE "Vegas"
#LUT size
LUT_3D_SIZE 5
#LUT data points
0.062745 0.082353 0.105882
0.137255 0.070588 0.094118
0.400000 0.047059 0.094118
0.827451 0.000000 0.043137
0.996078 0.000000 0.000000
0.043137 0.164706 0.101961
0.137255 0.149020 0.105882
0.403922 0.192157 0.082353
0.815686 0.243137 0.007843
0.992157 0.184314 0.000000
0.003922 0.541176 0.000000
0.180392 0.560784 0.003922
0.443137 0.509804 0.000000
0.807843 0.521569 0.015686
1.000000 0.478431 0.145098
0.007843 0.862745 0.000000
0.007843 0.870588 0.000000
0.423529 0.850980 0.003922
0.788235 0.819608 0.098039
0.949020 0.764706 0.490196
0.011765 0.960784 0.011765
0.003922 0.960784 0.000000
0.258824 0.949020 0.000000
0.698039 0.917647 0.427451
0.874510 0.905882 0.721569
0.019608 0.082353 0.172549
0.145098 0.070588 0.180392
0.415686 0.003922 0.227451
0.862745 0.003922 0.160784
1.000000 0.000000 0.164706
0.007843 0.160784 0.180392
0.149020 0.160784 0.196078
0.439216 0.152941 0.188235
0.850980 0.094118 0.168627
1.000000 0.000000 0.180392
0.000000 0.537255 0.082353
0.007843 0.552941 0.062745
0.450980 0.513725 0.168627
0.823529 0.509804 0.223529
0.996078 0.478431 0.290196
0.000000 0.870588 0.003922
0.003922 0.874510 0.000000
0.368627 0.850980 0.007843
0.780392 0.819608 0.290196
0.933333 0.772549 0.552941
0.000000 0.956863 0.101961
0.003922 0.952941 0.145098
0.266667 0.945098 0.137255
0.701961 0.921569 0.494118
0.874510 0.898039 0.749020
0.000000 0.043137 0.505882
0.203922 0.000000 0.513725
0.482353 0.003922 0.564706
0.862745 0.000000 0.596078
1.000000 0.000000 0.517647
0.000000 0.180392 0.501961
0.000000 0.121569 0.537255
0.482353 0.003922 0.572549
0.878431 0.000000 0.580392
1.000000 0.000000 0.509804
0.000000 0.537255 0.568627
0.003922 0.545098 0.584314
0.450980 0.556863 0.584314
0.847059 0.545098 0.576471
0.996078 0.568627 0.588235
0.000000 0.866667 0.525490
0.000000 0.866667 0.541176
0.400000 0.854902 0.560784
0.772549 0.819608 0.623529
0.909804 0.803922 0.721569
0.200000 0.945098 0.592157
0.317647 0.937255 0.596078
0.494118 0.933333 0.596078
0.741176 0.917647 0.662745
0.870588 0.913725 0.788235
0.000000 0.000000 0.815686
0.094118 0.000000 0.823529
0.458824 0.003922 0.839216
0.803922 0.000000 0.843137
1.000000 0.000000 0.792157
0.000000 0.090196 0.811765
0.000000 0.047059 0.823529
0.411765 0.000000 0.827451
0.800000 0.003922 0.839216
1.000000 0.000000 0.792157
0.000000 0.447059 0.792157
0.003922 0.435294 0.807843
0.274510 0.423529 0.811765
0.800000 0.505882 0.831373
0.980392 0.580392 0.776471
0.000000 0.831373 0.807843
0.000000 0.827451 0.811765
0.450980 0.831373 0.796078
0.776471 0.823529 0.807843
0.886275 0.827451 0.807843
0.486275 0.925490 0.768627
0.556863 0.925490 0.780392
0.674510 0.921569 0.800000
0.776471 0.913725 0.788235
0.874510 0.901961 0.831373
0.000000 0.000000 0.933333
0.000000 0.000000 0.925490
0.329412 0.000000 0.925490
0.619608 0.000000 0.921569
0.925490 0.000000 0.929412
0.003922 0.031373 0.933333
0.000000 0.011765 0.941176
0.298039 0.000000 0.929412
0.603922 0.000000 0.925490
0.921569 0.003922 0.933333
0.000000 0.352941 0.925490
0.003922 0.337255 0.929412
0.145098 0.349020 0.917647
0.615686 0.419608 0.909804
0.909804 0.564706 0.905882
0.000000 0.690196 0.913725
0.000000 0.694118 0.898039
0.305882 0.717647 0.901961
0.725490 0.780392 0.886275
0.866667 0.823529 0.878431
0.490196 0.909804 0.878431
0.549020 0.913725 0.874510
0.670588 0.905882 0.874510
0.788235 0.909804 0.886275
0.874510 0.901961 0.874510
