tools/luts_backup/Vegas.cube
#Generated with IWLTBAP LUT Generator
#Website: http://luts.iwltbap.com
TITLE "Vegas"
#LUT size
LUT_3D_SIZE 25
#LUT data points
0.062745 0.082353 0.105882
0.054902 0.082353 0.105882
0.058824 0.090196 0.101961
0.070588 0.082353 0.101961
0.094118 0.086275 0.105882
0.121569 0.078431 0.101961
0.137255 0.070588 0.094118
0.156863 0.074510 0.094118
0.203922 0.066667 0.090196
0.231373 0.070588 0.101961
0.282353 0.062745 0.098039
0.333333 0.050980 0.094118
0.400000 0.047059 0.094118
0.466667 0.050980 0.090196
0.517647 0.047059 0.086275
0.592157 0.039216 0.074510
0.666667 0.023529 0.066667
0.741176 0.003922 0.058824
0.827451 0.000000 0.043137
0.886275 0.000000 0.015686
0.941176 0.000000 0.000000
0.988235 0.000000 0.000000
1.000000 0.003922 0.011765
0.996078 0.000000 0.000000
0.996078 0.000000 0.000000
0.054902 0.086275 0.094118
0.070588 0.082353 0.109804
0.070588 0.086275 0.098039
0.074510 0.086275 0.113725
0.101961 0.074510 0.101961
0.117647 0.082353 0.094118
0.141176 0.082353 0.101961
0.160784 0.078431 0.098039
0.192157 0.078431 0.094118
0.223529 0.082353 0.098039
0.274510 0.074510 0.094118
0.329412 0.074510 0.098039
0.400000 0.062745 0.098039
0.447059 0.074510 0.098039
0.517647 0.066667 0.086275
0.592157 0.070588 0.090196
0.662745 0.058824 0.066667
0.745098 0.027451 0.043137
0.823529 0.000000 0.043137
0.894118 0.000000 0.015686
0.952941 0.003922 0.000000
0.980392 0.000000 0.003922
0.996078 0.000000 0.000000
0.996078 0.000000 0.000000
0.996078 0.000000 0.011765
0.054902 0.086275 0.094118
0.070588 0.086275 0.090196
0.074510 0.090196 0.101961
0.074510 0.090196 0.101961
0.086275 0.090196 0.105882
0.117647 0.082353 0.094118
0.129412 0.090196 0.094118
0.160784 0.086275 0.094118
0.188235 0.094118 0.094118
0.227451 0.094118 0.098039
0.270588 0.098039 0.101961
0.329412 0.086275 0.098039
0.388235 0.090196 0.098039
0.443137 0.086275 0.082353
0.517647 0.090196 0.078431
0.580392 0.098039 0.078431
0.650980 0.094118 0.054902
0.737255 0.074510 0.047059
0.815686 0.031373 0.031373
0.882353 0.000000 0.031373
0.941176 0.000000 0.000000
0.976471 0.000000 0.000000
0.996078 0.000000 0.000000
0.996078 0.000000 0.007843
1.000000 0.003922 0.003922
0.058824 0.098039 0.101961
0.058824 0.098039 0.101961
0.062745 0.098039 0.094118
0.070588 0.101961 0.109804
0.094118 0.094118 0.101961
0.113725 0.098039 0.101961
0.133333 0.094118 0.098039
0.149020 0.101961 0.101961
0.180392 0.098039 0.094118
0.223529 0.101961 0.094118
0.270588 0.109804 0.101961
0.333333 0.105882 0.098039
0.392157 0.101961 0.090196
0.454902 0.109804 0.094118
0.517647 0.121569 0.074510
0.584314 0.129412 0.078431
0.650980 0.129412 0.062745
0.733333 0.117647 0.043137
0.807843 0.105882 0.027451
0.878431 0.062745 0.011765
0.929412 0.015686 0.000000
0.980392 0.000000 0.003922
1.000000 0.003922 0.003922
0.996078 0.000000 0.000000
0.996078 0.000000 0.007843
0.050980 0.113725 0.101961
0.070588 0.117647 0.109804
0.066667 0.113725 0.098039
0.078431 0.113725 0.094118
0.090196 0.109804 0.094118
0.105882 0.113725 0.109804
0.129412 0.109804 0.098039
0.149020 0.109804 0.101961
0.184314 0.113725 0.105882
0.223529 0.113725 0.098039
0.270588 0.113725 0.105882
0.321569 0.125490 0.098039
0.392157 0.129412 0.094118
0.447059 0.141176 0.090196
0.513725 0.149020 0.078431
0.588235 0.160784 0.070588
0.650980 0.156863 0.058824
0.729412 0.160784 0.047059
0.803922 0.149020 0.023529
0.854902 0.133333 0.000000
0.925490 0.101961 0.000000
0.968627 0.082353 0.000000
1.000000 0.050980 0.003922
1.000000 0.019608 0.000000
0.996078 0.000000 0.000000
0.054902 0.141176 0.090196
0.054902 0.133333 0.086275
0.070588 0.133333 0.090196
0.086275 0.129412 0.098039
0.094118 0.133333 0.101961
0.105882 0.125490 0.098039
0.125490 0.121569 0.101961
0.149020 0.129412 0.113725
0.192157 0.133333 0.105882
0.223529 0.133333 0.101961
0.278431 0.145098 0.098039
0.345098 0.152941 0.098039
0.400000 0.160784 0.090196
0.458824 0.176471 0.082353
0.529412 0.188235 0.078431
0.592157 0.200000 0.066667
0.674510 0.207843 0.043137
0.749020 0.207843 0.023529
0.823529 0.192157 0.011765
0.890196 0.180392 0.000000
0.941176 0.168627 0.000000
0.984314 0.152941 0.007843
0.992157 0.137255 0.000000
1.000000 0.121569 0.000000
1.000000 0.109804 0.003922
0.043137 0.164706 0.101961
0.050980 0.160784 0.074510
0.074510 0.164706 0.094118
0.086275 0.152941 0.090196
0.105882 0.160784 0.094118
0.129412 0.152941 0.113725
0.137255 0.149020 0.105882
0.152941 0.152941 0.113725
0.180392 0.152941 0.121569
0.227451 0.156863 0.101961
0.270588 0.164706 0.098039
0.341176 0.172549 0.105882
0.403922 0.192157 0.082353
0.458824 0.207843 0.070588
0.525490 0.219608 0.070588
0.584314 0.239216 0.050980
0.674510 0.243137 0.035294
0.752941 0.239216 0.019608
0.815686 0.243137 0.007843
0.882353 0.239216 0.000000
0.945098 0.227451 0.000000
0.980392 0.207843 0.000000
1.000000 0.188235 0.000000
1.000000 0.184314 0.000000
0.992157 0.184314 0.000000
0.043137 0.196078 0.090196
0.054902 0.192157 0.098039
0.058824 0.192157 0.086275
0.090196 0.200000 0.101961
0.113725 0.184314 0.082353
0.133333 0.196078 0.094118
0.149020 0.184314 0.101961
0.180392 0.176471 0.105882
0.203922 0.168627 0.109804
0.215686 0.180392 0.113725
0.286275 0.188235 0.109804
0.341176 0.207843 0.098039
0.400000 0.227451 0.090196
0.462745 0.235294 0.090196
0.509804 0.262745 0.062745
0.588235 0.270588 0.062745
0.662745 0.278431 0.023529
0.737255 0.290196 0.003922
0.811765 0.290196 0.000000
0.878431 0.278431 0.011765
0.933333 0.270588 0.007843
0.976471 0.262745 0.003922
0.996078 0.254902 0.003922
1.000000 0.247059 0.000000
1.000000 0.231373 0.000000
0.023529 0.239216 0.086275
0.047059 0.235294 0.086275
0.050980 0.239216 0.074510
0.098039 0.235294 0.070588
0.109804 0.247059 0.082353
0.149020 0.235294 0.086275
0.176471 0.231373 0.090196
0.200000 0.227451 0.094118
0.215686 0.219608 0.098039
0.239216 0.211765 0.109804
0.282353 0.219608 0.117647
0.337255 0.235294 0.098039
0.396078 0.258824 0.094118
0.450980 0.278431 0.086275
0.517647 0.298039 0.074510
0.588235 0.309804 0.058824
0.662745 0.325490 0.031373
0.737255 0.325490 0.000000
0.803922 0.325490 0.000000
0.874510 0.321569 0.000000
0.933333 0.305882 0.000000
0.964706 0.305882 0.011765
1.000000 0.298039 0.000000
1.000000 0.290196 0.003922
1.000000 0.282353 0.007843
0.000000 0.290196 0.058824
0.019608 0.294118 0.050980
0.054902 0.294118 0.058824
0.094118 0.298039 0.047059
0.125490 0.301961 0.047059
0.164706 0.305882 0.062745
0.196078 0.294118 0.066667
0.223529 0.282353 0.058824
0.254902 0.282353 0.082353
0.266667 0.270588 0.098039
0.286275 0.266667 0.101961
0.337255 0.266667 0.117647
0.396078 0.294118 0.094118
0.450980 0.313725 0.094118
0.509804 0.333333 0.070588
0.576471 0.345098 0.047059
0.650980 0.360784 0.019608
0.717647 0.360784 0.003922
0.800000 0.368627 0.000000
0.874510 0.368627 0.011765
0.913725 0.360784 0.000000
0.960784 0.352941 0.000000
0.996078 0.345098 0.007843
1.000000 0.333333 0.000000
1.000000 0.329412 0.007843
0.000000 0.396078 0.003922
0.000000 0.396078 0.003922
0.027451 0.400000 0.000000
0.090196 0.396078 0.000000
0.141176 0.396078 0.003922
0.176471 0.396078 0.000000
0.215686 0.392157 0.000000
0.266667 0.384314 0.000000
0.298039 0.372549 0.019608
0.313725 0.372549 0.047059
0.352941 0.352941 0.062745
0.364706 0.345098 0.086275
0.396078 0.352941 0.101961
0.462745 0.368627 0.086275
0.529412 0.392157 0.062745
0.600000 0.407843 0.035294
0.678431 0.427451 0.011765
0.749020 0.427451 0.000000
0.827451 0.427451 0.003922
0.878431 0.419608 0.007843
0.933333 0.411765 0.000000
0.976471 0.400000 0.000000
0.996078 0.396078 0.000000
1.000000 0.388235 0.031373
0.996078 0.388235 0.066667
0.000000 0.454902 0.000000
0.003922 0.462745 0.011765
0.000000 0.458824 0.007843
0.035294 0.470588 0.000000
0.113725 0.474510 0.000000
0.160784 0.474510 0.000000
0.219608 0.470588 0.000000
0.262745 0.462745 0.000000
0.298039 0.458824 0.000000
0.345098 0.450980 0.000000
0.372549 0.435294 0.015686
0.396078 0.431373 0.011765
0.419608 0.423529 0.054902
0.454902 0.411765 0.098039
0.525490 0.435294 0.058824
0.580392 0.454902 0.019608
0.654902 0.474510 0.003922
0.741176 0.482353 0.003922
0.815686 0.482353 0.000000
0.882353 0.466667 0.003922
0.929412 0.454902 0.011765
0.968627 0.454902 0.007843
1.000000 0.443137 0.035294
0.996078 0.431373 0.054902
1.000000 0.435294 0.109804
0.003922 0.541176 0.000000
0.000000 0.552941 0.000000
0.007843 0.549020 0.011765
0.007843 0.552941 0.000000
0.000000 0.552941 0.011765
0.117647 0.552941 0.000000
0.180392 0.560784 0.003922
0.243137 0.552941 0.000000
0.282353 0.545098 0.000000
0.345098 0.533333 0.003922
0.364706 0.521569 0.000000
0.415686 0.513725 0.003922
0.443137 0.509804 0.000000
0.470588 0.494118 0.007843
0.513725 0.482353 0.062745
0.584314 0.501961 0.035294
0.662745 0.517647 0.000000
0.733333 0.529412 0.000000
0.807843 0.521569 0.015686
0.866667 0.521569 0.000000
0.921569 0.513725 0.000000
0.956863 0.501961 0.019608
0.996078 0.482353 0.066667
1.000000 0.482353 0.109804
1.000000 0.478431 0.145098
0.000000 0.627451 0.000000
0.000000 0.631373 0.000000
0.003922 0.623529 0.007843
0.003922 0.623529 0.000000
0.000000 0.627451 0.007843
0.000000 0.627451 0.000000
0.098039 0.631373 0.003922
0.203922 0.627451 0.000000
0.262745 0.623529 0.000000
0.325490 0.623529 0.003922
0.364706 0.603922 0.000000
0.419608 0.603922 0.000000
0.450980 0.592157 0.003922
0.494118 0.588235 0.000000
0.533333 0.568627 0.000000
0.580392 0.556863 0.023529
0.647059 0.572549 0.027451
0.725490 0.576471 0.007843
0.792157 0.572549 0.000000
0.854902 0.572549 0.000000
0.905882 0.564706 0.019608
0.952941 0.549020 0.074510
0.976471 0.537255 0.098039
0.996078 0.525490 0.145098
1.000000 0.521569 0.188235
0.007843 0.690196 0.000000
0.000000 0.698039 0.000000
0.000000 0.698039 0.000000
0.000000 0.694118 0.000000
0.007843 0.694118 0.000000
0.000000 0.701961 0.000000
0.000000 0.690196 0.011765
0.105882 0.698039 0.003922
0.223529 0.690196 0.000000
0.301961 0.686275 0.000000
0.360784 0.686275 0.000000
0.411765 0.670588 0.003922
0.470588 0.662745 0.000000
0.521569 0.662745 0.000000
0.572549 0.643137 0.000000
0.615686 0.643137 0.000000
0.639216 0.623529 0.000000
0.701961 0.623529 0.047059
0.784314 0.627451 0.039216
0.839216 0.611765 0.047059
0.886275 0.615686 0.078431
0.929412 0.603922 0.101961
0.960784 0.588235 0.125490
0.984314 0.580392 0.168627
0.996078 0.560784 0.200000
0.003922 0.780392 0.000000
0.000000 0.784314 0.000000
0.000000 0.784314 0.000000
0.003922 0.780392 0.000000
0.003922 0.780392 0.000000
0.003922 0.780392 0.000000
0.000000 0.780392 0.000000
0.000000 0.776471 0.000000
0.152941 0.772549 0.000000
0.266667 0.764706 0.015686
0.352941 0.768627 0.000000
0.415686 0.760784 0.000000
0.490196 0.745098 0.000000
0.549020 0.741176 0.003922
0.596078 0.729412 0.003922
0.658824 0.721569 0.000000
0.705882 0.709804 0.000000
0.741176 0.698039 0.039216
0.792157 0.686275 0.133333
0.847059 0.682353 0.156863
0.894118 0.666667 0.172549
0.933333 0.662745 0.196078
0.956863 0.654902 0.239216
0.972549 0.639216 0.274510
1.000000 0.631373 0.309804
0.000000 0.807843 0.000000
0.000000 0.807843 0.000000
0.000000 0.815686 0.007843
0.007843 0.803922 0.003922
0.003922 0.811765 0.000000
0.000000 0.811765 0.000000
0.000000 0.815686 0.007843
0.000000 0.823529 0.003922
0.039216 0.815686 0.003922
0.215686 0.800000 0.000000
0.317647 0.807843 0.000000
0.400000 0.800000 0.000000
0.466667 0.792157 0.000000
0.541176 0.784314 0.011765
0.596078 0.784314 0.007843
0.654902 0.772549 0.011765
0.717647 0.764706 0.003922
0.756863 0.756863 0.003922
0.792157 0.745098 0.117647
0.827451 0.729412 0.223529
0.870588 0.721569 0.239216
0.909804 0.713725 0.270588
0.933333 0.701961 0.294118
0.968627 0.690196 0.337255
0.976471 0.678431 0.372549
0.000000 0.843137 0.000000
0.000000 0.843137 0.000000
0.000000 0.850980 0.000000
0.003922 0.839216 0.000000
0.000000 0.847059 0.000000
0.003922 0.843137 0.011765
0.000000 0.843137 0.000000
0.003922 0.843137 0.011765
0.000000 0.843137 0.000000
0.156863 0.843137 0.000000
0.290196 0.835294 0.000000
0.372549 0.827451 0.000000
0.454902 0.823529 0.000000
0.513725 0.819608 0.000000
0.572549 0.815686 0.000000
0.639216 0.811765 0.000000
0.709804 0.800000 0.000000
0.756863 0.800000 0.011765
0.792157 0.792157 0.070588
0.831373 0.776471 0.196078
0.858824 0.760784 0.305882
0.890196 0.756863 0.333333
0.917647 0.745098 0.356863
0.933333 0.733333 0.376471
0.972549 0.729412 0.443137
0.007843 0.862745 0.000000
0.000000 0.874510 0.003922
0.000000 0.874510 0.007843
0.003922 0.866667 0.000000
0.000000 0.870588 0.003922
0.000000 0.866667 0.000000
0.007843 0.870588 0.000000
0.000000 0.862745 0.000000
0.003922 0.866667 0.000000
0.066667 0.866667 0.000000
0.247059 0.854902 0.007843
0.333333 0.858824 0.000000
0.423529 0.850980 0.003922
0.494118 0.843137 0.003922
0.568627 0.847059 0.000000
0.631373 0.839216 0.000000
0.678431 0.831373 0.000000
0.733333 0.819608 0.007843
0.788235 0.819608 0.098039
0.819608 0.819608 0.200000
0.839216 0.803922 0.266667
0.870588 0.788235 0.376471
0.894118 0.780392 0.411765
0.913725 0.772549 0.443137
0.949020 0.764706 0.490196
0.000000 0.886275 0.000000
0.011765 0.882353 0.000000
0.000000 0.890196 0.000000
0.000000 0.886275 0.007843
0.000000 0.890196 0.000000
0.000000 0.886275 0.000000
0.000000 0.886275 0.000000
0.000000 0.890196 0.000000
0.000000 0.886275 0.000000
0.003922 0.886275 0.000000
0.192157 0.874510 0.003922
0.305882 0.882353 0.000000
0.396078 0.874510 0.000000
0.462745 0.874510 0.000000
0.533333 0.862745 0.000000
0.600000 0.858824 0.000000
0.670588 0.854902 0.007843
0.725490 0.847059 0.000000
0.764706 0.843137 0.117647
0.800000 0.847059 0.219608
0.843137 0.831373 0.278431
0.866667 0.819608 0.341176
0.890196 0.811765 0.439216
0.894118 0.803922 0.505882
0.917647 0.803922 0.545098
0.003922 0.905882 0.000000
0.003922 0.913725 0.003922
0.000000 0.909804 0.000000
0.000000 0.909804 0.000000
0.003922 0.913725 0.003922
0.003922 0.913725 0.003922
0.000000 0.905882 0.000000
0.000000 0.909804 0.000000
0.000000 0.905882 0.003922
0.015686 0.909804 0.000000
0.141176 0.898039 0.000000
0.278431 0.905882 0.011765
0.380392 0.894118 0.007843
0.458824 0.894118 0.003922
0.517647 0.890196 0.000000
0.588235 0.890196 0.000000
0.654902 0.882353 0.003922
0.705882 0.870588 0.141176
0.752941 0.874510 0.235294
0.796078 0.866667 0.294118
0.835294 0.862745 0.352941
0.854902 0.854902 0.415686
0.870588 0.854902 0.466667
0.894118 0.843137 0.568627
0.901961 0.839216 0.635294
0.003922 0.921569 0.000000
0.000000 0.925490 0.000000
0.000000 0.933333 0.000000
0.000000 0.921569 0.007843
0.000000 0.921569 0.007843
0.011765 0.921569 0.000000
0.000000 0.921569 0.003922
0.003922 0.917647 0.007843
0.007843 0.917647 0.000000
0.000000 0.929412 0.000000
0.082353 0.921569 0.000000
0.243137 0.917647 0.007843
0.349020 0.913725 0.000000
0.427451 0.905882 0.000000
0.494118 0.909804 0.000000
0.576471 0.901961 0.000000
0.627451 0.901961 0.086275
0.682353 0.890196 0.184314
0.745098 0.890196 0.274510
0.788235 0.882353 0.341176
0.819608 0.882353 0.403922
0.847059 0.882353 0.462745
0.874510 0.874510 0.521569
0.890196 0.866667 0.568627
0.890196 0.862745 0.647059
0.000000 0.937255 0.000000
0.003922 0.941176 0.003922
0.015686 0.925490 0.000000
0.007843 0.937255 0.000000
0.000000 0.929412 0.000000
0.000000 0.937255 0.000000
0.000000 0.937255 0.000000
0.000000 0.929412 0.000000
0.015686 0.937255 0.000000
0.000000 0.925490 0.011765
0.000000 0.933333 0.000000
0.207843 0.929412 0.011765
0.313725 0.929412 0.000000
0.403922 0.925490 0.000000
0.486275 0.913725 0.000000
0.545098 0.925490 0.000000
0.615686 0.909804 0.168627
0.678431 0.909804 0.250980
0.721569 0.901961 0.313725
0.760784 0.898039 0.396078
0.800000 0.898039 0.435294
0.827451 0.886275 0.513725
0.862745 0.882353 0.552941
0.882353 0.886275 0.627451
0.890196 0.882353 0.643137
0.003922 0.941176 0.003922
0.011765 0.949020 0.000000
0.000000 0.949020 0.000000
0.000000 0.952941 0.000000
0.000000 0.949020 0.000000
0.000000 0.949020 0.003922
0.003922 0.941176 0.000000
0.003922 0.941176 0.000000
0.000000 0.945098 0.000000
0.000000 0.945098 0.015686
0.000000 0.945098 0.000000
0.176471 0.937255 0.007843
0.298039 0.937255 0.000000
0.380392 0.933333 0.003922
0.454902 0.937255 0.003922
0.525490 0.929412 0.094118
0.592157 0.925490 0.215686
0.650980 0.913725 0.298039
0.701961 0.917647 0.349020
0.749020 0.913725 0.419608
0.784314 0.905882 0.498039
0.811765 0.905882 0.537255
0.847059 0.905882 0.588235
0.866667 0.901961 0.654902
0.862745 0.898039 0.674510
0.011765 0.960784 0.011765
0.000000 0.956863 0.000000
0.000000 0.960784 0.000000
0.000000 0.952941 0.003922
0.000000 0.952941 0.003922
0.003922 0.956863 0.007843
0.003922 0.960784 0.000000
0.011765 0.952941 0.000000
0.000000 0.952941 0.000000
0.000000 0.952941 0.003922
0.000000 0.949020 0.000000
0.156863 0.952941 0.011765
0.258824 0.949020 0.000000
0.352941 0.949020 0.003922
0.439216 0.945098 0.000000
0.521569 0.945098 0.164706
0.576471 0.937255 0.274510
0.643137 0.933333 0.356863
0.698039 0.917647 0.427451
0.741176 0.925490 0.486275
0.780392 0.921569 0.568627
0.819608 0.913725 0.607843
0.843137 0.905882 0.650980
0.862745 0.913725 0.705882
0.874510 0.905882 0.721569
0.058824 0.086275 0.109804
0.058824 0.090196 0.101961
0.062745 0.082353 0.098039
0.074510 0.078431 0.098039
0.090196 0.082353 0.101961
0.117647 0.082353 0.101961
0.137255 0.078431 0.105882
0.164706 0.074510 0.105882
0.192157 0.070588 0.094118
0.231373 0.066667 0.105882
0.278431 0.070588 0.101961
0.337255 0.054902 0.098039
0.396078 0.035294 0.086275
0.454902 0.039216 0.086275
0.525490 0.027451 0.094118
0.588235 0.011765 0.082353
0.662745 0.000000 0.082353
0.737255 0.003922 0.047059
0.823529 0.000000 0.043137
0.882353 0.000000 0.031373
0.945098 0.000000 0.027451
0.992157 0.000000 0.007843
0.996078 0.000000 0.011765
0.996078 0.000000 0.007843
1.000000 0.003922 0.011765
0.062745 0.082353 0.105882
0.066667 0.078431 0.105882
0.058824 0.090196 0.101961
0.082353 0.078431 0.098039
0.094118 0.086275 0.105882
0.121569 0.078431 0.109804
0.149020 0.074510 0.098039
0.168627 0.082353 0.094118
0.184314 0.078431 0.098039
0.239216 0.070588 0.105882
0.278431 0.078431 0.098039
0.341176 0.062745 0.094118
0.396078 0.058824 0.101961
0.458824 0.062745 0.094118
0.521569 0.050980 0.086275
0.584314 0.054902 0.078431
0.670588 0.035294 0.086275
0.745098 0.007843 0.062745
0.811765 0.000000 0.047059
0.886275 0.000000 0.043137
0.945098 0.000000 0.027451
0.984314 0.000000 0.019608
0.996078 0.000000 0.011765
1.000000 0.000000 0.023529
0.992157 0.000000 0.007843
0.066667 0.086275 0.101961
0.054902 0.082353 0.105882
0.062745 0.094118 0.101961
0.082353 0.090196 0.086275
0.098039 0.090196 0.094118
0.113725 0.090196 0.105882
0.129412 0.086275 0.101961
0.160784 0.094118 0.117647
0.192157 0.086275 0.105882
0.227451 0.090196 0.105882
0.278431 0.086275 0.101961
0.329412 0.086275 0.105882
0.396078 0.074510 0.098039
0.462745 0.082353 0.109804
0.525490 0.082353 0.090196
0.584314 0.082353 0.086275
0.662745 0.074510 0.078431
0.733333 0.050980 0.054902
0.807843 0.007843 0.054902
0.886275 0.000000 0.043137
0.941176 0.000000 0.011765
0.980392 0.000000 0.015686
1.000000 0.003922 0.011765
0.996078 0.000000 0.000000
0.996078 0.003922 0.015686
0.047059 0.101961 0.101961
0.058824 0.090196 0.098039
0.066667 0.105882 0.101961
0.090196 0.094118 0.109804
0.090196 0.094118 0.109804
0.117647 0.101961 0.098039
0.137255 0.101961 0.113725
0.149020 0.101961 0.117647
0.188235 0.101961 0.109804
0.219608 0.094118 0.098039
0.278431 0.105882 0.109804
0.333333 0.105882 0.098039
0.384314 0.105882 0.090196
0.454902 0.105882 0.090196
0.513725 0.109804 0.074510
0.580392 0.113725 0.082353
0.647059 0.121569 0.078431
0.733333 0.105882 0.058824
0.811765 0.078431 0.043137
0.878431 0.043137 0.027451
0.925490 0.000000 0.015686
0.980392 0.000000 0.007843
0.996078 0.000000 0.000000
0.996078 0.000000 0.007843
1.000000 0.000000 0.015686
0.047059 0.109804 0.098039
0.054902 0.113725 0.094118
0.070588 0.109804 0.105882
0.078431 0.113725 0.094118
0.094118 0.113725 0.098039
0.105882 0.105882 0.105882
0.137255 0.105882 0.098039
0.152941 0.113725 0.109804
0.188235 0.117647 0.117647
0.223529 0.113725 0.101961
0.286275 0.125490 0.117647
0.321569 0.125490 0.098039
0.396078 0.125490 0.105882
0.447059 0.133333 0.090196
0.517647 0.141176 0.086275
0.584314 0.149020 0.074510
0.650980 0.156863 0.070588
0.725490 0.156863 0.043137
0.800000 0.141176 0.035294
0.854902 0.117647 0.019608
0.921569 0.090196 0.003922
0.964706 0.054902 0.000000
0.996078 0.027451 0.000000
0.996078 0.000000 0.000000
1.000000 0.003922 0.003922
0.047059 0.133333 0.086275
0.054902 0.133333 0.090196
0.066667 0.133333 0.094118
0.086275 0.137255 0.101961
0.090196 0.133333 0.101961
0.109804 0.129412 0.105882
0.129412 0.125490 0.105882
0.152941 0.133333 0.117647
0.192157 0.133333 0.105882
0.227451 0.137255 0.113725
0.290196 0.141176 0.105882
0.337255 0.149020 0.101961
0.400000 0.156863 0.098039
0.466667 0.172549 0.090196
0.521569 0.184314 0.086275
0.600000 0.192157 0.078431
0.678431 0.196078 0.062745
0.741176 0.196078 0.027451
0.827451 0.188235 0.027451
0.886275 0.172549 0.027451
0.937255 0.156863 0.000000
0.980392 0.141176 0.000000
1.000000 0.125490 0.003922
1.000000 0.109804 0.011765
1.000000 0.101961 0.011765
0.035294 0.160784 0.101961
0.054902 0.164706 0.105882
0.070588 0.152941 0.094118
0.082353 0.164706 0.090196
0.094118 0.156863 0.105882
0.109804 0.152941 0.086275
0.145098 0.149020 0.117647
0.149020 0.149020 0.109804
0.180392 0.152941 0.113725
0.231373 0.160784 0.113725
0.290196 0.164706 0.121569
0.341176 0.180392 0.109804
0.403922 0.192157 0.090196
0.454902 0.207843 0.086275
0.525490 0.215686 0.086275
0.600000 0.235294 0.074510
0.674510 0.239216 0.058824
0.749020 0.239216 0.043137
0.811765 0.239216 0.015686
0.878431 0.227451 0.000000
0.937255 0.211765 0.000000
0.976471 0.203922 0.000000
1.000000 0.188235 0.007843
0.992157 0.176471 0.000000
1.000000 0.168627 0.019608
0.031373 0.188235 0.094118
0.050980 0.188235 0.094118
0.070588 0.188235 0.094118
0.082353 0.192157 0.101961
0.113725 0.192157 0.094118
0.129412 0.188235 0.113725
0.164706 0.184314 0.105882
0.172549 0.176471 0.105882
0.184314 0.172549 0.098039
0.235294 0.184314 0.117647
0.286275 0.200000 0.117647
0.341176 0.207843 0.109804
0.396078 0.219608 0.090196
0.458824 0.239216 0.094118
0.521569 0.254902 0.070588
0.592157 0.266667 0.070588
0.670588 0.278431 0.035294
0.733333 0.282353 0.027451
0.803922 0.274510 0.007843
0.878431 0.274510 0.000000
0.937255 0.266667 0.000000
0.976471 0.258824 0.000000
1.000000 0.235294 0.007843
0.996078 0.235294 0.000000
1.000000 0.227451 0.011765
0.011765 0.231373 0.094118
0.027451 0.250980 0.090196
0.047059 0.235294 0.070588
0.090196 0.239216 0.086275
0.113725 0.239216 0.086275
0.141176 0.239216 0.086275
0.176471 0.231373 0.094118
0.200000 0.227451 0.094118
0.219608 0.223529 0.101961
0.243137 0.219608 0.117647
0.274510 0.215686 0.101961
0.333333 0.243137 0.109804
0.392157 0.258824 0.109804
0.454902 0.270588 0.098039
0.513725 0.290196 0.082353
0.580392 0.305882 0.074510
0.650980 0.321569 0.047059
0.725490 0.321569 0.011765
0.796078 0.321569 0.011765
0.866667 0.321569 0.003922
0.925490 0.309804 0.000000
0.968627 0.301961 0.007843
1.000000 0.294118 0.007843
1.000000 0.282353 0.007843
1.000000 0.274510 0.011765
0.000000 0.298039 0.070588
0.019608 0.298039 0.070588
0.039216 0.298039 0.058824
0.078431 0.298039 0.058824
0.125490 0.298039 0.050980
0.156863 0.294118 0.066667
0.200000 0.298039 0.082353
0.219608 0.286275 0.074510
0.247059 0.278431 0.078431
0.274510 0.278431 0.105882
0.290196 0.254902 0.094118
0.333333 0.274510 0.113725
0.384314 0.294118 0.098039
0.435294 0.313725 0.098039
0.494118 0.333333 0.082353
0.576471 0.349020 0.062745
0.650980 0.352941 0.047059
0.721569 0.360784 0.019608
0.792157 0.356863 0.003922
0.862745 0.360784 0.003922
0.905882 0.360784 0.000000
0.952941 0.349020 0.000000
0.992157 0.333333 0.000000
1.000000 0.329412 0.007843
0.996078 0.317647 0.015686
0.007843 0.388235 0.007843
0.000000 0.392157 0.000000
0.011765 0.388235 0.000000
0.070588 0.392157 0.000000
0.129412 0.388235 0.003922
0.176471 0.396078 0.007843
0.223529 0.384314 0.007843
0.262745 0.376471 0.011765
0.290196 0.368627 0.027451
